<?xml version="1.0" encoding="UTF-8"?>
<map version="1.10" tiledversion="1.11.2" orientation="orthogonal" renderorder="right-down" width="52" height="30" tilewidth="32" tileheight="32" infinite="0" nextlayerid="5" nextobjectid="1">
 <tileset firstgid="1" name="Pro all tiles" tilewidth="32" tileheight="32" tilecount="1024" columns="32">
  <image source="Tiles/Pro all tiles.png" width="1024" height="1024"/>
 </tileset>
 <tileset firstgid="1025" name="tile group" tilewidth="32" tileheight="32" tilecount="21000" columns="140">
  <image source="Tiles/tile group.png" width="4480" height="4800"/>
 </tileset>
 <tileset firstgid="22025" name="new tilesert2" tilewidth="32" tileheight="32" tilecount="936" columns="4">
  <image source="Tiles/new tilesert.png" width="128" height="7488"/>
 </tileset>
 <layer id="1" name="Layer 1" width="52" height="30">
  <data encoding="csv">
8031,8031,8031,8031,8031,8031,8031,8031,8031,8031,8031,8031,8031,8031,8031,8031,8031,8031,8031,8031,8031,8031,8031,8031,8031,8031,8031,8031,8031,8031,8031,8031,8031,8031,8031,8031,8031,8031,8031,8031,8031,8031,8031,8031,8031,8031,8031,8031,8031,8031,8031,8031,
8031,8031,8031,8031,8031,8031,8031,8031,8031,8031,8031,8031,8031,8031,8031,8031,8031,8031,8031,8031,8031,8031,8031,8031,8031,8031,8031,8031,8031,8031,8031,8031,8031,8031,8031,8031,8031,8031,8031,8031,8031,8031,8031,8031,8031,8031,8031,8031,8031,8031,8031,8031,
8031,8031,8031,8031,8031,8031,8031,8031,8031,8031,8031,8031,8031,8031,8031,8031,8031,8031,8031,8031,8031,8031,8031,8031,8031,8031,8031,8031,8031,8031,8031,8031,8031,8031,8031,8031,8031,8031,8031,8031,8031,8031,8031,8031,8031,8031,8031,8031,8031,8031,8031,8031,
8031,8031,8031,8031,8031,8031,8031,8031,8031,8031,8031,8031,8031,8031,8031,8031,8031,8031,8031,8031,8031,8031,8031,8031,8031,8031,8031,8031,8031,8031,8031,8031,8031,8031,8031,8031,8031,8031,8031,8031,8031,8031,8031,8031,8031,8031,8031,8031,8031,8031,8031,8031,
8031,8031,8031,8031,8031,8031,8031,8031,8031,8031,8031,8031,8031,8031,8031,8031,8031,8031,8031,8031,8031,8031,8031,8031,8031,8031,8031,8031,8031,8031,8031,8031,8031,8031,8031,8031,8031,8031,8031,8031,8031,8031,8031,8031,8031,8031,8031,8031,8031,8031,8031,8031,
8031,8031,8031,8031,8031,8031,8031,8031,8031,8031,8031,8031,8031,8031,8031,8031,8031,8031,8031,8031,8031,8031,8031,8031,8031,8031,8031,8031,8031,8031,8031,8031,8031,8031,8031,8031,8031,8031,8031,8031,8031,8031,8031,8031,8031,8031,8031,8031,8031,8031,8031,8031,
8031,8031,8031,8031,8031,8031,8031,8031,8031,8031,8031,8031,8031,8031,8031,8031,8031,8031,8031,8031,8031,8031,8031,8031,8031,8031,8031,8031,8031,8031,8031,8031,8031,8031,8031,8031,8031,8031,8031,8031,8031,8031,8031,8031,8031,8031,8031,8031,8031,8031,8031,8031,
8031,8031,8031,8031,8031,8031,8031,8031,8031,8031,8031,8031,8031,8031,8031,8031,8031,8031,8031,8031,8031,8031,8031,8031,8031,8031,8031,8031,8031,8031,8031,8031,8031,8031,8031,8031,8031,8031,8031,8031,8031,8031,8031,8031,8031,8031,8031,8031,8031,8031,8031,8031,
8031,8031,8031,8031,8031,8031,8031,8031,8031,8031,8031,8031,8031,8031,8031,8031,8031,8031,8031,8031,8031,8031,8031,8031,8031,8031,8031,8031,8031,8031,8031,8031,8031,8031,8031,8031,8031,8031,8031,8031,8031,8031,8031,8031,8031,8031,8031,8031,8031,8031,8031,8031,
8031,8031,8031,8031,8031,8031,8031,8031,8031,8031,8031,8031,8031,8031,8031,8031,8031,8031,8031,8031,8031,8031,8031,8031,8031,8031,8031,8031,8031,8031,8031,8031,8031,8031,8031,8031,8031,8031,8031,8031,8031,8031,8031,8031,8031,8031,8031,8031,8031,8031,8031,8031,
8031,8031,8031,8031,8031,8031,8031,8031,8031,8031,8031,8031,8031,8031,8031,8031,8031,8031,8031,8031,8031,8031,8031,8031,8031,8031,8031,8031,8031,8031,8031,8031,8031,8031,8031,8031,8031,8031,8031,8031,8031,8031,8031,8031,8031,8031,8031,8031,8031,8031,8031,8031,
8031,8031,8031,8031,8031,8031,8031,8031,8031,8031,8031,8031,8031,8031,8031,8031,8031,8031,8031,8031,8031,8031,8031,8031,8031,8031,8031,8031,8031,8031,8031,8031,8031,8031,8031,8031,8031,8031,8031,8031,8031,8031,8031,8031,8031,8031,8031,8031,8031,8031,8031,8031,
8031,8031,8031,8031,8031,8031,8031,8031,8031,8031,8031,8031,8031,8031,8031,8031,8031,8031,8031,8031,8031,8031,8031,8031,8031,8031,8031,8031,8031,8031,8031,8031,8031,8031,8031,8031,8031,8031,8031,8031,8031,8031,8031,8031,8031,8031,8031,8031,8031,8031,8031,8031,
8031,8031,8031,8031,8031,8031,8031,8031,8031,8031,8031,8031,8031,8031,8031,8031,8031,8031,8031,8031,8031,8031,8031,8031,8031,8031,8031,8031,8031,8031,8031,8031,8031,8031,8031,8031,8031,8031,8031,8031,8031,8031,8031,8031,8031,8031,8031,8031,8031,8031,8031,8031,
8031,8031,8031,8031,8031,8031,8031,8031,8031,8031,8031,8031,8031,8031,8031,8031,8031,8031,8031,8031,8031,8031,8031,8031,8031,8031,8031,8031,8031,8031,8031,8031,8031,8031,8031,8031,8031,8031,8031,8031,8031,8031,8031,8031,8031,8031,8031,8031,8031,8031,8031,8031,
8031,8031,8031,8031,8031,8031,8031,8031,8031,8031,8031,8031,8031,8031,8031,8031,8031,8031,8031,8031,8031,8031,8031,8031,8031,8031,8031,8031,8031,8031,8031,8031,8031,8031,8031,8031,8031,8031,8031,8031,8031,8031,8031,8031,8031,8031,8031,8031,8031,8031,8031,8031,
8031,8031,8031,8031,8031,8031,8031,8031,8031,8031,8031,8031,8031,8031,8031,8031,8031,8031,8031,8031,8031,8031,8031,8031,8031,8031,8031,8031,8031,8031,8031,8031,8031,8031,8031,8031,8031,8031,8031,8031,8031,8031,8031,8031,8031,8031,8031,8031,8031,8031,8031,8031,
8031,8031,8031,8031,8031,8031,8031,8031,8031,8031,8031,8031,8031,8031,8031,8031,8031,8031,8031,8031,8031,8031,8031,8031,8031,8031,8031,8031,8031,8031,8031,8031,8031,8031,8031,8031,8031,8031,8031,8031,8031,8031,8031,8031,8031,8031,8031,8031,8031,8031,8031,8031,
8031,8031,8031,8031,8031,8031,8031,8031,8031,8031,8031,8031,8031,8031,8031,8031,8031,8031,8031,8031,8031,8031,8031,8031,8031,8031,8031,8031,8031,8031,8031,8031,8031,8031,8031,8031,8031,8031,8031,8031,8031,8031,8031,8031,8031,8031,8031,8031,8031,8031,8031,8031,
8031,8031,8031,8031,8031,8031,8031,8031,8031,8031,8031,8031,8031,8031,8031,8031,8031,8031,8031,8031,8031,8031,8031,8031,8031,8031,8031,8031,8031,8031,8031,8031,8031,8031,8031,8031,8031,8031,8031,8031,8031,8031,8031,8031,8031,8031,8031,8031,8031,8031,8031,8031,
8031,8031,8031,8031,8031,8031,8031,8031,8031,8031,8031,8031,8031,8031,8031,8031,8031,8031,8031,8031,8031,8031,8031,8031,8031,8031,8031,8031,8031,8031,8031,8031,8031,8031,8031,8031,8031,8031,8031,8031,8031,8031,8031,8031,8031,8031,8031,8031,8031,8031,8031,8031,
8031,8031,8031,8031,8031,8031,8031,8031,8031,8031,8031,8031,8031,8031,8031,8031,8031,8031,8031,8031,8031,8031,8031,8031,8031,8031,8031,8031,8031,8031,8031,8031,8031,8031,8031,8031,8031,8031,8031,8031,8031,8031,8031,8031,8031,8031,8031,8031,8031,8031,8031,8031,
8031,8031,8031,8031,8031,8031,8031,8031,8031,8031,8031,8031,8031,8031,8031,8031,8031,8031,8031,8031,8031,8031,8031,8031,8031,8031,8031,8031,8031,8031,8031,8031,8031,8031,8031,8031,8031,8031,8031,8031,8031,8031,8031,8031,8031,8031,8031,8031,8031,8031,8031,8031,
8031,8031,8031,8031,8031,8031,8031,8031,8031,8031,8031,8031,8031,8031,8031,8031,8031,8031,8031,8031,8031,8031,8031,8031,8031,8031,8031,8031,8031,8031,8031,8031,8031,8031,8031,8031,8031,8031,8031,8031,8031,8031,8031,8031,8031,8031,8031,8031,8031,8031,8031,8031,
8031,8031,8031,8031,8031,8031,8031,8031,8031,8031,8031,8031,8031,8031,8031,8031,8031,8031,8031,8031,8031,8031,8031,8031,8031,8031,8031,8031,8031,8031,8031,8031,8031,8031,8031,8031,8031,8031,8031,8031,8031,8031,8031,8031,8031,8031,8031,8031,8031,8031,8031,8031,
8031,8031,8031,8031,8031,8031,8031,8031,8031,8031,8031,8031,8031,8031,8031,8031,8031,8031,8031,8031,8031,8031,8031,8031,8031,8031,8031,8031,8031,8031,8031,8031,8031,8031,8031,8031,8031,8031,8031,8031,8031,8031,8031,8031,8031,8031,8031,8031,8031,8031,8031,8031,
8031,8031,8031,8031,8031,8031,8031,8031,8031,8031,8031,8031,8031,8031,8031,8031,8031,8031,8031,8031,8031,8031,8031,8031,8031,8031,8031,8031,8031,8031,8031,8031,8031,8031,8031,8031,8031,8031,8031,8031,8031,8031,8031,8031,8031,8031,8031,8031,8031,8031,8031,8031,
8031,8031,8031,8031,8031,8031,8031,8031,8031,8031,8031,8031,8031,8031,8031,8031,8031,8031,8031,8031,8031,8031,8031,8031,8031,8031,8031,8031,8031,8031,8031,8031,8031,8031,8031,8031,8031,8031,8031,8031,8031,8031,8031,8031,8031,8031,8031,8031,8031,8031,8031,8031,
8031,8031,8031,8031,8031,8031,8031,8031,8031,8031,8031,8031,8031,8031,8031,8031,8031,8031,8031,8031,8031,8031,8031,8031,8031,8031,8031,8031,8031,8031,8031,8031,8031,8031,8031,8031,8031,8031,8031,8031,8031,8031,8031,8031,8031,8031,8031,8031,8031,8031,8031,8031,
8031,8031,8031,8031,8031,8031,8031,8031,8031,8031,8031,8031,8031,8031,8031,8031,8031,8031,8031,8031,8031,8031,8031,8031,8031,8031,8031,8031,8031,8031,8031,8031,8031,8031,8031,8031,8031,8031,8031,8031,8031,8031,8031,8031,8031,8031,8031,8031,8031,8031,8031,8031
</data>
 </layer>
 <layer id="2" name="Layer 2" width="52" height="30">
  <data encoding="csv">
0,7893,7893,7893,7893,7893,0,0,0,0,0,0,0,0,0,0,0,0,0,0,0,0,0,0,0,0,0,0,0,0,0,0,0,0,0,0,0,0,0,0,0,0,0,0,0,0,0,0,0,0,0,0,
0,7748,7749,7050,7749,7749,7750,0,0,0,0,0,0,0,0,0,0,0,0,0,0,0,0,0,0,7748,7749,7749,7749,7750,0,0,0,0,0,0,0,0,0,0,0,0,0,0,0,0,0,0,0,0,0,0,
0,7888,0,0,0,0,7892,7750,0,0,0,0,0,0,0,0,0,0,0,7748,7749,7749,7749,7749,7749,7894,0,0,0,7890,7889,7889,7889,7889,0,0,0,0,0,0,0,0,0,0,0,0,0,0,0,0,0,0,
0,7888,0,0,0,0,0,7892,7750,0,0,0,0,0,0,0,0,7748,7749,7894,0,0,0,0,0,0,0,7891,0,7892,7749,7749,7750,7889,0,0,0,0,0,0,0,0,0,0,0,0,0,0,0,0,0,0,
0,7888,0,0,0,0,0,0,7892,7749,7750,0,0,0,0,0,7748,7894,0,0,0,0,0,0,0,0,0,0,0,0,0,0,7892,7749,7750,7889,0,0,0,0,0,0,0,0,0,0,0,0,0,0,0,0,
0,8028,7754,0,0,0,0,0,0,0,7892,7750,0,0,0,7748,7894,0,0,0,0,0,0,0,0,0,0,0,0,0,0,0,0,0,7892,7750,0,0,0,0,0,0,0,0,0,0,0,0,0,0,0,0,
0,0,7888,0,0,0,0,0,0,0,0,7892,7750,0,7748,7894,0,0,0,0,0,7889,7752,476,477,478,7754,0,0,0,0,0,0,0,0,7892,7750,0,0,0,0,0,0,0,0,0,0,0,0,0,0,0,
0,0,8028,8029,7754,0,0,0,0,0,0,0,7892,7749,7894,0,0,0,0,0,0,7752,8030,0,0,0,8028,8029,8029,7754,0,0,0,0,0,0,7892,7750,0,0,0,0,0,0,0,0,0,0,0,0,0,0,
0,0,0,0,8028,7754,0,0,0,0,0,0,0,0,0,0,0,0,0,0,0,7890,7889,7889,0,0,0,0,0,8028,8029,7754,0,0,0,0,0,7892,7750,0,0,0,0,0,0,0,0,0,7890,0,0,0,
0,0,0,0,0,8028,7754,0,0,0,0,0,0,0,0,0,0,0,0,7752,8029,8030,7752,7753,7754,0,0,0,0,7752,7754,8028,8029,7754,0,0,0,0,7890,0,0,0,0,0,0,0,0,0,7890,0,0,0,
0,0,0,0,0,0,8028,8029,7754,0,0,0,0,0,0,0,0,0,7752,8030,7752,8029,8030,7748,7894,0,0,0,0,7890,8028,8029,7754,8028,7754,697,698,699,7892,7750,0,0,0,0,0,0,0,0,7890,0,0,0,
0,0,0,0,0,0,0,0,8028,7754,0,0,0,0,0,0,0,7752,8030,7752,8030,0,7748,7894,0,0,0,0,0,7890,0,7888,7888,7748,7894,0,0,0,0,7890,0,0,0,0,0,0,0,0,7892,7750,0,0,
0,0,0,0,0,0,0,0,0,7888,0,0,0,0,0,0,0,7890,0,7890,0,0,7888,0,0,0,0,0,7752,8030,8030,7888,7888,7888,0,7891,0,0,0,7890,0,0,0,0,0,0,0,0,0,7890,0,0,
0,0,0,0,0,0,0,0,0,8028,7754,0,0,0,0,0,0,7890,0,7890,0,0,7888,0,0,0,0,0,7890,7890,7893,7894,7888,7888,7889,0,0,0,7752,8030,0,0,0,0,0,0,0,0,0,7892,7750,0,
0,0,0,0,0,0,0,0,0,0,7888,0,0,0,0,0,0,7890,0,7890,0,0,7888,0,0,0,0,0,7890,7890,0,7748,7894,7888,7889,0,7889,7889,7892,7750,0,7888,0,0,0,0,0,0,0,0,7890,0,
0,0,0,0,0,0,0,0,0,0,8028,7754,0,0,0,0,0,7890,0,7892,7750,7752,8028,7754,0,0,0,7752,8030,0,0,7888,7748,7894,7889,7889,7889,7889,7889,7890,0,7888,0,0,0,0,0,0,0,0,7890,0,
0,0,0,0,0,0,0,0,0,0,0,8028,8029,7754,0,0,0,7892,7750,7891,7890,7890,8028,7753,8029,8029,8029,8030,0,7748,7749,7894,7888,7889,7889,0,0,0,7752,8030,0,7888,0,0,0,0,0,0,0,7752,8030,0,
0,0,0,0,0,0,0,0,0,0,0,0,0,7888,0,0,0,0,7890,0,7890,7892,7749,7749,7750,0,0,7888,7748,7894,7748,7749,7894,697,698,698,698,699,7890,0,0,7888,0,0,0,0,0,0,0,7890,0,0,
0,0,0,0,0,0,0,0,0,0,0,0,0,7888,0,0,0,0,7890,0,7892,7749,7749,7750,7892,7750,7748,7894,7888,7748,7894,0,0,0,0,0,0,0,7890,0,0,0,0,0,0,0,0,0,0,7890,0,0,
0,0,0,0,0,0,0,0,0,0,0,0,0,8028,7754,0,0,0,7892,7750,0,0,0,7892,7750,7892,7894,7748,7894,7888,0,0,0,0,0,0,0,7752,8030,0,0,0,0,0,0,0,0,0,7752,8030,0,0,
0,0,0,0,0,0,0,0,0,0,0,0,0,0,7888,0,0,0,0,7892,7893,7893,7750,7891,7892,7749,7750,7888,7891,7888,0,0,0,0,0,0,0,7890,0,0,0,0,0,0,0,0,0,0,7890,0,0,0,
0,0,0,0,0,0,0,0,0,0,0,0,0,0,7888,0,0,0,0,0,0,0,7892,7749,7749,7750,7892,7894,7748,7894,7889,7190,0,0,7752,8029,8029,8030,0,0,0,0,0,0,0,0,0,7752,8030,0,0,0,
0,0,0,0,0,0,0,0,0,0,0,0,0,0,8028,7754,0,0,0,0,0,0,0,0,0,7892,7893,7893,7894,0,7889,7889,0,0,7890,0,0,0,0,0,0,0,0,0,0,0,0,7890,0,0,0,0,
0,0,0,0,0,0,0,0,0,0,0,0,0,0,0,8028,8029,7754,0,0,0,0,0,0,0,0,0,0,0,0,0,7889,7752,8029,8030,0,0,0,0,0,0,0,0,0,0,0,7752,8030,0,0,0,0,
0,0,0,0,0,0,0,0,0,0,0,0,0,0,0,0,0,8028,8029,8029,8029,7754,0,0,0,0,0,0,0,0,0,7889,7890,0,0,0,0,8028,7754,0,0,0,0,0,0,0,7890,0,0,0,0,0,
0,0,0,0,0,0,0,0,0,0,0,0,0,0,0,0,0,0,0,0,0,8028,7754,0,0,0,0,0,0,0,0,0,7890,0,0,0,0,0,0,0,0,0,0,0,0,7752,8030,0,0,0,0,0,
0,0,0,0,0,0,0,0,0,0,0,0,0,0,0,0,0,0,0,0,0,0,7888,0,0,0,0,0,7752,7753,7754,7752,8030,0,0,0,0,0,0,0,0,7754,0,0,0,7890,0,0,0,0,0,0,
0,0,0,0,0,0,0,0,0,0,0,0,0,0,0,0,0,0,0,0,0,0,8028,7753,7753,8032,8033,8034,8030,7889,8028,8030,0,0,0,0,0,0,0,0,0,7888,0,0,0,7890,0,0,0,0,0,0,
0,0,0,0,0,0,0,0,0,0,0,0,0,0,0,0,0,0,0,0,0,0,0,0,0,0,0,0,0,0,0,0,0,0,0,0,0,0,0,0,0,8028,8029,8029,8029,8030,0,0,0,0,0,0,
0,0,0,0,0,0,0,0,0,0,0,0,0,0,0,0,0,0,0,0,0,0,0,0,0,0,0,0,0,0,0,0,0,0,0,0,0,0,0,0,0,0,0,0,0,0,0,0,0,0,0,0
</data>
 </layer>
 <layer id="3" name="Layer 3" width="52" height="30">
  <data encoding="csv">
7748,0,6351,6352,6353,0,7749,7750,0,0,0,0,0,0,0,0,0,0,0,0,0,0,0,0,7748,7749,7749,7749,7749,7749,7750,0,0,0,0,0,0,0,0,0,0,0,0,0,0,0,0,0,0,0,0,0,
7888,0,6491,6492,6493,0,0,7892,7750,0,0,0,0,0,0,0,0,0,7748,7749,7749,7749,7749,7749,7894,0,0,0,0,0,7890,0,0,0,0,0,0,0,0,0,0,0,0,0,0,0,0,0,0,0,0,0,
7888,0,0,0,0,0,0,0,7892,7750,0,0,0,0,0,0,7748,7893,7894,0,0,0,0,0,0,0,0,0,0,0,7892,7749,7749,7750,0,0,0,0,0,0,0,0,0,0,0,0,0,0,0,0,0,0,
7888,0,0,0,0,0,0,0,0,7892,7893,7750,0,0,0,7748,7894,0,0,0,0,0,0,0,0,0,0,0,0,2724,0,0,0,7892,7749,7750,0,0,0,0,0,0,0,0,0,0,0,0,0,0,0,0,
7888,0,0,0,0,0,0,0,0,0,0,7892,7750,0,7748,7894,0,0,0,0,0,0,0,0,0,0,0,0,0,2864,0,0,0,0,0,7892,7750,0,0,0,0,0,0,0,0,0,0,0,0,0,0,0,
7888,0,0,0,0,0,0,0,0,0,0,0,7892,7893,7894,0,0,0,0,0,0,0,0,0,0,0,0,0,0,0,0,0,0,0,0,0,7892,7750,0,0,0,0,0,7748,7749,7749,7749,7749,7750,0,0,0,
8028,7754,0,0,0,0,0,0,0,0,0,0,0,0,0,0,0,0,0,0,0,0,0,0,0,0,0,0,0,0,0,0,0,0,0,0,0,7892,7750,0,0,0,7748,7894,7748,7749,7749,7750,7892,7750,0,0,
0,7888,0,0,0,0,0,0,0,0,0,0,0,0,0,0,0,0,0,0,0,0,0,0,0,0,0,0,0,0,0,0,0,0,0,0,0,0,7892,7750,0,0,7888,7748,7894,7050,7050,7892,7750,7890,0,0,
0,8028,8029,7754,0,0,0,0,0,0,0,0,22789,22790,22791,22790,22791,0,0,0,0,0,0,0,0,0,0,0,0,0,0,0,0,0,0,0,0,0,0,7890,0,7748,7894,7888,20,21,21,22,0,7890,0,0,
0,0,0,8028,7754,0,0,0,0,0,0,0,22793,22794,22795,22794,22795,0,0,0,0,0,0,0,0,0,0,0,0,0,0,0,0,0,0,0,0,0,0,7892,7750,7888,7748,7894,52,53,53,54,0,7890,0,0,
0,0,0,0,8028,7754,0,0,0,0,0,0,22797,22798,22799,22798,22799,0,0,0,0,0,0,0,0,0,0,0,0,0,7752,7754,0,0,0,0,0,0,0,0,7892,7894,7888,20,151,53,53,54,0,7892,7750,0,
0,0,0,0,0,8028,8029,7754,0,0,0,0,0,0,0,0,0,0,0,0,0,0,0,0,0,0,0,0,0,0,7890,0,0,0,0,0,0,0,0,637,8754,7748,7894,52,53,53,53,54,0,0,7890,0,
0,0,0,0,0,0,0,8028,7754,0,0,0,0,0,0,0,0,0,0,0,0,0,636,0,0,0,0,0,0,7752,0,0,0,0,0,0,0,0,0,701,8754,7888,0,84,183,53,53,54,0,0,7892,7750,
0,0,0,0,0,0,0,0,7888,0,0,0,0,0,0,0,0,0,0,0,0,0,668,0,0,0,0,0,0,0,7748,0,0,0,0,0,0,0,0,0,8754,7888,0,0,52,53,53,152,22,0,0,7890,
0,0,0,0,0,0,0,0,8028,7754,0,0,0,0,0,0,0,0,0,0,0,0,700,0,0,0,0,0,0,0,7888,0,0,0,0,0,0,0,0,0,8754,636,0,0,52,53,53,53,54,0,0,7890,
0,0,0,0,0,0,0,0,0,7888,0,0,0,0,0,0,0,0,0,0,0,0,7754,0,0,0,0,0,0,7892,7894,0,0,0,0,0,0,0,0,0,8754,668,0,0,52,53,53,53,54,0,0,7890,
0,0,0,0,0,0,0,0,0,8028,7754,0,0,0,0,0,0,0,0,0,0,0,0,0,0,0,0,7754,0,0,0,0,0,0,0,0,0,0,0,0,8754,700,0,0,52,53,53,53,54,0,7752,8030,
0,0,0,0,0,0,0,0,0,0,8028,8029,7754,0,0,0,0,0,0,0,0,0,0,0,0,0,0,0,0,0,0,0,0,0,0,0,0,0,0,7752,7754,732,0,0,84,183,53,53,54,0,7890,0,
0,0,0,0,0,0,0,0,0,0,0,0,7888,0,0,0,0,0,0,0,0,0,0,0,0,0,0,0,0,0,0,0,0,0,0,0,0,0,0,7890,7888,7888,0,0,20,151,53,184,86,0,7890,0,
0,0,0,0,0,0,0,0,0,0,0,0,7888,0,0,0,0,0,0,0,0,0,0,0,0,0,0,0,0,0,0,0,0,0,0,0,0,0,0,7890,7888,7888,0,20,151,53,53,54,0,7752,8030,0,
0,0,0,0,0,0,0,0,0,0,0,0,8028,7754,0,0,0,0,0,0,0,0,0,0,0,0,0,0,0,0,0,0,0,0,0,0,0,0,7752,8030,7888,7888,20,151,53,53,184,86,0,7890,0,0,
0,0,0,0,0,0,0,0,0,0,0,0,0,7888,0,0,0,0,0,0,0,0,0,0,0,0,0,0,0,0,0,0,0,0,0,0,0,0,7890,7748,7894,7888,52,53,53,184,86,0,7752,8030,0,0,
0,0,0,0,0,0,0,0,0,0,0,0,0,7888,0,0,0,0,0,0,0,0,0,0,0,0,0,0,0,0,0,0,0,0,0,7752,8029,8029,8030,7888,7748,7894,52,53,184,86,0,0,7890,0,0,0,
0,0,0,0,0,0,0,0,0,0,0,0,0,8028,7754,0,0,0,0,0,0,0,0,0,0,0,0,0,0,0,0,0,0,0,0,7890,0,7748,7749,7894,7888,20,151,53,54,0,0,7752,8030,0,0,0,
0,0,0,0,0,0,0,0,0,0,0,0,0,0,8028,8029,7754,0,0,0,0,0,0,0,0,0,0,0,0,0,0,0,0,7752,8029,8030,0,0,0,7748,7894,52,53,184,86,0,0,7890,0,0,0,0,
0,0,0,0,0,0,0,0,0,0,0,0,0,0,0,0,8028,8029,8029,8029,7754,0,0,0,0,0,0,0,0,0,0,0,0,7890,0,0,0,0,8028,7754,7754,84,85,86,0,0,7752,8030,0,0,0,0,
0,0,0,0,0,0,0,0,0,0,0,0,0,0,0,0,0,0,0,0,8028,7754,0,0,0,0,0,0,0,0,0,0,0,7890,0,0,0,0,0,8028,7754,0,0,0,0,0,7890,0,0,0,0,0,
0,0,0,0,0,0,0,0,0,0,0,0,0,0,0,0,0,0,0,0,0,7888,0,0,0,0,0,0,0,0,0,0,7752,8030,0,0,0,0,0,0,7888,0,0,0,0,0,7890,0,0,0,0,0,
0,0,0,0,0,0,0,0,0,0,0,0,0,0,0,0,0,0,0,0,0,8028,7754,0,0,0,0,0,0,0,0,7752,8030,0,0,0,0,0,0,0,7888,0,0,0,0,0,7890,0,0,0,0,0,
0,0,0,0,0,0,0,0,0,0,0,0,0,0,0,0,0,0,0,0,0,0,8028,8029,8029,8029,8029,8029,8029,8029,8029,8030,0,0,0,0,0,0,0,0,8028,8029,8029,8029,8029,8029,8030,0,0,0,0,0
</data>
 </layer>
 <layer id="4" name="Layer 4" width="52" height="30">
  <data encoding="csv">
0,0,0,0,0,0,0,0,0,0,0,0,0,0,0,0,0,0,0,0,0,0,0,0,0,0,0,0,0,0,0,0,0,0,0,0,0,0,0,0,0,0,0,0,0,0,0,0,0,0,0,0,
0,0,0,0,0,0,0,0,0,0,0,0,0,0,0,0,0,0,0,0,0,0,0,0,0,0,0,0,0,0,0,0,0,0,0,0,0,0,0,0,0,0,0,0,0,0,0,0,0,0,0,0,
0,0,0,0,0,0,0,0,0,0,0,0,0,0,0,0,0,0,0,0,0,0,22511,22512,0,0,0,0,0,0,0,0,0,0,0,0,0,0,0,0,0,0,0,0,0,0,0,0,0,0,0,0,
0,0,0,0,0,0,0,0,0,0,0,0,0,0,0,0,0,0,22216,0,0,0,0,0,0,0,0,0,0,0,0,0,0,0,0,0,0,0,0,0,0,0,0,0,0,0,0,0,0,0,0,0,
0,0,0,0,0,0,0,0,0,0,0,0,0,0,0,0,0,0,22220,0,0,0,0,0,0,0,0,0,0,0,0,0,0,0,0,0,0,0,0,0,0,0,0,0,0,0,0,0,0,0,0,0,
0,0,0,0,0,0,0,0,6793,6794,0,0,0,0,0,0,0,0,0,0,0,0,0,0,0,0,0,0,0,0,0,0,0,0,0,0,0,0,0,0,0,0,0,0,0,0,0,0,0,0,0,0,
0,0,0,0,0,0,0,0,6933,6934,22511,22512,0,6961,0,0,0,0,0,0,0,0,0,0,0,0,0,0,0,0,0,0,0,0,6793,6794,0,0,0,0,0,0,0,0,0,0,0,0,0,0,0,0,
0,0,0,0,0,0,0,0,0,0,0,0,0,0,0,0,0,0,0,0,0,0,0,0,0,0,0,0,0,0,0,0,0,0,6933,6934,0,0,0,0,0,0,0,0,0,0,0,0,0,0,0,0,
0,0,0,0,0,0,0,0,0,0,0,0,0,22808,0,0,0,0,0,0,0,0,0,0,0,0,0,0,0,0,0,0,0,0,0,0,0,0,0,0,0,0,0,0,0,0,0,0,0,0,0,0,
0,0,0,0,0,0,0,0,0,0,0,0,0,22812,0,0,0,0,0,0,0,0,0,0,0,0,0,0,0,0,0,0,0,0,0,0,0,0,0,0,0,0,0,0,0,0,0,0,0,0,0,0,
0,0,0,0,0,0,0,0,0,0,0,0,0,0,0,0,0,0,0,0,0,0,0,0,0,0,0,0,0,0,0,0,0,0,0,0,0,0,0,0,0,0,0,0,0,6507,6508,0,0,0,0,0,
0,0,0,0,0,0,0,0,0,0,0,0,0,0,0,0,0,0,0,0,0,0,0,0,0,0,0,0,0,0,0,0,0,0,0,0,0,0,0,0,0,0,0,0,0,6647,6648,0,0,0,0,0,
0,0,0,0,0,0,0,0,0,0,0,0,0,0,0,0,0,0,0,0,3829,0,0,0,0,0,0,0,0,0,0,0,0,0,3829,0,0,0,0,2724,0,0,0,0,0,0,0,0,0,0,0,0,
0,0,0,0,0,0,0,0,0,0,0,0,0,0,0,0,0,0,0,0,0,0,0,0,0,0,0,0,0,0,0,0,0,0,0,0,0,0,0,2864,0,0,0,0,0,0,0,0,0,2724,0,0,
0,0,0,0,0,0,0,0,0,0,0,0,0,0,0,0,0,0,0,0,0,0,0,0,0,0,0,0,0,0,0,0,0,0,0,0,0,0,0,0,0,0,0,0,0,0,0,0,0,2864,0,0,
0,0,0,0,0,0,0,0,0,0,0,0,0,0,0,0,0,0,0,0,0,0,0,0,0,0,0,0,0,0,0,0,0,0,0,0,0,0,0,0,0,0,0,0,0,0,0,0,0,0,0,0,
0,0,0,0,0,0,0,0,0,0,0,0,0,0,0,0,6793,6794,0,0,0,0,0,0,0,0,0,0,6961,0,0,0,0,0,0,0,0,0,0,0,0,0,0,0,0,0,0,0,0,0,0,0,
0,0,0,0,0,0,0,0,0,0,0,0,0,0,0,0,6933,6934,0,0,0,0,0,0,0,0,0,0,0,0,0,22511,22512,0,0,0,0,0,0,0,0,0,0,0,0,0,0,0,0,0,0,0,
0,0,0,0,0,0,0,0,0,0,0,0,0,0,0,0,0,0,0,0,0,0,0,0,0,0,0,0,0,0,0,0,0,0,0,0,0,0,0,0,0,0,0,0,0,0,0,0,0,0,0,0,
0,0,0,0,0,0,0,0,0,0,0,0,0,0,0,0,0,0,0,0,6961,0,0,0,0,0,0,0,0,0,0,0,0,0,0,0,0,0,0,0,0,0,0,0,0,0,0,0,0,0,0,0,
0,0,0,0,0,0,0,0,0,0,0,0,0,0,0,0,0,0,0,0,0,0,0,0,0,0,0,0,0,0,0,0,0,0,0,0,0,0,0,0,0,0,0,0,0,0,0,0,0,0,0,0,
0,0,0,0,0,0,0,0,0,0,0,0,0,0,0,0,0,0,0,0,0,0,0,0,0,0,0,0,0,2724,0,0,0,0,0,0,0,0,0,0,0,0,0,0,0,0,0,0,0,0,0,0,
0,0,0,0,0,0,0,0,0,0,0,0,0,0,0,0,0,0,0,0,0,0,0,0,0,0,2724,0,0,2864,0,0,0,0,0,0,0,0,0,0,0,0,0,0,0,0,0,0,0,0,0,0,
0,0,0,0,0,0,0,0,0,0,0,0,0,0,0,0,0,0,0,0,0,0,0,0,0,0,2864,0,0,0,0,0,0,0,0,0,0,0,0,0,0,0,0,6368,0,0,0,0,0,0,0,0,
0,0,0,0,0,0,0,0,0,0,0,0,0,0,0,0,0,0,0,0,0,0,0,0,0,0,0,0,0,0,0,0,0,0,0,0,0,0,0,0,0,0,0,0,0,0,0,0,0,0,0,0,
0,0,0,0,0,0,0,0,0,0,0,0,0,0,0,0,0,0,0,0,0,0,0,0,0,0,0,0,0,0,0,0,0,0,0,0,0,0,0,0,0,0,0,0,0,0,0,0,0,0,0,0,
0,0,0,0,0,0,0,0,0,0,0,0,0,0,0,0,0,0,0,0,0,0,0,0,0,0,0,0,0,0,0,0,0,0,0,0,0,0,0,0,0,0,0,0,0,0,0,0,0,0,0,0,
0,0,0,0,0,0,0,0,0,0,0,0,0,0,0,0,0,0,0,0,0,0,0,0,0,0,0,0,0,6793,6794,0,0,0,0,0,0,0,0,0,0,0,0,3829,0,0,0,0,0,0,0,0,
0,0,0,0,0,0,0,0,0,0,0,0,0,0,0,0,0,0,0,0,0,0,0,0,0,0,0,0,0,6933,6934,0,0,0,0,0,0,0,0,0,0,0,0,0,0,0,0,0,0,0,0,0,
0,0,0,0,0,0,0,0,0,0,0,0,0,0,0,0,0,0,0,0,0,0,0,0,0,0,0,0,0,0,0,0,0,0,0,0,0,0,0,0,0,0,0,0,0,0,0,0,0,0,0,0
</data>
 </layer>
</map>
