<?xml version="1.0" encoding="UTF-8"?>
<map version="1.10" tiledversion="1.11.2" orientation="orthogonal" renderorder="right-down" width="14" height="15" tilewidth="32" tileheight="32" infinite="0" nextlayerid="16" nextobjectid="28">
 <tileset firstgid="1" source="intérieur.tsx"/>
 <tileset firstgid="321" source="intérieur 2.tsx"/>
 <layer id="1" name="sol" width="14" height="15">
  <data encoding="csv">
50,50,50,50,50,50,50,50,50,50,50,50,50,50,
50,50,50,50,50,50,50,50,50,50,50,50,50,50,
50,50,50,50,50,50,50,50,50,50,50,50,50,50,
50,50,50,50,50,50,50,50,50,50,50,50,50,50,
50,50,50,50,50,50,50,50,50,50,50,50,50,50,
50,50,50,50,50,50,50,50,50,50,50,50,50,50,
50,50,50,50,50,50,50,50,50,50,50,50,50,50,
50,50,50,50,50,50,50,50,50,50,50,50,50,50,
50,50,50,50,50,50,50,50,50,50,50,50,50,50,
50,50,50,50,50,50,50,50,50,50,50,50,50,50,
50,50,50,50,50,50,50,50,50,50,50,50,50,50,
50,50,50,50,50,50,50,50,50,50,50,50,50,50,
50,50,50,50,50,50,50,50,50,50,50,50,50,50,
50,50,50,50,50,50,50,50,50,50,50,50,50,50,
50,50,50,50,50,50,50,50,50,50,50,50,50,50
</data>
 </layer>
 <layer id="14" name="tapis" width="14" height="15">
  <data encoding="csv">
0,0,0,0,0,0,0,0,0,0,0,0,0,0,
0,0,0,0,0,0,0,0,0,0,0,0,0,0,
0,472,0,0,0,0,0,0,0,0,0,0,0,0,
0,480,0,0,0,0,0,0,0,0,0,0,0,0,
0,0,0,0,0,0,0,0,0,0,0,0,0,0,
0,0,0,0,0,0,0,0,0,0,0,0,0,0,
0,0,0,0,0,2684354673,2684354665,2684354657,2684354649,2684354641,0,0,0,0,
0,0,0,0,0,2684354674,2684354666,2684354658,2684354650,2684354642,0,0,0,0,
0,0,0,0,0,2684354675,2684354667,2684354659,2684354651,2684354643,0,0,0,0,
0,0,0,0,0,0,0,0,0,0,0,0,0,0,
0,0,0,0,0,0,0,0,0,0,0,0,0,0,
0,0,0,0,0,0,0,0,0,0,0,0,0,0,
0,0,0,0,0,0,0,0,0,0,0,0,0,0,
0,0,0,0,0,0,0,0,0,0,0,0,0,0,
0,0,0,0,0,0,0,0,0,0,0,0,0,0
</data>
 </layer>
 <layer id="4" name="télé + meubles + lit" width="14" height="15">
  <data encoding="csv">
33,34,34,34,34,34,34,34,34,34,34,34,34,35,
41,42,42,42,42,42,42,42,42,42,42,42,42,43,
0,0,0,0,0,0,0,0,0,0,0,0,394,395,
0,0,0,0,0,0,0,0,0,0,0,0,0,0,
0,0,0,0,0,0,0,0,0,0,0,0,0,0,
0,0,0,0,0,0,0,0,0,0,0,0,0,0,
0,0,0,0,0,0,0,0,0,0,0,0,0,0,
383,384,0,0,0,0,0,0,0,0,0,0,383,384,
0,0,0,0,0,0,0,0,0,0,0,0,0,0,
0,0,0,0,0,0,0,0,0,0,0,0,0,0,
0,0,0,0,0,0,0,0,0,0,0,0,0,0,
367,368,325,0,0,0,0,0,0,0,0,452,453,454,
0,0,0,0,0,0,0,0,0,0,0,460,461,462,
71,72,0,0,0,0,0,0,0,0,0,468,469,470,
0,0,0,0,0,0,390,390,0,0,0,0,0,0
</data>
 </layer>
 <layer id="8" name="escalier + panneau + bureau" width="14" height="15">
  <data encoding="csv">
0,0,0,0,8,0,0,0,0,0,8,0,0,0,
0,0,0,0,0,0,0,0,0,0,0,0,386,387,
471,0,0,0,0,0,0,0,0,0,0,0,0,0,
479,0,0,0,0,0,0,0,0,0,0,0,0,0,
0,0,0,0,0,0,0,0,0,0,0,0,0,0,
0,0,0,0,0,0,0,0,0,0,0,0,0,0,
0,0,0,0,0,0,0,0,0,0,0,0,0,0,
0,0,0,0,0,0,0,0,0,0,0,0,0,0,
0,0,0,0,0,0,0,0,0,0,0,0,0,0,
0,0,0,0,0,0,0,0,0,0,0,0,0,0,
0,0,0,0,0,0,0,0,0,0,0,0,0,0,
0,0,0,0,0,0,0,0,0,0,0,0,0,0,
0,0,0,0,0,0,0,0,0,0,0,0,0,0,
0,0,0,0,0,0,0,0,0,0,0,0,0,0,
0,0,0,0,0,0,0,0,0,0,0,0,0,0
</data>
 </layer>
 <layer id="15" name="meuble haut" width="14" height="15">
  <data encoding="csv">
0,0,0,0,0,0,0,0,0,0,0,0,0,0,
0,0,0,0,0,0,0,0,0,0,0,0,0,0,
0,0,0,0,0,0,0,0,0,0,0,0,0,0,
0,0,0,0,0,0,0,0,0,0,0,0,0,0,
0,0,0,0,0,0,0,0,0,0,0,0,0,0,
0,0,0,0,0,0,0,0,0,0,0,0,0,0,
375,376,0,0,0,0,0,0,0,0,0,0,375,376,
0,0,0,0,0,0,0,0,0,0,0,0,0,0,
0,0,0,0,0,0,0,0,0,0,0,0,0,0,
0,0,0,0,0,0,0,0,0,0,0,0,0,0,
359,360,0,0,0,0,0,0,0,0,0,0,0,0,
0,0,0,0,0,0,0,0,0,0,0,0,0,0,
0,0,0,0,0,0,374,374,0,0,0,0,0,0,
0,0,0,0,0,0,382,382,0,0,0,0,0,0,
0,0,0,0,0,0,0,0,0,0,0,0,0,0
</data>
 </layer>
 <objectgroup id="10" name="interface">
  <object id="1" name="collision" x="-1.30559" y="1.95838" width="5.22236" height="486.985"/>
  <object id="2" name="collision" x="-1.95838" y="470.012" width="458.915" height="7.18074"/>
  <object id="3" name="collision" x="441.289" y="-1.95838" width="3.91677" height="478.499"/>
  <object id="4" name="collision" x="4.56956" y="3.26397" width="440.636" height="37.2093"/>
  <object id="5" name="collision" x="385.802" y="63.9739" width="57.4459" height="13.7087"/>
  <object id="6" name="collision" x="385.802" y="77.0298" width="2.61118" height="16.3199"/>
  <object id="7" name="collision" x="415.83" y="78.9882" width="28.0702" height="15.0143"/>
  <object id="8" name="collision" x="389.066" y="207.589" width="51.5708" height="43.7373"/>
  <object id="9" name="collision" x="381.232" y="365.565" width="41.1261" height="62.6683"/>
  <object id="10" name="collision" x="190.616" y="448.47" width="62.0155" height="16.3199"/>
  <object id="11" name="collision" x="0" y="416" width="64" height="32"/>
  <object id="12" name="collision" x="64" y="352" width="32" height="32"/>
  <object id="13" name="collision" x="1.30559" y="331.62" width="62.6944" height="52.3803"/>
  <object id="14" name="collision" x="-1.30559" y="206.936" width="65.3056" height="49.0641"/>
  <object id="15" name="collision" x="6.52795" y="109.017" width="50.2652" height="12.4031"/>
  <object id="16" name="collision" x="2.61118" y="65.2795" width="13.0559" height="56.7931"/>
  <object id="17" name="collision" x="5.22236" y="63.3211" width="48.3068" height="15.0143"/>
  <object id="25" name="collision" x="4" y="38" width="438" height="9.5"/>
  <object id="26" name="collision" x="436.5" y="201" width="10" height="55"/>
 </objectgroup>
 <objectgroup id="11" name="object layer">
  <object id="18" name="Player" x="320" y="384" width="32" height="32"/>
  <object id="24" name="escalier_chambrejoueur" x="96" y="96" width="32" height="32"/>
 </objectgroup>
 <objectgroup id="12" name="switch">
  <object id="20" name="switch salon_maisonjoueur" x="17" y="79" width="52.3333" height="26">
   <properties>
    <property name="target_map" value="salon_maisonjoueur"/>
    <property name="target_spawn" value="escalier_salon"/>
   </properties>
  </object>
 </objectgroup>
 <objectgroup id="13" name="zones_event">
  <object id="21" name="panneau_chambre2" x="129.5" y="8.5" width="29.5" height="73.5"/>
  <object id="22" name="panneau_chambre" x="323" y="8.5" width="27" height="74.5"/>
  <object id="27" name="bureau_sac" x="384" y="64" width="32" height="64"/>
 </objectgroup>
</map>
