<?xml version="1.0" encoding="UTF-8"?>
<map version="1.0" orientation="orthogonal" renderorder="right-down" width="50" height="35" tilewidth="32" tileheight="32" nextobjectid="1">
 <tileset firstgid="1" name="tile group" tilewidth="32" tileheight="32" tilecount="21000" columns="140">
  <image source="Tiles/tile group.png" width="4480" height="4800"/>
 </tileset>
 <tileset firstgid="21001" name="new tilesert2" tilewidth="32" tileheight="32" tilecount="3744" columns="8">
  <image source="Tiles/new tilesert2.png" width="256" height="14976"/>
 </tileset>
 <tileset firstgid="24745" name="the_public_pokemon_tileset_by_thatssowitty-d4ni56y" tilewidth="32" tileheight="32" tilecount="7000" columns="8">
  <image source="Tiles/the_public_pokemon_tileset_by_thatssowitty-d4ni56y.png" width="256" height="28000"/>
 </tileset>
 <tileset firstgid="31745" name="1" tilewidth="32" tileheight="32" tilecount="256" columns="8">
  <image source="Tiles/1.png" width="256" height="1024"/>
 </tileset>
 <tileset firstgid="32001" name="4" tilewidth="32" tileheight="32" tilecount="256" columns="8">
  <image source="Tiles/4.png" width="256" height="1024"/>
 </tileset>
 <tileset firstgid="32257" name="sinnohtiles" tilewidth="32" tileheight="32" tilecount="1554" columns="37">
  <image source="Tiles/sinnohtiles.png" width="1214" height="1356"/>
 </tileset>
 <layer name="Layer 1" width="50" height="35">
  <data encoding="csv">
4635,4635,4635,4635,4635,4635,4635,4635,4635,4635,4635,4635,4635,4635,4635,4635,4635,4635,4635,4635,4635,4635,4635,4635,4635,4635,4635,4635,4635,4635,4635,4635,4635,4635,4635,4635,4635,3224,4635,4635,4635,4635,4635,4635,4635,4635,4635,4635,4635,4635,
4635,4635,4635,4635,4635,4635,4635,4635,4635,4635,4635,4635,4635,4635,4635,4635,4635,4635,4635,4635,4635,4635,4635,4635,4635,4635,4635,4635,4635,4635,4635,4635,4635,4635,4635,3224,4635,4635,4635,4635,4635,4635,4635,4635,4635,4635,4635,4635,4635,4635,
4635,4635,4635,4635,4635,4635,4635,4635,4635,4635,4635,4635,4635,4635,4635,4635,4635,4635,4635,4635,4635,4635,4635,4635,4635,4635,4635,4635,4635,4635,4635,4635,4635,4635,4635,2138,2139,2140,4635,4635,4635,4635,4635,4635,4635,4635,4635,4635,4635,4635,
4635,4635,4635,4635,4635,4635,4635,4635,4635,4635,4635,4635,4635,4635,4635,4635,4635,4635,4635,4635,4635,4635,4635,4635,4635,4635,4635,4635,4635,4635,4635,4635,4635,4635,4635,2278,2279,2280,4635,4635,4635,4635,4635,4635,4635,4635,4635,4635,4635,4635,
4635,4635,4635,4635,4635,4635,4635,4635,4635,4635,4635,4635,4635,4635,4635,4635,4635,4635,4635,4635,4635,4635,4635,4635,4635,4635,4635,4635,4635,4635,4635,4635,4635,4635,4635,2278,2279,2280,4635,4635,4635,4635,4635,4635,4635,4635,4635,4635,4635,4635,
4635,4635,4635,4635,4635,4635,4635,4635,4635,4635,4635,4635,4635,4635,4635,4635,4635,4635,4635,4635,4635,4635,4635,4635,4635,4635,4635,4635,4635,4635,4635,4635,4635,4635,4635,2278,2279,2280,4635,4635,4635,4635,4635,4635,4635,4635,4635,4635,4635,4775,
4635,4635,4635,4635,4635,4635,4635,4635,4635,4635,4635,3224,4635,3224,4635,4635,4635,4635,4635,4635,4635,4635,3224,4635,4635,4635,4635,4635,4635,4635,4635,4635,4635,4635,4635,2278,2279,2280,4635,4635,4635,4635,4635,4635,4635,4635,4635,4635,4635,4635,
4635,4635,4635,4635,4635,4635,4635,4635,4635,3224,4635,3224,4635,4635,4635,4635,3224,4635,4635,4635,4635,4635,3224,4635,4635,4635,4635,4635,4635,4635,4635,4635,4635,4635,3224,2278,2279,2280,4635,4635,4635,4635,4635,4635,4635,4635,4635,4635,4635,4635,
4635,4635,4635,4635,4635,4635,4635,4635,4635,4635,4635,4635,4635,4635,4635,4635,4635,4635,4635,4635,4635,4635,4635,4635,4635,4635,4635,4635,4635,4635,4635,4635,3224,4635,4635,2278,2279,2280,4635,4635,4635,4635,4635,4635,4635,4635,4635,4635,4635,4635,
4635,4635,4635,4635,4635,4635,4635,4635,4635,4635,3224,4635,2278,4635,4635,4635,4635,4635,4635,4635,4635,4635,4635,4635,4635,4635,4635,4635,4635,4635,4635,4635,4635,4635,4635,2278,2279,2280,4635,2278,4635,4635,4635,4635,4635,4635,4635,4635,4635,4635,
4635,4635,4635,4635,4635,4635,2278,2279,2280,4635,4635,4635,2278,2279,2280,4635,4635,4635,2278,2279,2280,4635,4635,2278,2279,2279,2279,2279,2279,2279,2280,4635,4635,4635,4635,2278,2279,2280,4635,2278,4635,2280,4635,4635,4635,4635,4635,4635,4635,4635,
4635,4635,4635,4635,4635,2138,2699,2279,2698,2139,2139,2139,2699,2279,2698,2139,2139,2139,2699,2279,2698,2139,2139,2699,2279,2279,2279,2279,2279,2279,2698,2139,2139,2139,2139,2699,2279,2698,2139,2699,2279,2280,4635,4635,4635,4635,4635,4635,4635,4635,
4635,4635,4635,4635,4635,2278,2279,2279,2279,2279,2279,2279,2279,2279,2279,2279,2279,2279,2279,2279,2279,2279,2279,2279,2279,2279,2279,2279,2279,2279,2279,2279,2279,2279,2279,2279,2279,2279,2279,2279,2279,2280,4635,4635,4635,4635,4635,4635,4635,4635,
4635,4635,4635,4635,4635,2418,2279,2279,2279,2279,2279,2279,2419,2419,2419,2419,2419,2419,2419,2419,2419,2419,2419,2559,2279,2558,2419,2419,2419,2419,2419,2419,2419,2419,2419,2419,2419,2419,2419,2419,2419,2420,4635,4635,4635,4635,4635,4635,4635,4635,
4635,4635,4635,4635,4635,4635,4635,4635,4635,4635,4635,4635,4635,4635,4635,4635,4635,4635,4635,4635,4635,4635,4635,2278,2279,2280,4635,4635,4635,4635,4635,4635,4635,4635,4635,4635,4635,4635,4635,4635,3224,3224,4635,4635,4635,4635,4635,4635,4635,4635,
4635,4635,4635,4635,4635,4635,4635,4635,4635,4635,4635,4635,4635,4635,4635,4635,4635,4635,4635,4635,4635,4635,4635,2278,2279,2280,4635,4635,4635,4635,4635,4635,4635,4635,4635,4635,4635,4635,4635,4635,3224,3224,4635,4635,4635,4635,4635,4635,4635,4635,
4635,4635,4635,4635,4635,4635,4635,4635,4635,4635,4635,4635,4635,4635,4635,4635,4635,4635,4635,4635,4635,4635,4635,2278,2279,2280,4635,4635,4635,4635,4635,4635,4635,4635,4635,4635,4635,3224,3224,4635,4635,4635,4635,4635,4635,4635,4635,4635,4635,4635,
4635,4635,4635,4635,4635,4635,4635,4635,4635,4635,4635,4635,4635,4635,4635,3224,4635,4635,4635,4635,4635,4635,4635,2278,2279,2280,4635,4635,4635,4635,4635,4635,4635,4635,4635,4635,4635,4635,4635,4635,4635,4635,4635,4635,4635,4635,4635,4635,4635,4635,
4635,4635,4635,4635,4635,4635,2278,2279,2279,2279,2279,2279,2280,4635,3224,4635,4635,4635,4635,4635,4635,4635,4635,2278,2279,2280,2138,2279,2280,4635,2278,2279,2280,4635,2278,2279,2280,4635,4635,4635,4635,4635,4635,4635,4635,4635,4635,4635,4635,4635,
4635,4635,4635,4635,4635,2138,2699,2279,2279,2279,2279,2279,2698,2139,2139,2139,2139,2139,2139,2139,2139,2139,2139,2699,2279,2698,2699,2279,2698,2139,2699,2279,2698,2139,2699,2279,2698,2140,4635,4635,3224,4635,4635,4635,4635,4635,4635,4635,4635,4635,
4635,4635,4635,4635,4635,2278,2279,2279,2279,2279,2279,2279,2279,2279,2279,2279,2279,2279,2279,2279,2279,2279,2279,2279,2279,2279,2279,2279,2279,2279,2279,2279,2279,2279,2279,2279,2279,2280,4635,4635,3224,3224,4635,4635,4635,4635,4635,4635,4635,4635,
4635,4635,4635,4635,4635,2418,2419,2419,2419,2419,2419,2419,2419,2419,2419,2419,2419,2419,2419,2419,2419,2419,2419,2559,2279,2558,2419,2419,2419,2419,2419,2419,2419,2419,2419,2419,2419,2420,4635,4635,4635,4635,4635,4635,4635,4635,4635,4635,4635,4635,
4635,4635,4635,4635,4635,4635,4635,4635,4635,4635,4635,4635,4635,4635,4635,4635,4635,4635,4635,4635,4635,4635,4635,2278,2279,2280,4635,4635,4635,4635,4635,4635,4635,4635,4635,4635,4635,3224,4635,4635,4635,4635,4635,4635,4635,4635,4635,4635,4635,4635,
4635,4635,4635,4635,4635,4635,4635,4635,4635,4635,4635,4635,4635,4635,4635,3224,4635,4635,4635,4635,4635,4635,4635,2278,2279,2280,4635,4635,4635,4635,4635,4635,4635,4635,4635,4635,4635,3224,4635,4635,4635,4635,4635,4635,4635,4635,4635,4635,4635,4635,
4635,4635,4635,4635,4635,4635,4635,4635,4635,4635,4635,4635,4635,4635,4635,4635,4635,4635,4635,4635,4635,4635,4635,2278,2279,2280,4635,4635,4635,4635,4635,4635,4635,4635,4635,4635,4635,4635,4635,4635,4635,4635,4635,4635,4635,4635,4635,4635,4635,4635,
4635,4635,4635,4635,4635,4635,4635,4635,4635,4635,4635,4635,4635,3224,4635,4635,4635,3224,4635,4635,4635,4635,4635,2278,2279,2280,4635,4635,4635,4635,4635,4635,4635,3224,4635,4635,4635,4635,4635,4635,4635,4635,4635,4635,4635,4635,4635,4635,4635,4635,
4635,4635,4635,4635,4635,4635,4635,4635,4635,4635,4635,4635,4635,4635,4635,4635,4635,4635,3224,4635,4635,4635,4635,2278,2279,2280,4635,4635,4635,4635,4635,4635,4635,4635,4635,4635,4635,4635,4635,4635,4635,4635,4635,4635,4635,4635,4635,4635,4635,4635,
4635,4635,4635,4635,4635,4635,4635,4635,4635,4635,4635,4635,4635,4635,4635,4635,4635,4635,4635,4635,4635,4635,4635,2278,2279,2280,4635,4635,4635,4635,4635,4635,4635,4635,4635,4635,4635,4635,4635,4635,4635,4635,4635,4635,4635,4635,4635,4635,4635,4635,
4635,4635,4635,4635,4635,4635,4635,4635,4635,4635,4635,4635,3224,4635,4635,4635,4635,3224,4635,4635,4635,4635,4635,2418,2419,2420,4635,4635,3224,4635,4635,4635,4635,4635,4635,4635,4635,4635,4635,4635,4635,4635,4635,4635,4635,4635,4635,4635,4635,4635,
4635,4635,4635,4635,4635,4635,4635,4635,4635,4635,4635,4635,4635,4635,4635,4635,3224,4635,4635,4635,4635,4635,4635,4635,4635,4635,4635,4635,4635,32010,32010,32010,4635,4635,4635,3224,4635,4635,4635,4635,4635,4635,4635,4635,4635,4635,4635,4635,4635,4635,
4635,4635,4635,4635,4635,4635,4635,4635,4635,4635,4635,4635,4635,4635,4635,4635,4635,4635,4635,4635,4635,4635,4635,4635,4635,4635,4635,3224,32010,32010,32010,32010,32010,32010,32010,4635,4635,4635,4635,4635,4635,4635,4635,4635,4635,4635,4635,4635,4635,4635,
4635,4635,4635,4635,4635,4635,4635,4635,4635,4635,4635,4635,4635,4635,4635,4635,4635,4635,4635,4635,4635,4635,4635,4635,4635,4635,4635,4635,32010,32010,32010,32010,32010,32010,32010,4635,4635,4635,4635,4635,4635,4635,4635,4635,4635,4635,4635,4635,4635,4635,
4635,4635,4635,4635,4635,4635,4635,3224,4635,4635,3224,4635,4635,4635,4635,4635,4635,4635,4635,4635,4635,2102,2103,2103,2104,4635,4635,4635,32010,32010,32010,32010,32010,32010,32010,32010,4635,4635,4635,4635,4635,4635,4635,4635,4635,4635,4635,4635,4635,4635,
4635,4635,4635,4635,4635,4635,4635,4635,4635,4635,3224,4635,4635,4635,4635,4635,4635,4635,4635,2102,2103,2663,2243,2522,2384,4635,4635,32010,32010,32010,32010,32010,32010,32010,32010,32010,4635,4635,4635,4635,4635,4635,4635,4635,4635,4635,4635,4635,4635,4635,
4635,4635,4635,4635,4635,4635,4635,4635,4635,4635,3224,4635,4635,4635,4635,4635,4635,2102,2103,2663,2243,2243,2522,2384,4635,4635,4635,32010,32010,32010,32010,32010,32010,32010,4635,4635,4635,4635,4635,4635,4635,4635,4635,4635,4635,4635,4635,4635,4635,4635
</data>
 </layer>
 <layer name="Layer 2" width="50" height="35">
  <data encoding="csv">
4775,4775,4776,4914,4775,4775,4775,4775,4775,4775,4915,4774,4775,4775,4775,4775,4775,4775,4775,4776,4914,4775,4775,4775,4775,4775,4775,4775,4915,4914,4775,4776,4636,4636,4636,0,0,0,4634,4634,4774,4775,4775,4775,4775,4775,4775,4915,4774,4915,
4775,4775,4775,4776,4914,4775,4775,4775,4775,4915,4774,4775,4775,4775,4775,4775,4775,4775,4775,4775,4776,4914,4775,4775,4775,4775,4915,0,4634,4636,4914,4775,4776,4636,4636,0,0,0,4634,4634,0,0,33111,0,0,0,0,4774,4915,4634,
4775,4775,4775,4775,4776,4914,4775,4775,4915,4774,4775,4775,4775,4775,4775,4775,4775,4775,4775,4775,4775,4776,0,0,2954,2956,4774,4915,4774,4776,4636,4914,4775,4776,4636,0,0,0,4634,4774,4775,4775,4915,0,32519,0,0,0,4634,4774,
4914,4775,4775,4775,4775,4776,0,0,4774,4775,4915,0,0,0,0,0,4914,4775,4775,4775,4775,4915,0,0,3234,3236,0,4774,4775,4775,4776,4636,4914,4775,4776,0,0,0,4774,4775,4775,4915,4774,4775,4915,0,0,0,4774,4775,
4776,0,0,0,0,0,0,0,0,0,4774,4775,4775,4775,4775,4775,4776,0,0,0,0,4774,4775,4775,4915,0,0,0,0,0,4914,4776,4636,0,0,0,0,0,0,0,0,4774,4775,4915,4774,4775,4775,4775,4775,4775,
0,0,4914,4775,4775,4775,4775,4775,4775,4775,4775,4775,4775,4775,4775,4915,0,4914,4775,4775,4775,4775,4775,4915,4774,4775,4775,4775,4775,4775,4776,4914,4776,0,0,0,0,0,0,0,0,0,0,4774,4775,4775,4775,4775,4775,0,
4914,4775,4776,0,0,0,0,0,0,0,0,0,0,0,0,4774,4775,4776,0,0,0,0,0,4774,4775,4775,4775,4775,4775,4775,4775,4776,1687,0,0,0,0,0,0,0,0,0,0,1566,1567,1568,0,303,304,305,
4776,0,363,364,365,0,0,0,0,0,1687,0,0,0,0,0,0,0,0,0,0,0,0,0,0,0,0,0,0,0,0,0,0,33111,0,0,0,0,0,0,0,0,0,33111,0,303,304,305,0,1566,
1566,1567,1568,0,0,0,0,0,0,0,0,0,0,0,0,0,33111,0,0,0,0,0,0,0,0,0,0,0,0,0,0,0,0,0,0,0,0,0,0,0,0,0,0,339,340,341,0,1566,1567,1568,
347,0,303,304,305,0,0,0,0,0,0,0,0,0,0,0,0,0,0,0,0,0,12709,0,0,0,0,0,0,0,0,0,0,0,0,0,0,0,0,0,0,0,0,12975,0,363,364,365,0,339,
363,364,365,0,0,0,0,0,0,0,6447,33111,0,0,0,0,0,0,0,0,0,0,12849,0,0,0,0,0,0,0,0,0,33111,0,0,0,0,0,0,0,0,0,0,13114,1567,1568,0,303,304,305,
305,0,1566,1567,1568,15705,15706,15707,15708,15709,15710,15711,15712,15713,15714,15715,0,0,0,0,0,0,12989,0,0,0,0,0,0,0,0,0,0,0,0,0,0,0,0,0,0,0,0,13114,0,339,340,341,0,345,
303,304,305,0,0,15845,15846,15847,15848,15849,15850,15851,15852,15853,15854,15855,0,0,0,0,0,0,13129,0,0,0,0,0,0,0,0,0,0,0,0,0,0,0,0,0,0,13114,0,339,340,341,0,1566,1567,1568,
365,0,345,346,347,15985,15986,15987,15988,15989,15990,15991,15992,15993,15994,15995,0,0,0,0,0,0,8664,0,0,0,10863,10864,10865,10866,10858,10859,10860,10861,10868,10869,10870,10871,10872,0,0,13255,340,341,0,303,304,305,0,339,
1566,1567,1568,0,0,16125,16126,16127,16128,16129,16130,16131,16132,16133,16134,16135,0,2951,0,0,0,32519,8804,0,0,0,11003,11004,11005,11006,10998,10999,11000,11001,11008,11009,11010,11011,11012,33111,0,0,0,345,346,347,0,303,304,305,
347,0,303,304,305,16265,16266,16267,16268,16269,16270,16271,16272,16273,16274,8942,8667,2830,0,0,0,8666,8944,0,0,0,11143,11144,11145,11146,11138,11139,11140,11141,11148,11149,11150,11151,11152,1687,0,339,340,341,0,363,364,365,0,345,
339,340,341,0,0,16405,16406,16407,16408,16409,16410,16411,16412,16413,16414,9082,8807,0,0,2951,0,8806,9084,0,0,0,11283,11284,11285,11286,11278,11279,11280,11281,11288,11289,11290,11291,11292,8953,0,0,0,303,304,305,0,339,340,341,
305,0,1566,1567,1568,16545,16546,16547,16548,16549,16550,16551,16552,16553,16554,16555,8942,8943,8943,8943,8943,8944,0,0,0,0,11423,11424,11425,11426,11418,11419,11420,11421,11428,11429,11430,11431,11432,0,0,1566,1567,1568,0,339,340,341,0,1566,
303,304,305,0,0,16685,16686,16687,16688,16689,16690,16691,16692,16693,16694,16695,9082,9083,9083,9083,9083,9084,0,0,0,0,11563,11564,11565,11566,11558,11559,11560,11561,11568,11569,11570,11571,11572,363,364,365,0,339,340,341,0,345,346,347,
365,0,363,364,365,16825,16826,16827,16828,16829,16830,16831,16832,16833,16834,16835,0,0,9601,9602,9603,9604,9605,9606,0,0,11703,11704,11705,11706,11698,11699,11700,11701,11708,11709,11710,11711,11712,503,504,505,304,305,0,1566,1567,1568,0,345,
339,340,341,0,0,16965,16966,16967,16968,16969,16970,16971,16972,16973,16974,16975,0,0,9741,9742,9743,9744,9745,9746,0,0,11843,11844,11845,11846,11838,11839,11840,11841,11848,11849,11850,11851,11852,0,0,0,0,363,364,365,0,303,304,305,
365,0,339,340,341,17105,17106,17107,17108,17109,17110,17111,17112,17113,17114,17115,0,0,9881,9882,9883,9884,9885,9886,0,0,0,0,0,0,0,0,0,0,0,0,0,0,0,0,0,303,304,305,0,303,304,305,0,345,
345,346,347,10615,10615,10615,10615,10615,10615,10615,10615,10615,10615,10615,10615,10615,10477,0,10021,10022,10023,10024,10025,10026,0,0,8666,8943,8943,8943,8943,8943,8943,8943,8943,8943,8943,8943,8667,339,340,341,0,345,346,347,0,363,364,365,
305,0,1566,1567,1568,0,0,0,0,0,0,0,31751,0,2951,0,9315,33111,10161,10162,10163,10164,10165,10166,0,0,8806,9083,9083,9083,9083,9083,9083,9083,9083,9083,9083,9083,8807,0,0,1566,1567,1568,0,339,340,341,0,1566,
339,340,341,0,363,364,365,0,339,340,341,0,0,31751,31751,0,9315,0,10301,10302,10303,10304,10305,10306,0,0,4636,0,3084,0,0,0,0,0,2952,2819,0,1687,4634,303,304,305,0,339,340,341,0,345,346,347,
347,0,345,346,347,0,303,304,305,0,363,364,365,0,31751,0,9315,0,10441,10442,10443,10444,10445,10446,0,0,4636,2819,0,0,0,0,0,0,4494,4495,4495,4495,5055,1687,0,363,364,365,0,303,304,305,0,0,
303,304,305,0,1566,1567,1568,0,339,340,503,504,505,31751,31751,0,9315,0,10581,10582,10583,10584,10585,10586,0,0,4636,0,2952,0,0,0,33111,0,4634,10478,10615,10615,10615,10615,9179,503,0,339,340,341,0,1566,1567,1568,
365,0,1566,1567,1568,0,363,364,365,31751,0,31751,2951,31751,31751,0,9455,9456,9456,9456,9456,9179,0,0,0,0,5054,4495,4495,4495,4495,4495,4495,4495,5055,10616,0,0,0,0,0,303,304,305,0,303,304,305,0,339,
339,340,341,0,303,304,305,0,0,31751,0,31751,0,31751,31751,0,0,0,0,1826,1827,0,0,0,0,0,0,0,0,0,0,31751,0,31751,31751,339,340,341,0,339,340,341,0,363,364,365,0,339,340,341,
305,0,345,346,347,0,1566,1567,1568,31751,31751,31751,31751,31751,0,0,0,33111,0,1966,1967,0,0,0,0,0,0,0,0,32023,32042,32024,31751,0,31751,0,0,303,304,305,0,363,364,365,0,1566,1567,1568,0,1566,
363,364,365,0,339,340,341,31751,31751,31751,31751,0,31751,31751,0,0,0,0,33111,0,0,0,0,0,0,0,0,0,32023,32043,2973,32041,32042,32042,32024,31751,31751,31751,0,339,340,341,0,303,304,305,0,303,304,305,
365,0,303,304,305,31751,31751,31751,31751,31751,31751,31751,0,31751,31751,0,0,0,0,0,0,0,0,0,0,0,4488,4490,32035,3112,3113,8809,2830,2830,32033,0,31751,31751,31751,0,0,1566,1567,1568,0,363,364,365,0,345,
339,340,341,0,0,0,31751,0,31751,31751,0,2951,31751,0,31751,0,33111,33111,0,0,0,0,0,0,0,0,4908,4770,32035,8809,2829,8949,8950,0,32041,32024,31751,31751,31751,339,340,341,0,303,304,305,0,1566,1567,1568,
347,0,363,364,365,0,0,0,0,31751,0,0,31751,0,0,0,0,0,0,0,0,0,0,0,0,0,0,32023,32043,8949,8950,9089,9090,32025,32026,32032,0,31751,31751,0,0,345,346,347,0,339,340,341,0,339,
303,304,305,0,303,304,305,0,0,0,0,0,0,0,2951,0,0,0,0,0,0,0,0,0,0,0,0,32035,0,9089,9090,3251,32025,32032,0,31751,31751,0,0,303,304,305,0,339,340,341,0,303,304,305
</data>
 </layer>
 <layer name="Layer 3" width="50" height="35">
  <data encoding="csv">
0,0,0,0,0,0,0,0,7271,0,0,0,7271,5193,5194,5195,0,0,0,0,0,0,0,0,0,0,0,0,0,0,0,0,0,0,26513,26514,26515,26516,26517,0,0,0,0,0,710,711,712,713,0,0,
0,7271,0,0,0,0,0,0,7411,0,0,0,7411,5333,5334,5335,0,0,0,0,0,0,0,0,0,0,0,0,0,0,0,0,0,0,26521,26522,26523,26524,26525,0,0,0,0,0,850,851,852,853,0,0,
0,7411,0,0,0,0,7273,6990,0,0,0,0,0,5473,5474,5475,0,0,0,7271,0,0,0,0,0,0,0,0,0,0,0,0,0,0,26529,26530,26531,26532,26533,0,7142,0,0,0,990,991,992,993,0,0,
0,0,0,0,0,0,7129,7130,0,0,0,0,0,0,0,6447,0,0,0,7411,0,1126,1127,1128,1129,0,0,0,0,0,0,0,0,0,26537,26538,26539,26540,26541,0,7282,0,0,7271,1130,1131,1132,1133,0,0,
0,6447,0,0,0,0,0,0,0,0,0,7142,10713,10714,10715,10716,10717,0,0,0,6447,0,0,0,0,0,0,0,0,0,0,0,0,0,26545,26546,26547,26548,26549,0,7422,0,0,7411,0,1126,1127,1128,1129,0,
6447,1126,1127,1128,1129,12133,12134,12135,12136,12137,12138,7282,10853,10854,10855,10856,8953,12144,12145,12146,12147,12148,13391,13392,13393,13394,13395,13396,13397,13398,0,0,0,0,8071,0,0,0,12133,12134,12135,12136,12137,1426,1427,1428,0,163,164,165,
0,0,223,224,225,12273,12274,12275,12276,12277,12278,10992,10993,10994,10995,10996,10997,12284,12285,12286,12287,12288,13531,13532,13533,13534,13535,13536,13537,13538,13539,13540,13541,0,8211,0,0,0,12273,12274,12275,12276,12277,12278,0,163,164,165,0,1426,
1426,1427,1428,0,0,12413,12414,12415,12416,12417,12418,11132,11133,11134,11135,11136,11137,12424,12425,12426,12427,12428,13671,13672,13673,13674,13675,13676,13677,13678,13679,13680,13681,0,0,0,0,0,12413,12414,12415,12416,12417,199,200,201,0,1426,1427,1428,
207,0,163,164,165,12553,12554,12555,12556,12557,12558,11272,11273,11274,11275,11276,11277,12564,12565,12566,12567,12568,13811,13812,13813,13814,13815,13816,13817,13818,13819,8953,13821,0,8071,0,0,0,12553,12554,12555,12556,12557,12558,0,223,224,225,0,199,
223,224,225,0,0,12693,12694,12695,12696,12697,12698,6447,11413,11414,11415,11416,11417,12704,12705,12706,12707,12708,13951,13952,13953,13954,13955,13956,13957,13958,13959,13960,13961,0,8211,0,0,0,12693,12694,12695,12696,12697,1426,1427,1428,0,163,164,165,
165,0,1426,1427,1428,12833,12834,12835,12836,12837,12838,11552,11553,11554,11555,11556,11557,12844,12845,12846,12847,12848,14091,14092,14093,14094,14095,14096,14097,14098,14099,14100,14101,0,0,0,0,0,12833,12834,12835,12836,12837,1566,0,199,200,201,0,205,
163,164,165,0,0,12973,12974,12975,12976,12977,12978,11692,11693,11694,11695,11696,11697,12984,12985,12986,12987,12988,14231,14232,14233,14234,14235,14236,14237,14238,14239,14240,14241,0,0,0,0,0,12973,12974,12975,12976,12977,199,200,201,0,1426,1427,1428,
225,0,205,206,207,13113,13114,13115,13116,13117,13118,11832,11833,11834,11835,11836,11837,13124,13125,13126,13127,13128,14371,14372,14373,14374,14375,14376,14377,14378,14379,14380,14381,0,0,0,0,0,13113,13114,13115,199,200,201,0,163,164,165,0,199,
1426,1427,1428,0,0,13253,13254,13255,13256,13257,13258,0,0,0,0,0,0,0,0,0,0,0,14511,14512,14513,14514,14515,14516,14517,14518,14519,14520,14521,0,0,0,0,0,13253,13254,13255,339,340,205,206,207,0,163,164,165,
207,0,163,164,165,0,0,0,0,0,0,0,0,0,0,0,0,0,0,0,0,0,0,0,0,0,0,0,0,0,0,0,0,0,0,0,0,0,0,0,0,199,200,201,0,223,224,225,0,205,
199,200,201,0,0,0,0,0,0,0,0,0,0,0,0,0,0,0,0,0,8071,0,6812,0,0,0,0,0,0,0,0,0,0,0,0,0,0,0,0,0,0,0,0,163,164,165,0,199,200,201,
165,0,1426,1427,1428,0,0,0,0,0,0,0,0,0,0,0,0,0,0,0,8211,0,6952,0,0,0,0,0,0,0,0,0,0,0,0,0,0,0,0,0,0,1426,1427,1428,0,199,200,201,0,1426,
163,164,165,0,1687,0,0,0,0,0,0,0,0,0,0,0,0,7142,7271,6862,0,0,7092,0,0,0,0,0,0,0,0,0,0,0,0,0,0,0,0,223,224,225,0,199,200,201,0,205,206,207,
225,0,223,224,225,0,7792,0,0,0,0,0,0,0,0,0,0,7282,7411,7002,7648,0,0,0,0,0,0,0,0,0,0,0,0,0,0,0,0,0,0,6528,0,163,164,165,0,1426,1427,1428,0,205,
199,200,201,0,0,0,7932,0,0,0,0,0,0,0,0,0,0,7422,0,0,0,0,0,0,0,0,0,0,0,0,0,0,0,0,0,0,0,0,0,6668,0,303,0,223,224,225,0,163,164,165,
225,0,199,200,201,0,0,0,0,0,0,0,0,0,0,0,0,0,0,0,0,0,0,0,0,0,0,0,0,0,0,0,0,0,0,0,0,0,8072,0,0,163,164,165,0,163,164,165,0,205,
205,206,207,0,0,0,0,0,0,0,0,0,0,0,0,0,0,0,0,0,0,0,0,0,0,0,0,0,0,0,0,0,0,0,0,0,0,0,8212,199,200,201,0,205,206,207,0,223,224,225,
165,0,1426,1427,1428,0,0,0,0,0,0,0,0,0,0,0,0,0,0,0,0,0,0,0,0,0,0,0,0,7271,0,6862,7142,0,7271,0,0,0,0,0,0,1426,1427,1428,0,199,200,201,0,1426,
199,200,201,0,223,224,225,0,199,200,201,0,0,2819,0,0,0,0,0,0,0,0,26513,26514,26515,26516,26517,26518,0,7411,0,7002,7282,0,7411,0,0,0,0,163,164,165,0,199,200,201,0,205,206,207,
207,0,205,206,207,0,163,164,165,0,223,224,225,0,0,0,0,0,0,0,0,0,26521,26522,26523,26524,26525,26526,0,0,0,0,0,0,0,0,0,0,0,0,0,223,224,225,0,163,164,165,0,199,
163,164,165,0,1426,1427,1428,0,199,200,201,0,0,0,0,0,0,0,0,0,0,0,26529,26530,26531,26532,26533,26534,0,0,0,0,0,0,0,0,0,0,0,0,0,0,0,199,200,201,0,1426,1427,1428,
225,0,1426,1427,1428,0,223,224,225,0,341,0,0,0,0,0,0,0,0,0,0,0,26537,26538,26539,26540,26541,26542,0,0,0,0,0,0,0,0,0,0,0,0,0,163,164,165,0,163,164,165,0,199,
199,200,201,0,163,164,165,0,479,480,2819,0,0,0,0,0,0,0,0,0,0,0,26545,26546,26547,26548,26549,10337,10615,10615,10615,10615,10615,10615,10615,199,200,201,0,199,200,201,0,223,224,225,0,199,200,201,
165,0,205,206,207,0,1426,1427,1428,0,0,0,0,0,0,0,0,0,0,0,0,0,0,0,0,0,0,0,0,0,0,0,0,0,0,0,0,163,164,165,0,223,224,225,0,1426,1427,1428,0,1426,
223,224,225,0,199,200,201,0,0,0,0,0,0,0,0,0,0,0,0,0,0,0,0,0,0,0,0,0,0,32004,32005,32006,0,0,0,479,480,481,0,199,200,201,0,163,164,165,0,163,164,165,
225,0,163,164,165,0,0,0,0,0,0,0,0,0,0,0,0,0,0,0,0,0,0,0,2951,0,0,0,32004,32039,32013,32040,32005,32005,32006,0,0,0,0,0,0,1426,1427,1428,0,223,224,225,0,205,
199,200,201,0,479,480,481,0,0,0,0,0,0,0,0,0,0,0,0,0,0,0,0,0,0,0,0,0,32012,32013,32013,32013,32013,32013,32014,0,0,0,0,199,200,201,0,163,164,165,0,1426,1427,1428,
207,0,223,224,225,0,0,0,0,0,0,0,0,0,0,0,0,0,0,0,0,0,0,0,0,4488,5052,0,32012,32013,32013,32013,32013,32013,32040,32006,0,0,0,0,0,205,206,207,0,199,200,201,0,199,
163,164,165,0,163,164,165,0,2819,0,0,0,0,0,0,0,0,0,0,0,0,0,0,0,0,4768,4770,32004,32039,32013,32013,32013,32013,32048,32021,32022,0,0,0,163,164,165,0,199,200,201,0,163,164,165,
225,0,199,200,201,0,1426,1427,1428,0,0,0,0,0,0,0,0,0,0,0,0,0,0,0,0,0,0,32012,32013,32013,32013,32013,32048,32022,0,0,0,205,206,207,0,1426,1427,1428,0,223,224,225,0,205
</data>
 </layer>
 <layer name="Layer 4" width="50" height="35">
  <data encoding="csv">
0,0,0,0,0,0,0,0,0,0,0,0,0,0,0,0,0,0,0,0,0,706,707,708,709,0,0,0,0,0,0,0,0,0,0,0,0,0,0,0,0,0,0,0,0,566,567,568,569,0,
0,566,567,568,569,0,0,0,0,0,0,0,0,0,0,0,0,0,0,0,0,846,847,848,849,0,0,0,0,0,0,0,0,0,0,0,0,0,0,0,0,0,0,0,0,706,707,708,709,0,
0,706,707,708,709,0,6989,0,0,0,0,0,0,0,0,0,0,0,0,0,0,986,987,988,989,0,0,0,0,0,0,0,0,0,0,0,0,0,0,0,0,0,0,0,0,846,847,848,849,0,
0,846,847,848,849,6991,6992,0,0,0,0,0,0,0,0,0,0,0,0,0,0,0,0,0,0,0,0,0,0,0,0,0,0,0,0,0,0,0,0,0,0,0,0,0,0,986,987,988,989,0,
0,986,987,988,989,7131,7132,0,0,0,0,0,0,0,0,0,0,0,0,0,0,0,0,0,0,0,0,0,0,0,0,0,0,0,0,0,0,0,0,0,0,0,0,1286,1287,1288,0,23,24,25,
0,0,83,84,85,0,0,0,0,0,0,0,0,0,0,0,0,0,0,0,0,0,0,0,0,0,0,0,0,0,0,0,0,0,0,0,0,0,0,0,0,0,0,0,0,23,24,25,0,1286,
1286,1287,1288,0,0,0,0,0,0,0,0,0,0,0,0,0,0,0,0,0,0,0,0,0,0,0,0,0,0,0,0,0,0,0,0,0,0,0,0,0,0,0,0,59,60,61,0,1286,1287,1288,
67,0,23,24,25,0,0,0,0,0,0,0,0,0,0,0,0,0,0,0,0,0,0,0,0,0,0,0,0,0,0,0,0,0,0,0,0,0,0,0,0,0,0,0,0,83,84,85,0,59,
83,84,85,0,0,0,0,0,0,0,0,0,0,0,0,0,0,0,0,0,0,0,0,0,0,0,0,0,0,0,0,0,0,0,0,0,0,0,0,0,0,0,0,1286,1287,1288,0,23,24,25,
25,0,1286,1287,1288,0,0,0,0,0,0,0,0,0,0,0,0,0,0,0,0,0,0,0,0,0,0,0,0,0,0,0,0,0,0,0,0,0,0,0,0,0,0,0,0,59,60,61,0,65,
23,24,25,0,0,0,0,0,0,0,0,0,0,0,0,0,0,0,0,0,0,0,0,0,0,0,0,0,0,0,0,0,0,0,0,0,0,0,0,0,0,0,0,59,60,61,0,1286,1287,1288,
85,0,65,66,67,0,0,0,0,0,0,15711,15712,15713,15714,0,0,0,0,0,0,0,0,0,0,0,0,0,0,0,0,0,0,0,0,0,0,0,0,0,0,59,60,61,0,23,24,25,0,59,
1286,1287,1288,0,0,15845,15846,15847,15848,15849,15850,15851,15852,15853,15854,0,0,0,0,0,0,0,0,0,0,0,0,0,0,0,0,0,0,0,0,0,0,0,0,0,0,0,0,65,66,67,0,23,24,25,
67,0,23,24,25,15985,15986,15987,15988,15989,15990,15991,15992,15993,15994,8662,8663,8663,8664,0,8662,8663,0,0,0,0,10863,0,0,0,0,0,0,0,0,0,0,0,0,0,0,59,60,61,0,83,84,85,0,65,
59,60,61,0,0,0,0,0,0,0,0,16131,16132,16133,16134,8802,0,0,8946,8663,8947,0,0,0,0,0,0,0,0,0,0,0,0,0,0,0,0,0,0,0,0,0,0,23,24,25,0,59,60,61,
25,0,1286,1287,1288,0,0,0,0,0,0,0,0,0,0,0,0,0,0,0,0,0,0,0,0,0,0,0,0,0,0,0,0,0,0,0,0,0,0,0,0,1286,1287,1288,0,59,60,61,0,1286,
23,24,25,0,0,0,0,0,0,0,0,0,0,0,0,0,0,0,0,0,0,0,0,0,0,0,0,0,0,0,0,0,0,0,0,0,0,0,0,83,84,85,0,59,60,61,0,65,66,67,
85,0,83,84,85,0,0,0,0,0,0,0,0,0,0,0,0,0,0,0,0,0,0,0,0,0,0,0,0,0,0,0,0,0,0,0,0,0,0,0,0,23,24,25,0,1286,1287,1288,0,65,
59,60,61,0,0,0,0,0,0,0,0,0,0,0,0,0,0,0,0,0,0,0,0,0,0,0,0,0,0,0,0,0,0,0,0,0,0,0,0,0,0,0,0,83,84,85,0,23,24,25,
85,0,59,60,61,0,0,0,0,0,0,0,0,0,0,0,0,0,0,0,0,0,0,0,0,0,0,0,0,0,0,0,0,0,0,0,0,0,0,0,0,23,24,25,0,23,24,25,0,65,
65,66,67,0,0,0,0,0,0,0,0,0,0,0,0,0,0,0,0,0,0,0,0,0,0,0,0,0,0,0,0,0,0,0,0,0,0,0,0,59,60,61,0,65,66,67,0,83,84,85,
25,0,1286,1287,1288,0,0,0,0,0,0,0,0,0,0,0,0,0,0,0,0,0,0,0,0,0,0,0,0,0,0,0,0,0,0,0,0,0,0,0,0,1286,1287,1288,0,59,60,61,0,1286,
59,60,61,0,83,84,85,0,59,60,61,0,0,0,0,0,0,0,0,0,0,0,0,0,0,0,0,0,0,0,0,0,0,0,0,0,0,0,0,23,24,25,0,59,60,61,0,65,66,67,
67,0,65,66,67,0,23,24,25,0,83,84,85,0,0,0,0,0,0,0,0,0,0,0,0,0,0,0,0,0,0,0,0,0,0,0,0,0,0,0,0,83,84,85,0,23,24,25,0,59,
23,24,25,0,1286,1287,1288,0,59,60,61,0,0,0,0,0,0,0,0,0,0,0,0,0,0,0,0,0,0,0,0,0,0,0,0,0,0,0,0,0,0,0,0,59,60,61,0,1286,1287,1288,
85,0,1286,1287,1288,0,83,84,85,0,0,0,0,0,0,0,0,0,0,0,0,0,0,0,0,0,0,0,0,0,0,0,0,0,0,0,0,0,0,0,0,23,24,25,0,23,24,25,0,59,
59,60,61,0,23,24,25,0,0,0,0,0,0,0,0,0,0,0,0,0,0,0,0,0,0,0,0,0,0,0,0,0,0,0,0,59,60,61,0,59,60,61,0,83,84,85,0,59,60,61,
25,0,65,66,67,0,1286,1287,1288,0,0,0,0,0,0,0,0,0,0,0,0,0,0,0,0,0,0,0,0,0,0,0,0,0,0,0,0,23,24,25,0,83,84,85,0,1286,1287,1288,0,1286,
83,84,85,0,59,60,61,0,0,0,0,0,0,0,0,0,0,0,0,0,0,0,0,0,0,0,0,0,0,0,0,0,0,0,0,0,0,0,0,59,60,61,0,23,24,25,0,23,24,25,
85,0,23,24,25,0,0,0,0,0,0,0,0,0,0,0,0,0,0,0,0,0,0,0,0,0,0,0,0,0,0,0,0,0,0,0,0,0,0,0,0,1286,1287,1288,0,83,84,85,0,65,
59,60,61,0,0,0,0,0,0,0,0,0,0,0,0,0,0,0,0,0,0,0,0,0,0,0,0,0,0,0,0,0,0,0,0,0,0,0,0,59,60,61,0,23,24,25,0,1286,1287,1288,
67,0,83,84,85,0,0,0,0,0,0,0,0,0,0,0,0,0,0,0,0,0,0,0,0,0,0,0,0,0,0,8811,8812,0,0,0,0,0,0,0,0,65,66,67,0,59,60,61,0,59,
23,24,25,0,23,24,25,0,0,0,0,0,0,0,0,0,0,0,0,0,0,0,0,0,0,0,0,0,0,8811,8812,8951,8952,0,0,0,0,0,0,23,24,25,0,59,60,61,0,23,24,25,
85,0,59,60,61,0,1286,1287,1288,0,0,0,0,0,0,0,0,0,0,0,0,0,0,0,0,0,0,0,0,8951,8952,0,0,0,0,0,0,65,66,67,0,1286,1287,1288,0,83,84,85,0,65,
1286,1287,1288,0,59,60,61,0,0,0,0,0,0,0,0,0,0,0,0,0,0,0,0,0,0,0,0,0,0,0,0,0,0,0,0,0,0,0,0,59,60,61,0,23,24,25,0,59,60,61
</data>
 </layer>
</map>
