<?xml version="1.0" encoding="UTF-8"?>
<map version="1.0" orientation="orthogonal" renderorder="right-down" width="30" height="30" tilewidth="32" tileheight="32" nextobjectid="1">
 <tileset firstgid="1" name="1" tilewidth="32" tileheight="32" tilecount="256" columns="8">
  <image source="Tiles/1.png" width="256" height="1024"/>
 </tileset>
 <tileset firstgid="257" name="2" tilewidth="32" tileheight="32" tilecount="256" columns="8">
  <image source="Tiles/2.png" width="256" height="1024"/>
 </tileset>
 <tileset firstgid="513" name="3" tilewidth="32" tileheight="32" tilecount="256" columns="8">
  <image source="Tiles/3.png" width="256" height="1024"/>
 </tileset>
 <tileset firstgid="769" name="4" tilewidth="32" tileheight="32" tilecount="256" columns="8">
  <image source="Tiles/4.png" width="256" height="1024"/>
 </tileset>
 <layer name="Layer 1" width="30" height="30">
  <data encoding="csv">
8,8,8,8,8,8,8,8,24,8,8,8,8,8,8,8,8,8,8,8,8,8,24,8,8,8,8,8,24,8,
8,8,8,8,8,8,8,8,24,8,8,8,8,8,8,8,8,8,8,8,8,8,8,8,8,8,8,8,24,8,
8,8,8,8,8,8,8,8,8,8,8,8,24,8,24,8,8,8,8,8,8,8,8,8,8,8,8,24,24,8,
8,8,8,8,8,8,8,8,8,8,8,8,24,8,8,8,8,8,8,8,24,8,8,8,8,8,8,8,24,8,
8,8,8,8,8,8,8,8,8,8,8,8,8,8,8,8,8,8,8,8,8,8,8,8,8,8,8,8,24,8,
8,8,24,8,8,8,8,8,8,8,24,8,8,8,8,8,8,8,8,8,8,8,8,8,8,8,8,8,8,8,
8,8,8,8,8,8,8,8,8,8,24,8,8,8,8,8,8,8,8,8,8,8,8,8,8,8,8,8,8,8,
8,8,8,8,8,8,8,8,8,8,8,8,351,24,8,8,8,8,8,8,8,8,8,8,8,8,24,8,8,8,
8,8,8,8,8,8,8,8,8,8,8,8,469,469,8,8,8,8,8,8,351,8,8,8,8,8,8,8,8,8,
8,8,8,8,24,8,8,8,8,8,8,469,469,469,469,8,351,460,461,462,351,8,8,8,8,8,8,8,8,8,
8,8,8,8,24,8,8,8,8,8,447,448,469,469,469,8,460,456,469,455,462,8,8,8,8,8,8,8,8,8,
8,8,8,8,8,8,8,8,8,8,455,456,469,447,448,469,476,448,447,477,478,8,8,8,8,8,8,8,8,8,
8,8,8,8,8,8,8,8,8,469,447,477,447,478,468,469,460,456,470,8,8,8,8,8,8,8,8,8,8,8,
8,8,8,8,8,8,8,8,8,469,478,460,455,461,456,469,468,447,478,400,8,8,8,8,8,8,8,8,8,8,
8,8,8,8,8,8,8,8,8,469,461,456,469,447,448,693,476,478,400,24,8,8,351,8,351,351,8,8,8,8,
8,8,8,8,8,8,8,8,8,24,460,462,469,455,456,8,8,8,8,8,8,8,8,8,351,8,8,8,8,8,
8,8,8,8,8,8,8,460,461,461,456,470,351,8,8,8,8,8,8,8,8,8,400,24,8,8,8,8,8,8,
461,462,8,8,8,460,461,456,447,477,477,478,8,8,8,8,8,8,8,8,24,8,460,461,462,8,8,8,8,8,
469,455,461,461,461,456,447,477,478,8,8,8,8,8,8,8,8,8,8,8,8,8,476,477,478,8,460,462,8,8,
477,448,469,469,477,477,478,8,351,8,8,8,8,8,8,8,8,8,8,8,8,8,8,24,8,8,476,478,460,461,
351,476,477,478,24,8,8,8,8,8,8,8,8,8,24,8,24,8,8,8,8,8,8,8,8,8,8,8,476,477,
351,8,8,8,8,8,8,8,8,8,8,8,8,8,8,8,8,8,8,8,8,8,24,24,8,8,8,8,8,8,
8,8,8,8,8,8,8,8,8,8,8,8,8,8,8,8,8,8,8,8,8,8,8,8,8,8,8,8,8,8,
24,8,8,8,8,8,8,8,8,8,8,8,8,8,8,8,8,8,8,8,8,8,8,8,8,8,24,8,8,8,
8,8,8,8,8,8,8,8,8,8,8,8,8,8,8,8,8,8,24,8,8,8,8,8,8,8,24,8,24,8,
8,8,8,8,24,8,8,8,8,8,8,8,8,8,8,8,8,24,8,8,24,8,8,8,8,8,8,8,8,8,
8,8,8,8,8,8,8,8,8,8,8,8,8,8,351,8,8,778,778,778,8,8,8,8,8,8,8,8,8,8,
8,8,8,8,8,8,8,8,8,8,8,8,8,8,8,24,24,778,778,778,8,778,351,8,8,8,8,8,8,8,
8,8,8,8,8,8,8,8,8,8,8,8,24,8,8,460,462,778,778,778,778,778,24,8,24,8,8,8,8,8,
8,8,8,8,8,8,8,8,8,8,8,8,8,351,460,456,455,461,462,778,778,778,8,8,8,8,8,8,8,8
</data>
 </layer>
 <layer name="Layer 2" width="30" height="30">
  <data encoding="csv">
41,42,43,0,41,42,43,0,180,181,182,0,180,181,182,0,44,45,46,0,20,21,22,0,44,45,46,0,121,122,
43,0,44,45,46,0,44,45,46,0,124,125,126,0,124,125,126,0,124,125,126,0,44,45,46,0,124,125,126,0,
124,125,126,0,308,309,310,0,44,45,46,0,92,93,94,0,124,125,126,0,41,42,43,0,41,42,43,0,44,45,
94,0,41,42,43,0,41,42,43,0,180,181,182,0,41,42,43,0,308,309,310,0,92,93,94,94,44,45,46,0,
41,42,43,0,124,125,126,0,124,125,126,0,44,45,46,0,124,125,126,0,41,42,43,0,124,125,126,0,41,42,
126,0,308,309,310,0,92,93,94,0,44,45,46,0,308,309,310,0,180,181,182,0,180,181,182,0,41,42,43,0,
44,45,46,0,41,42,43,0,180,181,182,0,124,125,126,0,41,42,43,0,124,125,126,0,308,309,310,0,41,42,
182,0,124,125,126,0,44,45,46,0,41,42,132,133,134,93,94,0,44,45,46,0,92,93,94,0,180,181,182,0,
41,42,43,0,180,181,182,0,308,309,310,151,791,792,48,0,308,309,310,0,180,181,182,0,41,42,43,0,92,93,
94,0,92,93,94,0,124,125,316,317,318,791,811,809,792,42,316,317,318,0,0,0,44,45,46,0,124,125,126,0,
41,42,43,0,41,42,43,0,295,296,791,811,151,120,801,0,0,0,0,0,41,42,43,0,124,125,126,0,41,42,
126,0,44,45,46,0,180,181,182,48,803,207,208,0,809,792,0,0,36,37,38,55,41,42,43,0,41,42,43,0,
92,93,94,0,41,42,43,0,0,791,811,215,216,0,814,801,0,0,44,45,46,120,48,0,92,93,94,0,92,93,
182,0,124,125,126,0,44,45,46,803,0,0,0,0,0,801,0,177,178,179,0,0,124,125,126,0,44,45,46,0,
41,42,43,0,308,309,310,0,0,799,794,794,795,0,793,800,0,0,0,0,0,0,0,0,308,309,310,0,41,42,
43,0,92,93,94,0,41,42,43,0,0,0,799,794,800,0,48,0,32,0,55,0,41,42,43,0,124,125,126,0,
44,45,46,0,124,125,126,0,0,0,0,0,180,181,182,0,0,0,0,0,0,0,0,0,44,45,46,0,308,309,
510,847,41,42,132,133,134,0,510,0,0,0,0,0,41,42,43,0,124,125,126,0,0,0,0,0,41,42,43,0,
0,0,0,0,0,0,0,0,0,0,32,0,92,93,94,0,308,309,310,0,32,55,0,0,0,0,0,0,41,42,
0,0,0,0,0,0,0,0,0,0,41,42,43,0,124,125,126,0,41,42,43,0,0,0,0,0,0,0,0,0,
0,0,0,0,0,0,55,55,41,42,43,0,41,42,43,0,180,181,182,0,41,42,43,0,41,42,43,0,0,0,
0,0,41,42,43,0,0,32,0,0,124,125,126,0,44,45,46,0,308,309,310,0,41,42,43,0,92,93,94,0,
180,181,182,0,44,45,46,0,180,181,182,0,44,45,46,0,124,125,126,41,42,42,43,0,308,309,310,0,41,42,
182,0,308,309,310,0,41,42,43,0,124,125,126,0,92,93,94,0,44,45,46,0,41,42,43,0,124,125,126,0,
41,42,43,0,92,93,94,0,44,45,46,0,180,181,182,0,41,42,43,0,92,93,94,0,41,42,43,0,41,42,
126,0,180,181,182,0,124,125,126,0,44,45,46,0,124,125,126,0,177,178,179,0,124,125,126,0,44,45,46,0,
92,93,94,0,41,42,43,0,41,42,43,0,41,42,129,130,131,791,810,792,41,42,43,0,41,42,43,0,92,93,
43,0,44,45,46,0,124,125,126,0,124,125,126,0,0,0,0,803,510,809,810,792,44,45,46,0,124,125,126,0,
308,309,310,0,92,93,94,0,308,309,310,0,92,93,94,0,0,799,794,795,0,801,0,0,180,181,182,0,41,42,
94,0,124,125,126,0,180,181,182,0,41,42,97,98,99,0,0,0,0,799,794,800,41,42,43,0,41,42,43,0
</data>
 </layer>
 <layer name="Layer 3" width="30" height="30">
  <data encoding="csv">
35,0,36,37,38,0,36,37,38,0,116,117,118,0,116,117,118,0,116,117,118,0,36,37,38,0,116,117,118,0,
116,117,118,0,300,301,302,0,36,37,38,0,84,85,86,0,116,117,118,0,33,34,35,0,33,34,35,0,36,37,
86,0,33,34,35,0,33,34,35,0,172,173,174,0,33,34,35,0,300,301,302,0,84,85,86,0,36,37,38,0,
33,34,35,0,116,117,118,0,116,117,118,0,36,37,38,0,116,117,118,0,33,34,35,0,116,117,118,0,33,34,
118,0,300,301,302,0,84,85,86,0,36,37,38,0,300,301,302,0,172,173,174,0,172,173,174,0,33,34,35,0,
36,37,38,0,33,34,35,0,172,173,174,0,116,117,118,0,33,34,35,0,116,117,118,0,300,301,302,0,33,34,
174,0,116,117,118,0,36,37,38,0,33,34,35,0,84,85,86,0,36,37,38,0,84,85,86,0,172,173,174,0,
33,34,35,0,172,173,174,0,300,301,302,143,43,0,92,0,300,301,302,0,172,173,174,0,33,34,35,0,84,85,
86,0,84,85,86,0,116,117,118,0,0,0,0,0,33,34,35,0,0,0,0,0,36,37,38,0,116,117,118,0,
33,34,35,0,33,34,35,0,126,151,0,0,143,112,41,0,43,0,0,0,33,34,35,0,116,117,118,0,33,34,
118,0,36,37,38,0,172,173,174,0,0,0,0,0,0,0,0,0,28,29,30,0,33,34,35,0,33,34,35,0,
84,85,86,0,33,34,35,0,0,0,0,0,0,0,0,0,0,0,0,0,0,112,0,0,84,85,86,0,84,85,
174,0,116,117,118,0,36,37,38,0,0,0,0,0,0,669,0,169,170,171,0,0,116,117,118,0,36,37,38,0,
33,34,35,0,300,301,302,0,0,0,0,0,0,0,0,685,0,0,0,0,0,0,0,0,300,301,302,0,33,34,
35,0,84,85,86,0,33,34,35,32,628,630,0,0,0,0,0,0,0,0,0,0,33,34,35,0,116,117,118,0,
36,37,38,0,116,117,118,0,0,0,0,0,172,173,174,0,0,0,0,0,0,0,0,0,36,37,38,0,300,301,
0,839,33,34,35,0,0,0,0,0,0,0,0,0,33,34,35,0,116,117,118,0,0,0,0,0,33,34,35,0,
0,0,0,0,43,303,304,0,0,0,0,0,84,85,86,0,300,301,302,0,0,0,0,0,0,0,0,0,33,34,
0,0,0,0,0,0,0,0,0,0,33,34,35,0,116,117,118,0,33,34,35,0,0,0,0,0,0,0,0,0,
0,0,0,0,0,0,0,0,33,34,35,0,33,34,35,0,172,173,174,0,33,34,35,0,33,34,35,0,0,0,
0,0,33,34,35,0,0,0,0,0,116,117,118,0,36,37,38,0,300,301,302,0,33,34,35,0,84,85,86,0,
172,173,174,0,36,37,38,0,172,173,174,0,36,37,38,0,116,117,118,0,33,34,35,0,300,301,302,0,33,34,
174,0,300,301,302,0,33,34,35,0,116,117,118,0,84,85,86,0,36,37,38,0,33,34,35,0,116,117,118,0,
33,34,35,0,84,85,86,0,36,37,38,0,172,173,174,0,33,34,35,0,84,85,86,0,33,34,35,0,33,34,
118,0,172,173,174,0,116,117,118,0,36,37,38,0,116,117,118,0,169,170,171,0,116,117,118,0,36,37,38,0,
84,85,86,0,33,34,35,0,33,34,35,0,33,34,35,0,0,0,0,0,33,34,35,0,33,34,35,0,84,85,
35,0,36,37,38,0,116,117,118,0,116,117,118,0,43,0,0,772,773,774,0,0,36,37,38,0,116,117,118,0,
300,301,302,0,84,85,86,0,300,301,302,0,84,85,86,0,0,780,781,808,773,774,0,0,172,173,174,0,33,34,
86,0,116,117,118,0,172,173,174,0,33,34,35,0,0,0,0,788,789,815,781,782,33,34,35,0,33,34,35,0,
33,34,35,0,116,117,118,0,36,37,38,0,43,0,0,0,0,0,0,788,789,790,0,0,172,173,174,0,33,34
</data>
 </layer>
 <layer name="Layer 4" width="30" height="30">
  <data encoding="csv">
108,109,110,0,292,293,294,0,28,29,30,0,76,77,78,0,108,109,110,0,25,26,27,0,25,26,27,0,28,29,
78,0,25,26,27,0,25,26,27,0,164,165,166,0,25,26,27,0,292,293,294,0,76,77,78,0,28,29,30,0,
25,26,27,0,108,109,110,0,108,109,110,0,28,29,30,0,108,109,110,0,25,26,27,0,108,109,110,0,25,26,
110,0,292,293,294,0,76,77,78,0,28,29,30,0,292,293,294,0,164,165,166,0,164,165,166,0,25,26,27,0,
28,29,30,0,25,26,27,0,164,165,166,0,108,109,110,0,25,26,27,0,108,109,110,0,292,293,294,0,25,26,
166,0,108,109,110,0,28,29,30,0,25,26,27,0,76,77,78,0,28,29,30,0,76,77,78,0,164,165,166,0,
25,26,27,0,164,165,166,0,292,293,294,0,0,0,0,0,292,293,294,0,164,165,166,0,25,26,27,0,76,77,
78,0,76,77,78,0,108,109,110,0,0,0,0,0,25,26,27,0,0,144,0,0,28,29,30,0,108,109,110,0,
25,26,27,0,25,26,27,0,0,143,0,0,0,0,0,0,0,0,0,152,25,26,27,0,108,109,110,0,25,26,
110,0,28,29,30,0,164,165,166,0,0,0,0,0,0,0,0,0,0,0,0,0,25,26,27,0,25,26,27,0,
76,77,78,0,25,26,27,0,0,0,0,0,0,0,0,0,0,0,0,0,0,0,0,0,76,77,78,0,76,77,
166,0,108,109,110,0,28,29,30,0,0,0,0,0,0,0,0,161,162,163,0,0,108,109,110,0,28,29,30,0,
25,26,27,0,292,293,294,0,0,0,0,0,0,0,0,0,0,0,0,0,0,0,0,0,292,293,294,0,25,26,
27,0,76,77,78,0,25,26,27,0,0,0,0,0,0,0,0,0,0,0,0,0,25,26,27,0,108,109,110,0,
28,29,30,0,108,109,110,0,0,0,0,0,164,165,166,0,0,0,0,0,0,0,0,0,28,29,30,0,292,293,
0,0,25,26,27,0,0,0,0,0,0,0,0,0,25,26,27,0,108,109,110,0,0,0,0,0,25,26,27,0,
0,0,0,0,0,0,0,0,0,0,0,0,76,77,78,0,292,293,294,0,0,0,0,0,0,0,0,0,25,26,
0,0,0,0,0,0,0,0,0,0,25,26,27,0,108,109,110,0,25,26,27,0,0,0,0,0,0,0,0,0,
0,0,0,0,0,0,0,0,25,26,27,0,25,26,27,0,164,165,166,0,25,26,27,0,25,26,27,0,0,0,
0,0,25,26,27,0,0,0,0,0,108,109,110,0,28,29,30,0,292,293,294,0,25,26,27,0,76,77,78,0,
164,165,166,0,28,29,30,0,164,165,166,0,28,29,30,0,108,109,110,0,25,26,27,0,292,293,294,0,25,26,
166,0,292,293,294,0,25,26,27,0,108,109,110,0,76,77,78,0,28,29,30,0,25,26,27,0,108,109,110,0,
25,26,27,0,76,77,78,0,28,29,30,0,164,165,166,0,25,26,27,0,76,77,78,0,25,26,27,0,25,26,
110,0,164,165,166,0,108,109,110,0,28,29,30,0,108,109,110,0,161,162,163,0,108,109,110,0,28,29,30,0,
76,77,78,0,25,26,27,0,25,26,27,0,25,26,27,0,0,0,0,0,25,26,27,0,25,26,27,0,76,77,
27,0,28,29,30,0,108,109,110,0,108,109,110,0,0,0,0,0,0,0,0,0,28,29,30,0,108,109,110,0,
292,293,294,0,76,77,78,0,292,293,294,0,76,77,78,0,0,0,0,0,0,0,0,0,164,165,166,0,25,26,
78,0,108,109,110,0,164,165,166,0,25,26,27,0,0,0,0,0,0,0,0,0,25,26,27,0,25,26,27,0,
25,26,27,0,108,109,110,0,28,29,30,0,0,0,0,0,0,0,0,0,0,0,0,0,164,165,166,0,25,26,
166,0,25,26,27,0,292,293,294,0,25,26,27,0,0,0,0,0,0,0,0,0,292,293,294,0,25,26,27,0
</data>
 </layer>
</map>
