<?xml version="1.0" encoding="UTF-8"?>
<map version="1.0" orientation="orthogonal" renderorder="right-down" width="34" height="34" tilewidth="32" tileheight="32" nextobjectid="1">
 <tileset firstgid="1" name="Pro all tiles" tilewidth="32" tileheight="32" tilecount="1024" columns="32">
  <image source="Tiles/Pro all tiles.png" width="1024" height="1024"/>
 </tileset>
 <tileset firstgid="1025" name="tile group" tilewidth="32" tileheight="32" tilecount="21000" columns="140">
  <image source="Tiles/tile group.png" width="4480" height="4800"/>
 </tileset>
 <tileset firstgid="22025" name="hgss2" tilewidth="32" tileheight="32" tilecount="210" columns="15">
  <image source="Tiles/hgss2.png" width="480" height="448"/>
 </tileset>
 <tileset firstgid="22235" name="Sinoh Pokémon overworld" tilewidth="32" tileheight="32" tilecount="1188" columns="22">
  <image source="Tiles/Sinoh Pokémon overworld.png" width="704" height="1728"/>
 </tileset>
 <layer name="Layer 1" width="34" height="34">
  <data encoding="csv">
359,359,552,552,552,552,4248,552,552,552,552,552,552,359,359,552,552,552,552,552,552,552,552,552,552,552,359,359,552,552,552,552,552,552,
359,552,552,552,552,552,552,552,552,4248,552,552,552,552,552,552,552,552,552,552,552,552,552,552,552,552,552,359,552,552,359,552,552,552,
552,552,552,552,552,552,552,359,359,359,552,552,552,552,552,552,552,552,552,552,552,552,552,552,552,552,552,552,552,552,552,552,552,552,
552,552,552,552,552,552,552,552,552,552,552,552,552,552,552,552,552,552,552,552,552,3126,3127,3128,552,552,552,552,552,552,552,552,552,552,
552,552,552,552,552,552,552,4248,552,552,359,552,4248,552,552,552,552,359,552,3126,3127,3687,3267,3268,552,552,552,552,552,552,552,552,552,552,
552,552,552,552,552,552,552,552,552,552,552,552,552,3827,3827,552,552,552,3126,3687,3267,3267,3546,3408,552,552,552,4248,552,552,552,552,552,552,
552,552,552,552,552,552,552,552,552,552,552,3827,3827,3827,552,552,552,3827,3266,3267,3267,3546,3408,552,552,552,552,552,552,552,552,552,552,552,
552,552,552,552,552,552,552,552,552,3827,552,552,552,552,552,552,552,552,3406,3407,3407,3408,552,552,4736,4736,4736,4736,552,552,552,552,552,359,
552,552,552,552,552,359,359,552,552,552,552,552,552,552,552,552,552,3827,3827,552,552,552,552,552,552,552,552,4736,552,552,552,552,552,359,
552,552,552,552,3126,3127,3127,3127,3127,3127,3128,552,552,552,552,552,552,552,552,552,552,552,552,552,552,552,552,552,552,552,552,552,552,359,
4248,552,552,552,3266,3267,3267,3267,3267,3267,3268,552,552,552,3827,552,4248,552,552,552,552,552,552,552,552,552,552,552,552,552,552,552,552,552,
552,552,552,552,3406,3547,3267,3267,3267,3267,3686,3128,552,552,552,552,552,552,552,552,552,552,4248,4248,552,552,552,552,552,552,552,552,552,552,
552,552,552,552,552,3406,3547,3267,3267,3267,3267,3268,552,552,552,359,552,552,552,552,552,552,552,552,552,552,552,552,552,552,552,552,552,359,
552,552,552,552,552,552,3406,3407,3547,3267,3267,3268,552,552,552,552,552,552,552,552,552,552,552,4248,552,552,552,552,552,552,552,552,552,552,
552,552,552,552,552,552,552,552,3406,3407,3407,3408,552,3827,552,552,552,552,552,552,552,552,552,552,552,552,3126,3127,3128,552,552,552,552,552,
552,552,359,552,552,552,552,552,552,3827,552,3827,552,552,552,552,552,4248,552,552,552,552,552,3126,3127,3127,3687,3267,3268,552,552,359,552,552,
552,552,552,552,552,552,552,552,552,552,552,552,552,552,552,552,552,552,552,3827,3126,3127,3127,3687,3267,3267,3267,3546,3408,552,552,552,552,552,
552,552,359,552,4248,552,552,552,552,552,552,552,552,3126,3127,3128,552,552,3126,3127,3687,3267,3267,3267,3267,3267,3546,3408,552,552,552,552,552,552,
552,552,552,552,552,552,552,552,552,552,552,552,3827,3266,3267,3268,552,552,3266,3267,3267,3267,3267,3267,3546,3407,3408,552,552,552,552,552,552,552,
552,552,552,552,552,552,552,552,552,552,3126,3127,3127,3687,3267,3686,3127,3128,3266,3267,3267,3267,3546,3407,3408,552,552,552,552,552,552,552,552,552,
552,552,4248,552,552,552,552,552,552,552,3266,3267,3267,3267,3267,3267,3267,3686,3687,3267,3267,3267,3686,3127,3127,3127,3128,552,552,552,552,552,552,552,
4248,552,552,552,552,552,552,552,3126,3127,3687,3267,3267,3267,3267,3267,3267,3267,3267,3267,3267,3267,3267,3267,3267,3267,3268,552,552,552,552,552,552,552,
552,552,552,552,552,552,552,3126,3687,3267,3267,3267,3267,3546,3407,3407,3547,3267,3267,3267,3267,3546,3547,3267,3267,3267,3686,3128,552,552,552,552,552,552,
552,552,552,552,552,552,552,3266,3267,3267,3546,3407,3407,3408,552,552,3266,3267,3267,3267,3546,3408,3406,3407,3547,3267,3267,3268,552,552,552,4248,552,552,
552,4248,552,552,552,552,552,3406,3407,3407,3408,552,552,552,552,552,3266,3267,3267,3546,3408,552,552,552,3406,3407,3407,3408,552,552,552,552,552,4248,
552,552,552,552,552,552,552,552,552,552,552,552,552,552,552,552,3266,3267,3267,3268,552,552,552,552,552,552,552,552,552,552,552,552,552,552,
552,552,552,552,552,552,552,552,552,552,552,552,552,552,552,552,673,485,3267,3268,552,552,552,552,552,552,552,552,552,552,552,552,552,552,
552,552,552,552,552,552,552,359,552,552,552,552,552,552,552,552,609,517,3267,3268,552,552,552,552,552,552,552,552,552,552,552,552,552,552,
4248,552,552,552,552,552,552,552,552,552,552,552,552,552,552,552,3266,3267,484,675,552,552,552,552,359,552,552,552,4248,552,552,552,552,552,
552,552,552,552,552,552,552,552,552,552,359,552,552,552,552,552,3266,3267,643,552,552,552,359,359,552,552,552,552,552,552,552,4248,552,552,
552,552,552,552,552,552,552,552,552,552,552,552,552,552,552,552,3266,3267,516,611,552,552,359,552,552,552,552,552,552,552,552,552,552,552,
552,552,552,552,552,552,552,359,359,552,552,552,552,552,552,552,3266,3267,3267,3268,552,552,552,552,552,552,552,552,552,552,552,552,552,552,
552,552,552,552,552,552,552,552,552,552,552,552,552,552,552,552,3266,3267,3267,3268,552,552,552,552,552,552,552,552,552,552,552,552,552,552,
552,552,552,4248,552,552,552,552,552,359,359,552,4248,552,552,552,3266,3267,3267,3268,552,552,552,552,552,552,552,552,552,552,4248,552,552,552
</data>
 </layer>
 <layer name="Layer 2" width="34" height="34">
  <data encoding="csv">
0,0,0,0,0,0,0,0,5938,5799,5799,5799,5800,0,0,0,0,0,0,0,5798,5799,5799,5800,0,0,0,0,5798,5799,5799,5799,5939,0,
0,0,5938,5799,5799,5799,5799,5799,5800,0,0,0,0,5938,5799,5799,5799,5799,5799,5799,5799,5799,5799,5799,5799,5799,5939,0,0,0,0,0,5798,5939,
0,5938,5800,0,0,0,0,0,0,5938,5799,5799,5799,5800,0,0,0,0,0,4109,0,0,0,15,3835,0,5798,5799,5799,5799,5939,0,0,5658,
0,5660,0,5938,5799,5799,5799,5799,5799,5800,0,0,0,0,0,0,0,0,0,0,3976,0,0,0,15,3835,176,15,15,15,5798,5939,0,5658,
5938,5800,0,5660,0,0,0,0,0,0,0,0,0,0,0,0,0,0,0,0,0,0,0,360,0,15,15,0,3843,0,0,5798,5939,5798,
5660,0,5938,5800,2110,2111,2112,2113,0,0,0,3835,0,0,0,0,0,0,0,0,0,0,0,0,0,22187,0,0,15,0,0,0,5658,0,
5660,0,5660,0,2250,2251,2252,2253,0,0,0,0,0,0,0,0,0,0,0,0,0,0,0,0,0,0,0,0,0,15,48,0,5658,0,
5800,0,5660,0,2390,2391,2392,2393,0,0,5518,5519,5519,5520,0,0,0,0,0,0,0,0,0,0,0,0,0,0,0,0,15,0,5658,0,
0,5938,5800,0,0,0,0,0,2814,0,5798,5939,0,5660,0,0,0,0,0,0,994,0,0,0,0,0,0,0,0,0,0,15,5658,0,
0,5660,0,0,0,0,0,0,0,0,0,5658,0,5660,0,0,0,3843,0,3843,0,0,0,0,176,0,0,0,0,0,15,0,5658,0,
0,5660,0,3835,0,0,0,0,0,0,0,5798,5939,5660,0,0,0,0,22202,0,0,752,0,0,0,0,0,0,0,0,0,0,5658,0,
0,5660,0,0,0,0,0,0,0,0,0,0,5658,5660,994,0,0,0,0,0,0,0,0,0,0,0,0,0,0,0,0,0,5658,0,
5938,5800,0,0,0,0,0,0,0,0,0,0,5798,5800,0,0,0,0,3978,3979,3980,0,0,0,0,176,3843,0,0,0,0,3835,5658,0,
5660,0,0,22187,0,0,0,0,0,0,0,0,0,15,0,0,0,239,4118,4119,0,0,0,0,0,0,0,0,0,0,3835,0,5798,5939,
5660,0,0,0,0,239,0,360,0,0,0,0,15,0,15,0,0,0,4258,4259,4259,0,0,4109,0,0,0,0,0,0,0,0,3843,5658,
5660,0,0,0,3829,3835,0,15,48,0,15,0,15,48,15,0,0,0,0,0,0,0,0,0,0,0,0,0,0,0,0,0,0,5658,
5660,0,0,0,0,0,15,48,15,15,48,15,15,3843,0,0,0,752,0,0,0,0,0,0,0,0,0,0,0,15,15,0,0,5658,
6078,5520,0,0,0,3843,0,15,0,15,15,15,0,0,0,0,5518,5520,0,0,0,0,0,0,0,0,0,0,15,176,15,0,239,5658,
0,5660,0,0,0,15,48,15,15,48,15,0,0,0,0,0,5798,5800,0,0,0,0,0,0,0,0,0,15,15,176,0,15,0,5658,
0,5660,0,0,3835,0,0,15,15,15,0,0,0,0,0,0,0,0,0,0,0,0,0,0,0,15,15,15,15,15,0,15,0,5658,
0,5660,0,0,3843,0,15,48,48,15,0,0,0,0,0,0,0,0,0,0,0,0,0,0,0,0,0,176,176,176,0,15,0,5658,
0,5660,0,0,0,15,0,15,0,0,0,0,0,0,0,0,0,0,0,0,0,0,0,0,0,0,0,0,0,0,15,48,5518,6079,
0,6078,5520,0,0,0,0,0,0,0,0,0,0,0,0,0,0,0,0,0,0,0,0,0,0,0,0,0,0,15,15,0,5658,0,
5520,0,5660,0,0,0,0,0,0,0,0,0,0,0,994,0,0,0,0,0,0,0,0,0,0,0,0,0,0,15,15,0,5658,0,
5660,0,5660,0,4109,0,0,0,0,0,0,15,15,15,0,15,0,0,0,0,0,0,994,0,0,0,0,0,15,15,15,0,5658,0,
5660,0,6078,5520,0,0,0,0,0,0,0,239,15,15,0,15,0,0,0,0,0,0,0,22187,0,3843,0,0,15,48,176,0,5658,0,
6078,5520,0,5660,0,0,0,0,0,0,0,15,48,15,15,0,0,0,0,0,0,0,0,0,0,0,0,15,15,15,0,5518,6079,0,
0,5660,0,6078,5520,0,0,0,0,15,15,22187,15,15,48,0,0,0,0,0,0,0,0,0,0,0,15,15,0,15,15,5658,0,5518,
0,5660,0,0,5660,0,0,0,0,15,48,0,15,0,0,0,0,0,0,0,0,0,0,0,0,0,0,0,0,0,5518,6079,0,5658,
0,5660,0,0,5660,0,0,0,0,0,0,15,0,0,0,0,0,0,0,0,0,0,0,0,0,0,0,0,0,5518,6079,0,5518,6079,
0,6078,5520,0,6078,5520,0,0,0,0,0,0,0,0,0,0,0,0,0,0,0,0,0,0,0,0,0,5518,5519,6079,0,0,5658,0,
0,0,5660,0,0,6078,5520,0,0,5518,5519,5519,5519,5519,5520,0,0,0,0,0,0,0,0,5518,5519,5519,5519,6079,0,0,5518,5519,6079,0,
0,0,6078,5519,5520,0,6078,5519,5519,6079,0,0,0,0,5660,0,0,0,0,0,5518,5519,5519,6079,0,0,0,5518,5519,5519,6079,0,0,0,
0,0,0,0,6078,5519,5519,5520,0,0,0,0,0,0,6078,5520,0,0,0,0,5658,0,0,0,5518,5519,5519,6079,0,0,0,0,0,0
</data>
 </layer>
 <layer name="Layer 3" width="34" height="34">
  <data encoding="csv">
0,0,2106,2107,2108,2109,0,0,0,0,0,0,0,0,2110,2111,2112,2113,0,0,0,0,0,0,2326,2327,2328,0,0,0,0,0,0,0,
0,0,2246,2247,2248,2249,0,0,0,0,0,0,0,0,2250,2251,2252,2253,0,0,0,2718,2719,0,2466,2467,2468,0,0,0,0,0,0,0,
0,0,2386,2387,2388,2389,0,0,0,0,7267,0,0,0,2390,2391,2392,2393,0,0,0,2858,2859,0,2606,2607,2608,0,0,0,0,0,0,0,
0,0,0,0,0,0,0,0,0,0,7407,0,0,0,0,0,0,0,0,0,0,2998,2999,0,2746,2747,2748,0,0,1044,1045,1046,0,0,
0,0,0,0,0,0,0,0,0,0,0,0,0,0,0,3976,0,0,0,0,0,0,0,0,0,0,0,0,0,1184,1185,1186,0,0,
0,0,0,7267,0,0,1966,1967,1968,3976,0,0,0,8080,8081,8082,8083,8084,0,0,0,0,0,0,0,0,0,0,0,1324,1325,1326,0,0,
0,0,0,7407,0,0,2106,2107,2108,2109,0,0,0,8220,8221,8222,8223,8224,0,0,0,0,0,4595,4596,4596,4596,4596,4597,0,0,4124,0,0,
0,0,0,0,0,0,2246,2247,2248,2249,0,0,0,8360,8361,8362,8363,8364,0,0,0,0,4595,5156,0,0,0,0,5155,4597,0,0,0,0,
0,0,0,0,0,0,2386,2387,2388,2389,0,0,0,8500,8501,8502,8503,8504,0,0,0,4595,5156,5015,4876,4876,5016,0,5015,4877,2113,2114,1966,1967,
0,1634,1635,1636,1637,0,0,0,0,0,0,0,0,8640,8641,8642,8643,8644,0,0,0,4875,5016,4737,0,0,4735,5015,4877,0,2253,2254,2106,2107,
0,1774,1775,1776,1777,0,0,0,0,0,0,0,0,0,0,0,0,0,0,0,0,0,4875,4877,0,0,4875,4877,0,0,2393,2394,2246,2247,
0,1914,1915,1916,1917,0,0,0,0,0,0,0,0,0,0,0,0,0,0,8080,8081,8082,8083,8084,0,0,0,0,0,0,0,0,2386,2387,
0,2054,2055,2056,2057,0,0,0,0,0,0,0,0,0,0,0,0,0,0,8220,8221,8222,8223,8224,0,0,0,0,0,0,0,0,0,0,
0,2194,2195,2196,2197,0,0,0,0,0,0,0,0,0,0,0,0,0,0,8360,8361,8362,8363,8364,0,0,0,0,0,0,0,0,0,0,
0,0,0,0,0,0,0,0,0,0,0,0,0,0,0,0,3976,0,0,8500,8501,8502,8503,8504,0,0,0,0,0,0,0,0,0,0,
0,0,0,0,0,0,0,0,0,0,0,0,0,0,0,0,0,0,0,8640,8641,8642,8643,8644,0,0,0,0,0,0,0,0,7267,0,
0,0,0,0,0,0,0,0,0,0,0,0,0,0,0,0,0,0,0,0,0,0,0,0,0,0,0,0,0,0,0,0,7407,0,
0,0,0,0,0,0,0,0,0,0,0,0,0,0,0,0,0,0,0,0,0,0,0,0,0,0,0,0,0,0,0,0,0,0,
0,0,0,0,0,0,0,0,0,0,0,0,0,0,0,0,0,0,0,0,0,0,0,0,0,0,0,1966,1967,1968,1969,0,0,0,
0,0,0,0,0,0,0,0,0,0,0,0,0,0,0,0,0,0,0,0,0,0,0,0,0,0,0,2106,2107,2108,2109,0,0,0,
0,0,0,0,0,0,0,0,0,0,0,0,0,0,0,0,0,0,0,0,0,0,0,0,0,0,0,2246,2247,2248,2249,0,0,7267,
0,0,0,0,0,0,0,0,0,0,0,0,0,0,0,0,0,0,0,0,0,0,0,0,0,0,0,2386,2387,2388,2389,0,0,7407,
0,0,0,0,0,0,0,0,0,0,0,0,0,0,0,0,0,0,0,0,0,0,0,0,0,0,0,0,0,0,0,0,0,0,
0,0,0,0,0,2310,2311,2312,0,0,0,0,0,0,0,0,0,0,0,0,0,0,0,0,0,0,0,0,0,0,0,0,0,0,
0,0,0,0,0,2450,2451,2452,2718,2719,0,0,0,0,0,0,0,0,0,0,0,0,0,0,0,0,0,0,0,0,0,0,0,0,
0,0,0,0,0,2590,2591,2592,2858,2859,0,0,0,0,0,0,0,0,0,0,0,0,0,0,0,0,0,0,0,0,0,0,0,0,
0,0,0,0,0,0,0,0,2998,2999,0,0,0,0,0,0,0,0,0,0,0,0,0,0,0,0,0,0,0,0,0,0,0,0,
0,0,0,0,0,0,0,0,0,0,0,0,0,0,0,0,0,0,0,0,0,0,0,0,0,0,0,0,0,0,0,0,0,0,
0,0,0,0,0,0,0,0,0,0,0,0,0,0,0,0,0,0,0,0,0,0,0,0,2310,2311,2312,0,0,0,0,0,0,0,
0,0,0,0,0,0,0,0,0,0,0,0,0,0,0,0,0,0,0,0,0,0,0,0,2450,2451,2452,0,0,0,0,0,0,0,
1967,1968,1969,0,0,0,0,0,0,0,0,0,0,0,0,0,0,0,0,0,0,0,0,0,2590,2591,2592,0,0,0,0,0,0,0,
2107,2108,2109,0,0,0,0,0,0,0,0,0,0,0,0,0,0,0,0,0,0,0,0,0,0,0,0,0,0,0,0,0,0,0,
2247,2248,2249,0,0,0,0,0,0,0,0,0,0,0,0,0,0,0,0,0,0,0,0,0,0,0,0,0,0,0,0,0,0,0,
2387,2388,2389,0,0,0,0,0,0,0,0,0,0,0,0,0,0,0,0,0,0,0,0,0,0,0,0,0,0,0,0,0,0,0
</data>
 </layer>
 <layer name="Calque 4" width="34" height="34">
  <data encoding="csv">
0,0,0,0,0,0,0,0,0,0,0,0,0,0,7836,0,1966,1967,1968,2857,0,0,0,0,0,0,0,0,0,0,0,0,0,0,
0,0,0,0,0,0,2717,0,0,0,0,0,0,0,7976,0,2106,2107,2108,2997,0,0,0,0,0,0,0,0,0,0,0,0,0,0,
2717,0,0,0,0,0,2857,0,0,0,0,0,0,0,8116,0,2246,2247,2248,2249,0,0,0,0,0,0,0,0,0,0,0,0,0,0,
2857,0,0,0,0,0,2997,0,0,0,0,0,0,0,0,0,2386,2387,2388,2389,0,0,0,0,0,0,0,0,0,0,0,0,0,0,
2997,0,0,0,0,0,0,0,0,0,1966,1967,1968,1969,0,0,0,0,0,0,0,0,0,0,23298,0,0,0,0,0,0,0,0,0,
0,0,0,0,0,0,0,0,0,0,2106,2107,2108,2109,0,0,0,0,0,0,0,0,0,0,0,0,0,0,0,0,0,0,0,0,
0,0,0,0,0,0,0,0,0,0,2246,2247,2248,2249,0,0,0,0,0,0,0,0,0,0,0,0,0,0,0,0,0,0,0,0,
0,0,0,0,0,0,0,0,0,0,2386,2387,2388,2389,0,0,0,0,0,0,0,0,0,0,0,0,0,0,0,0,0,0,0,0,
0,0,0,0,0,0,0,0,0,23341,0,0,0,0,0,0,0,0,0,0,0,0,0,0,0,7556,0,2110,2111,2112,2113,0,0,0,
0,0,0,0,0,0,0,0,0,0,0,0,0,0,0,0,0,0,0,0,0,0,0,0,0,7696,0,2250,2251,2252,2253,0,0,0,
0,0,0,0,0,0,0,0,0,0,0,0,0,0,0,0,0,0,0,0,0,0,0,0,0,0,0,2717,2391,2392,2393,0,0,0,
0,0,0,0,7836,0,0,0,0,0,0,0,0,0,0,0,0,0,0,0,0,0,0,0,0,0,0,2857,0,0,23343,0,0,0,
0,0,0,0,7976,0,0,0,0,0,0,0,0,0,0,0,0,0,0,0,0,0,0,0,0,0,0,2997,0,0,0,7836,0,0,
1966,1967,1968,1969,8116,0,0,0,0,0,0,0,0,0,0,0,0,0,0,0,0,0,0,0,0,0,0,0,0,0,0,7976,0,0,
2106,2107,2108,2109,0,0,0,0,0,0,0,0,0,0,0,0,0,0,0,0,0,0,0,0,0,0,0,0,0,0,0,8116,0,0,
2246,2247,2248,2249,0,0,0,0,0,0,0,0,0,0,0,0,0,0,0,23320,0,0,0,0,0,0,0,0,0,0,0,0,0,0,
2386,2387,2388,2389,0,0,0,0,0,0,0,0,0,0,0,0,0,0,0,0,0,0,0,0,0,0,0,0,0,0,0,0,0,0,
0,0,0,0,0,0,0,0,0,0,0,0,0,0,0,0,0,23366,0,0,0,0,0,0,0,0,0,0,0,0,0,0,0,0,
0,0,3843,0,0,0,0,0,0,0,0,0,0,0,22299,0,0,0,22299,0,0,0,0,0,0,0,0,0,0,0,0,0,0,0,
0,0,0,0,0,23341,0,0,0,0,0,0,0,22321,0,0,0,0,0,22321,0,0,0,0,0,0,0,0,0,0,0,0,0,0,
0,0,0,0,0,0,0,0,0,0,0,0,0,0,0,22321,0,0,0,0,0,0,0,0,0,0,0,0,0,0,0,0,0,0,
0,0,0,0,0,0,0,0,0,0,0,0,0,0,0,4358,0,22299,0,0,0,0,0,0,0,0,0,0,0,0,0,0,0,0,
0,0,0,0,0,0,0,0,0,0,0,0,0,0,0,0,0,0,0,4358,0,0,0,0,0,0,0,0,23298,23298,23298,0,0,0,
0,0,0,0,0,0,0,0,0,0,0,0,0,0,4358,0,0,0,0,0,4358,0,0,0,0,0,0,0,0,0,0,0,0,0,
0,0,0,0,0,0,0,0,0,0,0,0,0,0,0,0,4358,0,0,0,0,0,0,0,0,0,0,0,0,0,0,0,0,0,
0,0,0,0,0,0,0,0,0,0,0,0,0,0,0,0,0,0,4358,0,0,0,0,0,0,0,0,0,0,0,0,0,303,0,
0,0,0,0,1966,1967,1968,1969,0,0,0,0,0,0,0,0,0,0,0,0,0,0,0,0,0,0,0,0,0,0,0,0,335,0,
0,0,0,0,2106,2107,2108,2109,0,0,0,0,0,0,0,0,0,0,0,0,0,0,0,0,0,0,0,0,0,0,0,0,0,0,
0,0,0,0,2246,2247,2248,2249,0,0,0,0,0,23344,0,0,0,0,0,0,0,0,0,0,0,0,0,0,0,0,0,0,0,0,
0,0,0,0,2386,2387,303,2389,0,0,0,0,0,0,23364,0,0,0,0,0,0,0,0,0,0,0,0,0,0,0,0,0,0,2717,
0,0,0,0,0,0,335,0,0,0,0,2717,0,0,0,0,0,0,0,0,0,0,0,0,0,0,0,0,0,0,0,0,0,2857,
0,0,0,0,0,0,0,0,0,0,0,2857,0,0,0,0,0,0,0,0,0,0,0,0,0,0,0,0,0,0,0,0,0,2997,
0,0,0,0,0,0,0,0,0,0,0,2997,0,0,0,0,0,0,0,0,0,0,0,0,0,0,0,0,0,0,0,0,0,0,
0,0,0,0,0,0,0,0,0,0,0,0,0,0,0,0,0,0,0,0,0,0,0,0,0,0,0,0,0,0,0,0,0,0
</data>
 </layer>
</map>
