<?xml version="1.0" encoding="UTF-8"?>
<map version="1.10" tiledversion="1.11.2" orientation="orthogonal" renderorder="right-down" width="72" height="74" tilewidth="32" tileheight="32" infinite="0" nextlayerid="5" nextobjectid="1">
 <tileset firstgid="1" name="Pro all tiles" tilewidth="32" tileheight="32" tilecount="1024" columns="32">
  <image source="Tiles/Pro all tiles.png" width="1024" height="1024"/>
 </tileset>
 <tileset firstgid="1025" name="tile group" tilewidth="32" tileheight="32" tilecount="21000" columns="140">
  <image source="Tiles/tile group.png" width="4480" height="4800"/>
 </tileset>
 <tileset firstgid="22025" name="sinnohtiles" tilewidth="32" tileheight="32" tilecount="1554" columns="37">
  <image source="Tiles/sinnohtiles.png" width="1214" height="1356"/>
 </tileset>
 <tileset firstgid="23579" name="the_public_pokemon_tileset_by_thatssowitty-d4ni56y" tilewidth="32" tileheight="32" tilecount="7000" columns="8">
  <image source="Tiles/the_public_pokemon_tileset_by_thatssowitty-d4ni56y.png" width="256" height="28000"/>
 </tileset>
 <layer id="1" name="Layer 1" width="72" height="74">
  <data encoding="csv">
3827,552,552,552,552,552,552,552,552,552,552,552,552,552,552,552,552,552,552,552,552,552,552,552,552,4248,4248,552,552,552,552,552,552,552,552,552,3126,3687,3267,3267,3267,3267,3267,3686,3128,552,552,552,552,552,552,552,552,552,552,552,552,552,552,552,552,552,552,552,552,552,552,552,552,552,552,552,
552,552,552,552,552,552,552,552,552,552,552,552,552,552,552,552,552,552,552,552,552,552,552,552,4248,552,552,552,552,552,552,552,552,552,552,3126,3687,3267,3267,3546,3407,3547,3267,3267,3686,3128,552,552,552,552,552,552,552,552,552,552,552,552,552,552,552,552,552,552,552,552,552,552,552,552,552,552,
552,552,552,552,552,552,552,552,552,552,552,552,552,552,552,552,552,552,552,552,552,552,552,552,4248,552,552,552,552,552,552,552,552,552,552,3266,3267,3267,3546,3408,552,3406,3547,3267,3267,3268,552,552,552,552,552,552,552,552,552,552,552,552,552,552,552,552,552,552,552,552,552,552,552,552,552,552,
552,552,552,552,552,552,552,552,552,552,552,552,552,552,552,552,552,552,552,552,552,552,552,552,552,552,552,552,552,552,552,552,552,552,552,3406,3407,3407,3408,552,552,552,3406,3407,3407,3408,552,552,552,552,552,552,552,552,552,552,552,552,552,552,552,552,552,552,552,552,552,552,552,552,552,552,
552,552,552,552,552,552,552,552,552,552,552,552,552,552,552,552,552,552,552,552,552,552,552,552,552,552,552,552,552,552,552,552,552,552,23927,23927,23927,23927,23927,23927,552,23927,23927,23927,23927,23927,23927,552,552,552,552,552,552,552,552,552,552,552,552,552,552,552,552,552,552,552,552,552,552,552,552,552,
552,552,552,552,552,552,552,552,552,552,552,552,552,552,552,4248,4248,552,552,552,552,552,552,552,552,552,552,552,552,552,552,552,552,23927,23927,23927,23927,23927,23927,23927,23927,23927,23927,23927,23927,23927,23927,552,552,552,552,552,552,552,552,552,552,552,552,552,552,552,552,552,552,552,552,552,552,552,552,552,
552,552,552,552,552,552,552,552,552,552,552,552,552,552,4248,552,552,552,552,552,552,552,552,552,552,552,552,4248,552,552,4248,552,552,23927,23927,22993,22994,22994,22995,23927,23927,23927,22993,22994,22994,22995,23927,23927,552,552,552,552,552,552,552,552,552,552,552,4248,552,552,552,552,552,552,552,552,552,552,552,552,
552,552,4248,552,552,552,552,552,552,552,552,552,552,552,4248,552,552,552,552,552,552,552,552,552,552,552,4248,4248,552,552,4248,552,552,23927,23927,23030,23031,23031,23032,23927,23927,23927,23030,23031,23031,23032,23927,23927,23927,552,552,552,552,552,552,552,552,552,4248,4248,552,552,552,552,552,552,4248,552,552,552,552,552,
3827,4248,552,552,552,552,552,552,552,552,552,552,552,552,552,552,3827,552,552,552,3827,3827,552,4248,4248,552,552,552,552,552,552,552,552,23927,23927,23030,23031,23031,23032,23927,23927,23927,23030,23031,23031,23032,23927,23927,23927,552,552,552,552,552,552,552,552,4248,552,552,552,552,552,552,552,552,4248,552,552,552,552,552,
4248,4248,552,552,552,552,552,552,552,552,552,552,3827,3827,552,552,3827,3827,552,552,3827,552,552,4248,552,552,552,552,552,552,552,552,23927,23927,23927,23030,23031,23031,23032,23927,23927,23927,23030,23031,23031,23032,23927,23927,23927,552,552,552,552,552,552,552,552,552,552,552,552,552,552,552,552,552,4248,552,4248,4248,4248,552,
552,552,552,4248,552,552,552,552,552,552,552,3827,3827,552,552,552,552,3827,3827,552,552,552,552,4248,552,552,3827,552,552,552,552,23927,23927,23927,23927,23030,23031,23031,23032,23927,23927,23927,23030,23031,23031,23032,23927,23927,23927,552,552,552,552,552,552,552,552,552,552,552,552,552,552,552,552,552,552,552,552,552,4248,4248,
552,552,552,4248,552,552,552,552,552,552,552,3827,552,552,552,4248,4248,4248,552,552,552,552,4248,552,552,552,3827,3827,552,552,552,23927,23927,23927,23927,23030,23031,23031,23028,22994,22994,22994,23029,23031,23031,23032,23927,23927,23927,552,552,552,552,552,552,552,552,552,552,552,552,552,552,552,552,552,552,552,552,552,552,552,
552,552,552,4248,552,552,552,552,552,3827,552,552,552,552,552,552,4248,4248,552,552,552,552,552,552,552,552,552,3827,552,552,23927,23927,23927,23927,23927,23067,23031,23031,23031,23031,23031,22991,23068,23068,23068,23069,23927,23927,23927,552,552,552,552,552,552,552,552,552,552,552,552,552,552,552,552,552,552,552,552,552,552,552,
552,552,552,552,552,552,3827,3827,3827,3827,552,552,552,4248,552,552,4248,552,552,552,3827,3827,552,552,552,552,552,552,552,552,23927,23927,23927,23927,23927,23927,23927,23927,23927,23031,23031,23032,23978,794,23935,23935,794,23977,23927,23927,552,552,552,552,552,552,552,552,552,552,552,552,552,552,552,552,552,4248,552,552,552,552,
552,552,552,552,552,552,3827,552,552,552,552,552,552,552,552,552,552,552,552,4248,4248,3827,552,552,552,552,552,552,552,23927,23927,23927,23927,23927,23927,23927,23927,23927,23927,22992,23031,23032,23928,5701,5701,5701,5701,23935,23977,23927,552,552,552,552,552,552,552,552,552,552,552,552,552,552,552,552,4248,552,552,552,552,552,
552,552,552,552,552,4248,3827,552,552,552,552,552,3827,3827,552,552,552,552,552,552,4248,4248,552,552,552,552,552,552,23927,23927,23927,23927,23927,23927,23927,23927,23927,23927,23927,23030,23031,23032,23970,23920,5701,5701,5701,5701,23926,23927,23927,552,552,552,552,552,552,552,552,552,552,552,552,552,552,4248,552,552,552,552,552,552,
552,552,552,552,4248,3827,3827,552,552,552,552,552,3827,3827,552,552,4248,552,552,552,552,552,552,552,552,552,552,552,23927,23927,23927,23927,23927,23927,23927,23927,23927,23927,23927,23030,23031,23032,23927,23928,5701,5701,5701,5701,23934,23977,23927,23927,23927,552,552,552,552,552,552,552,552,552,552,552,552,552,552,552,552,552,552,552,
552,552,552,552,3827,3827,4248,552,552,3827,552,552,552,3827,552,552,552,552,552,552,552,552,552,552,552,552,552,23927,23927,23927,23927,23927,23927,23927,23927,23927,23927,23927,23927,23030,23031,23032,23927,23928,5701,5701,5701,5701,5701,23934,23977,23927,23927,23927,552,552,552,552,552,552,552,552,552,552,552,552,552,552,552,552,552,552,
552,552,552,552,552,3827,552,552,3827,3827,3827,3827,3827,3827,552,552,552,552,552,552,552,552,552,552,552,552,23927,23927,23927,23927,23927,23927,23927,23927,23927,23927,23927,23927,23927,23030,23031,23032,23927,23928,5701,5701,5701,5701,5701,5701,23926,23977,23927,23927,23927,552,552,552,552,552,552,552,552,552,552,552,552,552,552,552,552,552,
3827,552,552,552,552,552,3827,3827,3827,3827,552,552,552,552,552,552,552,552,552,552,23927,23927,23927,23927,23927,23927,23927,23927,23927,23927,23927,23927,23927,23927,23927,23927,23927,23927,23927,23030,23031,23032,23927,23928,5701,5701,5701,5701,5701,5701,5701,23934,23977,23927,23927,23927,23927,552,552,552,552,552,552,552,552,552,552,552,552,552,552,552,
3827,3827,552,3827,3827,3827,3827,552,552,552,552,552,552,552,552,23927,23927,23927,23927,23927,23927,23927,23927,23927,23927,23927,23927,23927,23927,23927,23927,23927,23927,23927,23927,23031,22994,22994,22994,23029,23031,23032,23927,23970,23919,23920,5701,5701,5701,5701,5701,5701,23926,23927,23927,23927,23927,552,552,552,552,552,552,552,552,552,552,552,552,552,552,552,
552,3827,3827,3827,552,552,552,552,552,552,552,552,552,23927,23927,23927,23927,23927,23927,23927,23927,23927,23927,23927,23927,23927,23927,23927,23927,23927,23927,23927,23927,23927,23927,23031,23068,23068,23068,22992,23031,23032,23927,23927,23927,23970,23919,23919,23919,23919,23920,5701,23926,23927,23927,23927,23927,552,552,552,552,552,552,552,552,552,552,552,552,552,552,552,
552,552,552,552,552,552,552,552,552,552,552,23927,23927,23927,23927,23927,23927,23927,23927,23927,23927,23927,23927,23927,23927,23927,23927,23927,23927,23927,23927,23927,23927,23927,23927,23927,23927,23927,23927,23030,23031,23032,23927,23927,23927,23927,23927,23927,23927,23927,23970,23919,23969,23927,23927,23927,23927,552,552,552,552,552,552,552,552,552,552,552,552,552,552,552,
552,552,552,552,552,23927,23927,23927,23927,23927,23927,23927,23927,23927,23927,23927,23927,23927,23927,23927,23927,23927,23927,23927,23927,23927,23927,23927,23927,23927,23927,23927,23927,23927,23927,23927,23927,23927,23927,23030,23031,23032,23927,23927,23927,23927,23927,23927,23927,23927,23927,23927,23927,23927,23927,23927,23927,552,552,552,552,552,552,552,552,552,552,552,552,552,552,552,
552,552,552,552,23927,23927,23927,23927,23927,23927,23927,23927,23927,23927,23927,23927,23927,23927,23927,23927,23927,23927,23927,23927,23927,23927,23927,23927,23927,23927,23927,23927,23927,23927,23927,23927,23927,23927,23927,23030,23031,23032,23927,23927,23927,23927,23927,23927,23927,23927,23927,23927,23927,23927,23927,23927,23927,552,552,552,552,552,552,552,552,552,552,552,552,552,552,552,
552,552,552,552,23927,23927,23927,23927,23927,23927,23927,23927,23927,23927,23927,23927,23927,23927,23927,23927,23927,23927,23927,23927,23927,23927,23927,23927,23927,23927,23927,23927,23927,23927,23927,23927,23927,23927,23927,23030,23031,23032,23927,23927,23927,23927,23927,23927,23927,23927,23927,23927,23927,23927,23927,23927,23927,552,552,552,552,552,552,552,552,552,552,552,552,552,552,552,
552,552,552,552,23927,23927,23927,22993,22994,22994,22994,22994,22994,22994,22994,22994,22994,22994,22994,22994,22994,22994,22994,22994,22994,22995,23927,23927,23927,23927,23927,23927,23927,23927,23927,23927,23927,23927,23927,23030,23031,23032,23927,23927,23927,23927,23927,23927,23927,23927,23927,23927,23927,23927,23927,23927,23927,23927,552,552,552,552,552,552,552,552,552,552,552,552,552,552,
552,552,552,552,23927,23927,23927,23030,23031,23031,23031,23031,23031,23031,23031,23031,23031,23031,23031,23031,23031,23031,23031,23031,23031,23032,23927,23927,23927,23927,23927,23927,23927,23927,23927,23927,23927,23927,23927,23030,23031,23032,23927,23927,23927,23927,23927,23927,23927,23927,23927,23927,23927,23927,23927,23927,23927,23927,23927,23927,23927,23927,23927,23927,23927,552,552,552,552,552,552,552,
552,552,552,552,23927,23927,23927,23030,23031,23031,23031,23031,23031,23031,23031,23031,23031,23031,23031,23031,23031,23031,23031,23031,23031,23032,23927,23927,23927,23927,23927,23927,23927,23927,23927,23927,23927,23927,23927,23030,23031,23032,23927,23927,23927,23927,23927,23927,23927,23927,23927,23927,23927,23927,23927,23927,23927,23927,23927,23927,23927,23927,23927,23927,23927,23927,23927,552,552,552,552,552,
552,552,552,552,23927,23927,23927,23067,23068,23068,23068,23068,23068,23068,23068,23068,23068,23068,23068,23068,23068,23068,22992,23031,23031,23032,23927,23927,23927,23927,23927,23927,23927,23927,23927,23927,23927,23927,23927,23030,23031,23032,23927,23927,23927,23927,23927,23927,23927,23927,23927,23927,23927,23927,23927,23927,23927,23927,23927,23927,23927,23927,23927,23927,23927,23927,23927,552,552,552,552,552,
552,552,552,552,23927,23927,23927,23927,23927,23927,23927,23927,23927,23927,23927,23927,23927,23927,23927,23927,23927,23927,23030,23031,23031,23032,23927,23927,23927,23927,23927,23927,23927,23927,23927,23927,23927,23927,23927,23030,23031,23032,23927,23927,23927,23927,23927,23927,23927,23927,23927,23927,23927,23927,23927,23927,23927,23927,23927,23927,23927,23927,23927,23927,23927,23927,23927,23927,552,552,552,552,
552,552,552,552,23927,23927,23927,23927,23927,23927,23978,794,23935,23935,794,23977,23927,23927,23927,23927,23927,23927,23030,23031,23031,23032,23927,23927,23927,23927,23927,23927,23927,23927,23927,23927,23927,23927,23927,23030,23031,23032,23927,23927,23927,23927,23927,23927,23927,23927,23927,23927,23927,23927,23927,23927,23927,23927,23927,23927,23927,23927,23927,23927,23927,23927,23927,552,552,552,552,552,
552,552,552,552,552,23927,23927,23927,23927,23978,23936,5683,5683,5683,5683,23926,23927,23927,23927,23927,23927,23927,23030,23031,23031,23028,22994,22994,22994,22994,22994,22994,22994,22994,22994,22994,22994,22994,22994,23029,23031,23028,22994,22994,22994,22994,22994,22994,22994,22994,22994,22994,22994,22994,22994,22994,22994,22994,22994,22994,22994,22994,22994,22994,22995,23927,23927,23927,552,552,552,552,
552,552,552,552,552,23927,23927,23927,23927,23928,5683,5683,5683,5683,5683,23926,23927,23927,23927,23927,23927,23927,23030,23031,23031,23031,23031,23031,23031,23031,23031,23031,23031,23031,23031,23031,23031,23031,23031,23031,23031,23031,23031,23031,23031,23031,23031,23031,23031,23031,23031,23031,23031,23031,23031,23031,23031,23031,23031,23031,23031,23031,23031,23031,23032,23927,23927,23927,552,552,552,552,
552,552,552,552,552,552,23927,23927,23927,23970,23920,5683,5683,5683,5683,23926,23927,22993,22994,22994,22994,22994,23029,23031,23031,23031,23031,23031,23031,23031,23031,23031,23031,23031,23031,23031,23031,23031,23031,23031,23031,23031,23031,23031,23031,23031,23031,23031,23031,23031,23031,23031,23031,23031,23031,23031,23031,23031,23031,23031,23031,23031,23031,23031,23032,23927,23927,23927,552,552,552,552,
552,552,552,552,552,552,552,23927,23927,23927,23928,5683,5683,5683,5683,23926,23927,23067,23068,23068,23068,23068,22992,23031,23031,22991,23068,23068,23068,23068,23068,23068,23068,23068,23068,22992,23031,23031,22991,23068,23068,23068,23068,23068,23068,23068,23068,23068,23068,23068,22992,23031,23031,22991,23068,23068,23068,23068,23068,23068,23068,23068,23068,23068,23069,23927,23927,23927,552,552,552,552,
552,552,552,552,552,552,552,552,23927,23927,23970,23920,5683,5683,5683,23934,23977,23927,23927,23927,23927,23927,23030,23031,23031,23032,23927,23927,23927,23927,23927,23927,23927,23927,23927,23030,23031,23031,23032,23927,23927,23927,23927,23927,23927,23927,23927,23927,23927,23927,23030,23031,23031,23032,23927,23927,23927,23927,23927,23978,23935,23935,23977,23927,23927,23927,23927,23927,552,552,552,552,
552,552,552,552,552,552,552,552,23927,23927,23978,23936,5683,5683,5683,5683,23926,23927,23927,23927,23927,23927,23030,23031,23031,23032,23927,23927,23927,23927,23927,23927,23927,23927,23927,23030,23031,23031,23032,23927,23927,23927,23927,23927,23927,23927,23927,23927,23927,23927,23030,23031,23031,23032,23927,23927,23978,23935,23935,23936,5683,5683,23926,23927,23927,23927,23927,23927,552,552,552,552,
552,552,552,552,552,552,552,552,23927,23927,23928,5683,5683,5683,5683,5683,23934,23977,23927,23927,23927,23927,23030,23031,23031,23032,23927,23927,23927,23927,23927,23927,23927,23927,23927,23030,23031,23031,23032,23927,23927,23927,23927,23927,23927,23927,23927,23927,23927,23927,23030,23031,23031,23032,23927,23927,23928,5683,5683,5683,5683,5683,23926,23927,23927,23927,23927,552,552,552,552,552,
552,552,552,552,552,552,552,23927,23927,23927,23928,5683,5683,5683,5683,5683,793,23926,23927,23927,23927,23927,23030,23031,23031,23032,23927,23927,23927,23927,23927,23927,23927,23927,23927,23030,23031,23031,23032,23927,23927,23927,23927,23927,23927,23927,23927,23927,23927,23927,23030,23031,23031,23032,23927,23978,23936,5683,5683,5683,5683,23918,23969,23927,23927,23927,552,552,552,3827,552,552,
552,552,552,552,552,552,552,23927,23927,23927,23928,5683,5683,5683,5683,5683,5683,23926,22993,22994,22994,22994,23029,23031,23031,23032,23927,23927,23927,23927,23927,23927,23927,23927,23927,23030,23031,23031,23032,23927,23927,23927,23927,23927,23927,23927,23927,23927,23927,23927,23030,23031,23031,23032,23927,23928,5683,5683,5683,5683,5683,23926,23927,23927,552,552,3827,3827,552,3827,3827,552,
552,552,552,552,552,552,552,23927,23927,23978,23936,5683,5683,5683,5683,5683,23918,23969,23067,23068,23068,23068,22992,23031,23031,23032,23927,23927,23927,23927,23927,23927,23927,23927,23030,23030,23031,23031,23032,23927,23927,23927,23927,23927,23927,23927,23927,23927,23927,23927,23030,23031,23031,23032,23927,23928,5683,5683,5683,5683,5683,23934,23935,23977,23927,23927,3827,3827,552,552,552,552,
552,552,552,552,552,552,552,23927,23927,23928,5683,5683,5683,5683,5683,23918,23969,23927,23927,23927,23927,23927,23030,23031,23031,23032,23927,23927,23927,23927,23927,23927,23927,23927,23927,23030,23031,23031,23032,23927,23927,23927,23927,23927,23031,23927,23927,23927,23927,23927,23030,23031,23031,23032,23927,23928,5683,5683,5683,5683,5683,5683,5683,23934,23977,23927,23927,3827,3827,552,552,552,
552,552,552,552,552,552,552,23927,23927,23928,5683,5683,5683,5683,5683,23926,23927,23927,23927,23927,23927,23927,23030,23031,23031,23032,23927,23927,23927,23927,23927,23927,23927,23927,23927,23030,23031,23031,23032,23927,23927,23927,23927,23927,23927,23927,23927,23927,23927,23927,23030,23031,23031,23032,23927,23928,5683,5683,5683,5683,5683,5683,5683,5683,23926,23927,23927,23927,552,552,552,552,
552,552,552,552,552,552,552,23927,23927,23970,23920,5683,5683,5683,5683,23934,23935,23977,23927,23927,23927,23927,23030,23031,23031,23032,23927,23927,23927,23927,23927,23927,23927,23927,23927,23030,23031,23031,23028,22994,22994,22994,22994,22994,22994,22994,22994,22994,22994,22994,23029,23031,23031,23032,23978,23936,5683,5683,5683,5683,5683,5683,5683,5683,23934,23977,23927,23927,552,552,552,552,
552,552,552,552,552,552,552,23927,23927,23927,23928,5683,5683,5683,5683,5683,5683,23934,23935,23977,23927,23927,23067,23068,23068,23069,23927,23927,23927,23927,23927,23927,23927,23927,23927,23030,23031,23031,23031,23031,23031,23031,23031,23031,23031,23031,23031,23031,23031,23031,23031,23031,23031,23032,23928,5683,5683,5683,5683,5683,5683,5683,5683,5683,5683,23926,23927,23927,552,552,552,552,
552,552,552,359,552,552,552,23927,23927,23927,23970,23920,5683,5683,5683,5683,5683,5683,793,23926,23927,23927,23927,23927,23927,23927,23927,23927,23927,23927,23927,23927,23927,23927,23927,23030,23031,23031,23031,23031,23031,23031,23031,23031,23031,23031,23031,23031,23031,23031,23031,23031,23031,23032,23928,5683,5683,5683,5683,5683,5683,5683,5683,5683,5683,23926,23927,23927,3827,3827,552,552,
552,552,552,359,552,552,552,552,23927,23927,23927,23970,23920,5683,5683,5683,5683,5683,5683,23934,23977,23927,23927,23978,23935,23935,23935,23977,23927,23927,23927,23927,23927,23927,23927,23067,23068,23068,23068,23068,23068,23068,23068,23068,23068,23068,23068,23068,23068,23068,22992,23031,23031,23032,23928,5683,5683,5683,5683,5683,5683,5683,5683,23918,23919,23969,23927,23927,552,552,3827,552,
552,552,552,359,552,552,552,552,23927,23927,23927,23927,23928,5683,5683,5683,5683,5683,5683,5683,23934,23935,23935,23936,5683,5683,5683,23926,23927,23927,23927,23927,23927,23927,23927,23927,23927,23927,23927,23927,23927,23927,23927,23927,23927,23927,23927,23927,23927,23927,23030,23031,23031,23032,23928,5683,5683,5683,5683,5683,5683,5683,5683,23926,23927,23927,23927,23927,552,3827,3827,552,
552,552,552,552,552,552,552,552,552,23927,23927,23927,23970,23919,23920,5683,5683,5683,5683,5683,5683,5683,5683,5683,5683,5683,5683,23926,23927,23927,23927,23927,23927,23927,23927,23927,23927,23927,23927,23927,23927,23927,23927,23927,23927,23927,23927,23927,23927,23927,23030,23031,23031,23032,23928,5683,5683,5683,5683,5683,5683,23918,23919,23969,23927,23927,23927,552,3827,3827,552,80,
552,552,552,552,552,552,552,552,552,23927,23927,23927,23927,23927,23928,5683,5683,5683,5683,5683,5683,5683,5683,5683,5683,5683,23918,23969,23927,23927,23927,23927,23927,23927,23927,23927,23927,23927,23927,23927,23927,23927,23927,23927,23927,23927,23927,23927,23927,23927,23030,23031,23031,23032,23928,5683,5683,5683,5683,5683,23918,23969,23927,23927,23927,23927,23927,552,552,552,552,80,
552,552,552,552,552,552,552,552,552,552,23927,23927,23927,23927,23928,5683,5683,5683,5683,5683,5683,5683,5683,5683,23918,23919,23969,23927,23927,23927,23927,23927,23927,23927,23927,23927,23927,23927,23927,23927,23927,23927,23927,23927,23927,23927,23927,23927,23927,23927,23030,23031,23031,23032,23970,23920,5683,5683,5683,23918,23969,23927,23927,23927,23927,552,552,552,552,552,552,552,
552,552,552,552,552,359,359,359,552,552,552,552,23927,23927,23928,5683,5683,5683,5683,23918,23919,23919,23919,23919,23969,23927,23927,23927,23927,23927,23927,23927,552,552,552,552,552,23927,23927,23927,23927,23927,23927,23927,23927,23927,23927,23927,23927,23927,23030,23031,23031,23032,23927,23928,5683,5683,5683,23926,23927,23927,23927,23927,23927,552,552,552,552,552,552,552,
552,552,552,552,552,552,552,359,552,552,552,80,552,23927,23970,23920,5683,5683,5683,23926,23927,23927,23927,23927,23927,23927,23927,23927,23927,23927,23927,552,552,552,552,552,552,23927,23927,23927,23927,23927,23927,23927,23927,23927,23927,23927,23927,23927,23030,23031,23031,23032,23927,23928,5683,5683,5683,23926,23927,23927,23927,23927,552,552,552,552,552,552,552,552,
552,552,552,552,552,552,552,552,552,552,80,80,552,23927,23927,23970,23920,5683,23918,23969,23927,23927,23927,23927,23927,23927,23927,23927,23927,23927,23927,552,80,552,552,552,80,552,552,552,552,23927,23927,23927,23927,23927,23927,23927,23927,23927,23030,23031,23031,23032,23927,23928,5683,5683,23918,23969,23927,23927,23927,552,552,552,552,552,552,552,552,552,
552,552,552,552,552,552,359,552,552,552,552,80,552,23927,23927,23927,23970,23919,23969,23927,23927,23927,23927,23927,23927,23927,23927,23927,552,23927,552,80,552,552,552,552,552,552,552,552,80,552,552,23927,23927,23927,23927,23927,23927,23927,23030,23031,23031,23032,23927,23928,5683,5683,23926,23927,23927,23927,552,552,552,552,552,552,552,552,552,552,
552,552,552,552,552,552,359,552,552,552,552,552,552,23927,23927,23927,23927,23927,23927,23927,23927,23927,23927,552,552,552,552,80,552,552,552,552,552,552,552,552,552,552,552,552,552,80,80,552,23927,23927,23927,23927,23927,23927,23030,23031,23031,23032,23978,23936,5683,5683,23926,23927,23927,23927,552,552,552,552,552,552,3827,552,3827,3827,
552,552,552,552,552,552,359,552,359,359,552,359,359,23927,23927,23927,23927,23927,23927,23927,23927,552,552,552,552,552,80,80,552,552,552,552,552,552,552,552,552,552,552,552,552,552,552,552,552,23927,23927,23927,23927,23927,23030,23031,23031,23032,23928,5683,5683,23918,23969,23927,23927,552,3827,552,552,552,552,552,552,80,80,552,
552,552,552,552,552,359,359,552,552,359,359,552,359,359,23927,23927,23927,23927,23927,23927,23927,552,552,552,552,552,552,552,552,552,552,552,552,552,552,552,80,552,552,552,552,552,552,552,552,23927,23927,23927,23927,23927,23030,23031,23031,23032,23928,5683,5683,23926,23927,23927,23927,3827,3827,552,552,552,552,552,552,552,552,552,
552,552,552,359,359,552,552,552,552,552,359,552,552,359,552,552,552,552,552,80,80,80,552,552,552,80,552,552,552,552,552,552,552,552,552,552,552,552,552,552,552,552,552,552,552,552,22993,22994,22994,22994,23029,23031,23031,23032,23970,23919,23919,23969,23927,552,3827,3827,552,552,552,552,552,552,3827,552,552,552,
552,552,552,552,552,552,552,552,552,552,552,80,80,359,552,552,552,552,80,80,552,552,552,552,552,80,552,552,552,552,552,552,552,552,552,552,552,552,552,552,552,552,552,80,552,552,23067,23068,23068,23068,22992,23031,23031,23032,23927,23927,23927,23927,23927,23927,80,80,80,552,552,552,552,552,552,552,552,552,
552,552,552,552,552,552,80,80,359,552,80,80,552,552,552,552,552,552,552,552,552,552,552,552,552,552,552,552,552,552,552,552,552,552,552,552,552,552,552,552,552,552,80,552,552,552,23927,23927,23927,23927,23030,23031,23031,23032,23927,23927,23927,23927,23927,23927,23927,552,552,552,3827,552,552,552,552,552,552,552,
552,552,552,552,552,552,80,552,359,80,80,552,552,552,552,552,552,552,552,80,80,552,552,552,552,552,552,552,552,552,552,552,552,80,552,552,552,552,552,552,552,552,552,552,552,552,23927,23927,23927,23927,23030,23031,23031,23032,23927,23927,23927,23927,23927,23927,552,552,552,552,552,552,552,552,552,552,552,552,
552,552,552,552,552,80,552,552,552,359,359,552,552,552,552,552,552,552,552,80,552,552,552,552,552,552,552,552,552,552,552,552,552,80,80,552,552,552,552,552,552,552,552,552,552,552,23927,23927,23927,23927,23030,23031,23031,23028,22994,22994,22994,22994,22994,22995,23927,552,552,552,552,552,552,552,552,552,552,552,
552,552,552,552,359,359,552,552,552,552,552,552,552,552,552,552,552,552,552,552,552,552,552,359,552,552,552,552,552,552,552,552,80,552,80,552,552,552,552,552,552,552,552,552,80,552,23927,23927,23927,23927,23030,23031,23031,22991,23068,23068,23068,23068,23068,23069,22762,552,552,552,552,552,552,552,552,552,552,552,
552,552,552,552,359,552,552,552,552,552,552,552,552,552,552,552,359,80,80,552,552,552,552,359,359,552,552,552,552,552,552,552,552,552,552,3126,3128,552,552,552,552,552,552,552,552,552,23927,23927,23927,23927,23030,23031,23031,23032,23927,23927,23927,23927,23927,23927,22762,552,552,552,552,552,552,552,552,3827,552,552,
552,552,552,552,359,359,552,359,552,552,552,552,552,359,359,359,359,552,80,80,552,552,552,552,552,359,552,552,552,552,552,552,552,552,552,3406,3547,3128,552,552,552,552,552,552,552,552,23927,23927,23927,23927,23067,23068,23068,23069,23927,23927,23927,23927,23927,23927,23927,552,552,552,552,552,552,552,552,552,552,552,
552,552,552,552,552,552,552,359,552,552,552,552,552,80,552,552,552,552,552,80,552,552,552,552,552,552,80,552,552,552,552,552,552,552,552,552,552,3686,3127,3127,3128,552,552,80,552,552,23927,23927,23927,23927,23927,23927,23927,23927,23927,23927,23927,23927,23927,22798,552,552,552,552,552,552,552,552,552,552,552,552,
552,552,552,552,552,552,359,359,552,552,552,552,552,80,80,80,80,552,552,552,552,552,552,552,552,552,80,80,552,552,552,552,552,552,552,552,552,3406,3547,3267,3686,3127,3128,552,552,552,552,23927,23927,23927,23927,23927,23927,23927,23927,23927,23927,552,552,552,552,552,552,552,552,552,552,552,552,552,552,552,
552,552,552,552,552,552,552,552,552,552,552,552,552,552,552,552,552,552,552,552,359,359,552,552,552,552,552,80,552,552,552,552,552,552,552,552,552,552,3406,3547,3267,3267,3686,3127,3128,552,552,552,23927,23927,23927,23927,23927,23927,23927,552,552,552,552,552,552,552,552,552,552,552,552,552,552,552,552,552,
552,552,552,552,552,552,552,552,552,552,552,552,552,552,552,552,552,552,552,359,359,359,552,552,552,552,552,552,552,552,552,552,552,552,552,552,552,552,552,3406,3407,3407,3407,3547,3686,3128,552,552,80,552,552,552,552,552,552,552,552,552,552,552,552,552,552,552,552,80,80,552,552,552,552,552,
552,552,552,552,552,552,552,552,552,552,552,552,552,552,552,359,359,552,552,359,552,552,552,552,552,552,552,552,552,552,552,552,552,552,552,552,552,552,552,80,80,552,552,3406,3547,3686,3127,3128,80,552,552,552,552,552,552,552,552,552,552,552,552,552,552,552,552,552,552,552,552,552,552,552,
552,552,552,552,552,552,552,552,359,552,552,552,552,552,552,552,552,359,552,552,552,552,552,552,552,552,552,552,552,552,552,552,552,552,552,552,552,552,552,552,80,80,552,80,3406,3407,3407,3408,552,552,552,552,552,552,552,552,552,552,552,552,552,552,552,552,552,552,552,552,552,552,552,552,
552,552,552,552,552,552,552,552,359,552,552,552,359,359,359,552,552,359,552,552,552,552,552,552,552,552,552,552,552,552,552,552,552,552,552,552,552,552,552,552,552,552,552,80,80,552,552,80,552,552,552,552,552,552,552,552,552,552,552,552,552,552,552,552,552,552,552,552,552,552,552,552
</data>
 </layer>
 <layer id="2" name="Layer 2" width="72" height="74">
  <data encoding="csv">
0,0,0,22879,0,0,0,0,0,1309,1310,1311,0,1309,1310,1311,0,0,0,0,0,0,0,0,0,0,0,0,0,0,0,0,0,0,22915,0,0,0,0,0,0,0,0,0,0,0,0,0,0,0,1309,1310,1311,0,1309,1310,1311,0,0,0,1309,1310,1311,0,1309,1310,1311,0,0,0,0,0,
22879,1309,1310,1311,0,0,0,1309,1310,1311,0,1309,1310,1311,0,1309,1310,1311,0,1312,1313,1314,1312,1313,1314,0,1312,1313,1314,1312,1313,1314,0,0,0,0,0,0,0,0,0,0,0,0,0,1312,1313,1314,1312,1313,1314,0,1312,1313,1314,0,1312,1313,1314,1315,1316,1317,22879,0,0,22879,1313,1314,1309,1310,1311,0,
1312,1313,1314,0,1312,1313,1314,0,0,1309,1310,1311,1315,1316,1317,0,22879,1312,1313,1314,1309,1310,1311,0,0,1315,1316,1317,1315,1316,1317,1312,1313,1314,0,0,0,0,0,0,22915,0,0,0,0,0,1312,1313,1314,0,1309,1310,1311,22915,0,1309,1310,1311,1312,1313,1314,0,0,0,0,0,1312,1313,1314,0,1309,1310,
0,0,0,1312,1313,1314,1309,1310,1311,0,1312,1313,1314,1309,1310,1311,0,0,1309,1310,1311,0,0,1309,1310,1311,0,1312,1313,1314,0,0,0,0,0,0,0,0,0,22879,22915,0,0,0,0,0,22915,22915,1309,1310,1311,0,0,1312,1313,1314,0,0,0,1309,1310,1311,1315,1316,1317,1309,1310,1311,1309,1310,1311,1315,
1313,1314,1315,1316,1317,1309,1310,1311,1315,1316,1317,1315,1316,1317,1309,1310,1311,1309,1310,1311,0,1312,1313,1314,22879,0,1309,1310,1311,1315,1316,1317,1312,1313,1314,0,0,0,0,710,22879,708,0,0,0,0,710,0,0,0,22915,1309,1310,1311,22879,0,1309,1310,1311,0,0,0,0,0,0,0,0,1312,1313,1314,0,0,
1315,1316,1317,1312,1313,1314,0,0,22879,1312,1313,1314,0,1312,1313,1314,0,0,0,0,1315,1316,1317,0,0,1312,1313,1314,0,0,1312,1313,1314,708,0,0,0,0,0,0,0,0,0,0,0,0,0,22725,1313,1314,1315,1316,1317,0,1312,1313,1314,0,1312,1313,1314,1309,1310,1311,1309,1310,1311,22915,0,0,1312,1313,
0,1309,1310,1311,0,22879,0,0,22879,0,0,1315,1316,1317,0,0,1312,1313,1314,1309,1310,1311,1309,1310,1311,0,0,0,0,0,0,0,0,739,0,0,0,0,0,0,0,0,0,0,0,0,0,737,1309,1310,1311,1312,1313,1314,0,0,1309,1310,1311,1315,1316,1317,1315,1316,1317,1312,1313,1314,0,0,0,0,
1313,1314,0,1309,1310,1311,1309,1310,1311,0,0,0,0,0,0,0,0,1315,1316,1317,1312,1313,1314,0,0,0,0,1312,1313,1314,0,0,0,739,0,0,0,0,0,0,0,0,0,0,0,0,0,0,710,22879,0,0,1309,1310,1311,1315,1316,1317,0,0,0,0,0,1312,1313,1314,0,22879,1312,1313,1314,1315,
0,0,0,0,0,1312,1313,1314,0,1309,1310,1311,1312,1313,1314,1309,1310,1311,1312,1313,1314,0,0,0,1309,1310,1311,0,0,0,1312,1313,22723,0,0,0,0,0,0,0,0,0,0,0,0,0,0,0,737,1309,1310,1311,0,0,0,0,0,0,0,0,1312,1313,1314,0,1309,1310,1311,22915,0,0,22915,0,
0,0,1309,1310,1311,0,0,1309,1310,1311,0,1309,1310,1311,0,0,0,1309,1310,1311,0,1309,1310,1311,0,0,1309,1310,1311,1315,1316,1317,739,0,0,0,0,0,0,25299,25300,25301,0,0,0,0,0,0,737,22915,1315,1316,1317,1309,1310,1311,1309,1310,1311,1315,1316,1317,1309,1310,22915,22915,0,0,0,0,0,1315,
1312,1313,1314,0,1309,1310,1311,0,1312,1313,1314,0,0,0,1312,1313,1314,0,0,0,1312,1313,1314,0,0,0,0,1315,1316,1317,0,708,0,0,0,0,0,0,0,25307,25308,25309,0,0,0,0,0,0,737,22915,22915,1315,1316,22915,22915,1316,1317,0,0,0,0,0,1309,1310,1311,0,0,1309,1310,1311,1312,1313,
1311,0,0,1312,1313,1314,1309,1310,1311,0,0,0,0,0,0,0,0,1312,1313,1314,0,0,0,0,0,0,0,0,1312,1313,1314,739,26944,26945,0,0,0,0,0,0,0,0,0,0,0,0,0,0,737,0,0,1309,1310,1311,1312,1313,1314,1315,1316,1317,1312,1313,1314,0,0,1312,1313,1314,0,0,0,0,
0,0,0,0,0,0,0,0,0,0,1315,1316,1317,1312,1313,1314,0,0,1309,1310,1311,1309,1310,1311,1315,1316,1317,0,0,0,708,0,26952,26953,0,0,0,0,0,0,0,0,0,0,0,0,0,0,737,1309,1310,1311,0,0,22915,1312,1313,1314,0,0,0,0,0,1309,1310,1311,0,0,0,0,1309,1310,
1312,1313,1314,0,1309,1310,1311,1309,1310,1311,0,1309,1310,1311,0,0,0,0,0,0,1309,1310,1311,1312,1313,1314,0,1312,1313,22723,0,0,26960,26961,0,0,0,0,0,0,0,0,0,0,0,0,0,0,0,710,22915,1315,1316,1317,1312,1313,1314,0,0,1309,1310,1311,1315,1316,1317,0,0,1309,1310,1311,0,1315,
1311,1309,1310,1311,0,0,1309,1310,1311,0,1312,1313,1314,0,1312,1313,1314,1309,1310,1311,0,1309,1310,1311,1315,1316,1317,0,2711,739,0,0,26945,0,0,0,0,0,0,0,0,0,169,170,171,22915,0,0,0,737,0,22915,1309,1310,1311,0,0,1312,1313,1314,0,1312,1313,1314,0,0,0,0,0,1312,1313,1314,
1309,1310,1311,1312,1313,1314,0,0,1312,1313,1314,1315,1316,1317,0,1309,1310,1311,1312,1313,1314,0,1309,1310,1311,0,0,0,708,0,0,26945,26953,0,0,0,0,0,0,0,0,0,0,0,79,22915,0,0,0,0,710,1309,1310,1311,0,1315,1316,1317,22879,0,0,0,0,0,1309,1310,1311,0,0,0,0,0,
0,0,1309,1310,1311,0,1312,1313,1314,1309,1310,1311,0,1309,1310,1311,0,1309,1310,1311,0,1309,1310,1311,0,1309,1310,22723,0,0,0,26953,26961,0,0,0,0,0,0,0,0,0,0,0,0,76,77,78,0,0,0,0,710,1309,1310,1311,1312,1313,1314,1315,1316,1317,1312,1313,1314,0,0,1312,1313,1314,1309,1310,
0,0,0,0,0,0,0,1309,1310,1311,1315,1316,1317,1312,1313,1314,0,0,1312,1313,1314,0,0,0,0,0,2711,739,0,0,0,26961,0,26946,0,0,0,0,0,0,0,0,0,169,170,171,76,77,78,0,0,0,0,710,0,1312,1313,1314,0,0,0,1309,1310,1311,0,1312,1313,1314,0,0,0,1315,
1310,1311,0,1312,1313,1314,0,0,0,0,0,0,0,0,1309,1310,1311,1312,1313,1314,1309,1310,1311,1312,1313,1314,708,0,0,0,0,0,0,26954,0,0,0,0,0,0,0,0,0,0,79,77,22915,22915,0,79,0,0,0,0,710,22879,1309,1310,1311,1312,1313,1314,0,0,1312,1313,1314,0,0,0,1312,1313,
0,1315,1316,1317,0,0,0,0,0,1309,1310,1311,1312,1313,1314,1315,1316,1317,0,0,708,0,0,0,710,708,0,0,0,0,0,0,0,26962,0,0,0,0,0,0,0,0,9091,0,169,170,171,76,77,78,0,0,0,0,0,0,710,0,1309,1310,1311,0,1309,1310,1311,0,1315,1316,1317,0,0,1315,
1311,0,0,1315,1316,1317,1312,1313,1314,0,0,1309,1310,1311,22879,708,0,0,0,0,0,0,0,0,647,648,0,0,0,0,0,0,0,0,0,0,0,0,0,0,0,0,9091,0,0,0,169,170,171,172,173,174,0,0,0,0,737,1312,1313,1314,1315,1316,1317,0,22879,1309,1310,1311,1312,1313,1314,0,
0,0,1312,1313,1314,1315,1316,1317,0,1312,1313,1314,0,708,0,0,0,0,0,0,0,0,0,0,0,0,0,0,0,0,0,0,0,0,0,0,0,0,0,0,0,0,9091,9091,0,0,0,0,0,0,172,173,174,0,0,0,737,0,0,0,0,0,0,0,0,22879,0,1315,1316,1317,0,0,
1313,1314,0,0,1309,1310,1311,1309,1310,1311,22879,708,0,0,0,0,0,0,0,0,0,0,0,0,0,0,0,0,0,0,0,0,0,0,0,0,0,0,9742,0,0,0,9742,9091,0,0,0,0,0,0,0,0,0,0,0,0,737,0,0,1309,1310,1311,1315,1316,1317,0,1312,1313,1314,0,1309,1310,
0,22879,1312,1313,1314,708,0,0,0,0,0,0,0,0,0,0,0,0,0,0,0,0,0,0,0,0,0,0,0,0,0,0,0,0,0,0,0,0,0,0,0,0,0,0,0,0,0,0,0,0,0,0,0,0,0,0,737,1312,1313,1314,0,0,0,1312,1313,1314,0,0,1315,1316,1317,0,
1311,0,0,0,708,0,0,0,8809,8810,0,0,7551,0,7552,0,0,0,0,0,0,0,0,0,0,0,0,0,0,0,0,0,0,0,0,0,0,0,0,0,0,0,0,0,0,0,0,0,0,0,0,0,0,0,0,0,737,0,0,0,0,1309,1310,1311,0,0,1309,1310,1311,0,1312,1313,
1312,1313,1314,22879,739,0,0,9742,8949,8950,9742,0,7691,9742,7692,0,9742,0,0,0,0,0,0,0,0,0,0,0,0,0,0,0,0,0,0,0,0,0,0,0,0,0,0,0,0,0,0,0,0,0,0,0,0,0,0,615,774,0,1309,1310,1311,0,0,0,0,0,0,0,1309,1310,1311,1315,
0,0,22879,0,739,0,0,0,0,0,0,0,0,0,0,0,0,0,0,0,0,0,0,0,0,0,0,0,0,0,0,0,0,0,0,0,0,0,0,0,0,0,0,0,0,0,0,0,0,0,0,0,0,0,0,647,0,710,0,0,0,0,0,0,0,1312,1313,1314,0,0,1312,1313,
0,0,0,0,739,0,0,0,0,0,0,0,0,0,0,0,0,0,0,0,0,0,0,0,0,0,0,0,0,0,0,0,0,0,0,0,0,0,0,0,0,0,0,0,0,0,0,0,0,0,0,0,0,0,0,0,0,0,0,0,0,0,0,0,710,48,22879,1309,1310,1311,0,0,
0,0,0,0,739,0,0,0,0,0,0,0,0,0,0,0,0,0,0,0,0,0,0,0,0,0,0,0,0,0,0,0,0,0,0,0,0,0,0,0,0,0,0,0,0,0,0,0,0,0,0,0,0,0,0,0,0,0,0,0,0,0,0,0,0,0,710,0,0,0,1309,1310,
994,0,0,994,739,0,0,0,0,7551,0,0,0,0,0,7550,0,0,0,0,0,0,0,0,0,0,0,0,0,0,0,0,0,0,0,0,0,0,0,0,0,0,0,0,0,0,0,0,0,0,0,0,0,0,0,0,0,0,0,0,0,0,0,0,0,0,737,0,1309,1310,1311,0,
994,1312,1313,1314,739,0,0,9742,0,7691,9742,0,0,9742,0,7690,9742,0,0,0,0,0,0,0,0,0,9792,0,0,0,0,0,0,0,0,0,0,0,9792,0,0,0,0,0,0,0,0,0,0,0,0,0,0,0,0,0,0,0,0,0,0,0,0,0,0,0,0,1309,1310,1311,0,0,
1309,1310,1311,0,22797,0,0,0,0,0,0,0,0,0,0,0,0,0,0,0,0,0,0,0,0,0,9742,9792,0,0,0,0,0,0,0,0,0,9792,9742,0,0,0,9742,0,0,0,0,0,0,0,0,0,0,0,0,0,0,0,0,0,0,0,0,0,0,0,0,0,0,0,1312,1313,
1316,1317,1312,1313,1314,739,0,0,0,0,169,170,171,76,77,78,26498,0,0,0,0,0,0,0,0,0,0,0,0,0,0,0,0,0,0,0,0,0,0,0,0,0,0,0,0,0,0,0,0,0,0,0,0,0,0,0,0,0,0,0,0,0,0,0,0,0,0,737,0,0,0,0,
1309,1310,1311,0,994,772,0,0,0,0,176,76,77,78,22915,0,26506,0,0,0,0,0,0,0,0,0,0,0,0,0,0,0,0,0,0,0,0,0,0,0,0,0,0,0,0,0,0,0,0,0,0,0,0,0,0,0,0,0,0,0,0,0,0,0,0,0,0,737,0,0,0,0,
1310,1311,1309,1310,1311,0,22797,0,0,0,0,22915,994,170,171,0,0,0,0,0,0,0,0,0,0,0,0,0,0,0,0,0,0,0,0,0,0,0,0,0,0,0,0,0,0,0,0,0,0,0,0,0,0,0,0,0,0,0,0,0,0,0,0,0,0,0,0,737,0,0,18437,18437,
0,1312,1313,1314,1309,1310,1311,22797,0,0,978,176,172,173,174,0,0,0,0,0,0,0,0,0,0,0,0,0,0,0,0,0,0,0,0,0,0,0,0,0,0,0,0,0,0,0,0,0,0,0,0,0,0,0,8809,8810,0,0,0,0,0,0,0,0,0,0,0,737,22915,994,0,18437,
1310,1311,1315,1316,1317,1312,1313,1314,739,0,0,0,0,169,170,171,0,0,0,0,0,0,0,0,0,0,0,0,0,0,0,0,0,0,0,0,0,0,0,9742,0,0,0,0,0,0,0,0,0,9742,0,0,0,0,8949,8950,0,0,0,0,0,0,0,9742,0,0,0,737,0,22915,22914,0,
1309,1310,1311,1309,1310,1311,0,0,22760,0,0,76,77,78,176,176,0,0,0,0,0,0,0,0,0,0,0,0,0,0,0,0,0,0,0,0,0,0,0,0,0,0,0,0,0,0,0,0,0,0,0,0,0,0,0,0,0,0,0,0,1309,1310,1311,0,0,0,0,22799,0,0,0,22914,
0,1312,1313,1314,0,0,1312,1313,22760,0,0,994,172,173,174,0,0,26498,0,0,0,0,0,0,0,0,0,0,0,0,0,0,0,0,0,0,0,0,0,0,0,0,0,0,0,0,0,0,0,0,0,0,0,0,0,0,1309,1310,1311,1315,1316,1317,0,0,0,0,22799,169,170,171,0,0,
1316,1317,1315,1316,1317,1312,1313,22723,0,0,0,0,994,0,169,170,171,26506,0,0,0,0,0,0,0,0,0,9792,9792,0,0,0,0,0,0,0,0,0,0,0,0,0,0,0,0,0,0,0,0,0,0,0,0,0,0,0,0,1315,1316,1317,0,0,0,0,22885,774,172,173,174,76,77,78,
1312,1313,1314,1309,1310,1311,0,22760,0,0,169,170,171,0,994,76,77,78,0,0,0,0,0,0,0,0,0,9742,9742,0,0,0,0,0,0,0,0,0,0,0,0,0,0,0,0,0,0,0,0,0,0,0,0,0,0,0,1312,1313,1314,1312,1313,1314,0,0,22762,170,171,0,0,0,0,0,
1310,1311,0,0,994,1312,1313,22760,0,0,0,994,172,173,174,176,0,0,0,0,0,0,0,0,0,0,0,0,0,0,0,0,0,0,0,0,0,0,0,0,0,0,0,0,0,0,0,0,0,0,0,0,0,0,0,0,22840,1312,1313,1314,4109,0,0,0,0,710,0,169,170,171,76,77,
1316,1317,1312,1313,1314,994,0,22760,0,0,994,169,170,171,0,0,0,0,0,0,9792,0,0,0,0,0,0,0,0,0,0,0,0,0,0,0,0,0,0,0,0,0,0,0,0,0,0,0,0,9091,0,0,0,0,0,0,22915,0,1312,1313,1314,22915,22915,0,0,0,710,0,76,77,78,0,
0,1309,1310,1311,0,1312,1313,22760,0,0,0,0,0,172,173,174,0,0,0,0,9742,9792,0,0,0,0,0,9792,9792,0,0,0,0,0,0,0,0,0,0,9742,0,0,0,0,0,0,0,0,9091,9742,0,0,0,0,9742,0,1309,1310,1311,0,0,0,22915,22915,0,0,0,710,0,0,169,170,
1315,1316,1317,1309,1310,1311,0,22760,0,0,172,173,174,76,77,78,0,0,0,0,0,0,0,0,0,0,0,0,0,26946,0,0,0,0,0,0,0,0,0,0,0,0,0,0,0,0,0,0,0,0,0,0,0,0,0,0,0,1312,1313,1314,1309,1310,1311,0,0,0,0,22762,0,172,173,174,
1313,1314,1309,1310,1311,1309,1310,22760,0,0,0,0,169,170,171,994,0,0,0,0,0,0,0,0,0,0,0,0,0,26954,0,0,0,0,0,0,0,0,0,0,0,0,0,0,0,0,0,0,0,0,0,0,0,0,0,1315,1316,1317,0,1312,1313,1314,4109,0,4109,0,0,22762,173,174,0,0,
1316,1317,0,0,1312,1313,1314,772,22886,0,0,172,173,174,994,76,77,78,0,0,0,0,0,0,0,0,0,0,0,26962,0,0,0,0,0,0,0,0,0,0,0,0,0,0,0,0,0,0,0,0,0,0,0,0,0,22840,0,1315,1316,1317,0,22915,1312,1313,1314,0,0,737,994,169,170,171,
0,1312,1313,1314,0,0,1309,1310,22760,0,0,0,169,170,171,22915,0,76,77,78,0,0,0,0,0,0,0,0,0,0,0,0,0,0,0,0,0,0,0,0,0,0,0,0,0,0,0,0,0,0,0,0,0,0,0,1315,1316,1317,1309,1310,1311,0,22840,0,0,0,0,22762,0,0,0,0,
0,0,0,1315,1316,1317,0,0,739,0,0,0,0,22915,22915,169,170,171,0,176,0,0,0,0,22842,0,22842,0,0,0,0,0,0,0,0,0,0,0,0,0,0,0,0,0,0,0,0,0,0,0,0,0,0,0,1309,1310,1311,22915,1316,22915,1312,1313,1314,0,0,0,22885,169,170,171,76,77,
1315,1316,1317,0,0,1312,1313,1314,22797,0,0,0,0,0,0,0,172,173,174,76,77,78,0,0,169,170,171,0,0,0,0,0,0,0,0,0,0,0,0,0,0,0,0,0,0,0,0,0,0,0,0,0,0,0,0,0,22915,1312,1313,1314,0,0,0,0,0,0,22762,173,174,0,0,172,
1313,1314,0,1312,1313,1314,1312,1313,1314,772,0,0,0,0,169,170,171,0,22915,22915,172,173,174,22915,176,0,0,0,0,0,0,0,0,0,0,0,0,0,0,0,0,0,0,0,0,0,0,0,0,0,0,0,0,0,1309,1310,1311,0,1309,1310,1311,0,0,0,0,0,774,22915,22915,169,170,171,
0,1315,1316,1317,0,1315,1316,1317,0,0,772,706,0,0,0,0,76,77,78,169,170,171,0,22842,0,0,0,0,0,0,0,0,0,0,0,0,0,0,0,0,0,0,0,0,9792,0,0,0,0,0,0,0,0,0,0,1312,1313,1314,0,0,0,0,0,0,0,22799,170,171,76,77,78,0,
1317,0,1309,1310,1311,0,0,1309,1310,1311,0,0,772,0,169,170,171,169,170,171,0,0,0,0,26944,26945,0,0,0,0,0,22885,706,22798,22798,22798,22798,0,0,0,0,0,0,0,0,0,0,0,0,0,0,0,0,0,9096,0,0,1312,1313,1314,0,0,0,0,774,22840,22840,22840,77,78,76,77,
1312,1313,1314,0,1312,1313,1314,0,0,1312,1313,1314,0,739,0,76,77,78,0,0,0,0,0,0,26952,26953,0,0,0,0,0,22799,1310,1311,1312,1313,1314,772,706,0,0,0,0,0,0,0,0,0,0,0,0,0,0,0,9236,1312,1313,1314,0,0,0,0,0,774,22840,0,172,173,174,169,170,171,
1309,1310,1311,0,1309,1310,1311,0,1312,1313,1314,0,0,22760,0,0,169,170,171,0,0,0,0,0,26960,26961,0,0,0,0,774,22915,0,0,0,0,0,0,0,22797,22798,706,0,0,0,0,0,0,0,9095,0,0,0,0,9792,0,1309,1310,1311,0,0,0,737,22840,22840,0,22840,22840,76,77,78,0,
0,0,1312,1313,1314,0,1312,1313,1314,0,0,1309,1310,22760,0,0,0,0,0,0,0,0,0,0,0,0,0,706,22798,774,0,0,0,1309,1310,1311,0,1315,1316,1317,1312,1313,22797,706,0,0,0,0,0,9235,0,0,0,0,9096,1312,1313,1314,0,0,0,0,22799,0,76,77,78,172,173,174,172,173,
1310,1311,994,0,1309,1310,1311,0,1315,1316,1317,1312,1313,22760,0,0,0,0,0,0,0,22762,22797,22798,22798,706,22799,0,1309,1310,1311,1312,1313,1314,0,1312,1313,1314,0,0,0,0,0,0,772,0,0,0,0,0,0,0,0,0,9236,0,1312,1313,1314,0,0,774,76,77,78,76,77,78,169,170,171,0,
22915,22915,1309,1310,1311,0,1309,1310,1311,0,0,0,0,772,0,0,0,0,0,0,0,22799,1310,1311,1312,1313,1314,0,0,22915,1309,1310,1311,0,1309,1310,1311,3843,1312,1313,1314,0,0,0,0,739,0,0,0,0,0,0,0,0,0,1315,1316,1317,0,0,737,22915,0,76,77,78,0,0,0,0,0,0,
1314,22915,994,1312,1313,1314,0,0,0,1312,1313,1314,1312,1313,1314,0,0,0,0,22798,774,0,0,0,1309,1310,1311,1312,1313,1314,0,0,1312,1313,1314,22915,0,1309,1310,1311,0,1312,1313,1314,0,739,0,0,0,0,0,0,0,0,1312,1313,1314,0,0,22885,774,0,169,170,171,0,172,173,174,0,172,173,
0,0,1309,1310,1311,0,0,1312,1313,1314,0,0,0,1315,1316,22797,22798,22798,774,1312,1313,1314,1312,1313,1314,0,27360,0,0,0,0,0,0,0,25884,25885,25843,25844,25844,25845,1310,1311,1309,1310,1311,739,0,0,0,0,0,0,0,0,0,0,0,0,0,22762,173,174,0,22915,169,170,171,22879,169,170,171,0,
1313,1314,22915,22915,0,1309,1310,1311,0,0,1312,1313,1314,0,22915,1312,1313,1314,0,0,0,0,0,0,3843,0,0,0,0,0,0,0,0,0,3843,3843,25851,25852,25835,25853,1312,1313,1314,0,0,22760,0,0,0,0,0,0,0,0,0,0,0,0,0,737,0,172,173,174,994,172,173,174,0,76,77,78,
1309,1310,1311,1312,1313,1314,0,0,1309,1310,1311,0,1309,1310,1311,0,994,0,0,1312,1313,1314,1309,1310,1311,0,0,0,0,0,0,0,0,0,0,27318,25851,25852,25836,25853,0,0,0,1312,1313,22760,0,0,0,0,0,0,0,0,0,0,0,0,0,0,22725,0,169,170,171,0,0,169,170,171,0,0,
1313,1314,22915,22915,1315,1316,1317,1312,1313,1314,0,1312,1313,1314,1315,1316,1317,1315,1316,1317,1309,1310,1311,0,0,0,0,0,0,0,0,0,0,0,0,0,25851,25836,25852,25853,0,0,0,0,0,22760,0,0,0,8954,0,0,0,0,0,0,0,0,0,0,22762,173,174,0,0,169,170,171,0,76,77,78,
1312,1313,1314,1312,1313,1314,0,1309,1310,1311,1309,1310,1311,0,994,0,1312,1313,1314,0,0,0,1309,1310,25299,25300,25301,3843,0,0,0,0,0,0,0,0,25851,25852,25852,25853,1315,1316,1317,1312,1313,22760,0,0,0,8954,0,0,0,0,0,0,0,0,0,0,737,169,170,171,172,173,174,76,77,78,169,170,
1310,1311,22915,0,0,0,1312,1313,1314,0,0,0,1312,1313,1314,1309,1310,1311,22915,0,1312,1313,1314,0,25307,25308,25309,0,0,0,0,0,0,0,0,0,25859,25860,25860,25861,25838,1309,1310,1311,0,739,0,0,0,8954,0,0,0,0,0,0,0,0,0,0,22317,0,172,173,174,172,173,174,76,77,78,0,
0,0,1312,1313,1314,0,0,1312,1313,1314,1309,1310,1311,0,1309,1310,1311,0,1309,1310,1311,0,3843,0,0,0,22915,25843,25844,25844,25844,25845,27137,27138,0,0,0,0,3969,0,25846,0,1312,1313,1314,739,0,0,0,8954,0,0,0,0,0,0,0,0,0,0,1309,77,78,169,170,171,0,169,170,171,0,0,
1309,1310,1311,0,0,0,0,0,1315,1316,1317,0,1312,1313,1314,0,0,0,0,1312,1313,1314,0,0,3843,0,25882,25859,25860,25860,25860,25861,27145,27146,0,0,3689,1315,1316,1317,0,1315,1316,1317,0,22797,0,0,0,0,0,0,0,0,9742,0,0,0,0,0,774,169,170,171,0,76,77,78,0,994,169,170,
1313,1314,1309,1310,1311,1312,1313,1314,0,0,1312,1313,1314,0,0,0,1309,1310,1311,0,0,1309,1310,1311,0,3843,0,0,0,0,0,22915,25862,0,22879,22879,3406,3550,0,0,1309,1310,1311,1309,1310,1311,22797,0,0,0,0,0,0,0,0,0,0,0,706,76,77,78,0,172,173,174,172,173,174,76,77,78,
22915,1312,1313,1314,22915,1310,1311,0,1312,1313,1314,1309,1310,1311,1312,1313,1314,0,0,1309,1310,1311,1312,1313,1314,0,0,0,0,27874,0,0,22915,0,22879,0,0,0,0,0,0,0,0,22879,1312,1313,1314,22760,0,0,0,0,0,0,0,22798,22798,22799,173,174,0,76,77,78,169,170,171,172,173,174,0,22915,
1309,1310,1311,0,1312,1313,1314,1315,1316,1317,1315,1316,1317,1315,1316,1317,0,1315,1316,1317,0,0,0,1309,1310,1311,0,0,22915,1309,1310,1311,0,0,1309,1310,1311,0,0,0,3546,3547,0,0,0,1312,1313,22797,706,706,706,706,706,706,774,76,77,78,994,172,173,174,0,172,173,174,76,77,78,172,173,174,
0,0,1312,1313,1314,1315,1316,1317,1312,1313,1314,1312,1313,1314,1315,1316,1317,0,1312,1313,1314,1312,1313,1314,0,0,22915,0,22915,0,0,1309,1310,1311,0,0,0,0,0,0,3408,3406,0,0,0,0,0,0,0,0,0,0,0,0,22840,22915,22879,0,76,77,78,76,77,78,76,77,78,0,76,77,78,0,
1310,1311,0,22915,22915,0,1312,1313,1314,1309,1310,1311,0,1312,1313,1314,1315,1316,1317,0,0,0,0,22879,1312,1313,1314,22915,0,1312,1313,1314,0,1312,1313,1314,1309,1310,1311,0,0,0,22879,0,0,0,0,0,0,0,0,0,0,994,22879,3843,22915,172,173,174,76,77,78,22915,0,22915,172,173,174,0,169,170,
0,1312,1313,1314,1309,1310,1311,0,1309,1310,1311,0,1309,1310,1311,0,0,1309,1310,1311,1312,1313,1314,1309,1310,1311,0,0,0,0,0,0,1309,1310,1311,1315,1316,1317,0,0,0,0,0,0,0,0,0,0,0,0,0,0,0,0,0,22879,0,3843,0,169,170,171,0,169,170,171,0,76,77,78,76,77,
1316,1317,1309,1310,1311,1312,1313,1314,0,0,1312,1313,1314,0,1309,1310,1311,0,0,1309,1310,1311,0,0,1312,1313,1314,1312,1313,1314,1309,1310,1311,1309,1310,1311,1309,1310,1311,1309,1310,1311,0,0,0,0,0,0,0,0,0,0,0,0,994,0,22840,172,173,174,994,76,77,78,0,76,77,78,169,170,171,0
</data>
 </layer>
 <layer id="3" name="Layer 3" width="72" height="74">
  <data encoding="csv">
0,1169,1170,1171,1172,1173,1174,1169,1170,1171,0,1169,1170,1171,0,1169,1170,1171,0,1172,1173,1174,1169,1170,1171,0,1172,1173,1174,1169,1170,1171,0,0,0,0,0,0,0,0,0,0,0,0,0,1172,1173,1174,1172,1173,1174,0,1172,1173,1174,0,1172,1173,1174,1175,1176,1177,1172,1173,1174,1169,1170,1171,1169,1170,1171,0,
1172,1173,1174,0,1172,1173,1174,0,0,1169,1170,1171,1175,1176,1177,0,0,1172,1173,1174,1169,1170,1171,0,0,1175,1176,1177,1175,1176,1177,1172,1173,1174,0,0,0,0,0,0,0,0,0,0,0,0,1172,1173,1174,0,1169,1170,1171,0,0,1169,1170,1171,1172,1173,1174,0,1172,1173,1174,0,1172,1173,1174,0,1169,1170,
1171,0,0,1172,1173,1174,1169,1170,1171,0,1172,1173,1174,1169,1170,1171,0,0,1169,1170,1171,0,0,1169,1170,1171,0,1172,1173,1174,0,0,0,0,0,0,0,0,0,0,0,0,0,0,0,0,0,0,1169,1170,1171,0,0,1172,1173,1174,0,0,0,1169,1170,1171,1175,1176,1177,1169,1170,1171,1169,1170,1171,1175,
1173,1174,1175,1176,1177,1169,1170,1171,1175,1176,1177,1175,1176,1177,1169,1170,1171,1169,1170,1171,0,1172,1173,1174,0,0,1169,1170,1171,1175,1176,1177,1172,1173,1174,0,0,0,0,0,0,0,0,0,0,0,0,0,0,0,0,1169,1170,1171,0,0,1169,1170,1171,0,0,1172,1173,1174,1175,1176,1177,1172,1173,1174,0,0,
1175,1176,1177,1172,1173,1174,1175,1176,1177,1172,1173,1174,0,1172,1173,1174,1175,1176,1177,0,1175,1176,1177,0,0,1172,1173,1174,0,0,1172,1173,1174,0,22723,476,477,477,478,22725,0,22723,476,477,477,478,22725,1172,1173,1174,1175,1176,1177,0,1172,1173,1174,0,1172,1173,1174,1169,1170,1171,1169,1170,1171,0,0,0,1172,1173,
1171,1169,1170,1171,0,0,1172,1173,1174,0,0,1175,1176,1177,0,0,1172,1173,1174,1169,1170,1171,1169,1170,1171,0,0,1175,1176,1177,0,0,0,22723,22923,0,0,0,0,22922,22724,22923,0,0,0,0,22922,1312,1169,1170,1171,1172,1173,1174,0,0,1169,1170,1171,1175,1176,1177,1175,1176,1177,1172,1173,1174,1169,1170,1171,0,
1173,1174,0,1169,1170,1171,1169,1170,1171,1172,1173,1174,1169,1170,1171,0,0,1175,1176,1177,1172,1173,1174,0,1172,1173,1174,1172,1173,1174,0,0,0,22760,0,0,0,0,0,0,0,0,0,0,0,0,0,22762,0,0,0,0,1169,1170,1171,1175,1176,1177,0,0,1169,1170,1171,1172,1173,1174,0,0,1172,1173,1174,1175,
0,0,1172,1173,1174,1172,1173,1174,0,1169,1170,1171,1172,1173,1174,1169,1170,1171,1172,1173,1174,1169,1170,1171,1169,1170,1171,0,0,0,1172,1173,1174,22760,0,0,0,0,0,0,0,0,0,0,0,0,0,22922,22725,1169,1170,1171,0,1175,1176,1177,1172,1173,1174,0,1172,1173,1174,0,1169,1170,1171,0,0,0,1169,1170,
0,0,1169,1170,1171,0,0,1169,1170,1171,0,1169,1170,1171,0,0,0,1169,1170,1171,0,1169,1170,1171,0,0,1169,1170,1171,1175,1176,1177,1314,22923,0,0,0,0,0,0,0,0,0,0,0,0,0,0,22762,0,1175,1176,1177,1169,1170,1171,1169,1170,1171,1175,1176,1177,1172,1173,1174,0,0,1172,1173,1174,0,1175,
1172,1173,1174,0,1169,1170,1171,0,1172,1173,1174,0,0,0,1172,1173,1174,0,0,0,1172,1173,1174,0,1172,1173,1174,1175,1176,1177,0,0,22760,0,0,0,0,0,0,0,0,0,0,0,0,0,0,0,22762,0,0,1175,1176,1177,1175,1176,1177,1169,1170,1171,0,0,1169,1170,1171,0,0,1169,1170,1171,1172,1173,
1171,0,0,1172,1173,1174,1169,1170,1171,0,1172,1173,1174,1169,1170,1171,0,1172,1173,1174,0,0,0,0,1169,1170,1171,0,1172,1173,1174,22723,22923,0,0,0,0,0,0,0,0,0,0,0,0,0,0,0,22762,0,0,1169,1170,1171,1172,1173,1174,1175,1176,1177,1172,1173,1174,0,0,1172,1173,1174,0,0,0,0,
1170,1171,0,0,1169,1170,1171,1172,1173,1174,1175,1176,1177,1172,1173,1174,0,0,1169,1170,1171,1169,1170,1171,1175,1176,1177,0,0,0,0,22760,0,0,0,0,0,0,0,0,0,0,0,0,0,0,0,0,22762,1169,1170,1171,0,0,0,1172,1173,1174,0,1175,1176,1177,0,1169,1170,1171,0,1172,1173,1174,1169,1170,
1172,1173,1174,0,1169,1170,1171,1169,1170,1171,0,1169,1170,1171,0,0,0,1169,1170,1171,1169,1170,1171,1172,1173,1174,0,1172,1173,1174,22723,22923,0,0,0,0,0,0,0,0,0,0,0,0,0,0,0,0,22762,0,0,1175,1176,1177,1172,1173,1174,0,0,1169,1170,1171,1175,1176,1177,0,0,1169,1170,1171,0,1175,
1171,1169,1170,1171,0,0,1169,1170,1171,0,1172,1173,1174,0,1172,1173,1174,1169,1170,1171,0,1169,1170,1171,1175,1176,1177,0,0,1314,22923,0,0,0,0,0,0,0,0,0,0,0,137,138,139,137,138,139,22922,22725,0,0,1169,1170,1171,0,0,1172,1173,1174,0,1172,1173,1174,1172,1173,1174,0,0,1172,1173,1174,
1169,1170,1171,1172,1173,1174,0,0,1172,1173,1174,1175,1176,1177,0,1169,1170,1171,1172,1173,1174,0,1169,1170,1171,1172,1173,1174,0,22760,0,0,0,0,0,0,0,0,0,0,0,0,0,0,0,137,138,139,0,22762,0,1169,1170,1171,0,1175,1176,1177,0,1169,1170,1171,0,0,1169,1170,1171,1172,1173,1174,0,0,
0,0,1169,1170,1171,0,1172,1173,1174,1169,1170,1171,0,1169,1170,1171,0,1169,1170,1171,0,1169,1170,1171,0,1169,1170,1171,22723,22923,0,0,0,0,0,0,0,0,0,0,0,0,0,0,0,44,45,46,0,22922,22725,0,0,1169,1170,1171,1172,1173,1174,1175,1176,1177,1172,1173,1174,0,0,1172,1173,1174,1169,1170,
1173,1174,0,1169,1170,1171,0,1169,1170,1171,1175,1176,1177,1172,1173,1174,0,0,1172,1173,1174,0,0,1169,1170,1171,0,1311,22923,0,0,0,0,0,0,0,0,0,0,0,0,0,0,137,138,139,44,45,46,0,22922,22724,22725,0,0,1172,1173,1174,0,0,0,1169,1170,1171,0,0,1172,1173,1174,0,0,1175,
1170,1171,0,1172,1173,1174,0,0,0,1172,1173,1174,0,0,1169,1170,1171,1172,1173,1174,1169,1170,1171,1172,1173,1174,0,22760,0,0,0,0,0,0,0,0,0,0,0,0,0,0,0,0,44,45,46,137,138,139,0,0,22922,22725,0,0,1169,1170,1171,1172,1173,1174,0,0,1172,1173,1174,1169,1170,1171,1172,1173,
0,1175,1176,1177,0,0,1169,1170,1171,1169,1170,1171,1172,1173,1174,1175,1176,1177,1175,1176,1177,0,0,0,0,0,22723,22923,0,0,0,0,0,0,0,0,0,0,0,0,0,0,0,0,137,138,139,44,45,46,0,0,0,22922,22725,0,0,0,1169,1170,1171,0,1169,1170,1171,0,1175,1176,1177,0,0,1175,
1171,0,0,1175,1176,1177,1172,1173,1174,0,0,1169,1170,1171,0,0,0,0,0,0,22723,22724,22724,22724,22725,22723,22923,0,23135,23136,23137,23138,23139,23140,23141,23142,23143,0,0,0,0,0,0,0,0,0,137,138,139,140,141,142,0,0,22922,22724,22725,1172,1173,1174,1175,1176,1177,0,0,1169,1170,1171,1172,1173,1174,0,
0,0,1172,1173,1174,1175,1176,1177,0,1172,1173,1174,0,0,0,22723,22724,22724,22724,22724,22923,0,0,0,22922,22923,0,0,23172,23173,23174,23175,23176,23177,23178,23179,23180,0,0,0,0,0,0,0,0,0,0,0,0,0,140,141,142,0,0,0,22762,0,0,1169,1170,1171,1172,1173,1174,0,0,1175,1176,1177,1172,1173,
1173,1174,0,0,1169,1170,1171,1169,1170,1171,0,0,0,22723,22724,22923,0,0,0,0,0,0,0,0,0,0,0,0,23209,23210,23211,23212,23213,23214,23215,23216,23217,0,0,0,0,0,0,0,0,0,0,0,0,0,0,0,0,0,0,0,22762,0,0,1169,1170,1171,1175,1176,1177,0,1172,1173,1174,0,1169,1170,
0,0,1172,1173,1174,0,0,0,0,0,0,22723,22724,22923,0,0,0,0,0,0,0,0,0,0,0,0,0,0,23246,23247,23248,23249,23250,23251,23252,23253,23254,0,0,0,0,0,0,0,23256,23257,23258,23259,23260,23261,23262,23263,23264,0,0,0,22762,1172,1173,1174,0,0,0,1172,1173,1174,0,0,1175,1176,1177,0,
1171,0,0,0,0,22723,22724,22724,22724,22724,22724,22923,0,0,0,0,0,0,0,0,0,0,0,0,0,0,0,0,23283,23284,23285,23286,23287,23288,23289,23290,23291,0,0,0,0,0,0,0,23293,23294,23295,23296,23297,23298,23299,23300,23301,0,0,0,22762,0,0,0,0,1169,1170,1171,0,0,1169,1170,1171,0,1172,1173,
1172,1173,1174,0,22723,22923,0,0,0,0,0,0,0,0,0,0,0,0,0,0,0,0,0,0,0,0,0,0,23320,23321,23322,23323,23324,23325,23326,23327,23328,0,0,0,0,0,0,0,23330,23331,23332,23333,23334,23335,23336,23337,23338,0,0,0,22762,0,1169,1170,1171,0,1169,1170,1171,1175,1176,1177,1169,1170,1171,1175,
0,0,0,0,22760,0,0,0,0,0,0,0,0,0,0,0,0,0,0,0,0,0,0,0,0,0,0,0,23357,23358,23359,23360,23361,23362,23363,23364,23365,9095,0,0,0,0,0,9096,23367,23368,23369,23370,23371,23372,23373,23374,23375,0,0,22885,22799,0,0,0,0,0,0,0,0,1172,1173,1174,0,0,1172,1173,
0,0,0,0,22760,0,0,0,0,0,0,0,0,0,0,0,0,0,0,0,0,0,0,0,0,0,0,0,23394,23395,23396,23397,23398,23399,23400,23401,23402,9235,0,0,0,0,0,9236,23404,23405,23406,23407,23408,23409,23410,23411,23412,22960,0,22922,22724,22725,0,0,0,0,0,0,0,0,0,1169,1170,1171,0,0,
0,0,0,0,22760,0,0,0,0,0,0,0,0,0,0,0,0,0,0,0,0,0,0,0,0,0,0,0,23431,23432,23433,23434,23435,23436,23437,23438,23439,9095,0,0,0,0,0,9096,23441,23442,23443,23444,23445,23446,23447,23448,23449,22960,0,0,0,22922,22724,22724,22724,22724,22724,22724,22725,1445,1445,1445,0,0,1169,1170,
0,0,0,0,22760,0,0,0,0,0,0,0,0,0,0,0,0,22867,22868,22869,22870,22871,0,0,0,0,0,0,23468,23469,23470,23471,23472,23473,23474,23475,23476,9235,0,0,0,0,0,9236,23478,23479,23480,23481,23482,23483,23484,23485,23486,22960,0,0,0,0,0,0,0,0,0,0,22922,22724,22725,0,1169,1170,1171,0,
0,1172,1173,1174,22760,0,0,0,0,0,0,0,0,0,0,0,0,22904,22905,22906,22907,22908,0,0,0,0,0,0,23505,23506,23507,23508,23509,23510,23511,23512,23513,0,0,0,0,0,0,0,23515,23516,23517,23518,23519,23520,23521,23522,23523,22960,0,0,0,0,0,22960,0,0,0,0,0,0,22762,1169,1170,1171,1169,1170,
1169,1170,1171,0,22760,0,0,0,0,0,0,0,0,0,0,0,0,22941,22942,22943,22944,22945,0,0,0,0,0,0,23542,23543,23544,23545,23546,23547,23548,23549,23550,0,0,0,0,0,0,0,23552,23553,23554,23555,23556,23557,23558,23559,23560,0,23188,0,0,0,23192,0,23188,0,0,0,0,0,22922,22725,0,0,1172,1173,
1176,1177,1172,1173,1174,22886,0,0,0,0,137,138,139,44,45,46,0,22978,22979,22980,22981,22982,0,0,0,0,0,0,0,0,0,0,0,0,0,0,0,0,0,0,0,0,0,0,0,0,0,0,0,0,0,0,0,0,0,0,0,0,0,0,0,0,0,0,0,0,0,22762,2684356014,2684356014,2684356014,0,
1169,1170,1171,0,0,22760,0,0,0,0,0,44,45,46,0,0,0,23015,23016,23017,23018,23019,0,0,0,0,0,0,0,0,0,0,0,0,0,0,0,0,0,0,0,0,0,0,0,0,0,0,0,0,0,0,0,0,0,0,0,0,0,0,0,0,0,0,0,0,0,22762,0,0,0,0,
1170,1171,1169,1170,1171,22797,22886,0,0,0,0,0,137,138,139,0,0,23052,23053,23054,23055,23056,0,0,0,0,0,0,0,0,0,0,0,0,0,0,0,0,0,0,0,0,0,0,0,0,0,0,0,0,0,0,0,0,0,0,0,0,0,0,0,0,0,0,0,0,0,22762,0,0,0,0,
0,1172,1173,1174,1169,1170,1171,22886,0,0,0,0,140,141,142,0,0,0,0,0,0,0,0,0,0,0,0,0,0,0,0,0,0,0,0,0,0,0,0,0,0,0,0,0,0,0,0,0,0,0,0,0,0,0,0,0,0,0,0,0,0,0,0,0,0,0,0,22762,0,0,0,0,
1170,1171,1175,1176,1177,1172,1173,1174,22886,0,978,978,978,137,138,139,0,0,22053,22054,22055,22056,0,0,0,0,0,0,0,0,0,0,0,0,0,0,0,0,0,0,0,0,0,0,0,0,0,0,0,0,0,0,0,0,0,0,0,0,0,0,0,0,0,0,0,0,0,22762,0,0,0,0,
1169,1170,1171,1169,1170,1171,0,0,22760,0,0,44,45,46,0,0,0,0,22090,22091,22092,22093,0,0,0,0,0,0,0,0,0,0,0,0,0,0,0,0,0,0,0,0,0,0,0,0,0,0,0,0,0,0,0,0,0,0,0,0,0,0,1169,1170,1171,0,0,0,0,22762,0,0,0,0,
1174,1172,1173,1174,0,0,1172,1173,1174,0,0,0,140,141,142,0,0,0,22127,22128,22129,22130,0,0,0,0,0,9096,9095,0,0,0,0,0,0,0,0,0,0,0,0,0,0,0,0,0,0,0,0,0,0,0,0,0,0,0,1169,1170,1171,1175,1176,1177,0,0,0,0,22885,137,138,139,0,0,
1176,1177,1175,1176,1177,1172,1173,1174,1314,0,0,0,0,0,137,138,139,0,22164,22165,22166,22167,0,0,0,0,0,9236,9235,0,0,23157,23158,23159,23160,0,0,0,0,0,0,0,0,0,0,0,0,0,0,0,0,0,0,0,22960,22960,0,1175,1176,1177,0,0,0,0,0,22885,140,141,142,44,45,46,
1172,1173,1174,1169,1170,1171,0,1314,22923,0,137,138,139,0,0,44,45,46,22201,22202,22203,22204,0,0,0,0,0,0,0,0,0,23194,23195,23196,23197,0,0,0,0,9096,0,0,0,0,0,0,0,0,0,0,0,0,0,0,22960,0,1172,1173,1174,1172,1173,1174,0,0,137,138,139,0,0,0,137,138,
1170,1171,1175,1176,1177,1172,1173,1174,0,0,0,0,140,141,142,0,0,0,0,0,0,0,0,0,0,0,0,0,0,0,0,23231,23232,23233,23234,0,0,0,0,9236,0,0,0,0,0,0,0,0,0,0,0,0,0,0,0,0,0,1172,1173,1174,0,0,0,0,1312,0,0,137,138,139,44,45,
1176,1177,1172,1173,1174,0,0,1314,0,0,0,137,138,139,0,0,0,0,0,0,0,0,0,0,0,0,0,9096,9095,0,0,0,0,0,0,0,0,0,0,0,0,0,0,0,0,0,0,0,0,0,0,0,0,0,0,0,0,0,1172,1173,1174,0,0,0,22922,22725,0,0,44,45,46,0,
0,1169,1170,1171,0,1172,1173,1174,0,0,0,0,0,140,141,142,0,0,0,0,0,0,0,0,0,0,0,9236,9235,0,0,0,0,0,0,0,0,0,0,0,0,0,23564,0,0,0,23568,0,0,0,0,0,0,0,0,0,1169,1170,1171,0,0,0,0,0,0,22922,22725,0,0,0,137,138,
1175,1176,1177,1169,1170,1171,0,1314,0,0,140,141,142,44,45,46,0,0,0,0,0,26643,26644,26645,26646,26647,26648,0,0,0,0,0,0,0,0,0,0,0,0,0,0,0,0,0,0,0,0,0,0,0,0,0,0,0,0,0,0,1172,1173,1174,1169,1170,1171,0,0,0,22922,22725,0,140,141,142,
1173,1174,1169,1170,1171,1169,1170,1171,0,0,0,0,137,138,139,0,0,0,0,0,0,26651,26652,26653,26654,26655,26656,0,0,0,0,0,0,0,0,0,0,0,0,0,0,0,0,0,0,0,0,0,0,0,0,0,0,0,0,1175,1176,1177,0,1172,1173,1174,0,0,0,0,0,140,141,142,44,45,
1176,1177,0,0,1172,1173,1174,1311,0,0,0,140,141,142,0,44,45,46,0,0,0,26659,26660,26661,26662,26663,26664,0,0,0,0,0,0,0,0,0,0,0,0,0,0,0,0,0,0,0,0,0,0,0,0,0,0,0,0,0,0,1175,1176,1177,0,0,1172,1173,1174,0,0,1315,0,137,138,139,
0,1172,1173,1174,0,0,1169,1170,1171,0,0,0,137,138,139,0,0,44,45,46,0,26667,26668,26669,26670,26671,26672,0,0,0,0,0,0,0,0,0,0,0,0,0,0,22457,22458,22459,22460,22461,22462,22463,22464,22465,0,0,0,0,0,1175,1176,1177,1169,1170,1171,0,0,0,0,0,0,22762,0,0,44,45,
1175,1176,1177,1175,1176,1177,0,0,1311,0,0,0,0,0,0,137,138,139,0,0,0,0,0,0,0,0,0,0,0,0,0,0,0,23233,23234,0,7550,7547,7548,7549,0,22494,22495,22496,22497,22498,22499,22500,22501,22502,0,0,0,0,1169,1170,1171,1175,1176,1177,1172,1173,1174,0,0,0,0,137,138,139,44,45,
1175,1176,1177,0,0,1172,1173,1174,22760,0,0,0,0,0,0,0,140,141,142,44,45,46,0,0,137,138,139,0,0,0,0,0,0,0,0,0,7690,7687,7688,7689,22960,22531,22532,22533,22534,22535,22536,22537,22538,22539,0,0,0,0,0,0,0,1172,1173,1174,0,0,0,0,0,0,140,141,142,0,0,140,
1173,1174,0,1172,1173,1174,1172,1173,1174,22886,0,0,0,0,137,138,139,0,0,0,140,141,142,994,0,0,0,0,0,0,0,0,0,0,0,0,0,0,0,0,22960,22568,22569,22570,22571,22572,22573,22574,22575,22576,0,0,0,0,1169,1170,1171,0,1169,1170,1171,0,0,0,0,0,1315,0,0,137,138,139,
1037,1175,1176,1177,0,1175,1176,1177,0,22797,22886,0,0,0,0,0,44,45,46,137,138,139,0,1010,1010,1010,0,0,0,0,0,0,0,0,0,0,0,0,0,0,22960,22605,22606,22607,22608,22609,22610,22611,22612,22613,0,0,0,0,0,1172,1173,1174,0,0,0,0,0,0,0,137,138,139,44,45,46,0,
1177,0,1169,1170,1171,0,0,1169,1170,1171,22797,22798,22886,0,137,138,139,137,138,139,0,0,994,0,0,0,0,0,0,0,0,0,0,0,0,0,0,0,0,0,0,22642,22643,22644,22645,22646,22647,22648,22649,22650,0,0,0,0,0,0,0,1172,1173,1174,0,0,0,0,22885,1312,0,44,45,46,44,45,
1172,1173,1174,0,1172,1173,1174,0,0,1172,1173,1174,22797,22886,0,44,45,46,0,0,0,0,0,0,0,0,0,0,0,0,0,1169,1170,1171,1172,1173,1174,22886,0,0,0,0,0,0,0,0,0,0,0,0,0,0,0,0,0,1172,1173,1174,0,0,0,0,0,22885,22799,0,140,141,142,137,138,139,
1169,1170,1171,0,1169,1170,1171,0,1172,1173,1174,0,0,22760,0,0,137,138,139,0,0,0,0,0,0,0,0,0,0,0,22885,1309,0,0,0,0,0,22797,22798,22886,0,0,0,0,0,0,0,0,0,0,0,0,0,0,0,0,1169,1170,1171,0,0,0,22885,22799,137,138,139,0,44,45,46,0,
0,0,1172,1173,1174,0,1172,1173,1174,0,0,1169,1170,1171,0,0,0,0,0,0,0,0,0,0,0,0,0,0,0,22885,22799,0,0,1169,1170,1171,0,1175,1176,1177,1172,1173,1174,0,0,0,0,0,0,0,0,0,0,0,0,1172,1173,1174,0,0,0,0,22762,0,44,45,46,140,141,142,140,141,
1170,1171,0,0,1169,1170,1171,0,1175,1176,1177,1172,1173,1174,0,0,0,0,0,0,0,22885,22886,0,0,0,22885,22798,1169,1170,1171,1172,1173,1174,0,1172,1173,1174,0,0,0,0,1314,22798,22886,0,0,0,0,0,0,0,0,0,0,0,1172,1173,1174,0,0,22885,44,45,46,44,45,46,137,138,139,0,
0,0,1169,1170,1171,0,1169,1170,1171,1175,1176,1177,0,1314,0,0,0,0,0,0,0,1169,1170,1171,1172,1173,1174,0,0,0,1169,1170,1171,0,1169,1170,1171,0,1172,1173,1174,0,0,0,22797,22886,0,0,0,0,0,0,0,0,0,1175,1176,1177,0,0,22885,22799,0,44,45,46,140,141,142,0,0,0,
1174,0,0,1172,1173,1174,0,0,0,1172,1173,1174,1172,1173,1174,0,0,0,0,0,22885,1309,0,0,1169,1170,1171,1172,1173,1174,0,0,1172,1173,1174,0,0,1169,1170,1171,0,1172,1173,1174,0,22760,0,0,0,0,0,0,0,0,1172,1173,1174,0,0,0,22762,0,137,138,139,0,140,141,142,0,140,141,
0,0,1169,1170,1171,0,0,1172,1173,1174,0,0,0,1175,1176,1177,0,0,22885,1172,1173,1174,1172,1173,1174,0,0,0,0,0,0,0,0,0,0,0,0,0,0,1169,1170,1171,1169,1170,1171,22760,0,0,0,0,0,0,0,0,0,0,0,0,0,140,141,142,0,0,137,138,139,0,137,138,139,0,
1173,1174,0,0,0,1169,1170,1171,0,0,1172,1173,1174,0,0,1317,1173,1174,22799,0,0,0,0,0,0,0,0,0,0,0,0,0,0,0,0,0,0,0,0,1309,1172,1173,1174,0,0,22760,0,0,0,0,0,0,0,0,0,0,0,0,0,1315,0,140,141,142,0,140,141,142,0,44,45,46,
1169,1170,1171,1172,1173,1174,0,0,1169,1170,1171,0,1169,1170,1171,0,0,0,0,1172,1173,1174,1169,1170,1171,0,0,0,0,0,0,0,0,0,0,0,0,0,0,0,0,0,0,1172,1173,1174,0,0,0,0,0,0,0,0,0,0,0,0,0,22762,0,0,137,138,139,0,0,137,138,139,140,141,
1173,1174,0,0,1175,1176,1177,1172,1173,1174,0,1172,1173,1174,1175,1176,1177,1175,1176,1177,1169,1170,1171,0,0,27121,27122,0,0,0,0,0,0,0,0,0,0,0,0,0,1169,1170,1171,0,0,1314,0,0,0,8814,0,0,0,0,0,0,0,0,0,22922,140,141,142,0,0,137,138,139,0,44,45,46,
1172,1173,1174,1172,1173,1174,0,1169,1170,1171,1169,1170,1171,0,0,0,1172,1173,1174,0,0,0,1169,1170,1171,27129,27130,0,0,0,0,0,0,0,0,27154,0,0,0,0,1175,1176,1177,1172,1173,1174,0,0,0,8814,0,0,0,0,0,0,0,0,0,0,1315,137,138,139,140,141,142,44,45,46,137,138,
1170,1171,1175,1176,1177,0,1172,1173,1174,0,0,0,1172,1173,1174,1169,1170,1171,0,0,1172,1173,1174,0,1311,0,0,0,0,0,0,0,0,0,0,27162,0,0,0,0,0,1169,1170,1171,0,1314,0,0,0,8814,0,0,0,0,0,0,0,0,0,0,22762,0,140,141,142,140,141,142,44,45,46,0,
0,0,1172,1173,1174,0,0,1172,1173,1174,1169,1170,1171,0,1169,1170,1171,0,1169,1170,1171,0,0,0,0,0,0,0,0,0,0,0,0,0,0,0,0,0,0,0,0,0,1172,1173,1174,22760,0,0,0,8814,0,0,0,9465,9466,0,0,0,0,0,44,45,46,137,138,139,0,137,138,139,140,141,
1169,1170,1171,0,0,1169,1170,1171,1175,1176,1177,0,1172,1173,1174,0,0,0,0,1172,1173,1174,0,0,0,0,0,0,0,0,0,0,0,0,0,0,0,1175,1176,1177,0,1175,1176,1177,0,22760,0,0,0,0,0,0,0,9605,9606,0,0,0,0,0,13,137,138,139,0,44,45,46,0,0,137,138,
1173,1174,1169,1170,1171,1172,1173,1174,0,0,1172,1173,1174,0,0,0,1169,1170,1171,0,0,1169,1170,1171,0,0,0,27856,27857,27858,0,0,25854,0,22878,0,0,0,0,0,1169,1170,1171,1169,1170,1171,22886,0,0,8813,0,0,0,0,0,0,0,0,0,44,45,46,0,140,141,142,140,141,142,44,45,46,
0,1172,1173,1174,1169,1170,1171,0,1172,1173,1174,1169,1170,1171,1172,1173,1174,0,0,1169,1170,1171,1172,1173,1174,0,0,27864,27865,27866,0,0,0,0,0,0,0,0,0,0,0,0,0,0,1172,1173,1174,22886,0,0,0,0,0,0,0,0,0,140,141,142,0,44,45,46,137,138,139,140,141,142,0,0,
1169,1170,1171,0,1172,1173,1174,1175,1176,1177,1175,1176,1177,1175,1176,1177,0,1175,1176,1177,0,0,0,1169,1170,1171,0,27872,27873,1169,1170,1171,0,0,1169,1170,1171,0,0,0,0,0,0,0,0,1172,1173,1174,0,0,0,0,0,0,22885,44,45,1315,0,140,141,142,0,140,141,142,44,45,46,140,141,142,
0,0,1172,1173,1174,1175,1176,1177,1172,1173,1174,1172,1173,1174,1175,1176,1177,0,1172,1173,1174,1172,1173,1174,1169,1170,1171,0,0,0,0,1169,1170,1171,0,0,0,0,0,0,0,0,0,0,0,0,0,1314,22798,508,509,509,510,22798,22799,0,0,0,44,45,46,44,45,46,44,45,46,0,44,45,46,0,
1170,1171,0,0,0,0,1172,1173,1174,1169,1170,1171,0,1172,1173,1174,1175,1176,1177,0,0,0,0,0,1172,1173,1174,0,0,1172,1173,1174,0,1172,1173,1174,1169,1170,1171,0,0,0,0,0,0,0,0,0,0,0,0,0,0,0,0,0,0,140,141,142,44,45,46,44,45,46,140,141,142,0,137,138,
0,1172,1173,1174,1169,1170,1171,0,1169,1170,1171,0,1169,1170,1171,0,0,1169,1170,1171,1172,1173,1174,1169,1170,1171,0,1169,1170,1171,0,0,1169,1170,1171,1175,1176,1177,0,0,0,0,0,0,0,0,0,0,0,0,0,0,0,0,0,0,0,0,0,137,138,139,0,137,138,139,0,44,45,46,44,45,
1176,1177,1169,1170,1171,1172,1173,1174,0,0,1172,1173,1174,0,1169,1170,1171,0,0,1169,1170,1171,0,0,1172,1173,1174,1172,1173,1174,1169,1170,1171,1169,1170,1171,1169,1170,1171,1169,1170,1171,0,0,0,0,0,0,0,0,0,0,0,0,0,0,0,140,141,142,0,44,45,46,0,44,45,46,137,138,139,0,
0,1172,1173,1174,0,1175,1176,1177,0,1172,1173,1174,0,0,0,1172,1173,1174,1175,1176,1177,140,141,142,108,9,9,9,140,141,142,140,141,142,137,138,139,107,137,138,139,137,138,139,0,0,0,0,0,0,0,0,0,0,0,0,0,0,9,9,9,0,0,137,138,139,0,44,45,46,0,0
</data>
 </layer>
 <layer id="4" name="Top layer " width="72" height="74">
  <data encoding="csv">
1032,1033,1034,0,1032,1033,1034,0,0,1029,1030,1031,1035,1036,1037,0,0,1032,1033,1034,1029,1030,1031,0,0,1035,1036,1037,1035,1036,1037,1032,1033,1034,0,0,0,0,0,0,0,0,0,0,0,0,1032,1033,1034,0,1029,1030,1031,0,0,1029,1030,1031,1032,1033,1034,0,1032,1033,1034,0,1032,1033,1034,0,1029,1030,
1031,0,0,1032,1033,1034,1029,1030,1031,0,1032,1033,1034,1029,1030,1031,0,0,1029,1030,1031,0,0,1029,1030,1031,0,1032,1033,1034,0,0,0,0,0,0,0,0,0,0,0,0,0,0,0,0,0,0,1029,1030,1031,0,0,1032,1033,1034,0,0,0,1029,1030,1031,1035,1036,1037,1029,1030,1031,1029,1030,1031,1035,
1033,1034,1035,1036,1037,1029,1030,1031,1035,1036,1037,1035,1036,1037,1029,1030,1031,1029,1030,1031,0,1032,1033,1034,0,0,1029,1030,1031,1035,1036,1037,1032,1033,1034,0,0,0,25347,25348,25349,25350,25351,25352,0,0,0,0,0,0,0,1029,1030,1031,0,0,1029,1030,1031,0,0,1032,1033,1034,1035,1036,1037,1032,1033,1034,0,0,
1035,1036,1037,1032,1033,1034,1035,1036,1037,1032,1033,1034,0,1032,1033,1034,1035,1036,1037,0,1035,1036,1037,0,0,1032,1033,1034,0,0,1032,1033,1034,0,0,0,0,0,25355,25356,25357,25358,25359,25360,0,0,0,1032,1033,1034,1035,1036,1037,0,1032,1033,1034,0,1032,1033,1034,1029,1030,1031,1029,1030,1031,0,0,0,1032,1033,
1031,1029,1030,1031,0,0,1032,1033,1034,0,0,1035,1036,1037,0,0,1032,1033,1034,1029,1030,1031,1029,1030,1031,0,0,1035,1036,1037,0,0,0,0,0,476,477,477,25363,25364,25365,25366,25367,25368,477,478,0,0,1029,1030,1031,1032,1033,1034,0,0,1029,1030,1031,1035,1036,1037,1035,1036,1037,1032,1033,1034,1029,1030,1031,0,
1033,1034,0,1029,1030,1031,1029,1030,1031,1032,1033,1034,1029,1030,1031,0,0,1035,1036,1037,1032,1033,1034,0,1032,1033,1034,1032,1033,1034,0,0,0,0,0,0,0,0,25371,25372,25373,25374,25375,25376,0,0,0,0,0,0,0,0,1029,1030,1031,1035,1036,1037,0,0,1029,1030,1031,1032,1033,1034,0,0,1032,1033,1034,1035,
0,0,1032,1033,1034,1032,1033,1034,0,1029,1030,1031,1032,1033,1034,1029,1030,1031,1032,1033,1034,1029,1030,1031,1029,1030,1031,0,0,0,1032,1033,1034,0,0,0,0,0,25379,25380,25381,25382,25383,25384,0,0,0,0,0,1029,1030,1031,0,1035,1036,1037,1032,1033,1034,0,1032,1033,1034,0,1029,1030,1031,0,0,0,1029,1030,
0,0,1029,1030,1031,0,0,1029,1030,1031,0,1029,1030,1031,0,0,0,1029,1030,1031,0,1029,1030,1031,0,0,1029,1030,1031,1035,1036,1037,0,0,0,0,0,0,0,0,0,0,0,0,0,0,0,0,0,0,1035,1036,1037,1029,1030,1031,1029,1030,1031,1035,1036,1037,1032,1033,1034,0,0,1032,1033,1034,0,1035,
1032,1033,1034,0,1029,1030,1031,0,1032,1033,1034,0,0,0,1032,1033,1034,0,0,0,1032,1033,1034,0,1032,1033,1034,1035,1036,1037,0,0,0,0,0,0,0,0,0,0,0,0,0,0,0,0,0,0,0,0,0,1035,1036,1037,1035,1036,1037,1029,1030,1031,0,0,1029,1030,1031,0,0,1029,1030,1031,1032,1033,
1031,0,0,1032,1033,1034,1029,1030,1031,0,1032,1033,1034,1029,1030,1031,0,1032,1033,1034,0,0,0,0,1029,1030,1031,0,1032,1033,1034,0,0,0,0,0,0,0,0,0,0,0,0,0,0,0,0,0,0,0,0,1029,1030,1031,1032,1033,1034,1035,1036,1037,1032,1033,1034,0,0,1032,1033,1034,0,0,0,0,
1030,1031,0,0,1029,1030,1031,1032,1033,1034,1035,1036,1037,1032,1033,1034,0,0,1029,1030,1031,1029,1030,1031,1035,1036,1037,0,0,0,0,0,0,0,0,0,0,0,0,0,0,0,0,0,0,0,0,0,0,1029,1030,1031,0,0,0,1032,1033,1034,0,1035,1036,1037,0,1029,1030,1031,0,1032,1033,1034,1029,1030,
1032,1033,1034,0,1029,1030,1031,1029,1030,1031,0,1029,1030,1031,0,0,0,1029,1030,1031,1029,1030,1031,1032,1033,1034,0,1032,1033,1034,0,0,0,0,0,0,0,0,0,0,0,0,0,0,0,0,0,0,0,0,0,1035,1036,1037,1032,1033,1034,0,0,1029,1030,1031,1035,1036,1037,0,0,1029,1030,1031,0,1035,
1031,1029,1030,1031,0,0,1029,1030,1031,0,1032,1033,1034,0,1032,1033,1034,1029,1030,1031,0,1029,1030,1031,1035,1036,1037,0,0,0,0,0,0,0,22966,22967,22968,22969,22970,0,0,0,105,106,107,105,106,107,0,0,0,0,1029,1030,1031,0,0,1032,1033,1034,0,1032,1033,1034,1032,1033,1034,0,0,1032,1033,1034,
1029,1030,1031,1032,1033,1034,0,0,1032,1033,1034,1035,1036,1037,0,1029,1030,1031,1032,1033,1034,0,1029,1030,1031,1032,1033,1034,0,9,0,0,0,0,23003,23004,23005,23006,23007,0,0,0,0,0,0,105,106,107,0,0,0,1029,1030,1031,0,1035,1036,1037,0,1029,1030,1031,0,0,1029,1030,1031,1032,1033,1034,0,0,
0,0,1029,1030,1031,0,1032,1033,1034,1029,1030,1031,0,1029,1030,1031,0,1029,1030,1031,0,1029,1030,1031,0,1029,1030,1031,0,0,0,0,0,0,23040,23041,23042,23043,23044,0,0,0,0,0,0,12,13,14,0,0,0,0,0,1029,1030,1031,1032,1033,1034,1035,1036,1037,1032,1033,1034,0,0,1032,1033,1034,1029,1030,
1033,1034,0,1029,1030,1031,0,1029,1030,1031,1035,1036,1037,1032,1033,1034,0,0,1032,1033,1034,0,0,1029,1030,1031,0,0,0,0,0,0,0,0,23077,23078,23079,23080,23081,0,0,0,0,105,106,107,12,13,14,0,0,0,0,0,0,1032,1033,1034,0,0,0,1029,1030,1031,0,0,1032,1033,1034,0,0,1035,
1030,1031,0,1032,1033,1034,0,0,0,1032,1033,1034,0,0,1029,1030,1031,1032,1033,1034,1029,1030,1031,1032,1033,1034,0,0,0,0,0,0,0,0,23114,23115,23116,23117,23118,0,0,0,0,0,12,13,14,105,106,107,0,0,0,0,0,0,1029,1030,1031,1032,1033,1034,0,0,1032,1033,1034,1029,1030,1031,1032,1033,
0,1035,1036,1037,0,0,1029,1030,1031,1029,1030,1031,1032,1033,1034,1035,1036,1037,1035,1036,1037,0,0,0,0,0,0,0,0,0,0,0,0,0,23151,23152,23153,23154,23155,0,0,0,0,0,105,106,107,12,13,14,0,0,0,0,0,0,0,0,1029,1030,1031,0,1029,1030,1031,0,1035,1036,1037,0,0,1035,
1031,0,0,1035,1036,1037,1032,1033,1034,0,0,1029,1030,1031,0,0,0,0,22670,22671,22672,22673,22674,22670,22671,22672,22673,22674,0,0,0,0,0,0,23188,23189,23190,23191,23192,0,0,0,0,0,0,0,105,106,107,108,109,110,0,0,0,0,0,1032,1033,1034,1035,1036,1037,0,0,1029,1030,1031,1032,1033,1034,0,
0,0,1032,1033,1034,1035,1036,1037,0,1032,1033,1034,0,0,0,0,0,0,22707,22708,22709,22710,22711,22707,22708,22709,22710,22711,0,0,0,0,0,0,0,0,0,0,0,0,0,0,0,0,0,0,0,0,0,0,108,109,110,0,0,0,0,0,0,1029,1030,1031,1032,1033,1034,0,0,1035,1036,1037,1032,1033,
1033,1034,0,0,1029,1030,1031,1029,1030,1031,0,0,0,0,0,0,0,0,22744,22745,22746,22747,22748,22744,22745,22746,22747,22748,0,0,0,0,0,0,0,0,0,0,9462,0,0,0,9462,0,0,0,0,0,0,0,0,0,0,0,0,0,0,0,0,1029,1030,1031,1035,1036,1037,0,1032,1033,1034,0,1029,1030,
0,0,1032,1033,1034,0,0,0,1449,1449,1449,0,0,0,0,0,0,0,22781,22782,22783,22784,22785,22781,22782,22783,22784,22785,0,0,0,0,0,0,0,0,0,0,9602,0,0,0,9602,0,0,0,0,0,0,0,0,0,0,0,0,0,0,1032,1033,1034,0,0,0,1032,1033,1034,0,0,1035,1036,1037,0,
1031,0,0,0,0,0,0,0,0,0,0,0,0,0,0,0,0,0,22818,22819,22820,22821,22822,22818,22819,22820,22821,22822,0,0,0,0,0,0,0,0,0,0,0,0,0,0,0,0,0,0,0,0,0,0,0,0,0,0,0,0,0,0,0,0,0,1029,1030,1031,0,0,1029,1030,1031,0,1032,1033,
1032,1033,1034,0,0,0,0,9462,0,0,9462,0,0,9462,0,0,9462,0,22855,22856,22857,22858,22859,22855,22856,22857,22858,22859,0,0,0,0,0,0,0,0,0,0,0,0,0,0,0,0,0,0,0,0,0,0,0,0,0,0,0,0,0,0,1029,1030,1031,0,1029,1030,1031,1035,1036,1037,1029,1030,1031,1035,
0,0,0,0,0,0,0,9602,0,0,9602,0,0,9602,0,0,9602,0,22892,22893,22894,22895,22896,22892,22893,22894,22895,22896,0,0,0,0,0,0,0,0,0,0,0,0,0,0,0,0,0,0,0,0,0,0,0,0,0,0,22966,22967,22968,22969,22970,0,22966,22967,22968,22969,22970,1032,1033,1034,0,0,1032,1033,
1447,0,0,0,0,0,0,0,0,0,0,0,0,0,0,0,0,0,22929,22930,22931,22932,22933,22929,22930,22931,22932,22933,0,0,0,0,0,0,0,0,0,0,0,0,0,0,0,0,0,0,0,0,0,0,0,0,0,0,23003,23004,23005,23006,23007,0,23003,23004,23005,23006,23007,0,0,1029,1030,1031,0,0,
0,0,0,0,637,0,0,0,0,0,0,0,0,0,0,0,0,0,0,0,0,0,0,0,0,0,0,0,0,0,0,0,0,0,0,0,0,0,0,0,0,0,0,0,0,0,0,0,0,0,0,0,0,0,23040,23041,23042,23043,23044,0,23040,23041,23042,23043,23044,1445,1445,1445,0,0,1029,1030,
0,0,0,0,669,0,0,0,0,0,0,0,0,0,0,0,0,0,0,0,0,0,0,0,0,0,0,0,0,0,0,0,0,0,0,0,0,0,0,0,0,0,0,0,0,0,0,0,0,0,0,0,0,0,23077,23078,23079,23080,23081,9090,23077,23078,23079,23080,23081,0,0,0,1029,1030,1031,0,
0,1032,1033,1034,701,0,0,9462,0,0,9462,0,0,9462,0,0,9462,0,0,0,0,0,0,0,0,0,0,0,0,0,0,0,0,0,0,0,0,0,0,0,0,0,0,0,0,0,0,0,0,0,0,0,0,0,23114,23115,23116,23117,23118,9230,23114,23115,23116,23117,23118,0,0,1029,1030,1031,1029,1030,
1029,1030,1031,0,733,0,0,9602,0,0,9602,0,0,9602,0,0,9602,0,0,0,0,0,0,0,0,0,9462,0,0,0,0,0,0,0,0,0,0,0,9462,0,0,0,9462,0,0,0,0,0,0,0,0,0,0,0,23151,23152,23153,23154,23155,0,23151,23152,23153,23154,23155,0,0,0,0,0,1032,1033,
1036,1037,1032,1033,1034,0,0,0,0,0,105,106,107,12,13,14,0,0,0,0,0,0,0,0,0,0,9602,0,0,0,0,0,0,0,0,0,0,0,9602,0,0,0,9602,0,0,0,0,0,0,0,0,0,7547,7548,7549,23189,23190,23191,7547,7548,7549,23189,23190,23191,23192,0,0,0,2684356014,2684356014,2684356014,0,
1029,1030,1031,0,0,0,0,0,0,0,0,12,13,14,0,0,0,0,0,0,0,0,0,0,0,0,0,0,0,0,0,0,0,0,0,0,0,0,0,0,0,0,0,0,0,0,0,0,0,0,0,0,7687,7688,7689,0,0,0,7687,7688,7689,0,0,0,0,0,0,0,0,2684356014,2684356014,0,
1030,1031,1029,1030,1031,0,0,0,0,0,0,0,105,106,107,0,0,0,0,0,0,0,0,0,0,0,0,0,0,0,0,0,0,0,0,0,0,0,0,0,0,0,0,0,0,0,0,0,0,0,0,0,0,0,0,0,0,0,0,0,0,0,0,0,0,0,0,636,0,0,0,0,
0,1032,1033,1034,1029,1030,1031,0,0,0,0,0,108,109,110,0,0,0,0,0,0,0,0,0,0,0,0,0,0,0,0,22972,22973,22974,22975,0,0,0,0,0,0,0,0,0,0,0,0,0,0,0,0,0,0,0,0,0,0,0,0,0,0,0,0,0,0,0,0,668,0,0,0,0,
1030,1031,1035,1036,1037,1032,1033,1034,0,0,978,978,978,105,106,107,0,0,0,0,0,0,0,0,0,0,0,0,0,0,0,23009,23010,23011,23012,0,0,0,9465,9466,0,0,0,0,0,0,0,0,0,9463,9464,0,0,0,0,0,0,0,0,0,0,0,0,9462,0,0,0,700,0,0,0,0,
1029,1030,1031,1029,1030,1031,0,0,0,0,0,12,13,14,0,0,0,0,0,0,0,0,0,0,0,0,0,0,0,0,0,23046,23047,23048,23049,0,0,0,9605,9606,23303,23304,23305,23306,23307,23308,23309,23310,23311,9603,9604,0,0,0,0,0,0,0,0,0,1029,1030,1031,9602,0,0,0,732,0,0,0,0,
1034,1032,1033,1034,0,0,1032,1033,1034,0,0,0,108,109,110,0,0,0,0,0,0,0,0,0,0,0,0,0,0,0,0,23083,23084,23085,23086,0,0,0,0,0,23340,23341,23342,23343,23344,23345,23346,23347,23348,0,0,0,0,0,0,0,1029,1030,1031,1035,1036,1037,0,0,0,0,0,105,106,107,0,0,
1036,1037,1035,1036,1037,1032,1033,1034,0,0,0,0,0,0,105,106,107,0,0,0,0,0,0,0,0,0,0,0,0,0,0,23120,23121,23122,23123,0,0,0,0,0,23377,23378,23379,23380,23381,23382,23383,23384,23385,0,0,0,0,0,0,0,0,1035,1036,1037,0,0,0,0,0,0,108,109,110,12,13,14,
1032,1033,1034,1029,1030,1031,0,0,0,0,105,106,107,0,0,12,13,14,0,0,0,0,0,0,0,0,9465,9466,9463,9464,0,23146,23146,23146,23146,0,0,0,0,0,23414,23415,23416,23417,23418,23419,23420,23421,23422,0,0,0,0,0,0,0,1032,1033,1034,1032,1033,1034,0,0,105,106,107,0,0,0,105,106,
1030,1031,1035,1036,1037,1032,1033,1034,0,0,0,0,108,109,110,0,0,0,0,0,0,0,0,0,0,0,9605,9606,9603,9604,23146,23146,23146,23146,23146,0,0,0,0,0,23451,23452,23453,23454,23455,23456,23457,23458,23459,0,0,0,0,0,0,0,0,1032,1033,1034,0,0,0,0,0,0,0,105,106,107,12,13,
1036,1037,1032,1033,1034,0,0,0,0,0,0,105,106,107,0,0,0,0,0,0,0,0,0,0,0,0,0,0,0,0,23146,22972,22973,22974,22975,23146,23146,0,0,0,23488,23489,23490,23491,23492,23493,23494,23495,23496,0,0,0,0,0,0,0,0,0,1032,1033,1034,0,0,0,0,0,0,0,12,13,14,0,
0,1029,1030,1031,0,1032,1033,1034,0,0,0,0,0,108,109,110,0,0,0,0,9462,0,0,0,0,0,0,0,0,0,0,23009,23010,23011,23012,23146,0,0,9465,9466,23525,23526,23527,23528,23529,23530,23531,23532,23533,9463,9464,0,0,9465,9466,0,1029,1030,1031,0,0,0,0,0,0,0,9,9,9,0,105,106,
1035,1036,1037,1029,1030,1031,0,0,0,0,108,109,110,12,13,14,0,0,0,0,9602,0,0,0,0,0,0,0,23146,23146,23146,23046,23047,23048,23049,0,0,0,9605,9606,23562,23563,7550,23565,23566,23567,7550,23569,23570,9603,9604,0,0,9605,9606,0,0,1032,1033,1034,1029,1030,1031,0,0,0,0,0,0,108,109,110,
1033,1034,1029,1030,1031,1029,1030,1031,0,0,0,0,105,106,107,0,0,0,0,0,0,0,0,0,0,0,0,0,23146,23146,23146,23083,23084,23085,23086,23146,0,0,0,0,0,0,7690,0,0,0,7690,0,0,0,0,0,0,0,0,1035,1036,1037,0,1032,1033,1034,0,0,0,0,0,108,109,110,12,13,
1036,1037,0,0,1032,1033,1034,0,0,0,0,108,109,110,0,12,13,14,0,0,0,0,0,0,0,0,0,0,23146,23146,23146,23120,23121,23122,23123,23146,0,0,0,0,0,0,0,0,0,0,0,0,0,0,0,0,0,0,0,0,0,1035,1036,1037,0,0,1032,1033,1034,0,0,0,0,105,106,107,
0,1032,1033,1034,0,0,1029,1030,1031,0,0,0,105,106,107,0,0,12,13,14,0,0,0,0,0,0,0,0,0,0,23146,23157,23158,23159,23160,0,0,0,0,0,0,0,0,0,0,0,0,0,0,0,0,0,0,0,0,1035,1036,1037,1029,1030,1031,0,0,0,0,0,0,0,0,0,12,13,
1035,1036,1037,1035,1036,1037,0,0,0,0,0,0,0,0,0,105,106,107,0,0,0,0,0,0,0,0,0,0,0,0,0,23194,23195,23196,23197,0,0,0,0,0,0,0,0,0,0,0,0,0,0,0,0,0,0,0,1029,1030,1031,1035,1036,1037,1032,1033,1034,0,0,0,0,105,106,107,12,13,
1035,1036,1037,0,0,1032,1033,1034,0,0,0,0,0,0,0,0,108,109,110,12,13,14,0,0,105,106,107,0,0,0,0,23231,23232,8814,8814,0,0,0,0,0,0,0,0,0,0,0,0,0,0,0,0,0,0,0,0,0,0,1032,1033,1034,0,0,0,0,0,0,108,109,110,0,0,108,
1033,1034,0,1032,1033,1034,1032,1033,1034,0,0,0,0,0,105,106,107,0,0,0,108,109,110,0,0,0,0,0,0,0,0,0,0,8954,8954,0,0,0,0,0,0,0,0,0,0,0,0,0,0,0,0,0,0,0,1029,1030,1031,0,1029,1030,1031,0,0,0,0,0,0,0,0,105,106,107,
0,1035,1036,1037,0,1035,1036,1037,0,0,0,0,0,0,0,0,12,13,14,105,106,107,0,1010,1010,1010,0,0,0,0,0,0,0,0,0,0,0,0,0,0,0,0,0,0,0,0,0,0,0,0,0,0,0,0,0,1032,1033,1034,0,0,0,0,0,0,0,105,106,107,12,13,14,0,
0,0,1029,1030,1031,0,0,1029,1030,1031,0,0,0,0,105,106,107,105,106,107,0,0,0,0,0,0,0,0,0,0,0,0,0,0,0,0,0,0,0,0,0,0,0,0,0,0,0,0,0,0,0,0,0,0,0,0,0,1032,1033,1034,0,0,0,0,0,0,0,12,13,14,12,13,
1032,1033,1034,0,1032,1033,1034,0,0,1032,1033,1034,0,0,1009,12,13,14,0,0,0,0,0,0,0,0,0,0,0,0,0,1029,1030,1031,1032,1033,1034,0,0,0,0,0,0,0,0,0,0,0,0,0,0,0,0,0,0,1032,1033,1034,0,0,0,0,0,0,0,0,108,109,110,105,106,107,
1029,1030,1031,0,1029,1030,1031,0,1032,1033,1034,0,0,0,0,0,105,106,107,0,0,0,0,0,0,0,0,0,0,0,0,0,0,0,0,0,0,0,0,0,0,0,0,0,0,0,0,0,0,0,0,0,0,0,0,0,1029,1030,1031,0,0,0,0,0,105,106,107,0,12,13,14,0,
0,0,1032,1033,1034,0,1032,1033,1034,0,0,1029,1030,1031,0,0,0,0,0,0,0,0,0,0,0,0,0,0,0,0,0,0,0,1029,1030,1031,0,1035,1036,1037,1032,1033,1034,0,0,0,0,0,0,0,0,0,0,0,0,1032,1033,1034,0,0,0,0,0,0,12,13,14,108,109,110,108,109,
1030,1031,0,0,1029,1030,1031,0,1035,1036,1037,1032,1033,1034,0,0,0,0,0,0,0,0,0,0,0,0,0,0,1029,1030,1031,1032,1033,1034,0,1032,1033,1034,0,0,0,0,0,0,0,0,0,0,0,0,0,0,0,0,0,0,1032,1033,1034,0,0,9,12,13,14,12,13,14,105,106,107,0,
0,0,1029,1030,1031,0,1029,1030,1031,1035,1036,1037,0,0,0,0,0,0,0,0,0,1029,1030,1031,1032,1033,1034,0,0,0,1029,1030,1031,0,1029,1030,1031,0,1032,1033,1034,0,0,0,0,0,22718,22719,22720,22721,0,0,0,0,0,1035,1036,1037,0,0,0,0,0,12,13,14,108,109,110,0,0,0,
1034,0,0,1032,1033,1034,0,0,0,1032,1033,1034,1032,1033,1034,0,0,0,0,0,0,0,0,0,1029,1030,1031,1032,1033,1034,0,0,1032,1033,1034,0,0,1029,1030,1031,0,1032,1033,1034,0,0,22755,22756,22757,22758,0,0,0,0,1032,1033,1034,0,0,0,0,0,105,106,107,0,108,109,110,0,108,109,
0,0,1029,1030,1031,0,0,1032,1033,1034,0,0,0,1035,1036,1037,0,0,0,1032,1033,1034,1032,1033,1034,0,14415,14416,14417,14418,14419,14420,14421,0,0,0,0,0,0,1029,1030,1031,1029,1030,1031,0,22792,22793,22794,22795,0,0,0,0,0,0,0,0,0,108,109,110,0,0,105,106,107,0,105,106,107,0,
1033,1034,0,0,0,1029,1030,1031,0,0,1032,1033,1034,0,0,1032,1033,1034,0,0,0,0,0,0,0,0,14555,14556,14557,14558,14559,14560,14561,14562,14563,14564,14565,0,0,0,1032,1033,1034,0,0,0,22829,22830,22831,22832,0,0,0,0,22449,22450,22451,22452,22453,0,0,108,109,110,0,108,109,110,0,12,13,14,
1029,1030,1031,1032,1033,1034,0,0,1029,1030,1031,0,1029,1030,1031,1172,0,0,0,1032,1033,1034,1029,1030,1031,0,14695,14696,14697,14698,14699,14700,14701,14702,14703,14704,14705,0,0,0,0,0,0,1032,1033,1034,0,0,0,0,0,0,0,0,22486,22487,22488,22489,22490,0,0,0,105,106,107,0,0,105,106,107,108,109,
1033,1034,0,0,1035,1036,1037,1032,1033,1034,0,1032,1033,1034,1035,1036,1037,1035,1036,1037,1029,1030,1031,0,0,0,14835,14836,14837,14838,14839,14840,14841,14842,14843,14844,14845,0,0,0,1029,1030,1031,0,0,0,0,0,0,0,0,0,0,0,22523,22524,22525,22526,22527,0,108,109,110,0,0,105,106,107,0,12,13,14,
1032,1033,1034,1032,1033,1034,0,1029,1030,1031,1029,1030,1031,0,0,0,1032,1033,1034,0,0,0,1029,1030,1031,0,14975,14976,14977,14978,14979,14980,14981,14982,14983,14984,14985,0,0,0,1035,1036,1037,1032,1033,1034,0,0,0,0,0,0,0,0,22560,22561,22562,22563,22564,0,0,105,106,107,108,109,110,12,13,14,105,106,
1030,1031,1035,1036,1037,0,1032,1033,1034,0,0,0,1032,1033,1034,1029,1030,1031,0,0,1032,1033,1034,0,0,0,15115,15116,15117,15118,15119,15120,15121,15122,15123,15124,15125,0,0,0,0,1029,1030,1031,0,0,0,0,0,0,0,0,0,0,22597,22598,22599,22600,22601,0,0,0,108,109,110,108,109,110,12,13,14,0,
0,0,1032,1033,1034,0,0,1032,1033,1034,1029,1030,1031,0,1029,1030,1031,0,1029,1030,1031,0,0,0,0,0,15255,15256,15257,15258,15259,15260,15261,15262,15263,15264,15265,0,0,0,0,0,1032,1033,1034,0,0,0,0,0,0,0,0,0,22634,22635,22636,22637,22638,0,12,13,14,105,106,107,0,105,106,107,108,109,
1029,1030,1031,0,0,1029,1030,1031,1035,1036,1037,0,1032,1033,1034,0,0,0,0,1032,1033,1034,0,0,0,0,15395,15396,15397,15398,15399,15400,15401,15402,15403,15404,15405,1035,1036,1037,0,1035,1036,1037,0,0,0,0,25347,25348,0,0,0,25351,25352,0,0,0,0,0,0,105,106,107,0,12,13,14,0,0,105,106,
1033,1034,1029,1030,1031,1032,1033,1034,0,0,1032,1033,1034,0,0,0,1029,1030,1031,0,0,1029,1030,1031,0,0,15535,15536,15537,15538,15539,15540,15541,15542,15543,15544,15545,0,0,0,1029,1030,1031,1029,1030,1031,0,0,25355,25356,25357,25357,25358,25359,25360,0,0,0,0,12,13,14,0,108,109,110,108,109,110,12,13,14,
0,1032,1033,1034,1029,1030,1031,0,1032,1033,1034,1029,1030,1031,1032,1033,1034,0,0,1029,1030,1031,1032,1033,1034,0,0,0,0,0,0,0,0,0,0,0,0,0,0,0,0,0,0,0,1032,1033,1034,0,25363,25364,25365,25365,25366,25367,25368,0,0,108,109,110,0,12,13,14,105,106,107,108,109,110,0,0,
1029,1030,1031,0,1032,1033,1034,1035,1036,1037,1035,1036,1037,1035,1036,1037,0,1035,1036,1037,0,0,0,1029,1030,1031,0,0,0,1029,1030,1031,0,0,1029,1030,1031,0,0,0,0,0,0,0,0,1032,1033,1034,25371,25372,25373,25373,25374,25375,25376,12,13,14,0,108,109,110,0,108,109,110,12,13,14,108,109,110,
0,0,1032,1033,1034,1035,1036,1037,1032,1033,1034,1032,1033,1034,1035,1036,1037,0,1032,1033,1034,1032,1033,1034,1029,1030,1031,0,0,0,0,1029,1030,1031,0,0,0,0,0,0,0,0,0,0,0,0,0,0,25379,25380,25381,25381,25382,25383,25384,0,0,1171,12,13,14,12,13,14,12,13,14,0,12,13,14,0,
1030,1031,0,0,0,0,1032,1033,1034,1029,1030,1031,0,1032,1033,1034,1035,1036,1037,0,0,0,0,0,1032,1033,1034,0,0,1032,1033,1034,0,1032,1033,1034,1029,1030,1031,0,0,0,0,0,0,0,0,0,0,0,25389,25389,0,0,0,0,0,108,109,110,12,13,14,12,13,14,108,109,110,0,105,106,
0,1032,1033,1034,1029,1030,1031,0,1029,1030,1031,0,1029,1030,1031,0,0,1029,1030,1031,1032,1033,1034,1029,1030,1031,0,1029,1030,1031,0,0,1029,1030,1031,1035,1036,1037,0,0,0,0,0,0,0,0,0,0,0,0,0,0,0,0,0,0,0,0,0,105,106,107,0,105,106,107,0,12,13,14,12,13,
1036,1037,1029,1030,1031,1032,1033,1034,0,0,1032,1033,1034,0,1029,1030,1031,0,0,1029,1030,1031,0,0,1032,1033,1034,1032,1033,1034,1029,1030,1031,1029,1030,1031,1029,1030,1031,1029,1030,1031,0,0,0,0,0,0,0,0,0,0,0,0,0,0,0,108,109,110,0,12,13,14,0,12,13,14,105,106,107,0,
0,1032,1033,1034,0,1035,1036,1037,0,1032,1033,1034,0,0,0,1032,1033,1034,1035,1036,1037,108,109,110,0,9,9,9,108,109,110,108,109,110,105,106,107,0,105,106,107,105,106,107,0,0,0,0,0,0,0,0,0,0,0,0,0,0,9,9,9,0,0,105,106,107,0,12,13,14,0,0,
0,1035,1036,1037,1032,1033,1034,1029,1030,1031,1029,1030,1031,1029,1030,1031,0,0,1032,1033,1034,0,0,0,108,109,110,9,0,108,109,110,12,13,14,105,106,107,0,105,106,107,0,0,0,0,0,0,0,0,0,0,0,0,0,0,105,106,107,108,109,110,108,109,110,0,12,13,14,0,12,13
</data>
 </layer>
</map>
