<?xml version="1.0" encoding="UTF-8"?>
<map version="1.0" orientation="orthogonal" renderorder="right-down" width="80" height="21" tilewidth="32" tileheight="32" nextobjectid="1">
 <tileset firstgid="1" name="tile group" tilewidth="32" tileheight="32" tilecount="21000" columns="140">
  <image source="Tiles/tile group.png" width="4480" height="4800"/>
 </tileset>
 <tileset firstgid="21001" name="3" tilewidth="32" tileheight="32" tilecount="256" columns="8">
  <image source="Tiles/3.png" width="256" height="1024"/>
 </tileset>
 <tileset firstgid="21257" name="4 - Copie (2)" tilewidth="32" tileheight="32" tilecount="256" columns="8">
  <image source="Tiles/4 - Copie (2).png" width="256" height="1024"/>
 </tileset>
 <tileset firstgid="21513" name="6931" tilewidth="32" tileheight="32" tilecount="4680" columns="65">
  <image source="Tiles/6931.png" width="2108" height="2304"/>
 </tileset>
 <layer name="Layer 1" width="80" height="21">
  <data encoding="csv">
4635,4635,4635,21210,21210,21210,21210,21210,4638,4638,4638,4638,4638,4638,4638,4638,4638,4638,4638,4638,4638,4638,4638,4638,4638,4638,4638,4638,4638,4638,4638,4638,4638,4638,4638,4638,4638,4638,4638,4638,4638,4638,4638,4638,4638,4638,4638,4638,4638,4638,4638,4638,4638,4638,4638,4638,4638,4638,4638,4638,4638,4638,4638,4638,21210,21210,21210,21210,21210,21210,21210,21210,4635,4635,4635,4635,4635,4635,4635,4635,
4635,4635,4635,4635,21210,21210,21210,21210,21210,4638,4638,4638,4638,4638,4638,4638,4638,4638,4638,4638,4638,4638,4638,4638,4638,4638,4638,4638,4638,4638,4638,4638,4638,4638,4638,4638,4638,4638,4638,4638,4638,4638,4638,4638,4638,4638,4638,4638,4638,4638,4638,4638,4638,4638,4638,4638,4638,4638,4638,4638,4638,4638,4638,21210,21210,21210,21210,21210,21210,4635,4635,4635,0,4635,4635,4635,4635,4635,4635,4635,
4635,4635,4635,4635,21210,21210,21210,21210,21210,4638,4638,4638,4638,4638,4638,4638,4638,4638,4638,4638,4638,4638,4638,4638,4638,4638,4638,4638,4638,4638,4638,4638,4638,4638,4638,4638,4638,4638,4638,4638,4638,4638,4638,4638,4638,4638,4638,4638,4638,4638,4638,4638,4638,4638,4638,4638,4638,4638,4638,4638,4638,21210,21210,21210,21210,21210,4635,21210,21210,4635,4635,4635,4635,4635,4635,4635,4635,4635,4635,4635,
4635,4635,0,4635,21210,21210,21210,21210,21210,21210,4638,4638,4638,4638,4638,4638,4638,4638,4638,4638,4638,4638,4638,4638,4638,4638,4638,4638,4638,4638,4638,4638,4638,4638,4638,4638,4638,4638,4638,4638,4638,4638,4638,4638,4638,4638,4638,4638,4638,4638,4638,4638,4638,4638,4638,4638,4638,4638,4638,4638,4638,21210,21210,21210,21210,21210,21210,21210,21210,4635,4635,0,4635,4635,4635,4635,4635,4635,4635,4635,
4635,4635,4635,4635,4635,21210,21210,21210,21210,21210,4638,4638,4638,4638,4638,4638,4638,4638,4638,4638,4638,4638,4638,4638,4638,4638,4638,4638,21210,21210,4638,4638,4638,4638,4638,4638,4638,4638,4638,4638,4638,4638,4638,21210,21210,21210,21210,21210,4638,4638,4638,4638,4638,4638,4638,4638,4638,4638,4638,4638,4638,21210,21210,21210,21210,21210,21210,21210,21210,21210,4635,4635,4635,4635,4635,4635,4635,4635,4635,4635,
4635,4635,4635,0,4635,21210,21210,21210,21210,21210,4638,4638,4638,4638,4638,4638,4638,4638,4638,4638,4638,4638,4638,4638,4638,21210,21210,21210,21210,4638,4638,4638,4638,4638,4638,4638,4638,4638,4638,4638,4638,21210,21210,21210,21210,21210,21210,4638,4638,4638,4638,4638,4638,4638,4638,4638,4638,4638,4638,4638,4638,21210,21210,21210,21210,21210,21210,21210,21210,21210,21210,4635,4635,4635,2102,2104,4635,4635,4635,4635,
4635,4635,4635,4635,4635,21210,21210,21210,21210,21210,4638,4638,4638,4638,4638,4638,4638,4638,4638,4638,4638,4638,4638,21210,21210,21210,4638,4638,4638,4638,4638,4638,4638,4638,4638,4638,4638,4638,4638,4638,4638,4638,4638,4638,4638,4638,4638,4638,4638,4638,4638,4638,4638,4638,4638,4638,4638,4638,4638,4638,4638,21210,21210,21210,21210,4635,21210,21210,21210,21210,21210,4635,4635,0,2382,2384,4635,4635,4635,4635,
4635,4635,4635,4635,4635,21210,21210,21210,21210,4638,4638,4638,4638,4638,4638,4638,4638,4638,4638,4638,4638,4638,21210,21210,4638,4638,4638,4638,4638,4638,4638,4638,4638,4638,4638,4638,4638,4638,4638,4638,4638,4638,4638,4638,4638,4638,4638,4638,4638,4638,4638,4638,4638,4638,4638,4638,4638,4638,4638,4638,4638,21210,21210,21210,21210,21210,21210,21210,4635,21210,21210,4635,4635,4635,4635,4635,4635,4635,4635,4635,
4635,4635,4635,4635,4635,21210,21210,21210,21210,4638,4638,4638,4638,4638,4638,4638,4638,4638,4638,4638,4638,4638,4638,4638,4638,4638,4638,4638,4638,4638,4638,4638,4638,4638,4638,4638,4638,4638,4638,4638,4638,4638,4638,4638,4638,4638,4638,4638,4638,4638,4638,4638,4638,4638,4638,4638,4638,4638,4638,4638,4638,4638,21210,21210,21210,21210,21210,21210,21210,21210,21210,4635,4635,4635,4635,2102,2103,2103,2104,4635,
4635,4635,0,4635,21210,21210,21210,21210,21210,4638,4638,4638,4638,4638,4638,4638,4638,4638,4638,4638,4638,4638,4638,4638,4638,4638,4638,4638,4638,4638,4638,4638,4638,4638,4638,4638,4638,4638,4638,4638,4638,4638,4638,4638,4638,4638,4638,4638,4638,4638,4638,4638,4638,4638,4638,4638,4638,4638,4638,4638,4638,4638,4638,4638,21210,21210,21210,21210,21210,21210,21210,4635,4635,0,2102,2663,2243,2243,2244,4635,
4635,0,4635,4635,21210,21210,21210,21210,21210,21210,4638,4638,4638,4638,4638,4638,4638,4638,4638,4638,4638,4638,4638,4638,4638,4638,4638,4638,4638,4638,4638,4638,4638,21210,21210,21210,21210,21210,21210,4638,4638,4638,4638,4638,4638,4638,4638,4638,4638,4638,4638,4638,4638,4638,4638,4638,4638,4638,4638,4638,4638,4638,4638,4638,4638,21210,21210,21210,21210,21210,4635,4635,4635,4635,2242,2243,2522,2383,2384,4635,
4635,4635,4635,21210,21210,21210,4635,21210,21210,21210,4638,4638,4638,4638,4638,4638,4638,4638,4638,4638,4638,4638,4638,4638,4638,4638,4638,4638,4638,4638,4638,4638,21210,21210,21210,21210,21210,4638,4638,4638,4638,4638,4638,4638,4638,4638,4638,4638,4638,4638,4638,4638,4638,4638,4638,4638,4638,4638,4638,4638,4638,4638,4638,4638,4638,21210,21210,21210,21210,21210,4635,4635,4635,4635,2382,2383,2384,4635,4635,4635,
4635,4635,4635,21210,21210,4635,21210,21210,21210,21210,21210,4638,4638,4638,4638,4638,4638,4638,4638,4638,4638,4638,4638,4638,4638,4638,4638,4638,4638,4638,4638,4638,21210,21210,21210,21210,4638,4638,4638,4638,4638,4638,4638,4638,4638,4638,4638,4638,4638,4638,4638,4638,4638,4638,4638,4638,4638,4638,4638,4638,4638,4638,4638,4638,21210,21210,21210,21210,21210,21210,21210,4635,0,4635,4635,4635,4635,4635,4635,4635,
4635,4635,4635,21210,21210,21210,21210,21210,21210,21210,21210,4638,4638,4638,4638,4638,4638,4638,4638,4638,4638,4638,4638,4638,4638,4638,4638,4638,4638,4638,4638,4638,21210,21210,21210,4638,4638,4638,4638,4638,4638,4638,4638,4638,4638,4638,4638,4638,4638,4638,21210,4638,4638,4638,4638,4638,4638,4638,4638,4638,4638,4638,4638,4638,21210,21210,21210,21210,21210,21210,21210,2102,2103,2103,4635,4635,4635,4635,4635,4635,
4635,4635,4635,21210,21210,21210,21210,4635,21210,21210,21210,4638,4638,4638,4638,4638,4638,4638,4638,4638,4638,4638,4638,4638,4638,4638,4638,4638,4638,4638,4638,4638,21210,21210,4638,4638,4638,4638,4638,4638,4638,4638,4638,4638,4638,4638,4638,4638,4638,21210,21210,4638,4638,4638,4638,4638,4638,4638,4638,4638,4638,4638,4638,21210,21210,21210,21210,21210,21210,21210,4635,2382,2383,2383,4635,4635,4635,4635,4635,4635,
4635,4635,4635,21210,21210,21210,21210,21210,21210,21210,21210,4638,4638,4638,4638,4638,4638,4638,4638,4638,4638,4638,4638,4638,4638,4638,4638,4638,4638,4638,4638,4638,4638,4638,4638,4638,4638,4638,4638,4638,4638,4638,4638,4638,4638,4638,4638,4638,4638,21210,21210,4638,4638,4638,4638,4638,4638,4638,4638,4638,4638,4638,4638,21210,21210,21210,21210,21210,21210,21210,4635,4635,0,4635,4635,4635,4635,4635,4635,4635,
4635,4635,2104,21210,21210,21210,21210,21210,21210,21210,21210,4638,4638,4638,4638,4638,4638,4638,4638,4638,4638,4638,4638,4638,4638,4638,4638,4638,4638,4638,4638,4638,4638,4638,4638,4638,4638,4638,4638,4638,4638,4638,4638,4638,4638,4638,4638,21210,21210,21210,4638,4638,4638,4638,4638,4638,4638,4638,4638,4638,4638,4638,4638,21210,21210,21210,21210,21210,21210,4635,4635,4635,4635,4635,4635,4635,4635,4635,4635,4635,
4635,0,2244,21210,21210,21210,21210,21210,21210,4638,4638,4638,4638,4638,4638,4638,4638,4638,4638,4638,4638,4638,4638,4638,4638,4638,4638,4638,4638,4638,4638,4638,4638,4638,4638,4638,4638,4638,4638,4638,4638,4638,4638,4638,4638,4638,4638,21210,21210,21210,4638,4638,4638,4638,4638,4638,4638,4638,4638,4638,4638,4638,4638,21210,21210,21210,4635,4635,21210,4635,4635,4635,4635,4635,4635,4635,4635,4635,4635,4635,
2383,2383,2384,21210,4635,21210,21210,21210,4638,4638,4638,4638,4638,4638,4638,4638,4638,4638,4638,4638,4638,4638,4638,4638,4638,4638,21210,21210,21210,4638,4638,4638,4638,4638,4638,4638,4638,4638,4638,4638,4638,4638,4638,4638,4638,21210,21210,21210,21210,4638,4638,4638,4638,4638,4638,4638,4638,4638,4638,4638,4638,4638,21210,21210,21210,21210,21210,21210,21210,4635,4635,4635,0,4635,4635,4635,4635,4635,4635,4635,
4635,21210,21210,21210,21210,21210,21210,21210,4638,4638,4638,4638,4638,4638,4638,4638,4638,4638,4638,4638,4638,4638,4638,21210,21210,21210,21210,21210,21210,21210,4638,4638,4638,4638,4638,4638,4638,4638,4638,4638,4638,4638,4638,4638,4638,21210,4638,4638,4638,4638,4638,4638,4638,4638,4638,4638,4638,4638,4638,4638,4638,4638,4638,21210,21210,4635,21210,21210,21210,21210,4635,4635,4635,4635,4635,4635,4635,4635,4635,4635,
21210,21210,21210,21210,21210,21210,21210,4638,4638,4638,4638,4638,4638,4638,4638,4638,4638,4638,4638,4638,4638,4638,4638,21210,21210,21210,4638,4638,4638,4638,4638,4638,4638,4638,4638,4638,4638,4638,4638,4638,4638,4638,4638,4638,4638,4638,4638,4638,4638,4638,4638,4638,4638,4638,4638,4638,4638,4638,4638,4638,4638,4638,4638,21210,21210,21210,21210,21210,21210,21210,21210,21210,4635,4635,4635,4635,4635,4635,4635,4635
</data>
 </layer>
 <layer name="Layer 2" width="80" height="21">
  <data encoding="csv">
5054,4496,0,2385,2526,3228,0,0,21269,21269,0,5057,4499,0,4639,0,4639,0,0,4637,0,3924,0,0,3924,0,4497,5058,0,2810,0,0,5057,4499,4639,0,3924,4637,0,0,0,4497,5058,0,0,0,0,0,2810,5057,4499,0,4639,0,0,4637,0,4637,4497,5058,0,0,21269,21269,0,0,0,2946,2525,2386,2386,2387,4494,5055,0,0,282,283,284,0,
0,5054,4496,2811,2245,0,2386,2526,0,21269,0,0,5057,4499,4639,0,5057,4499,4497,5058,0,0,4497,4498,4498,4498,5058,0,0,0,0,2810,0,4639,5057,4499,4497,5058,4497,4498,4498,5058,0,0,0,0,2810,0,0,0,4639,0,5057,4499,4497,5058,0,4637,4637,0,21269,21269,21269,0,3228,2525,2386,2526,2247,0,4494,4495,5055,0,0,0,0,0,0,0,
0,0,4636,0,2245,1582,1583,1584,3228,21269,21269,0,0,4639,4639,3251,3924,5057,5058,0,4497,4498,5058,0,0,4497,4498,4498,4498,4498,4498,4499,0,4639,0,5057,5058,0,4637,2831,2832,4497,4498,4498,4498,4498,4498,4498,4498,4499,4639,2831,2832,5057,5058,3251,4497,5058,4637,0,21269,0,0,0,3228,2247,0,2245,2247,0,4634,0,0,0,360,361,362,0,1566,1567,
0,0,5054,4496,2385,1722,1723,1724,0,0,21269,0,0,4639,5057,4499,3924,0,2946,4497,5058,4497,4498,4498,4498,5058,0,21269,21269,21269,21269,4639,0,5057,4499,3251,0,0,4637,4497,4498,5058,21269,21269,21269,21269,21269,21269,21269,4639,5057,4498,4499,0,0,2946,4637,4497,5058,0,21269,0,0,0,0,2665,2106,2666,2247,0,4774,4915,282,283,284,0,1563,1564,1565,0,
0,0,0,4636,0,2245,0,0,0,0,21269,0,0,4639,0,4639,8249,8250,0,4637,0,4637,0,0,21269,21269,21269,21269,21056,0,21269,4639,0,0,5057,4498,4499,4497,5058,4637,21269,21269,21269,0,0,0,0,0,21269,4639,0,0,4639,0,2946,2946,4637,4637,2810,0,21269,0,0,3228,0,0,0,0,2665,2107,0,4634,0,0,1566,1567,1568,0,1563,1564,
0,0,0,4636,0,2245,1582,1583,1584,0,21269,0,0,4639,0,4639,8389,8390,2946,4637,4497,5058,21269,21269,21269,21055,0,0,21064,21269,21269,5057,4498,4499,0,0,5057,5058,0,4637,21269,0,0,0,0,0,0,21269,21269,4639,0,2946,4639,0,2949,0,4637,4637,0,0,21269,0,0,0,2525,2386,2526,0,0,2665,2107,4634,0,0,0,0,282,283,284,0,
0,0,0,4636,0,2245,1722,1723,1724,0,21269,0,0,4639,0,4639,0,0,3251,4637,4637,21269,21269,0,0,21063,21269,21269,21269,21269,0,0,2810,5057,4498,4499,0,0,3251,4637,21269,21269,21269,21269,21269,21269,21269,21269,4917,4779,0,2946,4639,0,3251,0,4637,4637,0,0,21269,0,0,0,2247,0,2245,2525,2386,2526,2247,4774,4775,4915,0,0,0,0,282,283,
2104,0,0,4636,0,2245,0,3228,0,21269,21269,0,4917,4779,0,4639,0,2810,3089,4637,4637,21269,0,2946,21269,21269,21269,8249,8250,0,0,0,0,0,0,5057,4498,4499,4497,5058,8249,8250,0,0,0,0,0,0,4639,0,2946,2946,5057,4499,0,4497,5058,4777,4918,0,21269,0,0,0,2665,2106,2666,2247,0,2245,2247,0,0,4634,0,0,360,361,362,0,
2244,0,0,4636,0,2245,0,0,0,21269,0,0,4639,3251,0,4639,0,0,3229,4637,4637,21269,21269,21269,21269,0,0,8389,8390,0,2949,2946,0,0,0,0,0,5057,5058,0,8389,8390,0,0,4917,4778,4778,4778,4779,0,0,0,0,5057,4498,5058,0,3924,4637,0,21269,21269,0,0,0,2952,0,2665,2106,2666,2247,0,0,4634,0,0,500,501,502,1567,
2384,0,4914,4776,2105,2666,0,3228,0,21269,21269,0,5057,4499,0,5057,4499,0,4497,5058,4637,0,0,0,0,0,0,0,0,0,2946,0,21269,21269,21269,21269,21269,21269,21269,21269,0,0,4917,4778,2974,2975,0,0,0,3111,3111,0,2810,0,2946,0,0,0,4777,4778,4918,21269,21269,21269,0,2946,0,0,0,2525,2387,4494,4495,5055,0,0,0,0,0,0,
0,4914,4776,0,2245,2525,2386,2526,0,0,21269,0,0,5057,4499,2972,2973,4498,5058,0,4777,4778,4778,4778,4778,4778,4778,4918,0,0,0,21269,21269,0,0,0,0,0,0,21269,4917,4778,4779,2974,3114,3115,2974,2975,0,2810,0,0,0,0,0,2946,4917,4918,2831,2832,4637,0,0,21269,21269,0,2946,0,0,2247,0,4634,0,0,0,0,0,0,0,0,
0,4636,0,2105,2525,2387,0,2245,0,0,21269,21269,0,0,4639,3112,3113,0,3924,0,0,0,0,0,0,0,0,4777,4918,0,0,21269,0,0,0,0,0,21269,21269,21269,4639,0,0,3114,3115,0,3114,3115,4497,4498,4498,4498,4499,0,0,4917,4779,4777,4918,0,4777,4918,0,21269,21269,0,0,0,0,2247,0,4634,0,0,0,0,0,0,0,0,
0,4636,0,2245,2247,0,2105,2666,0,0,3228,21269,0,0,4639,0,0,0,0,4917,4778,4778,4778,4778,4778,4918,2831,2832,4637,0,21269,21269,0,0,2946,0,21269,21269,0,0,4639,0,2946,0,0,0,0,4497,5058,21269,21269,21269,4639,3111,0,4639,0,0,4637,0,4497,5058,0,21269,0,0,2952,2525,2386,2665,2107,4774,4915,0,0,0,0,0,282,283,
0,4636,0,2245,2665,2106,2666,2386,2526,0,0,21269,0,0,4639,8249,8250,4917,4778,4779,0,0,0,0,0,4637,0,0,4637,0,21269,21269,0,2946,0,21269,21269,0,4917,4778,4779,0,0,2946,0,0,4497,5058,21269,21269,0,21269,5057,4499,0,5057,4499,4497,5058,0,4637,0,21269,21269,0,0,0,0,0,2525,2387,0,4774,4915,0,0,1566,1567,1568,0,
0,4636,0,2245,2811,0,2247,1582,1583,1584,0,21269,0,0,4639,8389,8390,4639,0,0,2810,0,0,4497,4498,5058,2946,4497,5058,0,0,21269,0,0,21269,21269,4917,4778,4779,0,0,0,0,0,4497,4498,5058,0,21269,0,0,21269,0,4639,0,0,5057,5058,0,2810,4637,0,21269,0,0,0,3228,0,0,2247,0,0,4494,5055,0,0,0,0,1563,1564,
0,5054,4496,2245,2811,0,1582,0,1584,0,0,21269,0,0,4639,0,2946,4639,0,0,4497,4498,4498,5058,0,2946,3251,4637,0,0,0,21269,21269,21269,21269,0,4639,0,0,3924,2974,2975,0,0,4637,0,21269,21269,21269,0,0,21269,0,4639,8249,8250,2974,2975,0,4497,5058,0,21269,0,0,0,0,0,2525,2387,4494,4495,5055,0,0,0,360,361,362,0,
0,0,4636,2245,0,0,1722,1723,1724,0,0,21269,0,0,4639,2946,0,5057,4498,4498,5058,3924,0,3924,4497,4498,4498,5058,0,0,0,0,0,0,4917,4778,4779,3924,4917,4918,3114,3115,2975,4497,5058,0,21269,0,0,0,21269,21269,0,4639,8389,8390,3114,3115,0,4637,0,0,21269,0,0,2525,2386,2386,2526,0,4634,0,2952,0,1563,1564,1565,0,282,283,
0,4914,4776,2525,2386,2526,0,0,0,21269,21269,21269,0,0,4639,0,0,4917,4778,4918,0,4497,4498,4498,5058,21269,21269,21269,21269,21269,0,0,2949,0,4639,0,0,4917,4779,4777,4918,3114,3115,4637,21269,21269,21269,2946,0,0,21269,0,4917,4779,0,0,0,2810,4497,5058,0,21269,21269,3228,0,2247,0,0,2245,0,4634,0,360,361,362,0,1563,1564,1565,0,
4914,4776,0,2247,0,2245,0,0,21269,21269,0,4917,4778,4778,4779,0,4917,4779,2810,4777,4918,4637,21269,21269,21269,21269,0,0,0,21269,21269,0,0,4917,4779,0,0,4639,0,0,4637,0,0,4637,21269,0,0,0,0,21269,21269,4917,4779,2974,2975,0,0,2946,4637,0,0,21269,0,0,2525,2665,2526,2106,2666,0,4774,4775,4915,0,1566,1567,1568,0,1566,1567,
4776,0,0,2665,2106,1582,1583,1584,21269,0,0,4639,0,3251,4917,4778,4779,4917,4918,0,4637,4637,21269,0,0,0,0,0,0,0,21269,0,0,4639,0,0,2946,5057,4499,4497,5058,0,4497,0,21269,0,21269,21269,21269,21269,0,4639,2974,3114,3115,0,2946,0,4777,4918,0,21269,21269,0,2247,2952,2245,0,2665,2107,0,0,4774,4775,4775,4775,4915,283,284,2952,
0,2666,3228,0,1582,1722,1584,21269,21269,0,4917,4779,3924,0,4639,3251,4917,4779,4777,4918,4637,4637,21269,0,0,0,21269,21269,21269,21269,21269,4917,4778,4779,2831,2832,0,2946,5057,5058,2831,2832,4637,0,21269,21269,21269,0,0,0,4917,4779,3114,3115,2974,2975,0,2831,2832,4777,4918,0,21269,0,2665,2106,2666,2946,3228,2665,2106,2107,0,0,0,0,4774,4775,4775,4915
</data>
 </layer>
 <layer name="Layer 3" width="80" height="21">
  <data encoding="csv">
0,0,0,0,0,0,0,0,21213,21203,21269,21269,21269,21269,21269,21269,21269,21269,21269,21269,21269,21269,21269,21269,21269,21269,21269,21269,21269,21269,21269,21269,21269,21269,21269,21269,21269,21269,21269,21269,21269,21269,21269,21269,21269,21269,21269,21269,21269,21269,21269,21269,21269,21269,21269,21269,21269,21269,21269,21269,21269,21269,21201,21212,0,0,0,0,0,0,0,0,0,0,2952,0,0,0,0,0,
0,0,0,0,0,1442,1443,1444,2809,21211,21269,21269,21269,21269,21269,21269,21269,21269,21269,21269,21269,21269,21269,21269,21269,21269,21269,21269,21269,21269,21269,21269,21269,21269,21269,21269,2834,2835,21269,21269,21269,21269,21269,21269,21269,21269,21269,21269,21269,21269,21269,21269,21269,21269,21269,21269,21269,21269,21269,21269,21201,21202,21212,0,0,0,0,0,0,0,0,0,0,0,220,221,222,0,1426,1427,
2952,0,0,0,0,0,0,0,0,21213,21203,21269,21269,21269,21269,21269,21269,21269,21269,21269,21269,21269,21269,21269,21269,21269,21269,21269,21269,21269,21269,21269,21269,21269,21269,21269,21269,21269,21269,21269,21269,21269,21269,21269,21269,21269,21269,21269,21269,21269,21269,21269,21269,21269,21269,21269,21269,21269,21269,21269,21209,0,0,0,0,0,1442,1443,1444,2952,0,0,142,143,144,0,1423,1424,1425,0,
1425,1826,1827,0,0,2526,0,0,0,0,21211,21269,21269,21269,21269,21269,21269,21269,21269,21269,21269,21269,21269,21269,21269,21269,21269,21201,21202,21202,21203,21269,21269,21269,21269,21269,21269,21269,21269,21269,21269,21269,21201,21202,21202,21202,21202,21202,21203,21269,21269,21269,21269,21269,21269,21269,21269,21269,21269,21269,21209,0,0,0,0,0,1582,1583,1584,0,0,0,0,0,1426,1427,1428,0,1423,1424,
1565,1966,1967,0,0,0,1442,1443,1444,0,21211,21269,21269,21269,21269,21269,21269,21269,21269,21269,21269,21269,21269,21269,21201,21202,21202,21212,0,0,21211,21269,21269,21269,21269,2972,2973,21269,21269,21269,21201,21202,21212,0,21055,21056,0,0,21211,21269,21269,21269,21269,21269,21269,21269,21269,21269,21269,21269,21209,0,0,0,0,0,1722,1723,1724,0,3085,21157,0,0,0,0,142,143,144,0,
0,0,0,21156,0,0,0,0,0,0,21211,21269,21269,21269,21269,21269,21269,21269,21269,21269,21269,21269,21201,21202,21212,0,0,0,0,21221,21219,21269,21269,21269,21269,3112,3113,21269,21269,21269,21209,2809,0,0,21063,21064,0,21221,21219,21269,21269,21269,21269,21269,21269,21269,21269,21269,21269,21269,21209,0,0,0,0,0,0,0,0,0,0,21173,0,0,0,0,0,0,142,143,
0,0,0,21164,0,0,0,0,0,0,21211,21269,21269,21269,21269,21269,21269,21269,21269,21269,21269,21201,21212,0,0,0,21221,21218,21218,21219,21269,21269,21269,21269,21269,21269,21269,21269,21269,21269,21217,21218,21218,21218,21218,21218,21218,21219,21269,21269,21269,21269,21269,21269,21269,21269,21269,21269,21269,21269,21209,0,0,2811,0,0,0,0,0,0,0,21181,0,0,0,0,220,221,222,0,
0,0,0,21172,0,2811,0,0,0,21221,21219,21269,21269,21269,21269,21269,21269,21269,21269,21269,21269,21209,0,0,21221,21218,21219,21269,21269,21269,21269,21269,21269,21269,21269,21269,21269,21269,21269,21269,21269,21269,21269,21269,21269,21269,21269,21269,21269,21269,21269,21269,21269,21269,21269,21269,21269,21269,21269,21269,21209,0,0,0,0,0,0,0,0,0,0,0,0,0,0,0,0,0,1426,1427,
0,0,0,21180,0,0,0,0,0,21211,21269,21269,21269,21269,21269,21269,21269,21269,21269,21269,21269,21217,21218,21218,21219,21269,21269,21269,21269,21269,21269,21269,21269,21269,21269,21269,21269,21269,21269,21269,21269,21269,21269,21269,2834,2835,21269,21269,21269,21269,21269,21269,21269,21269,21269,21269,21269,21269,21269,21269,21217,21220,0,2809,0,0,0,0,0,0,2665,0,0,0,0,0,0,0,1566,0,
0,0,0,0,0,0,0,0,0,21213,21203,21269,21269,21269,21269,21269,21269,21269,21269,21269,21269,21269,21269,21269,21269,2834,2835,21269,21269,21269,21269,21269,21201,21202,21202,21202,21202,21202,21202,21203,21269,21269,21269,2834,2835,21269,2834,2835,21269,21269,21269,21269,21269,21269,21269,21269,21269,21269,21269,21269,21269,21217,21218,21220,0,0,0,0,2811,0,0,0,0,0,0,0,0,0,0,0,
0,0,0,3085,0,0,0,0,0,0,21211,21269,21269,21269,21269,21269,21269,21269,21269,21269,2834,2835,21269,2834,2835,2974,2975,21269,21269,21269,21269,21201,21212,0,0,0,0,0,0,21211,21269,21269,21269,21269,2975,21269,21269,21269,21269,21269,21269,21269,21269,21269,21269,21269,21269,21269,21269,21269,21269,21269,21269,21217,21220,0,0,0,0,0,0,21157,0,0,0,0,0,0,0,0,
0,21156,2952,0,2666,0,0,0,0,0,21213,21203,21269,21269,21269,21269,21269,21269,21269,21269,2974,2975,21269,2974,2975,3114,3115,21269,21269,21269,21269,21209,0,0,0,0,0,21221,21218,21219,21269,21269,21269,21269,21269,21269,21269,21269,21269,21269,21269,21269,21269,21269,21269,21269,21269,21269,21269,21269,21269,21269,21269,21201,21212,0,0,0,0,0,0,21173,0,0,0,0,0,0,142,143,
0,21164,0,0,0,0,0,0,0,0,0,21211,21269,21269,21269,21269,21269,21269,21269,21269,3114,3115,3089,3114,3115,21269,21269,21269,21269,21269,21201,21212,0,0,0,0,21221,21219,21269,21269,21269,21269,21269,21269,21269,21269,21269,21269,21269,21201,21202,21203,21269,21269,21269,21269,21269,21269,21269,21269,21269,21269,21269,21209,0,0,0,1442,1443,1444,0,21181,0,0,0,0,1426,1427,1428,0,
0,21172,0,0,0,0,2525,1442,1443,1444,0,21211,21269,21269,21269,21269,21269,21269,21269,3089,21269,21269,3229,21269,21269,21269,21269,21269,21269,21269,21217,21220,2809,0,0,21221,21219,21269,21269,21269,21269,21269,21269,21269,21269,21269,21269,21269,21201,21212,0,21211,21269,21269,21269,21269,21269,0,0,21269,21269,21269,21201,21212,0,0,0,1582,1583,1584,0,0,0,0,0,0,0,0,1423,1424,
0,21180,0,0,0,0,1442,1443,1444,0,0,21211,21269,21269,21269,21269,21269,21269,21269,3229,21269,21269,21269,21269,21269,21269,21269,21269,21269,21269,21269,21209,0,0,21221,21219,21269,21269,21269,21269,2834,2835,21269,21269,21269,21269,21269,21269,21209,21055,21056,21211,21269,21269,21269,21269,2834,2835,21269,21269,21269,21269,21209,0,0,0,0,1722,1723,1724,0,0,0,0,0,0,220,221,222,0,
1826,1827,0,0,0,0,0,1722,1723,1724,0,21211,21269,21269,21269,21269,21269,21269,21269,21269,21269,21269,21269,21269,21269,21269,21269,21269,21269,21269,21269,21217,21218,21218,21219,21269,21269,21269,21269,0,0,2834,2835,21269,21269,21269,21201,21202,21212,21063,21064,21211,21269,21269,21269,21269,21269,21269,21269,21269,21269,21269,21209,0,0,0,0,0,0,0,0,0,0,0,1423,1424,1425,0,142,143,
1966,1967,0,0,0,2952,0,0,0,0,0,21211,21269,21269,21269,21269,21269,21269,21269,21269,21269,21269,21269,21269,21269,21269,21269,21269,21269,21269,21269,21269,21269,21269,21269,2972,2973,21269,21269,21269,0,2974,21269,21269,21269,21269,21209,0,0,0,21221,21219,21269,21269,21269,21269,21269,21269,21269,21269,21269,21269,21209,0,0,0,0,2811,2247,0,0,0,220,221,222,0,1423,1424,1425,0,
0,0,0,2245,0,0,0,0,0,21221,21218,21219,21269,21269,21269,21269,21269,21269,21269,21269,21269,21269,21269,21269,21269,21201,21202,21202,21202,21203,21269,21269,21269,21269,21269,3112,3113,21269,21269,21269,21269,21269,21269,21269,21201,21202,21212,0,0,2809,21211,21269,21269,2834,2835,21269,21269,21269,21269,21269,21269,21201,21212,0,0,0,0,3085,2247,0,0,2952,0,0,1426,1427,1428,0,1426,1427,
0,0,0,2245,0,1442,1443,1444,21221,21219,21269,21269,21269,21269,21269,21269,21269,21269,21269,21269,21269,21269,21201,21202,21202,21212,2809,0,0,21213,21203,21269,21269,21269,21269,2834,2835,21269,21269,21269,21269,21269,21269,21269,21209,0,0,0,0,21221,21219,21269,2834,2835,21269,21269,21269,21269,21269,21269,21269,21209,0,0,0,2386,2106,0,2247,0,0,0,500,501,0,0,142,143,144,0,
0,2105,2106,2666,1442,1443,1444,0,21211,21269,21269,21269,21269,21269,21269,21269,21269,21269,21269,21269,21269,21269,21209,0,0,0,0,0,0,0,21211,21269,21269,21269,21269,21269,21269,21269,21269,21269,21269,21269,21269,21269,21209,0,21221,21218,21218,21219,21269,21269,21269,2975,2834,2835,21269,21269,21269,21269,21269,21217,21220,0,0,0,0,0,2946,0,0,0,0,0,0,0,282,0,0,0,
2105,0,0,0,0,1583,1723,21221,21219,21269,21269,21269,21269,21269,21269,21269,21269,21269,21269,21269,21269,21269,21209,1443,1444,1442,21221,21218,21218,21218,21219,21269,21269,21269,21269,21269,21269,21269,21269,21269,21269,21269,21269,21269,21217,21218,21219,21269,21269,21269,21269,21269,21269,21269,21269,21269,21269,21269,21269,21269,21269,21269,21209,0,0,0,0,0,0,0,0,0,0,3085,1826,1827,0,0,0,0
</data>
 </layer>
 <layer name="Top layer" width="80" height="21">
  <data encoding="csv">
0,0,0,0,0,1302,1303,1304,0,0,0,0,0,0,0,0,0,0,0,0,0,0,0,0,0,0,0,0,0,0,0,0,0,0,0,0,0,0,24795,24796,0,0,0,0,0,0,0,0,0,0,0,0,0,0,0,0,0,0,0,0,0,0,0,0,0,0,0,0,0,0,0,0,0,0,80,81,82,0,1286,1287,
0,0,0,0,0,0,0,0,0,0,0,0,0,0,0,0,0,0,0,0,0,0,0,0,0,0,0,0,0,0,0,0,0,0,0,0,21269,21269,24860,24861,0,0,0,0,0,0,0,0,0,0,0,0,0,0,0,0,0,0,0,0,0,0,0,0,0,0,1302,1303,1304,0,0,0,2,3,4,0,1283,1284,1285,0,
1285,0,0,0,0,0,0,0,0,0,0,0,0,0,0,0,0,0,0,0,0,0,0,0,0,0,0,0,21007,21008,0,0,0,0,0,0,0,0,0,0,0,0,0,0,21007,21008,24295,24296,0,0,0,0,0,0,0,0,0,0,0,0,0,0,0,0,0,0,0,0,0,0,0,0,0,0,1286,1287,1288,0,1283,1284,
1284,1285,0,0,0,0,1302,1303,1304,0,0,0,0,0,0,0,0,0,0,0,0,0,0,0,0,21031,21032,0,21015,21016,0,0,0,0,0,0,0,0,0,0,0,0,0,0,21015,21016,24360,24361,0,0,0,0,0,0,0,0,0,0,0,0,0,0,0,0,1302,1303,1304,0,0,0,0,0,0,0,0,0,2,3,4,0,
1424,1425,0,0,0,0,0,0,0,0,0,0,0,0,0,0,8111,8112,0,0,0,0,0,0,0,21039,21040,0,21023,21024,0,0,0,0,0,21269,21269,0,0,0,0,0,0,0,21023,21024,0,0,0,0,0,0,0,0,0,0,0,0,0,0,0,0,0,0,1442,1443,1444,0,0,0,0,0,0,0,0,0,0,0,2,3,
1564,1565,0,0,0,0,0,0,0,0,0,0,0,0,0,0,8251,8252,0,0,0,0,0,24295,24296,21047,21048,0,0,0,0,0,0,0,0,21269,21269,0,0,0,0,0,0,0,0,0,0,0,0,0,0,0,0,0,0,0,0,24791,24792,0,0,0,0,0,1582,1583,1584,0,0,0,0,0,0,0,0,0,80,81,82,0,
0,0,0,0,0,0,0,0,0,0,0,0,0,0,0,0,0,0,0,0,0,0,0,24360,24361,0,0,0,0,0,0,0,0,0,0,0,0,0,0,0,0,0,0,0,0,0,0,0,0,0,0,0,0,0,0,0,0,24856,24857,0,0,0,0,0,1722,1723,1724,0,0,0,0,0,0,0,0,0,0,0,1286,1287,
0,0,0,0,0,0,0,0,0,0,0,0,0,0,0,0,0,0,0,0,0,0,0,0,0,0,0,8111,8112,0,0,0,0,0,0,0,0,0,0,0,8111,8112,0,0,0,0,0,0,0,0,0,0,0,0,0,0,0,0,0,0,0,0,0,0,0,1302,1303,1304,0,0,0,0,0,0,0,0,0,0,0,0,
0,0,0,0,0,0,0,0,0,0,0,0,0,0,0,0,0,0,24791,24792,0,0,0,0,0,0,0,8251,8252,0,0,0,0,0,0,0,0,0,21031,21032,8251,8252,0,0,21269,21269,0,0,0,0,0,0,0,0,0,0,0,0,0,0,0,0,0,0,0,1442,1443,1444,0,0,0,0,0,0,0,0,0,0,0,0,
0,0,0,0,0,0,0,0,0,0,0,0,0,0,0,0,0,0,24856,24857,0,0,0,0,0,21269,21269,0,0,0,0,1302,1303,1304,0,1302,1303,1304,21039,21040,0,0,0,21269,21269,0,21269,21269,0,0,0,0,0,0,0,0,0,0,0,0,0,0,0,0,0,1582,1583,1584,0,0,0,0,0,0,0,0,0,0,0,0,
0,0,0,0,0,0,0,0,0,0,0,0,0,0,0,0,0,0,0,0,21269,21269,0,21269,21269,21269,21269,0,0,0,0,1858,1859,1860,1861,1862,1863,1864,21047,21048,0,0,0,0,21269,0,0,0,0,0,0,0,0,0,0,0,0,0,0,0,0,0,0,0,0,1722,1723,1724,0,0,0,0,0,0,0,0,0,0,2,3,
0,0,0,0,0,0,0,0,0,0,0,0,0,0,0,0,0,0,0,0,21269,21269,0,21269,21269,21269,21269,0,0,0,0,1998,1999,2000,2001,2002,2003,2004,0,0,0,0,0,0,0,0,0,0,0,0,0,0,0,0,0,0,0,0,0,0,24917,24918,0,0,0,0,0,1302,1303,1304,0,0,0,0,0,0,1286,1287,1288,0,
0,0,0,0,0,0,0,1302,1303,1304,0,0,0,0,0,0,0,0,0,0,21269,21269,21269,21269,21269,0,0,0,0,0,0,1722,1723,1724,0,1722,1723,1724,0,0,0,0,0,0,0,0,0,0,0,21031,21032,0,0,0,0,0,0,0,0,0,24982,24983,0,0,0,0,1302,1303,1304,0,0,0,0,0,0,0,0,0,1283,1284,
0,0,0,0,0,0,1302,1303,1304,0,0,0,0,0,0,8111,8112,0,0,21269,0,0,21269,0,0,0,0,0,0,0,0,0,0,0,0,0,0,0,0,0,0,0,0,0,0,0,0,0,0,21039,21040,0,0,0,0,0,0,21269,21269,0,0,0,0,0,0,0,1442,1443,1444,0,0,0,0,0,0,0,80,81,82,0,
0,0,0,0,0,0,0,0,0,0,0,0,0,0,0,8251,8252,0,0,21269,0,0,0,0,0,0,0,0,0,0,0,0,0,0,0,0,0,0,0,0,21269,21269,0,0,0,0,0,0,0,21047,21048,0,0,0,0,0,21269,21269,0,0,0,0,0,0,0,0,1582,1583,1584,0,0,0,0,0,1283,1284,1285,0,2,3,
1284,1285,0,0,0,0,0,1583,0,0,0,0,0,0,0,0,0,0,0,0,0,0,0,0,0,0,0,0,0,0,0,0,0,0,0,0,0,0,0,21269,21269,21269,21269,0,0,0,0,0,0,0,0,0,0,0,8111,8112,0,0,0,0,0,0,0,0,0,0,1722,1723,1724,0,0,0,80,81,82,0,1283,1284,1285,0,
1424,1425,0,0,0,0,0,0,0,0,0,0,0,0,0,0,0,0,0,0,0,0,0,0,0,0,0,0,0,0,0,0,0,0,0,21269,21269,0,0,0,21269,21269,0,0,0,21007,21008,0,0,0,0,0,0,0,8251,8252,0,0,0,0,0,0,0,0,0,0,0,0,0,0,0,0,0,0,1286,1287,1288,0,1286,1287,
1564,1565,0,0,0,1302,1303,1304,0,0,0,0,0,0,0,0,0,0,0,0,0,0,0,0,0,0,0,0,1302,1303,1304,0,0,0,0,21269,21269,0,0,0,0,0,0,0,0,21015,21016,0,0,0,0,0,0,21269,21269,0,0,0,0,0,0,0,0,0,0,0,0,0,0,0,0,0,0,0,0,0,2,3,4,0,
0,0,0,0,1302,1303,1304,0,0,0,0,0,0,0,24795,24796,0,0,0,0,0,0,0,0,0,0,0,0,1442,1443,1444,0,0,0,0,21269,21269,0,0,0,0,0,0,0,0,21023,21024,0,0,0,0,0,21269,21269,0,0,0,0,0,0,0,0,0,0,0,1302,1303,1304,0,0,0,0,0,0,0,0,0,0,0,0,
0,0,0,2952,0,0,0,0,0,0,0,0,0,0,24860,24861,0,0,0,0,0,0,1302,1303,1304,1302,1303,1304,1582,1583,1584,0,0,0,0,0,0,0,0,0,0,0,0,0,0,0,0,0,0,0,0,0,0,21269,21269,21269,0,0,0,0,0,0,0,0,0,1442,1443,1444,0,0,0,0,0,0,0,0,0,0,0,0,
0,0,1302,1303,1304,0,0,1724,0,0,0,0,0,0,0,0,0,0,0,0,0,0,1442,1302,1303,1304,1443,1444,1722,1723,1724,0,0,0,0,0,0,0,0,0,0,0,0,0,0,0,0,0,0,0,0,0,0,0,0,0,0,0,0,0,0,0,0,0,0,1582,1583,1584,0,0,0,0,0,0,0,0,0,0,0,0
</data>
 </layer>
</map>
