<?xml version="1.0" encoding="UTF-8"?>
<map version="1.10" tiledversion="1.11.2" orientation="orthogonal" renderorder="right-down" width="15" height="15" tilewidth="16" tileheight="16" infinite="0" nextlayerid="9" nextobjectid="28">
 <tileset firstgid="1" source="tileset4g.tsx"/>
 <tileset firstgid="21001" source="intérieur.tsx"/>
 <tileset firstgid="21321" source="indoor.tsx"/>
 <layer id="1" name="Calque de Tuiles 1" width="15" height="15">
  <data encoding="csv">
21019,21019,21019,21019,21019,21019,21019,21019,21019,21019,21019,21019,21019,21019,21019,
21019,21019,21019,21019,21019,21019,21019,21019,21019,21019,21019,21019,21019,21019,21019,
21019,21019,21019,21019,21019,21019,21019,21019,21019,21019,21019,21019,21019,21019,21019,
21019,21019,21019,21019,21019,21019,21019,21019,21019,21019,21019,21019,21019,21019,21019,
21019,21019,21019,21019,21019,21019,21019,21019,21019,21019,21019,21019,21019,21019,21019,
21019,21019,21019,21019,21019,21019,21019,21019,21019,21019,21019,21019,21019,21019,21019,
21019,21019,21019,21019,21019,21019,21019,21019,21019,21019,21019,21019,21019,21019,21019,
21019,21019,21019,21019,21019,21019,21019,21019,21019,21019,21019,21019,21019,21019,21019,
21019,21019,21019,21019,21019,21019,21019,21019,21019,21019,21019,21019,21019,21019,21019,
21019,21019,21019,21019,21019,21019,21019,21019,21019,21019,21019,21019,21019,21019,21019,
0,0,0,0,0,0,0,21019,21019,21019,21019,21019,21019,21019,21019,
0,0,0,0,0,0,0,21019,21019,21019,21019,21019,21019,21019,21019,
0,0,0,0,0,0,0,21019,21019,21019,21019,21019,21019,21019,21019,
0,0,0,0,0,0,0,21019,21019,21019,21019,21019,21019,21019,21019,
0,0,0,0,0,0,0,21019,21019,21019,21019,21019,21019,21019,21019
</data>
 </layer>
 <layer id="3" name="wall" width="15" height="15">
  <data encoding="csv">
21038,21039,21039,21039,21039,21039,21039,21039,21039,21039,21039,21039,21039,21039,21040,
21046,21047,21047,21047,21047,21047,21047,21047,21047,21047,21047,21047,21047,21047,21048,
0,0,0,0,0,0,0,0,0,0,0,0,0,0,0,
0,0,0,0,0,0,0,0,0,0,0,0,0,0,0,
0,0,0,0,0,0,0,0,0,0,0,0,0,0,0,
0,0,0,0,0,0,0,0,0,0,0,0,0,0,0,
0,0,0,0,0,0,0,0,0,0,0,0,0,0,0,
0,0,0,0,0,0,0,0,0,0,0,0,0,0,0,
0,0,0,0,0,0,0,0,0,0,0,0,0,0,0,
0,0,0,0,0,0,0,0,0,0,0,0,0,0,0,
0,0,0,0,0,0,0,0,0,0,0,0,0,0,0,
0,0,0,0,0,0,0,0,0,0,0,0,0,0,0,
0,0,0,0,0,0,0,0,0,0,0,0,0,0,0,
0,0,0,0,0,0,0,0,0,0,0,0,0,0,0,
0,0,0,0,0,0,0,0,0,0,0,0,0,0,0
</data>
 </layer>
 <layer id="4" name="Calque de Tuiles 3" width="15" height="15">
  <data encoding="csv">
0,0,0,0,24084,24085,24206,24206,0,24338,24898,0,0,0,0,
0,24100,24101,0,24908,24909,24214,24214,24345,24346,24347,21143,21144,0,25737,
0,24108,24109,25747,24916,24917,24214,24214,24353,24354,24355,21151,21152,0,25745,
0,0,0,0,0,0,0,0,24361,24362,24363,0,0,0,0,
0,24926,24925,24926,0,0,0,0,0,0,0,0,0,0,0,
0,0,0,0,0,0,0,0,0,0,0,0,0,0,0,
0,0,0,0,0,0,0,0,0,0,0,0,21839,21840,0,
0,0,0,0,0,0,0,0,0,0,0,0,21847,21848,0,
0,0,0,0,0,0,0,0,0,0,0,0,21855,21856,0,
24251,0,0,0,0,22183,22184,0,0,0,0,0,0,0,0,
0,0,0,0,0,0,0,0,0,0,24873,24874,24875,0,0,
0,0,0,0,0,0,0,0,0,0,24881,24882,24883,0,0,
0,0,0,0,0,0,0,0,0,0,0,0,0,0,0,
0,0,0,0,0,0,0,0,0,0,25294,25295,25296,0,0,
0,0,0,0,0,0,0,24251,0,25591,25302,25303,25304,0,24251
</data>
 </layer>
 <layer id="5" name="Calque de Tuiles 4" width="15" height="15">
  <data encoding="csv">
0,0,0,0,0,0,0,0,0,0,0,0,0,0,0,
0,0,0,0,24092,24093,0,0,0,0,0,0,0,0,0,
0,0,0,0,0,0,0,0,0,0,0,0,0,0,0,
0,0,0,0,0,0,0,0,0,0,0,0,0,0,0,
0,24310,24311,24312,0,0,0,0,24924,0,24924,0,0,0,0,
24927,24318,24319,24320,0,0,0,0,25009,25010,25011,0,0,0,0,
0,24926,24926,24925,0,0,0,24924,25017,25018,25019,24924,0,0,0,
0,0,0,0,0,0,0,24924,25025,25026,25027,0,0,0,0,
0,0,0,0,0,0,0,0,0,24924,24924,0,0,0,0,
0,0,0,0,0,0,0,0,0,0,0,0,0,0,0,
0,0,0,0,0,0,0,0,0,0,0,0,0,0,0,
0,0,0,0,0,0,0,0,0,0,0,0,0,0,0,
0,0,0,0,0,0,0,0,0,0,0,0,0,0,0,
0,0,0,0,0,0,0,0,0,0,0,0,0,0,0,
0,0,0,0,0,0,0,0,0,0,0,0,0,0,0
</data>
 </layer>
 <layer id="6" name="Calque de Tuiles 5" width="15" height="15">
  <data encoding="csv">
0,0,0,0,0,0,0,0,0,0,0,0,0,0,0,
0,0,0,0,0,0,0,0,0,0,0,0,0,0,0,
0,0,0,0,0,0,0,0,0,0,0,0,0,0,0,
0,0,0,0,0,0,0,0,0,0,0,0,0,0,0,
0,0,0,0,0,0,0,0,0,0,0,0,0,0,0,
0,0,0,0,0,0,0,0,0,0,0,0,0,0,0,
0,0,0,0,0,0,0,0,0,0,0,0,0,0,0,
0,0,0,0,0,0,0,0,0,0,0,0,0,0,0,
0,0,0,0,0,0,0,0,0,0,0,0,0,0,0,
0,0,0,0,0,0,0,0,0,0,0,0,0,0,0,
0,0,0,0,0,0,0,0,0,0,0,0,0,0,0,
0,0,0,0,0,0,0,0,0,0,0,0,0,0,0,
0,0,0,0,0,0,0,0,0,0,0,0,0,0,0,
0,0,0,0,0,0,0,0,0,0,0,0,0,0,0,
0,0,0,0,0,0,0,0,0,0,0,0,0,0,0
</data>
 </layer>
 <layer id="7" name="Calque de Tuiles 6" width="15" height="15">
  <data encoding="csv">
0,0,0,0,0,0,0,0,0,0,0,0,0,0,0,
0,0,0,0,0,0,0,0,0,0,0,0,0,0,0,
0,0,0,0,0,0,0,0,0,0,0,0,0,0,0,
0,0,0,0,0,0,0,0,0,0,0,0,0,0,0,
0,0,0,0,0,0,0,0,0,0,0,0,0,0,0,
0,0,0,0,0,0,0,0,0,0,0,0,0,0,0,
0,0,0,0,0,0,0,0,0,0,0,0,0,0,0,
0,0,0,0,0,0,0,0,0,0,0,0,0,0,0,
0,0,0,0,0,0,0,0,0,0,0,0,0,0,0,
0,0,0,0,0,0,0,0,0,0,0,0,0,0,0,
0,0,0,0,0,0,0,0,0,0,0,0,0,0,0,
0,0,0,0,0,0,0,0,0,0,0,0,0,0,0,
0,0,0,0,0,0,0,0,0,0,0,0,0,0,0,
0,0,0,0,0,0,0,0,0,0,0,0,0,0,0,
0,0,0,0,0,0,0,0,0,0,0,0,0,0,0
</data>
 </layer>
 <layer id="8" name="Calque de Tuiles 7" width="15" height="15">
  <data encoding="csv">
0,0,0,0,0,0,0,0,0,0,0,0,0,0,0,
0,0,0,0,0,0,0,0,0,0,0,0,0,0,0,
0,0,0,0,0,0,0,0,0,0,0,0,0,0,0,
0,0,0,0,0,0,0,0,0,0,0,0,0,0,0,
0,0,0,0,0,0,0,0,0,0,0,0,0,0,0,
0,0,0,0,0,0,0,0,0,0,0,0,0,0,0,
0,0,0,0,0,0,0,0,0,0,0,0,21839,21840,0,
0,0,0,0,0,0,0,0,0,0,0,0,0,0,0,
24243,0,0,0,0,0,0,0,0,0,0,0,0,0,0,
0,0,0,0,0,0,0,0,0,0,0,0,0,0,0,
0,0,0,0,0,0,0,0,0,0,0,0,0,0,0,
0,0,0,0,0,0,0,0,0,0,0,0,0,0,0,
0,0,0,0,0,0,0,0,0,0,0,0,0,0,0,
0,0,0,0,0,0,0,24243,0,0,0,0,0,0,24243,
0,0,0,0,0,0,0,0,0,0,0,0,0,0,0
</data>
 </layer>
</map>
