<?xml version="1.0" encoding="UTF-8"?>
<map version="1.10" tiledversion="1.11.2" orientation="orthogonal" renderorder="right-down" width="25" height="20" tilewidth="16" tileheight="16" infinite="0" nextlayerid="12" nextobjectid="30">
 <tileset firstgid="1" source="interieur-complet-3f444f4.tsx"/>
 <tileset firstgid="4625" source="tileset_pokemon_sdk.tsx"/>
 <tileset firstgid="8881" source="indoor.tsx"/>
 <tileset firstgid="13673" name="pokeballs_3" tilewidth="16" tileheight="16" tilecount="9" columns="3">
  <image source="../images/starter/pokeballs_3.png" width="48" height="48"/>
 </tileset>
 <tileset firstgid="13682" source="pokeballs_3.tsx"/>
 <layer id="1" name="sol" width="25" height="20">
  <data encoding="csv">
4269,4269,4269,4269,4269,4269,4269,4269,4269,4269,4269,4269,4269,4269,4269,4269,4269,4269,4269,4269,4269,4269,4269,4269,4269,
4269,4269,4269,4269,4269,4269,4269,4269,4269,4269,4269,4269,4269,4269,4269,4269,4269,4269,4269,4269,4269,4269,4269,4269,4269,
4269,4269,4269,4269,4269,4269,4269,4269,4269,4269,4269,4269,4269,4269,4269,4269,4269,4269,4269,4269,4269,4269,4269,4269,4269,
4269,4269,4269,4269,4269,4269,4269,4269,4269,4269,4269,4269,4269,4269,4269,4269,4269,4269,4269,4269,4269,4269,4269,4269,4269,
4269,4269,4269,4269,4269,4269,4269,4269,4269,4269,4269,4269,4269,4269,4269,4269,4269,4269,4269,4269,4269,4269,4269,4269,4269,
4269,4269,4269,4269,4269,4269,4269,4269,4269,4269,4269,4269,4269,4269,4269,4269,4269,4269,4269,4269,4269,4269,4269,4269,4269,
4269,4269,4269,4269,4269,4269,4269,4269,4269,4269,4269,4269,4269,4269,4269,4269,4269,4269,4269,4269,4269,4269,4269,4269,4269,
4269,4269,4269,4269,4269,4269,4269,4269,4269,4269,4269,4269,4269,4269,4269,4269,4269,4269,4269,4269,4269,4269,4269,4269,4269,
4269,4269,4269,4269,4269,4269,4269,4269,4269,4269,4269,4269,4269,4269,4269,4269,4269,4269,4269,4269,4269,4269,4269,4269,4269,
4269,4269,4269,4269,4269,4269,4269,4269,4269,4269,4269,4269,4269,4269,4269,4269,4269,4269,4269,4269,4269,4269,4269,4269,4269,
4269,4269,4269,4269,4269,4269,4269,4269,4269,4269,4269,4269,4269,4269,4269,4269,4269,4269,4269,4269,4269,4269,4269,4269,4269,
4269,4269,4269,4269,4269,4269,4269,4269,4269,4269,4269,4269,4269,4269,4269,4269,4269,4269,4269,4269,4269,4269,4269,4269,4269,
4269,4269,4269,4269,4269,4269,4269,4269,4269,4269,4269,4269,4269,4269,4269,4269,4269,4269,4269,4269,4269,4269,4269,4269,4269,
4269,4269,4269,4269,4269,4269,4269,4269,4269,4269,4269,4269,4269,4269,4269,4269,4269,4269,4269,4269,4269,4269,4269,4269,4269,
4269,4269,4269,4269,4269,4269,4269,4269,4269,4269,4269,4269,4269,4269,4269,4269,4269,4269,4269,4269,4269,4269,4269,4269,4269,
4269,4269,4269,4269,4269,4269,4269,4269,4269,4269,4269,4269,4269,4269,4269,4269,4269,4269,4269,4269,4269,4269,4269,4269,4269,
4269,4269,4269,4269,4269,4269,4269,4269,4269,4269,4269,4269,4269,4269,4269,4269,4269,4269,4269,4269,4269,4269,4269,4269,4269,
4269,4269,4269,4269,4269,4269,4269,4269,4269,4269,4269,4269,4269,4269,4269,4269,4269,4269,4269,4269,4269,4269,4269,4269,4269,
4269,4269,4269,4269,4269,4269,4269,4269,4269,4269,4269,4269,4269,4269,4269,4269,4269,4269,4269,4269,4269,4269,4269,4269,4269,
4269,4269,4269,4269,4269,4269,4269,4269,4269,4269,4269,4269,4269,4269,4269,4269,4269,4269,4269,4269,4269,4269,4269,4269,4269
</data>
 </layer>
 <layer id="7" name="tapis" width="25" height="20">
  <data encoding="csv">
0,0,0,0,0,0,0,0,0,0,0,0,0,0,0,0,0,0,0,0,0,0,0,0,0,
0,0,0,0,0,0,0,0,0,0,0,0,0,0,0,0,0,0,0,0,0,0,0,0,0,
0,0,0,0,0,0,0,0,0,0,0,0,0,0,0,0,0,0,0,0,0,0,0,0,0,
0,0,0,0,0,0,0,0,0,0,0,0,0,0,0,0,0,0,0,0,0,0,0,0,0,
0,0,0,0,0,0,0,0,0,0,0,0,0,0,0,0,0,0,0,0,0,0,0,0,0,
0,0,0,0,0,0,0,0,0,0,0,0,0,0,0,0,0,0,0,0,0,0,0,0,0,
0,0,0,0,0,0,0,0,0,0,0,0,0,0,0,0,0,0,0,0,0,0,0,0,0,
0,0,0,0,0,0,0,0,0,0,0,0,0,0,0,0,0,0,0,0,0,0,0,0,0,
0,0,0,0,0,0,0,0,0,0,0,0,0,0,0,0,0,0,0,0,0,0,0,0,0,
0,0,0,0,0,0,0,0,0,0,0,0,0,0,0,0,0,0,0,0,0,0,0,0,0,
0,0,0,0,0,0,0,0,0,0,0,0,0,0,0,0,0,0,0,0,0,0,0,0,0,
0,0,0,0,0,0,0,0,0,0,0,0,0,0,0,0,0,0,0,0,0,0,0,0,0,
0,0,0,0,0,0,0,0,0,0,0,0,0,0,0,0,0,0,0,0,0,0,0,0,0,
0,0,0,0,0,0,0,0,0,0,0,0,0,0,0,0,0,0,0,0,0,0,0,0,0,
0,0,0,0,0,0,0,0,0,0,0,0,0,0,0,0,0,0,0,0,0,0,0,0,0,
0,0,0,0,0,0,0,0,0,0,0,0,0,0,0,0,0,0,0,0,0,0,0,0,0,
0,0,0,0,0,0,0,0,0,0,0,0,0,0,0,0,0,0,0,0,0,0,0,0,0,
0,0,0,0,0,0,0,0,0,0,0,0,0,0,0,0,0,0,0,0,0,0,0,0,0,
0,0,0,0,0,0,0,0,0,0,0,0,0,0,0,0,0,0,0,0,0,0,0,0,0,
0,0,0,0,0,0,0,0,0,0,0,0,0,0,0,0,0,0,0,0,0,0,0,0,0
</data>
 </layer>
 <layer id="2" name="decorations bas" width="25" height="20">
  <data encoding="csv">
0,0,0,0,0,0,0,0,0,0,0,0,0,0,0,0,0,0,0,0,0,0,0,0,0,
0,0,0,0,0,0,0,0,0,0,0,0,0,0,0,0,0,0,0,0,0,0,0,0,0,
0,0,0,0,0,0,0,0,0,0,0,0,0,0,0,0,0,0,0,0,0,0,0,0,0,
0,0,0,0,0,0,0,0,0,0,0,0,0,0,0,0,0,0,3217,0,3218,0,0,0,0,
0,0,0,0,0,0,0,0,0,0,0,12521,12522,12523,0,0,0,0,0,0,0,0,0,0,0,
0,0,0,0,0,0,0,0,0,0,0,12529,12530,12531,0,0,0,0,0,0,0,3180,3181,0,0,
0,0,0,0,0,0,0,0,0,0,0,12537,12538,12539,0,0,0,0,0,0,0,0,0,0,0,
3086,3087,3088,0,0,0,0,0,0,0,0,0,0,0,0,0,0,0,0,0,0,0,0,0,0,
0,0,0,0,0,0,0,0,0,0,0,0,0,0,0,0,0,0,0,0,0,0,0,0,0,
0,0,0,0,0,0,0,0,0,0,0,7038,7039,7040,0,0,0,0,0,0,0,0,0,0,0,
0,0,0,0,0,0,0,0,0,0,0,7046,7047,7048,0,0,0,0,0,0,0,0,0,0,0,
0,0,0,0,0,0,0,0,0,0,0,7054,7055,7056,0,0,0,0,0,0,0,0,0,0,0,
0,0,0,0,0,0,0,0,0,0,0,0,0,0,0,0,0,0,0,0,0,0,12444,12445,12446,
0,0,0,0,0,0,0,0,0,0,0,0,0,0,0,0,0,0,0,0,0,0,0,0,0,
2673,2674,2675,2676,2677,2678,2679,2680,0,0,0,0,0,0,0,0,0,0,0,0,0,0,0,0,0,
0,0,0,0,0,0,0,0,0,0,0,0,0,0,0,0,0,0,0,0,0,0,12814,12815,12816,
0,0,0,0,0,0,0,0,0,0,0,0,0,0,0,0,0,0,0,0,0,0,0,0,0,
0,0,0,0,0,0,0,0,3237,3238,0,0,0,0,3237,3238,0,0,12294,12295,12296,0,0,0,0,
3187,0,0,0,0,0,0,0,0,0,0,0,0,0,0,0,0,0,12302,12303,12304,0,0,0,0,
3195,0,0,0,0,0,0,0,0,0,0,2860,2861,0,0,0,0,0,12310,12311,12312,0,0,2567,2568
</data>
 </layer>
 <layer id="3" name="decorations haut" width="25" height="20">
  <data encoding="csv">
0,0,0,0,0,0,0,0,0,0,0,0,0,0,0,0,0,0,0,0,0,0,0,0,0,
0,0,0,0,0,0,0,0,0,0,0,0,0,0,0,0,0,0,0,0,0,0,0,0,0,
3234,0,0,0,0,0,0,0,0,0,0,0,0,0,0,0,0,0,0,0,0,0,3162,0,0,
0,0,0,0,0,0,0,0,0,0,0,0,0,0,0,0,0,0,0,0,0,0,0,3244,0,
0,0,0,0,0,0,0,0,0,0,0,0,0,0,0,0,0,0,0,0,0,3172,3173,3252,0,
3070,3071,3072,0,0,0,0,0,0,0,0,0,0,0,0,0,0,0,0,0,0,0,0,0,0,
3078,3079,3080,0,0,0,0,0,0,0,0,0,0,0,0,0,0,0,0,0,0,0,13145,13146,13147,
0,0,0,0,0,0,0,0,0,0,0,0,0,0,0,0,0,0,0,0,0,0,13153,13154,13155,
0,0,0,0,0,0,0,0,0,0,0,0,0,0,0,0,0,0,0,0,0,0,13161,13162,13163,
0,0,0,0,0,0,0,0,0,0,0,0,0,0,0,0,0,0,0,0,0,0,0,0,0,
0,0,0,0,0,0,0,0,0,0,0,0,0,0,0,0,0,0,0,0,0,0,0,0,0,
0,0,0,0,0,0,0,0,0,0,0,0,0,0,0,0,0,0,0,0,0,0,12436,12437,12438,
2657,2658,2659,12372,12373,2662,2663,2664,0,0,0,0,0,0,0,0,0,0,0,0,0,0,0,0,0,
2665,2666,2667,12380,12381,2670,2671,2672,0,0,0,0,0,0,0,0,0,0,0,0,0,0,0,0,0,
0,0,0,0,0,0,0,0,0,0,0,0,0,0,0,0,0,0,0,0,0,0,12806,12807,12808,
0,0,0,0,0,0,0,0,0,0,0,0,0,0,0,0,0,0,0,0,0,0,0,0,0,
0,0,0,0,0,0,0,0,3229,3230,0,0,0,0,3229,3230,0,0,0,0,0,0,0,2543,2544,
0,0,0,0,0,0,0,0,0,0,0,0,0,0,0,0,0,0,0,0,0,0,0,2551,2552,
0,0,0,0,0,0,0,0,0,0,0,0,0,0,0,0,0,0,0,0,0,0,0,2559,2560,
0,0,0,0,0,0,0,0,0,0,0,0,0,0,0,0,0,0,0,0,0,0,0,0,0
</data>
 </layer>
 <layer id="11" name="Calque de Tuiles 7" width="25" height="20">
  <data encoding="csv">
0,0,0,0,0,0,0,0,0,0,0,0,0,0,0,0,0,0,0,0,0,0,0,0,0,
0,0,0,0,0,0,0,0,0,0,0,0,0,0,0,0,0,0,0,0,0,0,0,0,0,
0,0,0,0,0,0,0,0,0,0,0,0,0,0,0,0,0,0,0,0,0,0,0,0,0,
0,0,0,0,0,0,0,0,0,0,0,0,0,0,0,0,0,0,0,0,0,0,0,0,0,
0,0,0,0,0,0,0,0,0,0,0,0,0,0,0,0,0,0,0,0,0,0,0,0,0,
0,0,0,0,0,0,0,0,0,0,0,0,0,0,0,0,0,0,0,0,0,0,0,0,0,
0,0,0,0,0,0,0,0,0,0,0,0,0,0,0,0,0,0,0,0,0,0,0,0,0,
0,0,0,0,0,0,0,0,0,0,0,0,0,0,0,0,0,0,0,0,0,0,0,0,0,
0,0,0,0,0,0,0,0,0,0,0,0,0,0,0,0,0,0,0,0,0,0,0,0,0,
0,0,0,0,0,0,0,0,0,0,0,0,0,0,0,0,0,0,0,0,0,0,0,0,0,
0,0,0,0,0,0,0,0,0,0,0,0,0,0,0,0,0,0,0,0,0,0,0,0,0,
0,0,0,0,0,0,0,0,0,0,0,0,0,0,0,0,0,0,0,0,0,0,0,0,0,
0,0,0,0,0,0,0,0,0,0,0,0,0,0,0,0,0,0,0,0,0,0,0,0,0,
0,0,0,0,0,0,0,0,0,0,0,0,0,0,0,0,0,0,0,0,0,0,0,0,0,
0,0,0,0,0,0,0,0,0,0,0,0,0,0,0,0,0,0,0,0,0,0,0,0,0,
0,0,0,0,0,0,0,0,0,0,0,0,0,0,0,0,0,0,0,0,0,0,0,0,0,
0,0,0,0,0,0,0,0,0,0,0,0,0,0,0,0,0,0,0,0,0,0,0,0,0,
0,0,0,0,0,0,0,0,0,0,0,0,0,0,0,0,0,0,0,0,0,0,0,0,0,
0,0,0,0,0,0,0,0,0,0,0,0,0,0,0,0,0,0,0,0,0,0,0,0,0,
0,0,0,0,0,0,0,0,0,0,0,0,0,0,0,0,0,0,0,0,0,0,0,0,0
</data>
 </layer>
 <layer id="4" name="mur" width="25" height="20">
  <data encoding="csv">
2225,2226,2226,2226,2226,2226,2226,2226,2226,2226,2226,2226,2226,2226,2226,2226,2226,2226,2226,2226,2226,2227,2226,2226,2229,
2233,2234,2234,2234,2234,2234,2234,2234,2234,2234,2234,2234,2234,2234,2234,2234,2234,2234,2234,2234,2234,2227,2234,2234,2237,
0,0,0,0,0,0,0,0,0,0,0,0,0,0,0,0,0,0,0,0,0,2227,0,0,0,
0,0,0,0,0,0,0,0,0,0,0,0,0,0,0,0,0,0,0,0,0,2235,2228,2229,0,
0,0,0,0,0,0,0,0,0,0,0,0,0,0,0,0,0,0,0,0,0,2243,2236,2237,0,
0,0,0,0,0,0,0,0,0,0,0,0,0,0,0,0,0,0,0,0,0,0,0,0,0,
0,0,0,0,0,0,0,0,0,0,0,0,0,0,0,0,0,0,0,0,0,0,0,0,0,
0,0,0,0,0,0,0,0,0,0,0,0,0,0,0,0,0,0,0,0,0,0,0,0,0,
0,0,0,0,0,0,0,0,0,0,0,0,0,0,0,0,0,0,0,0,0,0,0,0,0,
0,0,0,0,0,0,0,0,0,0,0,0,0,0,0,0,0,0,0,0,0,0,0,0,0,
0,0,0,0,0,0,0,0,0,0,0,0,0,0,0,0,0,0,0,0,0,0,0,0,0,
0,0,0,0,0,0,0,0,0,0,0,0,0,0,0,0,0,0,0,0,0,0,0,0,0,
0,0,0,0,0,0,0,0,0,0,0,0,0,0,0,0,0,0,0,0,0,0,0,0,0,
0,0,0,0,0,0,0,0,0,0,0,0,0,0,0,0,0,0,0,0,0,0,0,0,0,
0,0,0,0,0,0,0,0,0,0,0,0,0,0,0,0,0,0,0,0,0,0,0,0,0,
0,0,0,0,0,0,0,0,0,0,0,0,0,0,0,0,0,0,0,0,0,0,0,0,0,
0,0,0,0,0,0,0,0,0,0,0,0,0,0,0,0,0,0,0,0,0,0,0,0,0,
0,0,0,0,0,0,0,0,0,0,0,0,0,0,0,0,0,0,0,0,0,0,0,0,0,
0,0,0,0,0,0,0,0,0,0,0,0,0,0,0,0,0,0,0,0,0,0,0,0,0,
0,0,0,0,0,0,0,0,0,0,0,0,0,0,0,0,0,0,0,0,0,0,0,0,0
</data>
 </layer>
 <layer id="5" name="decorations mural" width="25" height="20">
  <data encoding="csv">
0,3057,3058,3059,0,0,3084,3085,3084,3085,0,3248,0,3073,3074,3075,0,0,0,0,0,0,0,0,0,
0,3065,3066,3067,0,0,3092,3093,3092,3093,0,3256,0,3081,3082,3083,0,0,3201,0,3202,0,0,0,0,
0,0,0,0,0,0,0,0,0,0,0,0,0,0,0,0,0,0,3209,0,3210,0,0,0,0,
0,0,0,0,0,0,0,0,0,0,0,0,0,0,0,0,0,0,0,0,0,0,0,3244,0,
0,0,0,0,0,0,0,0,0,0,0,0,0,0,0,0,0,0,0,0,0,3172,3173,3252,0,
0,0,0,0,0,0,0,0,0,0,0,0,0,0,0,0,0,0,0,0,0,0,0,0,0,
0,0,0,0,0,0,0,0,0,0,0,0,0,0,0,0,0,0,0,0,0,0,0,0,0,
0,0,0,0,0,0,0,0,0,0,0,0,0,0,0,0,0,0,0,0,0,0,0,0,0,
0,0,0,0,0,0,0,0,0,0,0,0,0,0,0,0,0,0,0,0,0,0,0,0,0,
0,0,0,0,0,0,0,0,0,0,0,0,0,0,0,0,0,0,0,0,0,0,0,0,0,
0,0,0,0,0,0,0,0,0,0,0,0,0,0,0,0,0,0,0,0,0,0,0,0,0,
0,0,0,0,0,0,0,0,0,0,0,0,0,0,0,0,0,0,0,0,0,0,0,0,0,
0,0,0,0,0,0,0,0,0,0,0,0,0,0,0,0,0,0,0,0,0,0,0,0,0,
0,0,0,0,0,0,0,0,0,0,0,0,0,0,0,0,0,0,0,0,0,0,0,0,0,
0,0,0,0,0,0,0,0,0,0,0,0,0,0,0,0,0,0,0,0,0,0,0,0,0,
0,0,0,0,0,0,0,0,0,0,0,0,0,0,0,0,0,0,0,0,0,0,0,0,0,
0,0,0,0,0,0,0,0,0,0,0,0,0,0,0,0,0,0,0,0,0,0,0,0,0,
0,0,0,0,0,0,0,0,0,0,0,0,0,0,0,0,0,0,0,0,0,0,0,0,0,
0,0,0,0,0,0,0,0,0,0,0,0,0,0,0,0,0,0,0,0,0,0,0,0,0,
0,0,0,0,0,0,0,0,0,0,0,0,0,0,0,0,0,0,0,0,0,0,0,0,0
</data>
 </layer>
 <objectgroup id="6" name="switch" offsetx="1" offsety="0">
  <object id="1" name="switch Bourrely" x="176" y="304" width="32" height="16">
   <properties>
    <property name="target_map" value="Bourrely"/>
    <property name="target_spawn" value="sortie laboratoire_otomaï"/>
   </properties>
  </object>
 </objectgroup>
 <objectgroup id="8" name="object_layer" offsetx="0" offsety="-16">
  <object id="28" name="entrée_laboratoire_otomaï" x="192" y="304">
   <point/>
  </object>
  <object id="29" name="starter_table" x="176" y="112" width="55" height="25.625">
   <properties>
    <property name="event" value="starter_choice"/>
    <property name="starter_table" value="starter_select"/>
    <property name="string" value="starter"/>
   </properties>
  </object>
 </objectgroup>
 <objectgroup id="9" name="interface">
  <object id="3" name="collision" x="-2" y="315.5" width="405.5" height="7.5"/>
  <object id="4" name="collision" x="395" y="0.5" width="13.5" height="324.5"/>
  <object id="5" name="collision" x="0.5" y="4.5" width="336" height="17.5"/>
  <object id="6" name="collision" x="337.5" y="74" width="29" height="9"/>
  <object id="7" name="collision" x="356" y="81.5" width="8.5" height="12.5"/>
  <object id="8" name="collision" x="352.5" y="54" width="27.5" height="22.5"/>
  <object id="9" name="collision" x="322" y="26" width="15.5" height="35"/>
  <object id="10" name="collision" x="290" y="29.5" width="10" height="31.5"/>
  <object id="11" name="collision" x="1.5" y="32" width="14" height="13"/>
  <object id="13" name="collision" x="0" y="101" width="41" height="27"/>
  <object id="14" name="collision" x="0" y="204.5" width="37" height="35.5"/>
  <object id="16" name="collision" x="80" y="207.5" width="39" height="32.5"/>
  <object id="17" name="collision" x="0" y="5.5" width="3.5" height="314.5"/>
  <object id="18" name="collision" x="137" y="276" width="13.25" height="9.75"/>
  <object id="19" name="collision" x="234.5" y="275.5" width="12.25" height="9.5"/>
  <object id="20" name="collision" x="353.25" y="241" width="43" height="13"/>
  <object id="21" name="collision" x="353" y="193.25" width="45.5" height="13.75"/>
  <object id="22" name="collision" x="352.75" y="122.75" width="45.75" height="11.75"/>
  <object id="23" name="collision" x="368.75" y="294.75" width="30.25" height="23"/>
  <object id="24" name="collision" x="292.5" y="305.5" width="36.5" height="12"/>
  <object id="25" name="collision" x="178.5" y="67.25" width="43" height="32.5"/>
  <object id="27" name="collision" x="175" y="102" width="50" height="11"/>
 </objectgroup>
 <objectgroup id="10" name="zones_event"/>
</map>
