<?xml version="1.0" encoding="UTF-8"?>
<map version="1.10" tiledversion="1.11.2" orientation="orthogonal" renderorder="right-down" width="60" height="49" tilewidth="32" tileheight="32" infinite="0" nextlayerid="5" nextobjectid="1">
 <tileset firstgid="1" name="Pro all tiles" tilewidth="32" tileheight="32" tilecount="1024" columns="32">
  <image source="Tiles/Pro all tiles.png" width="1024" height="1024"/>
 </tileset>
 <tileset firstgid="1025" name="tile group" tilewidth="32" tileheight="32" tilecount="21000" columns="140">
  <image source="Tiles/tile group.png" width="4480" height="4800"/>
 </tileset>
 <tileset firstgid="22025" name="hgss2" tilewidth="32" tileheight="32" tilecount="0" columns="15">
  <image source="Tiles/hgss2.png" width="480" height="448"/>
 </tileset>
 <tileset firstgid="22025" name="Trainer overworld sprite" tilewidth="32" tileheight="32" tilecount="3840" columns="60">
  <image source="Tiles/Trainer overworld sprite.png" width="1920" height="2048"/>
 </tileset>
 <tileset firstgid="25865" name="6931" tilewidth="32" tileheight="32" tilecount="0" columns="65">
  <image source="Tiles/6931.png" width="2108" height="2304"/>
 </tileset>
 <tileset firstgid="26772" name="DS - Pokemon Diamond Pearl - Dawn" tilewidth="32" tileheight="32" tilecount="0" columns="46">
  <image source="Tiles/DS - Pokemon Diamond Pearl - Dawn.png" width="1472" height="1060"/>
 </tileset>
 <layer id="1" name="layer 1" width="60" height="49">
  <data encoding="csv">
552,552,552,552,552,552,552,552,552,552,552,552,552,80,552,552,552,552,80,552,552,552,552,552,552,552,552,552,552,552,552,552,552,552,552,552,552,552,552,552,552,552,552,80,552,552,552,552,552,552,552,552,552,552,80,552,552,552,80,552,
552,552,552,552,552,552,552,552,552,552,552,552,552,552,80,552,552,552,80,80,552,552,552,552,552,552,552,80,552,552,552,552,552,80,80,552,552,552,552,552,552,552,552,552,552,552,552,552,552,552,552,552,552,552,552,552,552,552,80,552,
552,552,552,552,552,552,552,552,552,552,552,552,552,552,80,80,552,552,552,80,552,552,552,552,552,552,552,80,552,552,552,552,552,552,80,552,552,552,552,552,552,552,552,80,552,552,552,552,552,552,552,552,552,552,552,80,552,552,552,552,
552,552,552,552,552,552,552,552,552,552,552,552,552,552,552,552,552,552,552,552,552,552,552,552,552,552,552,80,552,552,552,552,552,552,552,552,552,552,552,552,80,552,552,552,552,552,552,552,552,552,552,552,552,552,552,552,552,80,552,552,
552,552,552,552,552,552,552,552,552,552,552,552,552,552,552,552,552,552,552,552,552,552,552,552,80,552,552,552,552,552,552,552,552,552,552,552,552,552,552,552,552,552,552,552,552,552,552,552,552,552,552,552,552,552,80,552,552,552,552,552,
552,552,552,552,552,552,552,552,552,552,552,552,552,552,552,552,552,552,552,552,552,552,552,552,552,552,552,552,552,552,552,552,552,80,552,552,552,552,552,552,552,552,552,552,552,552,80,80,552,552,552,552,552,552,552,552,552,552,552,552,
552,552,552,552,552,552,552,552,552,552,552,552,552,552,552,552,552,552,552,552,552,552,552,80,552,552,80,80,552,552,552,552,552,552,552,80,80,552,552,552,552,552,552,552,552,80,80,552,552,552,80,80,552,552,552,552,552,552,552,552,
552,552,552,552,552,552,552,552,552,552,552,552,552,552,552,552,552,552,552,552,50,50,50,50,552,552,80,552,552,552,552,50,50,50,50,552,552,552,552,552,552,552,552,552,80,80,552,552,552,552,552,552,552,552,552,552,552,552,552,552,
552,552,552,552,552,552,552,552,552,552,552,552,552,552,552,552,552,552,552,50,50,50,50,50,50,50,50,552,552,552,50,50,50,50,50,50,50,552,552,552,552,552,552,552,552,552,552,552,552,552,552,552,552,552,552,552,552,552,552,552,
552,552,552,552,552,552,552,552,552,552,552,552,552,552,552,552,552,552,50,50,50,50,50,50,50,50,50,50,50,50,50,50,50,50,50,50,50,50,552,552,552,552,552,552,552,552,552,552,552,552,552,552,552,552,552,552,552,552,552,552,
552,552,552,552,552,552,552,552,552,552,552,552,552,552,552,50,50,50,50,50,50,50,50,50,50,50,50,50,50,50,50,50,50,50,50,50,50,50,50,552,552,552,552,552,552,552,552,552,552,552,552,552,552,552,552,552,552,552,552,552,
552,552,552,552,552,552,552,552,552,552,552,552,552,552,50,50,50,50,50,50,50,50,50,50,50,50,50,50,50,50,50,50,50,50,50,50,50,50,50,50,552,552,552,552,552,552,552,552,552,552,552,552,552,552,552,552,552,80,552,552,
552,552,552,552,552,552,552,552,552,552,552,552,552,552,50,50,50,50,50,50,50,50,50,50,250,250,250,250,50,50,50,50,50,50,50,50,50,50,50,50,50,552,80,80,552,552,552,552,552,552,552,552,80,552,552,552,552,80,552,552,
552,552,552,552,552,552,552,552,552,552,552,552,552,552,50,50,50,50,50,50,50,250,250,250,250,250,250,250,250,250,250,250,250,250,250,50,50,50,50,50,50,50,50,50,552,552,552,552,552,552,552,552,552,552,552,552,552,552,552,552,
552,552,552,552,552,552,552,552,552,552,552,552,552,552,50,50,50,50,50,50,250,250,250,250,250,250,250,250,250,250,250,250,250,250,250,250,50,50,50,50,50,50,50,50,80,552,552,552,552,552,552,552,552,552,552,552,552,552,552,552,
552,552,552,552,552,552,552,552,552,552,552,552,552,50,50,50,50,50,50,250,250,250,250,250,250,250,250,250,250,250,250,250,250,250,250,250,250,250,250,250,50,50,50,50,50,80,552,552,552,552,552,552,552,552,552,552,552,552,552,552,
552,552,552,552,552,552,552,552,552,552,552,552,50,50,50,50,50,50,250,250,250,250,250,250,250,250,250,250,250,250,250,250,250,250,250,250,250,250,250,250,50,50,50,50,50,552,552,552,552,552,552,552,552,552,552,552,552,552,552,552,
552,552,552,552,552,552,552,552,552,552,50,50,50,50,50,50,50,250,250,250,250,250,250,250,250,250,250,250,250,250,250,250,250,250,250,250,250,250,250,250,250,50,50,50,50,552,552,552,552,552,552,552,552,552,552,552,552,552,552,552,
552,552,552,552,552,552,552,552,552,552,50,50,50,50,50,250,250,250,250,250,250,250,250,50,50,50,50,50,50,50,50,50,50,250,250,250,250,250,250,250,250,50,50,50,50,552,552,552,552,552,552,552,552,552,552,552,552,552,552,552,
552,552,552,552,552,552,552,552,552,50,50,50,50,50,250,250,250,250,250,250,250,50,50,50,50,50,50,50,50,50,50,50,50,250,250,250,250,250,250,250,50,50,50,50,50,552,552,552,552,552,552,552,552,552,552,552,552,552,552,552,
552,552,552,552,552,552,552,552,552,50,50,50,50,250,250,250,250,250,250,250,50,50,50,50,5653,5653,5653,5653,5653,5653,5653,50,50,250,250,250,250,250,250,250,50,50,50,50,80,552,80,552,552,552,552,552,552,80,552,552,552,552,552,552,
552,552,552,552,552,552,552,552,50,50,50,50,50,250,250,250,250,250,250,250,50,50,50,50,5653,5653,5653,5653,5653,5653,50,50,50,250,250,250,250,250,250,50,50,50,50,552,80,552,552,552,552,552,552,552,552,80,552,552,552,552,552,552,
552,552,552,552,552,552,552,552,50,50,50,50,50,250,250,250,250,250,250,250,250,50,50,50,5653,5653,5653,5653,5653,5653,50,50,50,250,250,250,250,250,250,50,50,50,50,552,80,552,552,552,552,552,552,80,552,552,552,552,552,552,552,552,
552,552,552,552,552,552,552,552,50,50,50,50,50,250,250,250,250,250,250,250,250,50,50,50,5653,50,50,50,5653,5653,50,50,50,250,250,250,250,250,250,50,50,50,50,50,552,80,552,552,552,552,552,80,552,552,80,552,552,552,552,552,
552,552,552,552,552,552,552,552,50,50,50,50,50,50,250,250,250,250,250,250,250,50,50,50,5653,50,50,50,5653,5653,5653,50,50,250,250,250,250,250,250,50,50,50,50,50,50,50,552,552,552,552,552,552,552,552,80,552,552,552,552,552,
552,552,552,552,552,552,552,552,552,50,50,50,50,50,250,250,250,250,250,250,250,50,50,50,50,0,0,50,0,0,0,50,50,50,250,250,250,250,250,250,50,50,50,50,50,50,50,552,552,552,552,552,552,552,552,552,552,552,552,552,
552,552,552,552,552,552,552,552,552,552,552,552,50,50,50,250,250,250,250,250,250,50,50,50,50,50,0,0,0,50,50,50,50,50,250,250,250,250,250,250,250,250,50,50,50,50,50,552,552,552,552,552,552,552,552,552,552,552,552,552,
552,552,552,552,552,552,552,552,552,552,552,552,50,50,50,50,250,250,250,250,250,50,50,50,50,50,50,0,0,50,50,50,50,50,250,250,250,250,250,250,250,250,250,50,50,50,50,552,552,552,552,552,552,552,552,552,552,552,552,552,
552,552,552,552,552,552,552,552,552,552,552,552,50,50,50,50,250,250,250,250,250,250,50,50,50,50,50,50,50,50,50,50,50,250,250,250,250,250,250,250,250,250,250,250,50,50,50,552,552,552,552,552,552,552,552,552,552,552,552,552,
552,552,552,552,552,552,552,552,552,552,552,552,50,50,50,50,50,250,250,250,250,250,250,250,50,50,50,50,50,50,50,50,50,250,250,250,250,250,250,250,250,250,250,250,50,50,50,552,552,552,552,552,552,552,552,552,552,552,552,552,
552,552,552,552,552,552,552,552,552,552,552,552,552,50,50,50,50,250,250,250,250,250,250,250,50,50,50,50,50,50,50,50,250,250,250,250,250,250,250,250,250,250,250,250,50,50,50,552,552,552,552,552,552,552,552,552,552,552,552,552,
552,552,552,552,552,552,552,552,552,552,552,552,552,50,50,50,50,50,250,250,250,250,250,250,250,250,250,250,250,50,50,250,250,250,250,250,250,250,250,250,250,250,50,50,50,50,50,552,552,552,552,552,552,552,552,552,552,552,552,552,
552,552,552,552,552,552,552,552,552,552,552,552,552,552,50,50,50,50,250,250,250,250,250,250,250,250,250,250,250,250,250,250,250,250,250,250,250,250,250,250,50,50,50,50,50,50,552,552,552,552,552,552,552,80,552,552,80,552,552,552,
552,552,552,552,552,552,552,552,552,552,50,50,50,50,50,50,50,50,250,250,250,250,250,250,250,250,250,250,250,250,250,250,250,250,250,250,250,250,250,50,50,50,50,50,552,552,552,552,552,552,552,552,552,80,552,552,80,552,552,552,
552,552,552,552,552,552,552,50,50,50,50,50,50,50,50,50,50,50,250,250,250,250,250,250,250,250,250,250,250,250,250,250,250,250,250,250,250,50,50,50,50,50,50,552,552,552,552,552,552,552,552,552,552,552,552,552,552,552,552,552,
552,552,552,552,552,552,552,50,50,50,50,50,50,50,50,250,250,250,250,250,250,250,250,250,250,250,250,250,250,250,250,250,250,250,250,50,50,50,50,50,50,50,552,552,552,552,552,552,552,552,552,552,552,552,552,552,552,552,552,552,
552,552,552,552,552,552,552,50,50,50,50,50,250,250,250,250,250,250,250,250,250,250,250,250,250,250,250,250,250,250,250,250,250,250,50,50,50,50,50,50,50,552,552,552,80,552,552,552,552,552,552,552,552,552,552,552,552,552,552,552,
552,552,552,552,552,552,552,50,50,50,50,50,250,250,250,250,250,250,250,50,50,50,50,250,250,250,250,250,250,250,250,50,50,50,50,50,50,50,50,50,552,552,552,552,552,552,552,552,552,552,552,552,552,552,552,552,552,552,552,552,
552,552,552,552,552,552,552,552,50,50,50,50,50,250,250,250,250,250,250,50,50,50,50,50,50,250,250,250,250,250,50,50,50,50,50,50,50,50,552,552,552,552,552,80,552,552,552,552,552,552,552,552,552,552,552,552,552,552,552,552,
552,552,552,552,552,552,552,552,552,50,50,50,50,50,250,250,250,250,50,50,50,50,50,50,50,50,250,250,50,50,50,50,50,50,50,552,552,552,552,552,552,552,552,552,552,552,552,552,552,552,552,552,552,552,552,552,552,552,552,552,
552,552,552,552,552,552,552,552,552,552,50,50,50,50,50,50,50,50,50,50,50,552,50,50,50,50,50,50,50,50,50,50,50,50,552,552,552,552,552,552,552,552,552,552,552,552,552,552,552,552,80,552,552,552,552,552,552,552,552,552,
552,552,552,552,552,552,552,552,552,552,552,552,50,50,50,50,50,50,50,50,50,552,552,552,50,50,50,50,50,50,50,552,552,552,552,552,552,552,552,552,552,552,552,552,552,552,552,552,552,552,552,552,552,552,552,552,552,552,552,552,
552,552,552,552,552,552,552,552,552,552,552,552,552,552,50,50,50,50,50,50,50,552,552,552,552,552,552,552,552,552,552,552,552,552,552,552,552,552,552,552,552,552,552,552,552,552,552,552,552,80,552,552,552,552,552,552,552,552,552,552,
552,552,552,552,552,552,552,552,552,552,552,552,552,552,50,50,50,50,50,50,50,552,552,552,552,552,552,552,552,552,552,552,552,552,552,552,552,552,552,552,552,552,552,552,552,552,552,552,552,552,552,552,552,552,552,552,552,552,552,552,
552,552,552,552,552,552,552,552,552,552,552,552,552,552,50,50,50,50,50,50,742,552,552,552,552,552,552,552,552,552,552,552,552,552,552,552,552,552,552,552,552,552,552,552,552,552,552,552,552,552,552,552,552,552,552,552,552,552,552,552,
552,552,552,552,552,552,552,552,552,552,552,552,552,552,552,772,50,50,50,552,552,552,552,552,552,552,552,552,552,552,552,552,552,552,552,552,552,552,552,552,552,552,552,552,552,552,552,552,552,552,552,552,552,552,552,552,552,552,552,552,
552,552,552,552,552,552,552,552,552,552,552,552,552,552,552,552,552,552,552,552,552,552,552,552,552,552,552,552,552,552,552,552,552,552,552,552,552,552,552,552,552,552,552,552,552,552,552,552,552,552,552,552,552,552,552,552,552,552,552,552,
552,552,552,552,552,552,552,552,552,552,552,552,552,552,552,552,552,552,552,552,552,552,552,552,552,552,552,552,552,552,552,552,552,552,552,552,552,552,552,552,641,643,552,552,552,552,552,552,552,552,552,552,552,552,552,552,552,552,552,552,
552,552,552,552,552,552,552,552,552,552,552,552,552,552,552,552,552,552,552,552,552,552,552,552,552,552,552,552,552,552,552,552,552,552,552,552,552,552,552,552,641,643,552,552,552,552,552,552,552,552,552,552,552,552,552,552,552,552,552,552
</data>
 </layer>
 <layer id="2" name="Layer 2" width="60" height="49">
  <data encoding="csv">
143,0,112,0,0,143,0,0,0,0,112,0,0,0,847,848,0,0,0,752,0,0,0,0,0,0,0,76,77,78,0,0,76,77,78,0,0,0,0,0,0,0,0,0,76,77,78,0,0,0,0,0,0,0,0,0,0,0,0,0,
0,0,76,77,78,143,0,172,173,174,76,77,78,0,0,172,173,174,0,0,76,77,78,169,170,171,0,0,76,77,78,76,77,78,0,76,77,78,0,0,172,173,174,0,0,0,0,76,77,78,76,77,78,0,0,172,173,174,0,0,
0,169,170,171,0,0,169,170,171,143,0,76,77,78,0,0,76,77,78,0,0,169,170,171,0,0,0,76,77,78,0,0,0,0,76,77,78,76,77,78,0,0,0,76,77,78,172,173,174,0,0,0,0,0,0,0,0,0,0,0,
0,0,0,0,0,0,76,77,78,0,0,0,0,0,0,169,170,171,0,0,0,0,0,0,0,0,0,0,172,173,174,169,170,171,0,172,173,174,0,752,0,0,0,0,169,170,171,0,0,169,170,171,172,173,174,169,170,171,76,77,
170,171,0,169,170,171,0,172,173,174,169,170,171,76,77,78,0,172,173,174,169,170,171,0,76,77,78,0,76,77,78,0,76,77,78,0,76,77,78,0,0,0,0,0,0,0,76,77,78,0,0,172,173,174,0,76,77,78,0,0,
0,172,173,174,172,173,174,0,76,77,78,112,172,173,174,169,170,171,169,170,171,76,77,78,0,76,77,78,0,169,170,171,0,0,172,173,174,172,173,174,169,170,171,0,169,170,171,0,0,169,170,171,76,77,78,0,0,0,169,170,
112,0,169,170,171,169,170,171,0,0,143,169,170,171,76,77,78,143,143,76,77,78,0,0,169,170,171,0,0,0,76,77,78,169,170,171,76,77,78,172,173,174,0,0,0,0,0,172,173,174,0,172,173,174,172,169,170,171,0,0,
76,77,78,112,0,0,0,0,76,77,78,0,76,77,78,169,170,171,0,0,708,709,709,710,0,0,0,0,0,0,0,708,709,709,710,0,0,0,0,76,77,78,0,169,170,171,169,170,171,0,0,0,0,0,0,0,0,0,0,0,
0,0,0,76,77,78,0,169,170,171,76,77,78,0,76,77,78,0,0,708,648,0,0,647,709,709,710,172,173,174,708,648,0,0,647,709,710,169,170,171,0,169,170,171,172,173,174,0,172,173,174,169,170,171,172,173,174,172,173,174,
169,170,171,0,0,76,77,78,0,0,0,0,169,170,171,172,173,174,708,648,0,0,0,0,0,0,647,709,709,710,740,0,0,0,0,0,647,710,0,0,76,77,78,172,173,174,169,170,171,76,77,78,0,0,0,0,172,173,174,0,
0,0,0,0,169,170,171,0,76,77,78,0,143,143,0,708,709,709,648,0,0,0,3853,0,0,0,0,0,0,647,648,0,3853,0,0,0,0,647,710,0,0,0,0,169,170,171,0,0,76,77,78,0,169,170,171,0,0,169,170,171,
173,174,0,0,0,112,0,169,170,171,169,170,171,0,708,648,0,0,0,3853,0,0,0,217,218,218,218,218,219,0,0,0,0,3853,0,0,0,0,647,710,0,169,170,171,0,0,169,170,171,0,0,172,173,174,172,173,174,0,0,0,
0,0,169,170,171,0,0,0,0,0,0,169,170,171,740,0,0,0,0,0,217,218,218,313,0,0,0,0,314,218,218,218,218,218,218,219,0,0,0,647,710,0,0,76,77,78,0,112,0,169,170,171,0,0,0,112,0,0,172,173,
77,78,143,0,0,76,77,78,76,77,78,0,0,0,772,616,0,0,0,217,313,0,0,0,0,0,0,0,0,0,0,0,0,0,0,314,219,0,0,0,647,709,709,710,0,112,0,0,172,173,174,0,169,170,171,0,0,0,169,170,
0,0,0,169,170,171,0,169,170,171,0,172,173,174,708,648,0,0,217,313,0,0,0,0,0,0,0,0,0,0,0,0,0,0,0,0,314,218,218,218,219,0,0,742,0,172,173,174,76,77,78,172,173,174,0,169,170,171,0,0,
170,171,76,77,78,0,76,77,78,0,172,173,174,708,648,0,0,217,313,0,231,232,0,0,0,0,0,0,0,3854,0,0,0,0,0,0,0,0,0,0,251,0,0,647,710,0,0,0,0,0,0,0,0,169,170,171,0,0,0,0,
0,76,77,78,0,169,170,171,0,169,170,171,708,648,0,0,217,313,0,0,263,264,0,0,0,3853,3853,0,0,0,0,0,3853,3853,0,0,0,0,0,0,314,219,0,0,742,0,169,170,171,0,169,170,171,0,76,77,78,169,170,171,
0,0,169,170,171,0,76,77,78,0,708,709,648,0,217,218,313,0,0,0,0,0,0,0,0,0,0,0,0,0,0,0,0,3853,3853,3853,0,0,0,0,0,251,0,0,742,0,0,76,77,78,0,112,0,169,170,171,172,173,174,0,
170,171,0,76,77,78,0,172,173,174,740,0,0,217,313,0,0,0,0,0,0,0,0,346,282,282,282,282,282,282,282,282,345,0,0,0,0,0,0,0,0,251,0,0,742,172,173,174,0,0,0,0,0,0,172,173,174,169,170,171,
112,76,77,78,0,0,0,0,0,708,648,0,217,313,0,0,0,0,3854,0,0,346,282,283,0,0,0,0,0,0,0,0,249,0,0,3853,0,0,0,0,346,283,0,615,774,169,170,171,169,170,171,169,170,171,0,169,170,171,0,0,
169,170,171,169,170,171,172,173,174,740,0,0,249,0,0,0,0,0,0,0,346,283,0,0,5512,5513,5513,5513,5513,5513,5514,0,249,0,0,0,0,0,0,412,251,0,615,774,0,0,172,173,174,76,77,78,0,169,170,171,0,169,170,171,
0,0,76,77,78,76,77,78,708,648,0,0,249,0,0,0,0,0,0,0,314,219,0,0,5652,5512,5513,5513,5513,5514,5654,0,249,0,0,0,0,0,0,346,283,615,774,0,0,0,169,170,171,0,169,170,171,0,0,172,173,174,0,0,
169,170,171,0,0,0,0,0,740,3853,0,0,249,0,0,0,0,0,0,0,0,251,0,0,5652,5652,0,0,0,5654,5654,0,249,0,0,0,0,0,0,251,0,647,710,0,169,170,171,0,76,77,78,0,0,169,170,171,0,169,170,171,
77,78,169,170,171,169,170,171,740,0,0,0,249,0,0,0,0,0,3854,0,0,251,0,0,5652,5792,82,82,82,5794,5654,0,249,0,0,0,0,0,0,251,0,0,647,710,0,0,0,0,0,169,170,171,172,173,174,172,173,174,0,0,
169,170,171,76,77,78,0,0,772,616,0,0,281,345,0,0,0,0,0,0,0,251,0,0,5792,82,82,7052,82,82,5794,0,249,0,0,0,0,0,0,314,219,0,0,647,709,710,170,171,169,170,171,0,112,170,171,0,169,170,171,0,
143,143,0,0,0,169,170,171,0,772,773,773,616,249,0,0,231,232,0,0,0,251,0,0,0,0,0,0,0,0,0,0,281,345,0,0,0,0,0,0,314,218,219,0,0,647,710,76,77,78,15,0,76,77,78,0,0,76,77,78,
0,0,169,170,171,815,816,15,15,0,15,0,740,281,345,0,263,264,0,0,0,251,0,0,0,0,0,0,0,0,0,0,0,249,0,0,0,0,0,0,0,0,314,219,0,0,742,0,15,15,0,0,0,0,0,169,170,171,172,173,
170,171,76,77,78,847,848,15,15,15,15,0,740,0,281,345,0,0,0,0,0,314,219,0,0,0,0,0,0,0,0,0,217,313,0,0,0,0,0,0,0,0,0,314,219,0,742,15,15,0,0,0,0,169,170,171,0,0,0,0,
0,0,0,169,170,171,0,15,15,15,15,0,740,0,0,249,0,0,0,4948,0,0,314,218,219,0,0,0,0,0,0,0,249,0,0,4948,0,0,0,0,0,0,0,0,251,0,742,0,15,0,0,0,76,77,78,76,77,78,169,170,
169,170,171,0,0,15,0,15,15,15,15,0,772,616,0,281,345,0,0,0,0,0,0,0,251,0,0,0,0,0,0,217,313,0,0,0,0,0,231,232,0,0,0,0,251,0,742,0,15,0,169,170,171,0,169,170,171,171,0,0,
112,76,77,78,15,15,0,15,15,15,15,15,15,740,3853,0,249,0,0,0,0,0,0,0,314,218,218,218,218,219,217,313,0,0,3853,0,0,0,263,264,0,0,0,0,251,0,742,0,15,15,0,0,169,170,171,0,76,77,78,0,
169,170,171,0,15,15,15,15,15,15,15,0,752,772,773,616,281,345,0,0,0,0,3854,0,0,0,0,0,0,314,313,0,0,0,3854,0,0,0,0,0,0,0,346,282,283,615,774,15,15,15,0,0,0,0,0,0,112,0,0,0,
143,0,0,0,15,15,15,15,15,15,15,15,15,0,708,648,0,249,0,0,3854,0,0,0,4948,0,0,0,0,0,0,0,3853,0,0,0,0,0,0,0,346,282,283,615,773,774,15,15,15,15,15,169,170,171,169,170,171,0,0,0,
0,169,170,171,15,15,15,15,15,0,708,709,709,709,648,0,0,249,0,0,0,0,0,0,0,0,0,0,0,0,0,0,0,0,0,0,0,0,0,346,283,0,615,774,15,15,15,15,15,0,0,0,0,0,0,0,0,76,77,78,
169,170,171,0,15,15,15,708,709,709,648,0,0,0,217,218,218,313,0,0,0,0,0,0,3853,0,0,3853,0,0,0,0,0,0,0,0,0,346,282,283,3853,615,774,15,15,15,15,15,15,15,0,0,0,432,169,170,171,112,0,0,
170,171,0,0,15,15,15,740,0,0,0,217,218,218,313,0,0,0,0,0,0,0,0,0,0,0,0,3853,0,0,0,0,0,0,0,346,282,283,0,3853,615,774,15,15,15,15,0,15,15,0,0,0,0,464,76,77,78,0,0,0,
0,0,0,0,15,15,15,740,0,3853,0,249,0,0,0,0,0,0,0,0,0,0,0,0,0,0,0,0,0,0,0,0,0,0,346,283,0,0,0,615,774,0,15,15,0,0,15,15,15,0,0,0,0,76,77,78,112,0,0,0,
0,172,173,174,0,15,15,772,616,0,0,249,0,0,4948,0,4948,0,0,346,282,282,345,0,0,0,0,0,0,0,0,346,282,282,283,0,0,615,773,774,15,15,15,0,15,15,15,0,15,0,0,172,173,174,172,173,174,169,170,171,
169,170,171,0,0,15,15,0,772,616,0,281,345,0,0,4948,4948,0,0,251,0,0,281,282,345,0,0,4948,4948,0,346,283,0,0,615,773,773,774,0,15,15,15,15,0,0,15,0,0,15,0,0,0,0,0,0,0,0,0,0,0,
0,169,170,171,0,0,15,15,0,772,616,0,281,345,0,0,0,0,346,283,615,773,616,0,281,345,4948,4948,346,0,283,0,0,615,774,0,0,0,0,15,15,15,0,0,15,15,0,0,0,0,0,0,112,76,77,78,76,77,78,0,
170,171,76,77,78,0,0,15,0,0,772,773,616,281,282,282,282,282,283,0,742,0,772,773,616,281,282,282,283,0,615,773,773,774,0,0,15,15,0,15,15,0,0,0,0,0,0,0,0,0,0,0,169,170,171,169,170,171,0,0,
169,170,171,169,170,171,0,0,76,77,78,0,772,772,616,0,0,0,0,0,742,169,170,171,772,773,773,773,773,773,774,0,0,0,0,15,15,0,15,0,0,0,0,0,0,815,816,0,0,0,0,0,0,172,173,174,0,0,76,77,
0,76,77,78,169,170,171,0,0,752,0,76,77,78,740,0,0,0,0,0,742,170,171,0,0,0,112,0,0,172,173,174,752,0,0,0,0,0,0,0,0,0,0,0,0,847,848,0,0,0,76,77,78,0,112,169,170,171,0,0,
170,171,0,0,0,112,0,0,0,0,172,173,174,0,84,0,0,0,0,0,742,76,77,78,0,0,172,173,174,0,0,0,112,0,0,0,0,0,0,0,0,0,0,0,0,0,76,77,78,0,0,0,169,170,171,0,0,172,173,174,
0,0,169,170,171,0,169,170,171,0,0,0,172,173,174,53,0,0,53,615,54,0,0,169,170,171,0,0,169,170,171,0,76,77,78,0,0,0,0,0,0,0,0,0,0,0,0,0,112,169,170,171,112,0,0,0,0,0,0,0,
76,77,78,76,77,78,0,0,0,169,170,171,0,76,77,84,773,773,774,77,78,0,76,77,78,0,76,77,78,76,77,78,0,76,77,78,0,0,0,0,0,0,0,0,0,0,0,0,172,173,174,0,169,170,171,169,170,171,76,77,
0,0,76,77,78,169,170,171,76,77,78,0,0,112,0,172,173,174,0,172,173,174,0,0,169,170,171,169,170,171,0,76,77,78,0,172,173,174,0,0,609,611,0,0,0,172,173,174,0,169,170,171,0,172,173,174,172,173,174,0,
169,170,171,169,170,171,0,76,77,78,169,170,171,0,112,0,0,0,0,0,0,169,170,171,0,76,77,78,76,77,78,0,0,112,0,0,169,170,171,0,9,0,0,169,170,171,0,169,170,171,0,76,77,78,169,170,171,0,0,0,
0,172,173,174,76,77,78,169,170,171,0,76,77,78,0,0,0,169,170,171,0,0,0,172,173,174,169,170,171,0,0,169,170,171,0,0,0,169,170,171,9,9,0,0,0,169,170,171,0,169,170,171,0,0,0,0,0,76,77,78
</data>
 </layer>
 <layer id="3" name="Layer 3" width="60" height="49">
  <data encoding="csv">
0,0,44,45,46,0,0,140,141,142,44,45,46,0,0,140,141,142,0,0,44,45,46,137,138,139,0,0,44,45,46,44,45,46,0,44,45,46,0,0,140,141,142,0,0,0,0,44,45,46,44,45,46,0,0,140,141,142,0,0,
0,137,138,139,0,0,137,138,139,0,0,44,45,46,0,9,44,45,46,0,0,137,138,139,0,0,0,44,45,46,0,0,0,0,44,45,46,44,45,46,0,0,0,44,45,46,140,141,142,0,0,0,44,45,46,0,0,0,0,0,
45,46,0,44,45,46,44,45,46,0,44,45,46,0,0,137,138,139,0,0,44,45,46,0,137,138,139,0,140,141,142,137,138,139,0,140,141,142,0,0,44,45,46,0,137,138,139,0,0,137,138,139,140,141,142,137,138,139,44,45,
138,139,0,137,138,139,0,140,141,142,137,138,139,44,45,46,0,140,141,142,137,138,139,0,44,45,46,0,44,45,46,0,44,45,46,0,44,45,46,0,137,138,139,0,0,0,44,45,46,0,0,140,141,142,0,44,45,46,0,0,
0,140,141,142,140,141,142,0,44,45,46,0,140,141,142,137,138,139,137,138,139,44,45,46,0,44,45,46,0,137,138,139,0,0,140,141,142,140,141,142,137,138,139,0,137,138,139,0,0,137,138,139,44,45,46,0,0,0,137,138,
0,0,137,138,139,137,138,139,0,0,0,137,138,139,44,45,46,0,0,44,45,46,0,0,137,138,139,0,0,0,44,45,46,137,138,139,44,45,46,140,141,142,44,45,46,0,0,140,141,142,0,140,141,142,0,137,138,139,0,0,
44,45,46,0,0,0,0,0,44,45,46,0,44,45,46,137,138,139,140,141,142,0,0,0,0,0,0,137,138,139,0,0,0,0,0,0,0,0,0,44,45,46,0,137,138,139,137,138,139,0,0,44,45,46,140,141,142,137,138,139,
0,0,0,44,45,46,0,137,138,139,44,45,46,0,44,45,46,0,0,0,20,21,21,22,0,0,0,140,141,142,0,20,21,21,22,0,0,137,138,139,0,137,138,139,140,141,142,0,140,141,142,137,138,139,140,141,142,140,141,142,
137,138,139,0,0,44,45,46,0,0,0,0,137,138,139,140,141,142,0,20,151,53,53,152,21,21,22,0,0,0,20,151,53,53,152,21,22,0,0,0,44,45,46,140,141,142,137,138,139,44,45,46,0,44,45,46,140,141,142,0,
45,46,0,0,137,138,139,0,44,45,46,0,0,0,0,0,0,0,20,151,53,53,53,53,53,53,152,21,21,22,52,53,53,53,53,53,152,22,0,0,0,0,0,137,138,139,0,0,44,45,46,0,137,138,139,0,0,137,138,139,
141,142,44,45,46,0,0,137,138,139,137,138,139,0,0,20,21,21,151,53,53,53,53,53,53,53,53,53,53,152,151,53,53,53,53,53,53,152,22,0,0,137,138,139,0,0,137,138,139,0,0,140,141,142,140,141,142,0,0,0,
0,0,137,138,139,44,45,46,0,0,0,137,138,139,20,151,53,53,53,53,53,53,53,53,53,53,53,53,53,53,53,53,53,53,53,53,53,53,152,22,0,0,0,44,45,46,0,0,0,137,138,139,0,0,0,137,138,139,140,141,
45,46,0,0,0,44,45,46,44,45,46,0,0,0,52,53,53,53,53,53,53,53,53,53,53,53,53,53,53,53,53,53,53,53,53,53,53,53,53,152,22,0,0,0,0,137,138,139,140,141,142,0,137,138,139,44,45,46,137,138,
0,0,0,137,138,139,0,137,138,139,0,140,141,142,84,183,53,53,53,53,53,53,53,53,53,53,53,53,53,53,53,53,53,53,53,53,53,53,53,53,152,21,21,22,0,140,141,142,44,45,46,140,141,142,0,137,138,139,0,0,
138,139,44,45,46,0,44,45,46,0,140,141,142,0,20,151,53,53,53,53,53,53,53,53,53,53,53,53,53,53,53,53,53,53,53,53,53,53,53,53,53,53,53,54,0,0,44,45,46,0,44,45,46,137,138,139,0,44,45,46,
0,44,45,46,0,137,138,139,0,137,138,139,0,20,151,53,53,53,432,53,53,53,53,53,53,53,53,53,53,53,53,53,53,53,53,53,53,53,53,53,53,53,53,152,22,0,137,138,139,0,137,138,139,0,44,45,46,137,138,139,
0,0,137,138,139,0,44,45,46,0,0,0,20,151,53,53,53,53,464,53,53,53,53,53,53,53,53,53,53,53,53,53,53,53,53,53,53,53,53,53,53,53,53,53,54,0,0,44,45,46,0,0,0,137,138,139,140,141,142,0,
138,139,0,44,45,46,0,140,141,142,20,21,151,53,53,53,53,53,53,53,53,53,53,53,53,53,53,53,53,53,53,53,53,53,53,53,53,53,53,53,53,53,53,53,54,140,141,142,44,45,46,44,45,46,140,141,142,137,138,139,
0,44,45,46,0,0,137,138,139,0,52,53,53,53,53,53,53,53,53,53,53,53,53,53,53,53,53,53,53,53,53,53,53,53,53,53,53,53,53,53,53,53,53,53,54,137,138,139,137,138,139,137,138,139,0,137,138,139,0,0,
137,138,139,137,138,139,140,141,142,20,151,53,53,53,53,53,53,53,53,53,53,53,53,184,85,85,85,85,85,85,85,183,53,53,53,53,53,53,53,53,53,53,53,184,86,0,140,141,142,44,45,46,0,137,138,139,0,137,138,139,
0,0,44,45,46,44,45,46,0,52,53,53,53,53,53,53,53,53,53,53,53,53,53,54,0,0,0,0,0,0,0,52,53,53,53,53,53,53,53,53,53,53,184,86,0,0,137,138,139,0,137,138,139,0,0,140,141,142,0,0,
137,138,139,0,0,0,0,0,20,151,53,53,53,53,53,53,53,53,53,53,53,53,53,54,0,0,0,0,0,0,0,52,53,53,53,53,53,53,53,53,53,184,86,0,137,138,139,0,44,45,46,0,0,137,138,139,0,137,138,139,
45,46,137,138,139,137,138,139,52,53,53,53,53,53,53,53,53,53,53,53,53,53,53,54,0,0,6211,6212,6213,0,0,52,53,53,53,53,53,53,53,53,53,152,22,0,0,44,45,46,0,137,138,139,140,141,142,140,141,142,0,0,
137,138,139,44,45,46,0,0,52,53,53,53,53,53,53,53,53,53,53,53,53,53,53,54,0,0,6351,6352,6353,0,0,52,53,53,53,53,53,53,53,53,53,53,152,22,0,137,138,139,137,138,139,0,137,138,139,0,137,138,139,0,
0,0,0,0,0,137,138,139,84,183,53,53,53,53,53,53,53,53,53,53,53,53,53,54,0,0,6491,6492,6493,0,0,52,53,53,53,53,53,53,53,53,53,53,53,152,21,22,0,44,45,46,0,0,44,45,46,0,0,44,45,46,
0,0,137,138,139,0,9,9,0,84,85,85,183,53,53,53,53,53,53,53,53,53,53,54,0,0,0,0,0,0,0,52,53,53,53,53,53,53,53,53,53,53,53,53,53,152,22,0,0,0,0,0,432,0,0,137,138,139,140,141,
138,139,44,45,46,0,0,0,0,0,0,0,52,53,53,53,53,53,53,53,53,53,53,152,21,22,0,0,0,0,20,151,53,53,53,53,53,53,53,53,53,53,53,53,53,53,54,0,0,0,0,0,464,137,138,139,0,0,0,0,
44,45,46,137,138,139,0,0,0,0,0,0,52,53,53,53,53,53,53,53,53,53,53,53,53,152,22,0,0,0,52,53,53,53,53,53,53,53,53,53,53,53,53,53,53,53,54,0,0,0,0,0,44,45,46,44,45,46,137,138,
137,138,139,0,0,0,0,0,0,0,0,0,52,53,53,53,53,53,53,53,53,53,432,53,53,53,152,21,21,21,151,53,53,53,53,53,53,53,53,53,53,53,53,53,53,53,54,0,0,0,137,138,139,0,137,138,139,0,0,0,
0,44,45,46,0,0,0,0,0,0,0,0,84,183,53,53,53,53,53,53,53,53,464,53,53,53,53,53,53,53,53,53,53,53,53,53,53,53,53,53,53,53,53,53,53,53,54,0,0,0,0,0,137,138,139,0,44,45,46,0,
137,138,139,0,0,0,0,0,0,0,0,0,0,52,53,53,53,53,53,53,53,53,53,53,53,432,53,53,432,53,53,53,53,53,53,53,53,53,53,53,53,53,53,53,53,53,54,0,0,0,0,0,0,0,44,45,46,137,138,139,
0,44,45,46,0,0,0,0,0,0,0,0,0,84,85,183,53,53,53,53,53,53,53,53,53,464,53,53,464,53,53,53,53,53,53,53,53,53,53,53,53,53,53,53,53,184,86,0,0,0,0,137,138,139,137,138,139,140,141,142,
0,137,138,139,0,0,0,0,0,0,0,0,0,0,20,151,53,53,53,53,53,53,53,53,53,53,53,53,53,53,53,53,53,53,53,53,53,53,53,53,53,53,53,184,85,86,0,0,0,0,0,0,0,0,0,0,0,44,45,46,
137,138,139,0,0,0,0,0,0,0,20,21,21,21,151,53,53,53,53,53,53,53,53,53,53,53,53,53,53,53,53,53,53,53,53,53,53,53,53,53,53,53,184,86,0,0,0,0,0,0,0,0,0,0,137,138,139,0,0,0,
138,139,0,0,0,0,0,20,21,21,151,53,53,53,53,53,53,53,53,53,53,53,53,53,53,53,53,53,53,53,53,53,53,53,53,53,53,53,53,53,53,184,86,0,0,0,0,0,0,0,0,0,0,0,44,45,46,44,45,46,
0,137,138,139,0,0,0,52,53,53,53,53,53,53,53,53,53,53,53,53,53,53,53,53,53,53,53,53,53,53,53,53,53,53,53,53,53,53,53,53,184,86,0,0,0,0,0,0,0,0,0,0,0,44,45,46,0,137,138,139,
0,140,141,142,0,0,0,52,53,53,53,53,53,53,53,53,53,53,53,53,53,53,53,53,53,53,53,53,53,53,53,53,53,53,53,53,53,53,53,184,86,0,0,0,0,0,0,0,0,0,0,140,141,142,140,141,142,137,138,139,
137,138,139,0,0,0,0,84,183,53,53,53,53,53,53,53,53,53,53,53,53,53,53,53,53,53,53,53,53,53,53,53,53,53,53,53,53,184,85,86,0,0,0,0,0,0,0,0,0,0,0,432,0,137,138,139,0,0,0,0,
0,137,138,139,0,0,0,0,84,183,53,53,53,53,53,53,53,53,53,53,53,53,53,53,53,53,53,53,53,53,53,53,53,53,184,85,85,86,0,0,0,0,0,0,0,0,0,0,0,0,0,464,0,44,45,46,44,45,46,0,
138,139,44,45,46,0,0,0,0,84,183,53,53,53,53,53,53,53,53,53,184,85,183,53,53,53,53,53,53,53,53,53,53,184,86,0,0,0,0,0,0,0,0,0,0,0,0,0,0,0,0,0,137,138,139,137,138,139,0,0,
137,138,139,137,138,139,0,0,44,45,84,85,183,53,53,53,53,53,53,53,54,137,138,84,183,53,53,53,53,53,184,85,85,86,0,0,0,0,0,0,0,0,0,0,0,0,0,0,0,0,0,0,0,140,141,142,0,0,44,45,
0,44,45,46,137,138,139,0,0,0,0,44,45,84,183,53,53,53,53,53,54,138,139,0,84,85,85,85,85,86,141,142,0,0,0,0,0,0,0,0,0,0,0,0,0,0,0,0,0,0,44,45,46,0,0,137,138,139,0,0,
138,139,137,138,139,0,44,45,46,0,140,141,142,0,52,53,53,53,53,53,54,44,45,46,0,0,140,141,142,0,0,0,0,0,0,0,0,0,0,0,0,0,0,0,0,0,44,45,46,0,0,0,137,138,139,0,0,140,141,142,
0,0,137,138,139,0,137,138,139,44,45,46,140,141,142,53,53,53,53,53,54,0,0,137,138,139,0,0,137,138,139,0,44,45,46,0,0,0,0,0,0,0,0,0,0,0,0,0,0,137,138,139,0,0,0,44,45,46,0,0,
44,45,46,44,45,46,0,0,0,137,138,139,0,44,45,46,53,53,44,45,46,0,44,45,46,0,44,45,46,44,45,46,0,44,45,46,0,0,0,0,0,0,0,0,0,0,0,0,140,141,142,0,137,138,139,137,138,139,44,45,
0,0,44,45,46,137,138,139,44,45,46,0,0,0,0,78,141,84,86,140,141,142,0,0,137,138,139,137,138,139,0,44,45,46,0,140,141,142,0,0,0,0,0,0,0,140,141,142,0,137,138,139,0,140,141,142,140,141,142,0,
137,138,139,137,138,139,0,44,45,46,137,138,139,0,0,0,0,0,0,0,0,137,138,139,0,44,45,46,44,45,46,137,138,139,0,0,137,138,139,0,0,0,0,137,138,139,0,137,138,139,0,44,45,46,137,138,139,0,0,0,
0,140,141,142,44,45,46,137,138,139,0,44,45,46,0,0,0,137,138,139,44,45,46,140,141,142,137,138,139,0,0,137,138,139,0,0,0,137,138,139,0,0,44,45,46,137,138,139,0,137,138,139,0,0,0,0,0,44,45,46,
137,138,139,137,138,139,0,0,137,138,139,0,0,0,137,138,139,0,0,140,141,142,137,138,139,137,138,139,0,137,138,139,0,0,137,138,139,0,0,0,0,0,137,138,139,0,0,0,137,138,139,0,0,137,138,139,137,138,139,0
</data>
 </layer>
 <layer id="4" name="Top layer" width="60" height="49">
  <data encoding="csv">
0,105,106,107,0,0,105,106,107,0,0,12,13,14,0,0,12,13,14,0,0,105,106,107,0,0,0,12,13,14,0,0,0,0,12,13,14,12,13,14,0,0,0,12,13,14,108,109,110,0,0,0,12,13,14,0,0,0,0,0,
13,14,0,12,13,14,12,13,14,0,12,13,14,0,0,105,106,107,0,0,12,13,14,0,105,106,107,0,108,109,110,105,106,107,0,108,109,110,0,0,12,13,14,0,105,106,107,0,0,105,106,107,108,109,110,105,106,107,12,13,
106,107,0,105,106,107,0,108,109,110,105,106,107,12,13,14,0,108,109,110,105,106,107,0,12,13,14,0,12,13,14,0,12,13,14,0,12,13,14,0,105,106,107,0,0,0,12,13,14,0,0,108,109,110,0,12,13,14,0,0,
0,108,109,110,108,109,110,0,12,13,14,0,108,109,110,105,106,107,105,106,107,12,13,14,0,12,13,14,0,105,106,107,0,9,108,109,110,108,109,110,105,106,107,0,105,106,107,0,0,105,106,107,12,13,14,0,0,0,105,106,
0,0,105,106,107,105,106,107,0,0,0,105,106,107,12,13,14,0,0,12,13,14,0,0,105,106,107,0,0,0,12,13,14,105,106,107,12,13,14,108,109,110,12,13,14,0,0,108,109,110,0,108,109,110,0,105,106,107,0,0,
12,13,14,0,0,0,0,0,12,13,14,0,12,13,14,105,106,107,108,109,110,0,0,0,0,0,0,105,106,107,0,0,0,0,0,0,0,0,0,12,13,14,0,105,106,107,105,106,107,0,0,12,13,14,108,109,110,105,106,107,
0,0,0,12,13,14,0,105,106,107,12,13,14,0,12,13,14,0,0,0,0,0,0,0,0,0,0,108,109,110,0,0,0,0,0,0,0,105,106,107,0,105,106,107,108,109,110,0,108,109,110,105,106,107,108,109,110,108,109,110,
105,106,107,0,0,12,13,14,0,0,0,0,105,106,107,108,109,110,172,173,174,0,0,0,0,0,0,0,0,0,0,0,0,0,0,0,0,0,0,0,12,13,14,108,109,110,105,106,107,12,13,14,0,12,13,14,108,109,110,0,
13,14,0,0,105,106,107,0,12,13,14,0,0,0,0,0,0,0,0,0,0,0,0,0,0,0,0,0,0,0,0,0,0,0,0,0,0,0,0,0,0,0,0,105,106,107,0,0,12,13,14,0,105,106,107,0,0,105,106,107,
109,110,12,13,14,0,0,105,106,107,105,106,107,0,112,0,0,0,0,0,0,0,0,0,0,0,0,0,0,0,0,0,0,0,0,0,0,0,0,0,0,105,106,107,0,0,105,106,107,0,0,108,109,110,108,109,110,0,0,0,
0,0,105,106,107,12,13,14,0,0,0,105,106,107,0,0,0,0,0,0,0,0,0,0,0,0,0,0,0,0,0,0,0,0,0,0,0,0,0,0,0,0,0,12,13,14,0,0,0,105,106,107,0,0,0,105,106,107,108,109,
13,14,0,0,0,12,13,14,12,13,14,0,0,0,0,0,0,0,0,0,0,0,0,0,0,0,0,0,0,0,0,0,0,0,0,0,0,0,0,0,0,0,0,0,0,105,106,107,108,109,110,0,105,106,107,12,13,14,105,106,
0,0,0,105,106,107,0,105,106,107,0,108,109,110,0,0,0,0,0,0,0,0,0,0,0,0,0,0,0,0,0,0,0,0,0,0,0,0,0,0,0,0,0,0,0,108,109,110,12,13,14,108,109,110,0,105,106,107,0,0,
106,107,12,13,14,0,12,13,14,0,108,109,110,0,0,0,0,0,0,0,0,0,0,0,0,0,0,0,0,0,0,0,0,0,0,0,0,0,0,0,0,0,0,0,0,0,12,13,14,0,12,13,14,105,106,107,0,12,13,14,
0,12,13,14,0,105,106,107,0,105,106,107,0,0,0,0,0,0,0,0,0,0,0,0,0,0,0,0,0,0,0,0,0,0,0,0,0,0,0,0,0,0,0,0,0,0,105,106,107,0,105,106,107,0,12,13,14,105,106,107,
0,0,105,106,107,0,12,13,14,0,0,0,0,0,0,0,0,0,53,0,0,0,0,0,0,0,0,0,0,0,0,0,0,0,0,0,0,0,0,0,0,0,0,0,0,0,0,12,13,14,0,0,0,105,106,107,108,109,110,0,
106,107,0,12,13,14,0,108,109,110,0,0,0,0,0,0,0,0,53,0,0,0,0,0,0,0,0,0,0,0,0,0,0,0,0,0,0,0,0,0,0,0,0,0,0,108,109,110,12,13,14,12,13,14,108,109,110,105,106,107,
0,12,13,14,0,0,105,106,107,0,0,0,0,0,0,0,0,0,0,0,0,0,0,0,0,0,0,0,0,0,0,0,0,0,0,0,0,0,0,0,0,0,0,0,0,105,106,107,105,106,107,105,106,107,0,105,106,107,0,0,
105,106,107,105,106,107,108,109,110,0,0,0,0,0,0,0,0,0,0,0,0,0,0,0,0,0,0,0,0,0,0,0,0,0,0,0,0,0,0,0,0,0,0,0,0,0,108,109,110,12,13,14,0,105,106,107,0,105,106,107,
0,0,12,13,14,12,13,14,0,0,0,0,0,0,0,0,0,0,0,0,0,0,0,0,0,0,0,0,0,0,0,0,0,0,0,0,0,0,0,0,0,0,0,0,0,0,105,106,107,0,105,106,107,0,0,108,109,110,0,0,
105,106,107,0,0,0,0,0,0,0,0,0,0,0,0,0,0,0,0,0,0,0,0,0,0,0,0,0,0,0,0,0,0,0,0,0,5153,0,5293,0,0,0,0,0,105,106,107,0,12,13,14,0,0,105,106,107,0,105,106,107,
13,14,105,106,107,105,106,107,0,0,0,0,0,0,0,0,0,0,0,0,0,0,0,0,0,0,0,0,0,0,0,0,0,0,0,0,0,5292,0,0,0,0,0,0,0,12,13,14,0,105,106,107,108,109,110,108,109,110,0,0,
105,106,107,12,13,14,0,0,0,0,0,0,0,0,0,0,0,0,0,0,0,0,0,0,0,0,0,0,0,0,0,0,0,0,0,0,0,0,5291,0,0,0,0,0,0,105,106,107,105,106,107,0,105,106,107,0,105,106,107,0,
0,0,0,0,0,105,106,107,0,0,0,0,0,0,0,0,0,0,0,0,0,0,0,0,0,0,0,0,0,0,0,0,0,0,0,0,5293,5292,0,0,0,0,0,0,0,0,0,12,13,14,0,0,12,13,14,0,0,12,13,14,
0,0,105,106,107,0,0,0,0,0,0,0,0,0,0,0,0,0,0,0,0,0,0,0,0,0,0,0,0,0,0,0,0,0,0,0,5291,0,5153,0,0,0,0,0,0,169,0,0,0,0,0,0,0,0,0,105,106,107,108,109,
106,107,12,13,14,9,9,9,0,0,0,0,0,0,0,0,0,0,0,0,0,0,0,0,50,50,50,50,50,50,50,0,0,0,0,5153,0,0,0,0,0,0,0,0,0,0,0,0,0,0,0,0,0,105,106,107,0,0,0,0,
12,13,14,105,106,107,0,9,9,0,9,0,0,0,0,0,0,0,0,0,0,0,0,0,0,0,50,50,50,0,0,0,0,0,0,0,0,0,0,0,0,0,0,0,0,0,0,0,0,0,0,0,12,13,14,12,13,14,105,106,
105,106,107,0,0,0,112,9,9,9,9,0,0,0,0,0,0,0,0,0,0,0,0,0,0,0,0,50,50,0,0,0,0,0,0,0,0,0,0,0,0,0,0,0,0,0,0,0,0,0,105,106,107,0,105,106,107,0,0,0,
0,12,13,14,0,0,0,9,9,9,9,0,0,0,0,0,0,0,0,0,0,0,53,0,0,0,0,0,0,0,0,0,0,0,0,0,0,0,0,0,0,0,0,0,0,0,0,0,0,0,0,0,105,106,107,0,12,13,14,0,
105,106,107,0,9,9,9,9,9,9,9,0,0,0,0,0,0,0,0,0,0,0,53,0,0,0,0,0,0,0,0,0,0,0,0,0,0,0,0,0,0,0,0,0,0,0,0,0,0,0,0,0,0,0,12,13,14,105,106,107,
0,12,13,14,9,9,9,9,9,9,9,9,9,0,0,0,0,0,0,0,0,0,0,0,0,53,0,0,53,0,0,0,0,0,0,0,0,0,0,0,0,0,0,0,0,0,0,0,0,0,0,105,106,107,105,106,107,108,109,110,
0,105,106,107,9,9,9,9,9,9,9,0,0,0,0,0,0,0,0,0,0,0,0,0,0,53,0,0,53,0,0,0,0,0,0,0,0,0,0,0,0,0,0,0,0,0,0,0,0,0,0,0,0,0,0,0,0,12,13,14,
105,106,107,0,9,9,9,9,9,9,9,9,9,0,0,0,0,0,0,0,0,0,0,0,0,0,0,0,0,0,0,0,0,0,0,0,0,0,0,0,0,0,0,0,0,0,0,0,0,0,0,0,0,0,105,106,107,0,0,0,
106,107,0,0,9,9,9,9,9,0,0,0,0,0,0,0,0,0,0,5153,0,5291,0,0,0,0,0,0,0,0,0,0,0,0,0,0,0,0,0,0,0,0,0,0,0,0,0,48,0,0,0,0,0,0,12,13,14,12,13,14,
0,105,106,107,9,9,9,0,0,0,0,0,0,0,0,0,0,5292,0,0,5013,0,0,0,0,0,0,0,0,0,0,0,0,0,0,0,0,0,0,0,0,0,0,0,0,48,0,0,0,0,0,0,0,12,13,14,0,105,106,107,
0,108,109,110,9,9,9,0,0,0,0,0,0,0,0,0,0,0,5013,5153,0,0,0,0,0,0,0,0,0,0,0,0,0,0,0,0,0,0,0,0,0,0,0,0,0,0,0,0,0,0,0,108,109,110,108,109,110,105,106,107,
105,106,107,0,9,9,9,0,0,0,0,0,0,0,0,0,0,5013,0,0,0,0,0,0,0,0,0,0,0,0,0,0,0,0,0,0,0,0,0,0,0,0,0,0,0,0,0,0,0,0,0,0,0,105,106,107,0,0,0,0,
0,105,106,107,0,9,9,0,0,0,0,0,0,0,0,0,0,0,5292,0,0,0,0,0,0,0,0,0,0,0,0,0,0,0,0,0,0,0,0,0,0,0,0,0,0,0,0,0,0,0,0,0,0,12,13,14,12,13,14,0,
106,107,12,13,14,9,9,0,0,0,0,0,0,0,0,0,0,0,0,0,0,9,9,9,0,0,0,0,0,0,0,0,0,0,0,0,0,0,0,0,0,0,0,0,0,0,0,0,0,0,0,0,105,106,107,105,106,107,0,0,
105,106,107,105,106,107,9,9,12,13,14,0,0,0,0,0,0,0,0,0,0,105,106,107,0,0,0,0,0,0,0,0,0,0,0,0,0,0,0,0,0,0,0,0,0,0,0,0,0,0,0,0,0,108,109,110,0,0,12,13,
0,12,13,14,105,106,107,9,0,0,46,12,13,14,0,0,0,0,0,0,105,106,107,139,0,0,0,0,0,108,109,110,0,0,0,0,0,0,0,0,0,0,0,0,0,0,0,0,0,0,12,13,14,0,0,105,106,107,0,0,
106,107,105,106,107,0,12,13,14,0,108,109,110,46,0,0,0,0,0,0,137,12,13,14,0,0,108,109,110,140,0,0,0,0,0,0,0,0,0,0,0,0,0,0,0,279,12,13,14,0,0,0,105,106,107,0,0,108,109,110,
0,0,105,106,107,0,105,106,107,12,13,14,108,109,110,0,0,0,0,0,169,0,0,105,106,107,0,0,105,106,107,0,12,13,14,0,0,0,0,0,0,0,0,0,0,311,0,0,0,105,106,107,0,0,0,12,13,14,0,0,
12,13,14,12,13,14,0,0,0,105,106,107,0,12,13,14,0,0,12,13,14,0,12,13,14,0,12,13,14,12,13,14,0,12,13,14,0,0,0,0,0,0,0,0,0,0,0,0,108,109,110,0,105,106,107,105,106,107,12,13,
0,0,12,13,14,105,106,107,12,13,14,0,0,0,0,108,109,110,0,108,109,110,0,0,105,106,107,105,106,107,0,12,13,14,0,108,109,110,0,0,0,0,0,0,0,108,109,110,0,105,106,107,0,108,109,110,108,109,110,0,
105,106,107,105,106,107,0,12,13,14,105,106,107,0,0,140,0,142,76,0,0,105,106,107,0,12,13,14,12,13,14,105,106,107,0,0,105,106,107,0,0,0,0,105,106,107,0,105,106,107,0,12,13,14,105,106,107,0,0,0,
0,108,109,110,12,13,14,105,106,107,0,12,13,14,0,0,0,105,106,107,12,13,14,108,109,110,105,106,107,0,0,105,106,107,0,0,0,105,106,107,0,0,12,13,14,105,106,107,0,105,106,107,0,0,0,0,0,12,13,14,
105,106,107,105,106,107,0,0,105,106,107,0,0,0,105,106,107,0,0,108,109,110,105,106,107,105,106,107,0,105,106,107,0,0,105,106,107,0,0,0,0,0,105,106,107,0,0,0,105,106,107,0,0,105,106,107,105,106,107,0,
0,0,0,0,105,106,107,108,109,110,0,105,106,107,12,13,14,105,106,107,105,106,107,12,13,14,0,12,13,14,105,106,107,0,0,0,0,12,13,14,0,0,0,0,108,109,110,108,109,110,0,12,13,14,0,108,109,110,0,0
</data>
 </layer>
</map>
