<?xml version="1.0" encoding="UTF-8"?>
<map version="1.10" tiledversion="1.11.2" orientation="orthogonal" renderorder="right-down" width="43" height="32" tilewidth="32" tileheight="32" infinite="0" nextlayerid="5" nextobjectid="1">
 <tileset firstgid="1" name="Pro all tiles" tilewidth="32" tileheight="32" tilecount="1024" columns="32">
  <image source="Tiles/Pro all tiles.png" width="1024" height="1024"/>
 </tileset>
 <tileset firstgid="1025" name="tile group" tilewidth="32" tileheight="32" tilecount="21000" columns="140">
  <image source="Tiles/tile group.png" width="4480" height="4800"/>
 </tileset>
 <tileset firstgid="22025" name="sinnohtiles" tilewidth="32" tileheight="32" tilecount="1554" columns="37">
  <image source="Tiles/sinnohtiles.png" width="1214" height="1356"/>
 </tileset>
 <layer id="1" name="Layer 1" width="43" height="32">
  <data encoding="csv">
552,552,552,552,552,552,552,552,552,552,552,552,552,552,552,552,552,552,552,552,552,552,673,485,516,611,552,552,552,552,552,552,552,552,552,552,552,552,552,552,552,552,552,
552,552,552,552,552,552,552,552,552,552,552,552,552,552,552,552,552,552,552,552,552,552,552,641,552,552,611,552,552,552,552,552,552,552,552,552,552,552,552,552,552,552,552,
552,552,552,552,552,552,552,552,552,552,552,552,552,552,552,552,552,552,552,552,552,552,552,673,485,3267,3268,552,552,552,552,552,552,552,80,80,552,552,552,552,552,552,552,
552,552,552,552,552,552,552,552,552,552,1316,552,552,552,552,552,552,552,552,552,552,552,552,552,3266,3267,3268,552,552,552,552,552,552,80,80,552,552,552,552,552,552,552,552,
552,552,552,552,552,552,552,552,552,552,552,552,552,552,552,552,552,552,552,552,552,552,552,552,552,3267,3268,552,552,552,552,552,552,80,80,552,552,552,552,552,552,552,552,
552,552,552,552,552,552,552,552,552,552,552,552,552,552,552,552,552,552,552,552,552,552,552,552,552,3267,3268,552,552,552,552,552,552,552,552,552,552,552,552,552,552,552,552,
552,552,552,552,552,552,552,552,552,552,552,552,552,552,552,552,552,552,552,552,552,552,552,609,517,3267,3268,552,552,552,552,552,552,552,552,552,552,552,552,552,552,552,552,
552,552,552,552,552,552,552,552,552,552,552,552,552,552,552,552,552,552,609,552,643,552,609,517,3267,3267,3686,3128,3128,3267,552,552,552,552,552,552,552,552,552,552,552,552,552,
610,610,610,610,610,610,610,610,611,552,641,642,643,552,609,610,610,610,517,642,516,610,517,3267,3267,3267,3267,3268,3126,3267,552,552,552,552,552,552,552,552,552,552,552,552,552,
485,642,642,642,642,642,642,642,516,610,517,642,516,610,517,642,642,642,642,642,642,642,642,3546,3407,3407,3547,3686,552,3267,552,552,552,552,552,552,552,552,552,552,552,552,552,
673,674,674,674,674,674,674,485,642,642,642,642,642,642,642,484,674,674,674,674,674,674,674,3408,552,552,3406,552,552,552,552,552,552,552,552,552,552,552,552,552,552,552,552,
552,552,552,552,552,552,552,673,674,674,485,642,484,674,674,675,552,552,552,552,552,552,552,552,552,552,552,552,552,552,552,552,552,552,552,552,552,552,552,552,552,552,552,
552,552,552,552,552,552,552,552,552,552,641,642,643,552,552,552,552,552,552,552,552,552,552,552,552,552,552,552,552,552,552,552,552,552,552,552,552,552,552,552,552,552,80,
552,552,552,552,552,552,552,552,552,552,641,642,643,552,552,552,552,552,552,552,552,552,552,552,552,552,612,613,613,614,552,552,552,552,552,552,552,552,80,552,552,552,552,
552,552,552,552,552,552,552,552,552,552,641,642,643,552,552,552,552,552,552,552,552,552,552,612,613,613,581,645,645,580,613,614,552,552,552,552,552,552,80,552,552,552,552,
552,552,552,552,552,552,552,552,3126,3127,3127,3127,3127,3127,3128,552,552,552,552,552,552,552,552,644,645,645,548,677,677,549,645,580,614,552,552,552,552,552,552,552,552,552,552,
552,552,552,552,552,552,552,552,642,3546,3407,552,3407,3547,3268,552,552,552,552,552,552,552,552,676,549,645,646,552,552,644,645,645,646,552,552,552,552,552,552,552,552,552,552,
552,552,552,552,552,552,552,642,642,3268,552,552,552,3266,3268,552,552,552,552,552,552,552,552,552,644,645,580,614,552,676,549,645,646,552,552,552,552,552,552,552,552,552,552,
552,552,552,552,609,642,642,642,642,3686,3127,3127,3127,3687,3268,552,552,552,552,552,552,552,552,552,676,549,645,646,80,552,644,645,646,552,552,552,552,552,552,552,552,552,552,
552,552,552,552,673,485,642,642,642,642,3407,3407,3547,3267,3268,552,552,552,552,552,552,3267,552,552,552,644,645,580,613,613,581,548,678,552,552,552,552,552,552,552,552,80,80,
552,552,552,552,552,673,674,674,674,674,552,552,3406,3547,3686,3128,552,552,552,552,3126,3267,3268,552,552,676,549,645,645,645,645,580,614,552,552,552,552,552,552,552,552,80,80,
552,552,552,552,552,552,552,552,552,552,552,552,552,3406,3547,3686,3127,3127,3127,3127,3687,3267,3268,552,80,612,581,645,645,645,645,645,646,552,552,552,552,552,552,552,552,552,80,
552,552,552,552,552,552,552,552,552,552,552,552,80,552,3406,3407,3407,3407,3407,3407,3407,3407,3408,80,552,644,645,645,645,645,645,645,580,614,552,552,552,552,552,552,552,552,552,
552,552,552,552,552,552,552,552,552,552,552,552,80,80,552,80,552,552,552,552,552,80,552,552,552,644,645,645,645,645,645,645,645,646,552,552,552,552,552,552,552,552,552,
552,552,552,552,552,552,552,552,552,552,552,612,614,552,552,612,613,613,613,613,614,612,613,613,613,581,645,645,645,645,645,645,645,646,552,80,552,552,552,80,552,552,552,
552,552,552,552,552,552,552,552,552,552,552,676,678,552,612,581,645,645,645,645,580,581,645,645,645,645,645,645,645,645,645,645,548,678,552,552,552,552,80,80,552,552,552,
552,552,552,552,552,552,552,552,552,552,552,552,552,552,644,645,645,645,645,645,645,645,645,645,645,645,645,645,645,645,645,645,580,614,552,552,552,552,552,552,552,552,552,
552,552,552,552,552,552,552,552,552,552,552,552,552,552,676,677,677,677,677,677,677,677,677,549,645,645,645,645,645,645,645,645,645,646,552,552,552,552,552,552,552,552,552,
552,552,552,552,552,552,552,552,552,552,552,552,552,552,552,80,80,80,80,80,80,552,552,676,549,645,645,645,645,645,645,645,645,646,552,552,552,552,552,552,552,552,552,
552,552,552,552,552,552,552,552,552,552,552,552,80,80,552,552,552,552,552,552,552,552,552,552,676,549,645,645,645,645,645,645,548,678,552,552,552,552,552,552,552,552,552,
552,552,552,552,552,552,552,552,552,552,552,552,552,80,552,552,552,552,552,552,552,552,552,552,552,676,549,645,645,645,645,645,646,552,552,552,552,552,552,552,80,80,552,
552,552,552,552,552,552,552,552,552,552,552,552,552,552,552,552,552,552,552,552,552,552,552,552,552,552,644,645,645,645,645,645,646,552,552,552,552,552,552,80,80,552,552
</data>
 </layer>
 <layer id="2" name="Layer 2" width="43" height="32">
  <data encoding="csv">
0,0,0,0,169,170,171,0,0,0,76,77,78,169,170,171,1174,169,170,171,0,0,0,0,0,1309,1310,1311,0,0,0,22915,1309,1310,1311,1315,1316,1317,1312,1313,1314,0,1312,
169,170,171,0,0,0,0,169,170,171,0,1315,1316,1317,169,170,1314,1316,1317,1315,1316,1317,0,0,642,516,0,0,0,1309,1310,1311,0,1312,1313,1314,1312,1313,1314,22879,1309,1310,1311,
0,76,77,78,169,170,171,76,77,78,169,170,171,1315,1316,1317,0,76,77,78,0,0,0,0,0,0,0,1309,1310,1311,0,0,1312,1313,1314,0,0,22879,1310,22879,0,0,22879,
0,0,76,77,78,0,76,77,78,1170,1171,1317,44,45,1309,77,78,0,0,169,170,171,60,0,0,0,0,0,0,0,1309,1310,1311,0,1309,1310,1311,1312,1313,1314,1309,1310,1311,
169,170,171,0,169,170,171,0,76,77,78,0,0,0,0,0,0,0,0,0,0,0,57,0,641,0,0,0,1312,1313,1314,1312,1313,1314,0,0,1312,1313,1314,0,1312,1313,1314,
0,76,77,78,0,0,76,77,78,78,0,0,0,0,0,0,0,0,0,0,0,0,57,0,641,0,0,1309,1310,1311,1312,1313,1314,0,1312,1313,1314,0,1309,1310,1311,0,1309,
169,170,171,0,76,77,78,0,0,0,0,0,0,0,0,0,0,0,0,0,0,0,92,0,0,0,0,0,22755,22756,22757,22758,1309,1310,1311,0,1309,1310,1311,1312,1313,1314,0,
0,0,28,90,90,90,90,90,90,90,0,0,0,0,0,0,0,0,0,0,0,0,0,0,0,0,0,0,22792,22793,22794,22795,0,0,1312,1313,1314,0,1312,1313,1314,1309,1310,
0,0,0,0,0,0,0,0,0,0,0,0,0,0,0,0,0,0,0,0,0,0,0,0,0,0,0,0,22829,22830,22831,22832,0,0,0,22915,1309,1310,1311,1309,1310,1311,22915,
0,0,0,0,0,0,0,0,0,0,0,0,0,0,0,0,0,0,0,0,0,0,0,0,0,0,0,0,3687,0,3686,3128,0,1309,1310,1311,0,1312,1313,1314,1309,1310,1311,
0,0,0,0,0,0,0,0,0,0,0,0,0,0,0,0,0,0,0,0,0,0,0,0,22842,1462,1462,3407,3407,3407,3407,3408,0,0,0,0,1309,1310,1311,0,0,0,0,
0,0,0,0,0,0,0,0,0,0,0,0,0,0,0,0,0,0,0,0,0,0,0,0,0,0,0,0,0,0,0,22879,0,0,1312,1313,1314,0,1312,1313,1314,1309,1310,
1309,1310,1311,0,0,0,0,0,0,0,0,0,0,0,0,0,0,1312,1313,1314,0,1309,1310,1311,0,0,0,0,0,0,22879,0,0,1309,1310,1311,0,1309,1310,1311,1312,1313,1314,
0,0,1312,1313,1314,1309,1310,1311,0,0,0,0,0,0,22915,0,22879,0,0,0,1315,1316,1317,0,0,0,0,0,0,0,0,0,0,0,0,0,1312,1313,1314,1312,1313,1314,0,
1312,1313,1314,0,0,0,0,0,0,0,0,0,0,0,0,0,0,1315,1316,1317,0,0,1309,1310,1311,0,0,0,0,0,0,1309,1310,1311,1312,1313,1314,0,0,0,1309,1310,1311,
0,1312,1313,1314,0,0,0,0,0,0,0,0,0,0,0,0,22915,0,0,1315,1316,1317,0,0,0,0,0,0,0,0,0,0,1312,1313,1314,0,1309,1310,1311,1312,1313,1314,1309,
0,0,0,0,0,0,0,0,0,0,0,0,0,0,0,0,0,22879,1309,1310,1311,0,1309,1310,1311,0,0,22879,0,0,0,0,0,0,1309,1310,1311,1312,1313,1314,0,1312,1313,
1315,1316,1317,0,0,0,0,0,0,0,0,0,0,0,0,0,22915,0,0,0,0,0,0,0,0,0,0,0,22879,0,0,0,0,1312,1313,1314,0,0,22879,1309,1310,1311,0,
0,1309,1310,1311,0,0,0,0,0,0,0,0,0,0,0,0,0,22842,0,0,0,0,0,0,0,0,0,0,0,0,0,1309,1310,1311,22879,0,1309,1310,1311,0,0,1309,1310,
1312,1313,1314,0,0,0,0,0,0,0,0,0,0,0,0,0,0,0,0,0,0,0,0,0,0,0,0,0,0,0,0,0,0,22879,0,0,0,0,0,1312,1313,1314,1315,
0,1312,1313,1314,22840,0,0,0,0,0,0,22879,0,0,0,0,0,0,0,0,0,0,0,0,0,0,0,0,0,0,0,1309,1310,1311,1312,1313,1314,0,1309,1310,1311,0,0,
1315,1316,1317,2711,0,0,0,0,0,0,22915,0,0,0,0,0,0,0,0,0,0,0,0,0,0,0,0,0,0,0,0,0,0,1315,1316,1317,1309,1310,1311,1312,1313,1314,0,
0,1309,1310,1311,0,1312,1313,1314,1309,1310,1311,0,0,0,0,0,0,0,0,0,0,0,0,0,0,0,0,0,0,0,0,1309,1310,1311,1309,1310,1311,0,1315,1316,1317,1309,1310,
0,0,0,0,0,22879,2711,1312,1313,1314,0,0,0,0,0,0,0,0,0,0,0,0,0,0,0,0,0,0,0,0,0,0,0,1315,1316,1317,22879,1312,1313,1314,22915,0,1312,
1312,1313,1314,0,1309,1310,1311,0,0,1312,1313,1314,0,0,0,0,0,0,0,0,0,0,0,0,0,0,0,0,0,0,0,0,1309,1310,1311,0,22915,0,0,0,1309,1310,1311,
0,2711,1309,1310,1311,0,0,1309,1310,1311,0,0,0,1309,1310,1311,0,0,0,0,0,0,0,0,0,0,0,0,0,0,0,0,0,0,0,0,1309,1310,1311,0,0,1312,1313,
0,0,0,0,0,0,1312,1313,1314,0,2711,0,0,0,0,0,0,0,0,0,0,0,0,79,0,0,0,0,0,0,0,0,0,1309,1310,1311,0,0,0,1309,1310,1311,0,
139,1309,1310,1311,1309,1310,1311,1315,1316,1317,0,1312,1313,1314,0,0,0,0,0,0,0,0,0,0,0,79,0,0,0,0,0,0,0,0,0,1312,1313,1314,1312,1313,1314,22915,0,
1312,1313,1314,1309,1310,1311,1311,0,1309,1310,1311,0,1309,1310,1311,0,0,0,0,0,0,0,0,0,0,79,0,0,0,0,0,0,0,1315,1316,1317,0,1309,1310,1311,22915,22915,0,
0,0,1315,1316,1317,1309,1310,1311,0,1312,1313,1314,0,1312,1313,1314,1312,1313,1314,0,1312,1313,1314,0,0,0,79,0,0,0,0,0,5797,0,1309,1310,1311,0,1309,1310,1311,22915,0,
2711,1309,1310,1311,1309,1310,1311,1312,1313,1314,0,0,0,0,0,1309,1310,1311,1309,1310,1311,0,1309,1310,1311,0,0,0,0,0,0,0,1315,1316,1317,0,1312,1313,1314,0,0,1312,1313,
0,0,0,1315,1316,1317,0,1309,1310,1311,76,77,78,1309,1310,1311,0,1315,1316,1317,0,76,77,78,0,0,0,0,0,0,0,0,0,0,1309,1310,1311,1309,1310,1311,0,0,1309
</data>
 </layer>
 <layer id="3" name="Layer 3" width="43" height="32">
  <data encoding="csv">
137,138,139,0,0,0,0,137,138,139,0,140,141,142,137,138,1175,1176,1177,140,141,142,0,0,0,0,0,0,0,1169,1170,1171,0,1172,1173,1174,1172,1173,1174,0,1169,1170,1171,
0,44,45,46,137,138,139,44,45,46,137,138,139,140,141,142,1315,44,45,46,0,0,0,0,0,0,0,1169,1170,1171,0,0,1172,1173,1174,0,0,1169,1170,1171,0,0,0,
139,0,44,45,46,0,44,45,46,140,141,142,22417,22417,44,45,46,0,0,137,138,139,0,0,0,0,0,0,0,0,1169,1170,1171,0,1169,1170,1171,1172,1173,1174,1169,1170,1171,
137,138,139,0,137,138,139,0,14,22234,22235,22236,22237,22238,1171,22240,22241,22449,22450,22451,22452,22453,0,0,0,0,0,0,1172,1173,1174,1172,1173,1174,0,0,1172,1173,1174,0,1172,1173,1174,
0,44,45,46,0,0,44,45,46,22271,22272,22273,22274,22275,22276,22277,22278,22486,22487,22488,22489,22490,0,0,0,0,0,1169,1170,1171,1172,1173,1174,0,1172,1173,1174,0,1169,1170,1171,0,1169,
137,138,139,0,44,45,46,0,22417,22308,22309,22310,22311,22312,22313,22314,22315,22523,22524,22525,22526,22527,0,0,0,0,0,0,0,0,0,0,1169,1170,1171,0,1169,1170,1171,1172,1173,1174,0,
0,0,0,0,0,0,0,0,22417,22345,22346,22347,22348,22349,22350,22351,22352,22560,22561,22562,22563,22564,0,0,0,0,0,0,0,0,0,0,0,0,1172,1173,1174,0,1172,1173,1174,1169,1170,
0,0,0,0,0,0,0,0,0,22382,22383,22384,22385,22386,22387,22388,22389,22597,22598,22599,22600,22601,0,0,0,0,0,0,0,0,0,0,1175,1176,1177,0,1169,1170,1171,1169,1170,1171,0,
0,0,0,0,0,0,0,0,0,22419,22420,22421,22422,22423,22424,22425,22426,22634,22635,22636,22637,22638,0,0,0,0,0,0,0,0,0,0,0,1169,1170,1171,0,1172,1173,1174,1169,1170,1171,
0,0,0,0,0,0,0,0,0,0,0,0,0,0,0,0,0,0,0,0,0,0,0,0,0,0,0,0,0,0,0,0,9096,0,0,0,1169,1170,1171,0,0,0,0,
0,0,0,0,0,0,0,0,0,0,0,0,0,0,0,0,0,0,0,0,0,0,0,0,0,0,0,0,0,0,0,0,9236,0,1172,1173,1174,0,1172,1173,1174,1169,1170,
1169,1170,1171,0,0,0,0,0,0,0,0,0,0,0,0,0,0,1172,1173,1174,0,1169,1170,1171,0,0,0,0,0,0,0,0,0,1169,1170,1171,0,1169,1170,1171,1172,1173,1174,
0,0,1172,1173,1174,1169,1170,1171,0,0,0,0,0,0,0,0,0,0,0,0,1175,1176,1177,0,0,0,0,0,0,0,0,0,0,0,0,0,1172,1173,1174,1172,1173,1174,0,
1172,1173,1174,0,22043,22044,22045,22046,22047,8080,8081,8082,8083,8084,0,0,0,1175,1176,1177,0,0,1169,1170,1171,0,0,0,0,0,0,1169,1170,1171,1172,1173,1174,0,0,0,1169,1170,1171,
0,1172,1173,1174,22080,22081,22082,22083,22084,8220,8221,8222,8223,8224,0,9096,0,0,0,1175,1176,1177,0,0,0,0,0,0,0,0,0,0,1172,1173,1174,0,1169,1170,1171,1172,1173,1174,1169,
1174,0,0,0,22117,22118,22119,22120,22121,8360,8361,8362,8363,8364,0,9236,0,0,1169,1170,1171,0,1169,1170,1171,0,0,0,0,0,0,0,0,0,1169,1170,1171,1172,1173,1174,0,1172,1173,
1175,1176,1177,0,22154,22155,22156,22157,22158,8500,8501,8502,8503,8504,0,9096,0,0,0,0,0,0,0,0,0,0,0,0,0,0,0,0,0,1172,1173,1174,1172,1173,1174,1169,1170,1171,0,
0,1169,1170,1171,22191,22192,22193,22194,22195,8640,8641,8642,8643,8644,0,9236,0,2850,2851,0,0,0,0,0,0,0,0,0,0,0,0,1169,1170,1171,0,0,1169,1170,1171,0,0,1169,1170,
1172,1173,1174,0,22228,22229,22230,22231,22232,0,0,0,0,0,0,9096,0,2990,2991,22879,0,0,0,0,0,0,0,0,0,0,0,0,0,0,1169,1170,1171,0,0,1172,1173,1174,1175,
1171,1172,1173,1174,0,0,0,0,0,0,484,0,0,0,0,9236,22879,0,0,0,0,0,0,0,0,0,0,0,0,0,0,1169,1170,1171,1172,1173,1174,0,1169,1170,1171,0,0,
1175,1176,1177,0,0,0,0,0,0,0,675,0,0,0,0,0,0,22842,0,0,0,0,0,0,0,0,0,0,0,0,0,0,0,1175,1176,1177,1169,1170,1171,1172,1173,1174,0,
0,1169,1170,1171,0,1169,1170,1171,1169,1170,1171,0,0,0,0,0,5371,5371,5371,0,0,0,0,0,0,0,0,0,0,0,0,1169,1170,1171,1169,1170,1171,0,1175,1176,1177,1169,1170,
1177,0,0,0,0,0,0,1172,1173,1174,0,0,0,0,0,0,5371,5371,5371,5371,5371,5371,0,0,0,0,0,0,0,0,0,0,0,1175,1176,1177,0,1172,1173,1174,0,0,1172,
1172,1173,1174,0,1169,1170,1171,0,0,1172,1173,1174,0,0,0,0,5371,5371,5371,5371,5371,5371,5371,5371,0,0,0,0,0,0,0,0,1169,1170,1171,0,1169,1170,1171,0,1169,1170,1171,
0,0,1169,1170,1171,0,0,1169,1170,1171,0,0,0,1169,1170,1171,5371,5371,5371,5371,5371,5371,0,0,0,0,0,0,0,0,5377,5515,5517,1175,1176,1177,1169,1170,1171,0,0,1172,1173,
0,0,0,0,0,0,1172,1173,1174,0,0,0,0,0,0,0,0,0,0,0,0,0,0,0,0,0,0,0,0,0,5515,6076,5797,1169,1170,1171,0,0,0,1169,1170,1171,0,
107,1169,1170,1171,1169,1170,1171,1175,1176,1177,0,1172,1173,1174,0,0,0,0,0,0,0,0,0,0,0,0,0,0,0,0,5795,5797,5377,0,0,1172,1173,1174,1172,1173,1174,0,0,
1172,1173,1174,1169,1170,1171,0,0,1169,1170,1171,0,1169,1170,1171,0,0,0,0,0,0,0,0,0,0,0,0,0,0,0,0,0,0,1175,1176,1177,0,1169,1170,1171,0,1172,1173,
0,0,1175,1176,1177,1169,1170,1171,0,1172,1173,1174,0,1172,1173,1174,1172,1173,1174,0,1172,1173,1174,0,0,0,0,0,0,0,5796,5936,5657,0,1169,1170,1171,0,1169,1170,1171,1169,1170,
0,1169,1170,1171,1169,1170,1171,1172,1173,1174,1169,1170,1171,0,0,1169,1170,1171,1169,1170,1171,0,1169,1170,1171,0,0,0,0,0,0,0,1175,1176,1177,0,1172,1173,1174,0,0,1172,1173,
0,0,0,1175,1176,1177,0,1169,1170,1171,1169,1170,1171,1169,1170,1171,0,1175,1176,1177,0,1169,1170,1171,0,0,0,0,0,0,0,0,0,0,1169,1170,1171,1169,1170,1171,0,0,1169,
0,0,1169,1170,1171,1172,1173,1174,0,1172,1173,1174,1172,1173,1174,0,1175,1176,1177,1175,1176,1177,1172,1173,1174,0,0,0,0,0,0,0,1175,1176,1177,0,1172,1173,1174,0,0,1169,1170
</data>
 </layer>
 <layer id="4" name="Top layer " width="43" height="32">
  <data encoding="csv">
0,12,13,14,105,106,107,12,13,14,105,106,107,108,109,110,0,12,13,14,0,0,0,0,0,0,0,1029,1030,1031,0,0,1032,1033,1034,0,0,1029,1030,1031,0,0,0,
107,0,12,13,14,0,12,13,14,108,109,110,0,0,12,13,14,0,0,105,106,107,0,0,0,0,0,0,0,0,1029,1030,1031,0,1029,1030,1031,1032,1033,1034,1029,1030,1031,
105,106,107,0,105,106,107,0,12,13,14,0,12,13,14,0,0,0,0,0,0,0,0,0,0,0,0,0,1032,1033,1034,1032,1033,1034,0,0,1032,1033,1034,0,1032,1033,1034,
171,12,13,14,0,0,12,13,44,0,0,0,0,0,22239,0,0,0,0,0,0,0,0,0,0,0,0,1029,1030,1031,1032,1033,1034,0,1032,1033,1034,0,1029,1030,1031,0,1029,
105,106,107,0,12,13,14,0,0,0,0,0,0,0,0,0,0,0,0,0,0,0,0,0,0,0,0,0,0,0,0,0,1029,1030,1031,0,1029,1030,1031,1032,1033,1034,0,
14,0,0,0,0,0,0,0,0,0,0,0,0,0,0,0,0,0,0,0,0,0,0,0,0,0,0,0,22718,22719,22720,22721,0,0,1032,1033,1034,0,1032,1033,1034,1029,1030,
46,0,0,0,0,0,0,0,0,0,0,0,0,0,0,0,0,0,0,0,0,0,0,0,0,0,0,0,0,0,0,0,1035,1036,1037,0,1029,1030,1031,1029,1030,1031,0,
78,0,0,0,0,0,0,0,0,0,0,0,0,0,0,0,0,0,0,0,0,0,0,0,0,0,0,0,0,0,0,0,0,1029,1030,1031,0,1032,1033,1034,1029,1030,1031,
0,0,0,0,0,0,0,0,0,0,0,0,0,0,0,0,0,0,0,0,0,0,0,0,0,0,0,0,0,0,0,0,0,0,0,0,1029,1030,1031,0,0,0,0,
0,0,0,0,0,0,0,0,0,0,0,0,0,0,0,0,0,0,0,0,0,0,0,0,0,0,0,0,0,0,0,0,0,0,1032,1033,1034,0,1032,1033,1034,1029,1030,
1029,1030,1031,0,0,0,0,0,0,0,0,0,0,0,0,0,0,1032,1033,1034,0,1029,1030,1031,0,0,0,0,0,0,0,0,0,1029,1030,1031,0,1029,1030,1031,1032,1033,1034,
0,0,1032,1033,1034,1029,1030,1031,0,0,0,0,0,0,0,0,0,0,0,0,1035,1036,1037,0,0,0,0,0,0,0,0,0,0,0,0,0,1032,1033,1034,1032,1033,1034,0,
1032,1033,1034,0,0,0,0,0,0,0,0,0,0,0,0,0,0,1035,1036,1037,0,0,1029,1030,1031,0,0,0,0,0,0,1029,1030,1031,1032,1033,1034,0,0,0,1029,1030,1031,
1013,1032,1033,1034,0,0,0,0,0,0,0,0,0,0,0,0,0,0,0,1035,1036,1037,0,0,0,0,0,0,0,0,0,0,1032,1033,1034,0,1029,1030,1031,1032,1033,1034,1029,
107,0,0,0,0,0,0,0,0,0,0,0,0,0,0,0,0,0,1029,1030,1031,0,1029,1030,1031,0,0,0,0,1449,1449,1449,0,0,1029,1030,1031,1032,1033,1034,0,1032,1033,
1035,1036,1037,0,0,0,0,0,0,0,0,0,0,0,0,0,0,0,0,0,0,0,0,0,0,0,0,0,0,0,0,0,0,1032,1033,1034,1032,1033,1034,1029,1030,1031,0,
171,1029,1030,1031,0,0,0,0,0,0,0,0,0,0,0,0,0,0,0,0,22049,22050,22051,22052,432,0,0,0,0,0,0,1029,1030,1031,0,0,1029,1030,1031,0,0,1029,1030,
1032,1033,1034,0,0,0,0,0,0,0,0,0,0,0,0,0,0,0,0,0,22086,22087,22088,22089,464,0,0,0,0,0,0,0,0,0,1029,1030,1031,0,0,1032,1033,1034,1035,
14,1032,1033,1034,0,0,0,0,0,0,0,0,0,0,0,0,0,0,0,0,22123,22124,22125,22126,0,0,0,0,0,0,0,1029,1030,1031,1032,1033,1034,0,1029,1030,1031,0,0,
1035,1036,1037,0,0,0,0,0,0,0,0,0,0,0,0,0,0,0,0,0,22160,22161,22162,22163,0,0,0,0,0,0,0,0,0,1035,1036,1037,1029,1030,1031,1032,1033,1034,0,
78,1029,1030,1031,0,1029,1030,1031,1029,1030,1031,0,0,0,0,0,0,0,0,0,22197,22198,22199,22200,0,0,0,0,0,0,0,1029,1030,1031,1029,1030,1031,0,1035,1036,1037,1029,1030,
110,0,0,0,0,0,0,1032,1033,1034,0,1450,1450,1450,1450,1450,0,0,0,0,0,0,0,0,0,0,0,0,0,0,0,0,0,1035,1036,1037,0,1032,1033,1034,0,0,1032,
1032,1033,1034,0,1029,1030,1031,0,0,1032,1033,1034,0,0,0,0,0,0,0,0,0,0,0,0,0,0,0,0,0,0,0,0,1029,1030,1031,0,1029,1030,1031,0,1029,1030,1031,
174,0,1029,1030,1031,0,0,1029,1030,1031,0,0,0,1029,1030,1031,0,5371,5371,5371,5371,5371,5371,5371,5371,0,0,0,0,0,0,0,0,1035,1036,1037,1029,1030,1031,0,0,1032,1033,
0,0,0,0,0,0,1032,1033,1034,0,0,0,0,0,0,0,5371,5371,5371,5371,5371,5371,5371,5371,5371,0,0,0,0,0,0,0,0,1029,1030,1031,0,0,0,1029,1030,1031,0,
9,1029,1030,1031,1029,1030,1031,1035,1036,1037,0,1032,1033,1034,0,0,0,5371,5371,5371,5371,5371,5371,5371,0,0,0,0,0,0,0,5935,0,0,0,1032,1033,1034,1032,1033,1034,0,0,
1032,1033,1034,1029,1030,1031,0,0,1029,1030,1031,0,1029,1030,1031,0,0,0,0,0,0,0,0,0,0,0,0,0,0,0,0,0,0,1035,1036,1037,0,1029,1030,1031,0,1032,1033,
9,0,1035,1036,1037,1029,1030,1031,0,1032,1033,1034,0,1032,1033,1034,1032,1033,1034,0,1032,1033,1034,0,0,0,0,0,0,5515,5516,5516,5517,0,1029,1030,1031,0,1029,1030,1031,1029,1030,
171,1029,1030,1031,1029,1030,1031,1032,1033,1034,1029,1030,1031,0,0,1029,1030,1031,1029,1030,1031,0,1029,1030,1031,0,0,0,0,5795,432,0,1035,1036,1037,0,1032,1033,1034,0,0,1032,1033,
0,0,0,1035,1036,1037,0,1029,1030,1031,1029,1030,1031,1029,1030,1031,0,1035,1036,1037,0,1029,1030,1031,0,0,0,0,0,0,464,5795,0,0,1029,1030,1031,1029,1030,1031,0,0,1029,
1030,1031,1029,1030,1031,1032,1033,1034,0,1032,1033,1034,1032,1033,1034,0,1035,1036,1037,1035,1036,1037,1032,1033,1034,0,0,0,0,0,0,0,1035,1036,1037,0,1032,1033,1034,0,0,1029,1030,
1170,1171,0,0,0,0,1035,1036,1037,0,1035,1036,1037,0,0,0,1029,1030,1031,0,0,1029,1030,1031,1029,1030,1031,0,0,0,0,0,0,1032,1033,1034,1029,1030,1031,1029,1030,1031,0
</data>
 </layer>
</map>
