<?xml version="1.0" encoding="UTF-8"?>
<map version="1.0" orientation="orthogonal" renderorder="right-down" width="100" height="57" tilewidth="32" tileheight="32" nextobjectid="1">
 <tileset firstgid="1" name="new tilesert2" tilewidth="32" tileheight="32" tilecount="3744" columns="8">
  <image source="Tiles/new tilesert2.png" width="256" height="14976"/>
 </tileset>
 <tileset firstgid="3745" name="Pro all tiles" tilewidth="32" tileheight="32" tilecount="1024" columns="32">
  <image source="Tiles/Pro all tiles.png" width="1024" height="1024"/>
 </tileset>
 <tileset firstgid="4769" name="tile group" tilewidth="32" tileheight="32" tilecount="21000" columns="140">
  <image source="Tiles/tile group.png" width="4480" height="4800"/>
 </tileset>
 <tileset firstgid="25769" name="Trainer overworld sprite" tilewidth="32" tileheight="32" tilecount="3840" columns="60">
  <image source="Tiles/Trainer overworld sprite.png" width="1920" height="2048"/>
 </tileset>
 <layer name="Layer 1" width="100" height="57">
  <data encoding="csv">
9403,9403,9403,9403,9403,9403,9403,7025,7026,7027,9403,9403,9403,9403,9403,9403,9403,6885,6886,6887,9403,9403,9403,7992,7992,9403,6885,6886,6886,6886,6886,6886,7446,7027,9403,9403,9403,9403,9403,9403,9403,9403,9403,7992,7992,9403,9403,9403,9403,9403,9403,7992,9403,9403,9403,9403,4353,4261,4386,4387,9403,9403,9403,9403,9403,9403,9403,9403,9403,3824,3824,9403,9403,9403,9403,9403,9403,9403,9403,4688,9403,9403,9403,9403,9403,9403,9403,9403,9403,9403,9403,9403,9403,9403,3824,9403,9403,9403,9403,9403,
9403,9403,9403,9403,9403,9403,6885,7305,7166,7167,9403,9403,9403,9403,9403,9403,9403,7025,7026,7027,9403,9403,9403,9403,9403,9403,7025,7026,7026,7026,7026,7026,7305,7167,9403,9403,9403,9403,9403,9403,9403,9403,9403,7992,9403,9403,9403,9403,9403,7992,9403,9403,9403,9403,9403,9403,4385,4386,4386,4387,9403,9403,9403,9403,9403,9403,9403,9403,3824,4688,9403,9403,9403,7026,9403,6885,7026,7026,9403,9403,9403,9403,9403,9403,9403,7025,9403,9403,7027,9403,9403,9403,9403,9403,9403,9403,9403,9403,4688,9403,
9403,9403,9403,9403,9403,6885,7446,7027,9403,9403,9403,9403,9403,9403,9403,9403,9403,7025,7026,7027,9403,7992,9403,9403,9403,9403,7025,7026,7026,7026,7026,7305,7167,9403,7992,9403,9403,9403,9403,9403,9403,9403,9403,9403,9403,9403,7992,9403,7992,7992,9403,9403,9403,9403,9403,9403,4385,4386,4386,4387,9403,9403,9403,6885,6886,6886,6886,9403,9403,9403,6885,7026,9403,7026,7026,7025,7026,7305,7166,7026,7026,7026,7026,9403,9403,7025,7026,7305,7167,9403,9403,9403,9403,4688,9403,9403,9403,9403,9403,9403,
9403,9403,9403,9403,6885,7446,7026,7027,9403,9403,9403,9403,7992,9403,9403,9403,9403,7025,7026,7445,6887,9403,9403,9403,9403,9403,7025,7026,7026,7305,7166,7167,9403,9403,9403,9403,9403,7992,9403,9403,9403,9403,9403,9403,9403,9403,6885,6886,6886,6886,6887,9403,9403,9403,9403,4353,4261,4386,4228,4419,9403,9403,9403,7025,7305,7306,9403,9403,9403,9403,7025,7026,7026,7305,7166,7025,7305,7167,9403,7026,7026,7026,7026,9403,4688,7165,7166,7167,9403,9403,9403,9403,9403,9403,9403,4688,3824,9403,9403,9403,
9403,9403,9403,9403,7165,7166,7166,7167,9403,9403,9403,9403,9403,7992,9403,9403,6885,7446,7026,7026,7027,9403,9403,9403,9403,5092,7025,7026,7305,7167,9403,7992,9403,6885,6886,6886,6886,6887,9403,9403,9403,9403,9403,9403,9403,9403,7025,7026,7026,7026,7026,6887,9403,9403,4353,4261,4386,4386,4387,9403,9403,9403,9403,7025,7027,7025,9403,9403,9403,3824,7165,7306,7026,7167,9403,7165,7167,9403,9403,7026,7026,7026,9403,9403,9403,9403,9403,9403,9403,7026,7026,7027,9403,9403,9403,9403,7026,7026,7026,7026,
9403,9403,9403,9403,9403,9403,9403,9403,7992,9403,9403,9403,7992,7992,9403,9403,7025,7026,7026,7305,7167,9403,9403,9403,9403,9403,7165,7166,7167,9403,7992,9403,9403,7025,7026,7026,7026,7445,6887,9403,9403,9403,9403,7992,7992,6885,7446,7026,7026,7026,7305,7167,9403,9403,4385,4386,4386,4228,4419,9403,9403,9403,6885,7446,7167,7165,7166,7306,9403,9403,3824,7165,7167,9403,9403,9403,3824,9403,9403,9403,7026,7026,7026,7026,9403,9403,9403,7026,7026,7026,7026,7027,9403,9403,9403,9403,9403,7026,7026,7026,
9403,9403,9403,9403,9403,9403,9403,7992,7992,6885,6886,6886,6887,9403,9403,9403,7025,7026,7305,7167,9403,7992,7992,9403,9403,9403,9403,9403,9403,9403,9403,9403,9403,7165,7306,7026,7026,7026,7027,9403,9403,9403,9403,9403,9403,7025,7026,7026,7026,7026,7027,9403,9403,9403,4385,4386,4386,4387,9403,9403,9403,9403,7165,7167,4688,9403,9403,7165,7166,7166,9403,9403,9403,9403,9403,9403,3824,9403,9403,7025,9403,9403,7026,7026,7026,7026,7026,7026,7305,7166,7166,7167,4688,9403,9403,9403,7165,7026,7026,7026,
9403,9403,9403,9403,9403,9403,9403,9403,6885,7446,7026,7026,7445,6887,9403,9403,7165,7166,7167,9403,9403,7992,9403,9403,9403,9403,9403,9403,9403,9403,9403,9403,9403,9403,7165,7166,7166,7166,7167,9403,9403,9403,9403,6885,6886,7446,7026,7026,7026,7305,7167,9403,9403,9403,4385,4386,4386,4387,9403,9403,9403,9403,9403,9403,9403,9403,9403,9403,9403,4688,9403,9403,9403,9403,9403,3824,9403,9403,9403,7025,9403,7026,7026,7026,7026,7026,7026,7305,7167,9403,9403,3824,9403,9403,9403,9403,9403,7165,7026,7026,
9403,9403,9403,9403,9403,9403,9403,9403,7025,7026,7026,7026,7026,7027,9403,9403,9403,9403,9403,9403,9403,7992,9403,9403,9403,9403,9403,9403,9403,5088,9403,7992,9403,9403,9403,9403,9403,9403,9403,9403,7992,9403,9403,7025,7026,7026,7026,7305,7166,7167,9403,9403,9403,9403,4385,11648,11648,4387,9403,9403,9403,9403,9403,9403,9403,9403,9403,9403,9403,9403,9403,9403,9403,7026,9403,9403,9403,9403,9403,7165,7306,7305,7166,7166,7306,7026,7305,7167,9403,4688,9403,9403,9403,9403,9403,9403,9403,7025,7026,7026,
9403,9403,9403,9403,9403,9403,9403,9403,7025,7026,7026,7305,7166,7167,9403,9403,9403,7992,9403,9403,9403,9403,9403,9403,9403,9403,9403,9403,9403,9403,9403,9403,9403,7026,7026,7026,7026,7026,9403,9403,9403,9403,9403,7025,7026,7026,7305,7167,9403,9403,9403,9403,9403,7026,7026,7026,7026,7026,7026,9403,9403,9403,4688,9403,9403,9403,9403,9403,9403,9403,9403,9403,7165,7026,7026,9403,9403,9403,9403,9403,7165,7167,9403,9403,7165,7166,7167,9403,3824,9403,9403,9403,9403,9403,9403,9403,3824,7165,7306,7305,
9403,9403,9403,9403,9403,9403,9403,9403,7165,7166,7166,7167,9403,9403,9403,9403,9403,9403,9403,9403,9403,9403,9403,9403,9403,9403,9403,9403,9403,7026,7026,7026,7026,7026,7026,7026,7026,7026,7026,7026,7026,9403,9403,7165,7166,7166,7167,9403,9403,9403,7992,9403,9403,7026,7026,7026,7026,7026,7026,7026,9403,9403,9403,9403,9403,9403,9403,9403,9403,3824,9403,9403,9403,7165,7026,7026,7026,7026,7026,9403,9403,9403,9403,9403,9403,9403,3824,9403,9403,9403,9403,9403,9403,9403,6887,9403,4688,9403,7165,7167,
9403,9403,9403,9403,9403,9403,9403,7992,9403,9403,9403,9403,7992,7992,9403,9403,9403,9403,9403,9403,9403,9403,9403,9403,9403,7026,7026,7026,7026,7026,7026,7026,7026,7026,7026,7026,7026,7026,7026,7026,7026,9403,9403,9403,9403,7992,9403,9403,7992,9403,9403,7026,7026,7026,7026,7026,7026,7026,7026,7026,7026,7026,9403,7026,7026,7026,9403,9403,9403,9403,9403,9403,9403,9403,7165,7026,7026,7026,7026,9403,9403,9403,9403,9403,9403,9403,9403,9403,9403,6885,9403,9403,7026,7305,7167,9403,9403,9403,9403,9403,
4354,4354,4355,9403,9403,9403,9403,9403,9403,7992,9403,9403,9403,9403,9403,9403,9403,9403,9403,9403,9403,9403,9403,7026,7026,7026,7026,7026,7026,7026,7026,7026,7026,8476,8476,8476,8476,8476,7026,7026,7026,9403,9403,9403,7992,9403,9403,9403,9403,7026,7026,7026,7026,7026,7026,7026,7026,7026,7026,7026,7026,7026,7026,7026,7026,7026,7026,9403,9403,9403,9403,9403,9403,9403,9403,7165,7166,7166,7167,9403,9403,9403,9403,4688,9403,9403,9403,9403,6885,7446,7305,7166,7166,7167,9403,9403,9403,9403,9403,9403,
4386,4386,4260,4354,4355,9403,9403,9403,9403,9403,9403,9403,9403,9403,9403,9403,7992,9403,9403,9403,9403,9403,9403,9403,7026,7026,7026,7026,7026,8476,8476,8476,8476,8476,8476,7026,7026,7026,7026,7026,7026,9403,9403,9403,7026,7026,7026,7026,7026,7026,7026,7026,7026,7026,7026,7026,7026,7026,7026,7026,7026,7026,7026,7026,7026,7026,7026,9403,9403,9403,9403,3824,9403,9403,9403,9403,9403,9403,9403,9403,9403,9403,9403,9403,9403,3824,9403,9403,7165,7166,7167,9403,9403,9403,9403,3824,9403,9403,9403,9403,
4418,4229,4386,4386,4260,4354,4354,4355,9403,9403,9403,9403,9403,9403,9403,7992,9403,9403,9403,9403,9403,9403,7026,7026,7026,7026,8476,8476,8476,8476,8476,8476,8476,7026,7026,7026,7026,7026,7026,7026,7026,9403,9403,7026,7026,7026,7026,7026,7026,7026,7026,7026,7026,7026,7026,7026,7026,7026,7026,7026,7026,7026,7026,7026,7026,7026,7026,9403,9403,9403,9403,9403,3824,9403,9403,9403,9403,9403,9403,9403,9403,9403,9403,9403,9403,9403,9403,9403,9403,9403,9403,9403,9403,9403,3824,9403,4688,9403,9403,9403,
9403,4417,4418,4229,4386,4386,4386,4260,4354,4355,9403,9403,9403,9403,9403,9403,9403,9403,9403,9403,9403,7026,7026,7026,7026,7026,8476,8476,8476,8476,8476,7026,7026,7026,7026,7026,7026,7026,7026,7026,9403,9403,7026,7026,7026,7026,7026,7026,7026,8476,8476,7026,7026,7026,7026,7026,7026,7026,8476,8476,7026,7026,8476,7026,7026,7026,7026,7026,9403,9403,9403,9403,9403,9403,9403,3824,9403,9403,9403,9403,9403,9403,9403,9403,9403,9403,6885,9403,9403,9403,9403,9403,9403,9403,3824,3824,9403,9403,9403,9403,
9403,3824,9403,4417,4418,4418,4229,4386,4386,4260,4354,4354,4354,4355,9403,9403,9403,9403,9403,9403,9403,7026,7026,7026,7026,8476,8476,8476,8476,7026,7026,7026,7026,7026,7026,7026,7026,7026,7026,7026,7026,7026,7026,7026,7026,7026,7026,7026,7026,8476,8476,7026,7026,7026,7026,8476,8476,8476,8476,8476,8476,8476,8476,7026,7026,7026,7026,7026,9403,9403,9403,9403,9403,9403,9403,9403,9403,9403,9403,9403,9403,9403,9403,9403,9403,6885,9403,7027,9403,9403,9403,9403,9403,9403,3824,9403,9403,9403,9403,9403,
9403,9403,9403,9403,9403,9403,4417,4229,4386,4386,4386,4386,4386,4260,4355,9403,9403,9403,9403,7026,7026,7026,7026,7026,8476,8476,8476,8476,8476,7026,7026,7026,7026,7026,7026,7026,7026,7026,7026,7026,7026,7026,7026,7026,7026,7026,7026,7026,7026,8476,8476,8476,8476,8476,8476,8476,8476,8476,8476,8476,8476,8476,8476,8476,7026,7026,7026,7026,9403,9403,9403,9403,9403,9403,9403,9403,9403,9403,9403,9403,9403,9403,9403,9403,9403,7165,7166,7167,9403,9403,9403,9403,9403,9403,9403,9403,9403,9403,3824,3824,
9403,9403,9403,9403,9403,9403,9403,4417,4229,4386,4386,4386,4386,4386,4260,4355,9403,9403,7026,7026,7026,7026,7026,8476,8476,8476,7026,7026,7026,7026,7026,7026,7026,7026,7026,7026,7026,7026,7026,7026,7026,7026,7026,7026,7026,7026,7026,7026,8476,8476,8476,8476,8476,8476,8476,8476,8476,8476,8476,8476,8476,8476,8476,8476,8476,7026,7026,7026,7026,9403,9403,9403,9403,9403,9403,9403,9403,9403,7165,7167,9403,9403,9403,3824,9403,9403,9403,9403,9403,9403,9403,3824,9403,9403,9403,9403,3824,9403,3824,9403,
3824,9403,6885,6886,6887,9403,9403,9403,4417,4418,4229,4386,4386,4386,4386,4260,4355,9403,7026,7026,7026,7026,8476,8476,7026,7026,7026,7026,7026,7026,7026,7026,7026,7026,7026,7026,7026,7026,7026,7026,8476,8476,8476,8476,8476,8476,8476,8476,8476,8476,8476,8476,8476,8476,8476,8476,8476,8476,8476,8476,8476,8476,8476,8476,8476,7026,7026,7026,7026,7026,7026,7026,7026,9403,9403,9403,9403,9403,9403,9403,9403,9403,9403,9403,9403,9403,9403,9403,9403,9403,3824,9403,3824,9403,9403,3824,9403,9403,9403,9403,
9403,9403,7025,7026,7027,9403,9403,3824,9403,9403,4417,4418,4229,4386,4386,4386,4387,9403,7026,7026,7026,8476,8476,7026,7026,7026,7026,7026,7026,9403,7026,7026,7026,7026,7026,7026,7026,8476,8476,8476,8476,8476,8476,8476,8476,8476,8476,8476,8476,8476,8476,7026,7026,7026,7026,8476,8476,8476,8476,8476,8476,8476,8476,8476,7026,7026,7026,7026,7026,7026,7026,7026,7026,7026,9403,9403,9403,9403,9403,9403,9403,9403,9403,3824,9403,9403,9403,9403,3824,9403,9403,9403,9403,4353,4354,4354,4354,4354,4354,4354,
9403,9403,7025,7026,7445,6887,9403,9403,9403,9403,9403,9403,4385,4386,4386,4386,4260,4355,7026,7026,7026,7026,7026,7026,7026,7026,7026,9403,9403,7026,7026,7026,7026,7026,7026,8476,8476,8476,8476,8476,8476,8476,8476,8476,8476,8476,8476,8476,8476,7026,7026,7026,7026,7026,7026,8476,8476,8476,8476,8476,8476,8476,8476,8476,7026,7026,7026,7026,7026,7026,7026,7026,7026,7026,7026,9403,9403,9403,9403,9403,9403,9403,9403,4688,9403,9403,4353,4354,4354,4354,4354,4354,4354,4261,4386,4386,4386,4386,4386,4386,
3824,9403,7025,7026,7026,7027,9403,9403,9403,9403,9403,9403,4417,4418,4229,4386,4386,4387,7026,7026,7026,7026,7026,7026,7026,9403,7026,7026,7026,7026,7026,7026,7026,7026,8476,8476,8476,8476,8476,8476,8476,8476,7026,7026,7026,7026,7026,7026,7026,7026,7026,7026,7026,7026,7026,8476,8476,8476,8476,8476,8476,8476,8476,8476,7026,7026,7026,7026,7026,7026,7026,7026,7026,7026,7026,9403,9403,9403,9403,9403,4353,4354,4354,4354,4354,4354,4261,4386,4386,4386,4386,4386,4386,4386,4386,4386,4386,4228,4418,4418,
9403,9403,7165,7306,7026,7027,9403,9403,9403,9403,9403,3824,9403,9403,4385,4386,4386,4387,9403,9403,7026,7026,7026,7026,7026,7026,7026,7026,7026,7026,7026,7026,7026,8476,8476,8476,8476,8476,8476,8476,7026,7026,7026,7026,7026,7026,7026,7026,7026,7026,7026,7026,7026,7026,8476,8476,8476,8476,8476,8476,8476,8476,7026,7026,7026,7026,7026,7026,8476,8476,8476,7026,7026,7026,7026,9403,9403,9403,4353,4354,4261,4386,4386,4386,4386,4386,4386,4386,4386,4386,4386,4386,4386,4228,4418,4418,4418,4419,9403,9403,
9403,9403,9403,7165,7166,7167,9403,9403,9403,9403,9403,3824,9403,4353,4261,4386,4386,4387,9403,9403,9403,9403,7026,7026,7026,7026,7026,7026,7026,7026,7026,7026,8476,8476,8476,8476,8476,8476,8476,7026,7026,7026,7026,7026,7026,7026,7026,7026,7026,7026,7026,7026,7026,7026,8476,8476,8476,8476,8476,8476,8476,8476,7026,7026,7026,7026,8476,8476,8476,8476,8476,7026,7026,7026,9403,9403,9403,4353,4261,4386,4386,4386,4386,4386,4386,4228,4418,4418,4418,4418,4418,4418,4418,4419,9403,9403,9403,9403,3824,3824,
9403,9403,9403,9403,9403,3824,3824,9403,9403,9403,9403,9403,9403,4385,4386,4386,4386,4387,9403,9403,9403,7026,7026,7026,7026,7026,7026,7026,7026,8476,8476,8476,8476,8476,8476,8476,8476,8476,8476,7026,7026,7026,7026,7026,7026,7026,7026,7026,7026,7026,7026,7026,7026,8476,8476,8476,8476,8476,8476,8476,8476,8476,7026,7026,7026,8476,8476,8476,8476,8476,8476,7026,7026,7026,7026,9403,4353,4261,4386,4386,4228,4418,4418,4418,4418,4419,9403,9403,9403,3824,9403,9403,9403,9403,3824,3824,7026,7026,7026,9403,
9403,9403,9403,9403,9403,9403,9403,9403,9403,9403,9403,9403,4353,4261,4386,4386,4386,4387,9403,9403,9403,7026,7026,7026,7026,7026,7026,7026,8476,8476,8476,8476,8476,8476,8476,8476,8476,8476,7026,7026,7026,7026,7026,7026,7026,7026,7026,7026,7026,7026,7026,7026,8476,8476,8476,8476,8476,8476,8476,8476,8476,8196,7026,7026,8476,8476,8476,8476,8476,8476,7026,7026,7026,7026,7026,9403,4385,4386,4386,4386,4387,9403,9403,9403,9403,9403,9403,3824,3824,3824,9403,7026,7026,7026,7026,7026,7026,7026,7026,7026,
9403,9403,6885,6886,6887,9403,3824,9403,9403,3824,9403,4353,4261,4386,4386,4386,4228,4419,9403,9403,7026,7026,7026,7026,7026,7026,8476,8476,8476,8476,7026,7026,8476,8476,8476,8476,8476,8476,7026,7026,7026,7026,7026,7026,7026,7026,7026,7026,7026,7026,7026,8476,8476,8476,8476,8476,8476,8476,8476,8476,7026,7026,7026,7026,8476,8476,8476,8476,8476,7026,7026,7026,7026,7026,9403,4353,4261,4386,4228,4418,4419,9403,9403,9403,9403,9403,7026,7026,7026,7026,7026,7026,7026,7026,7026,7026,7026,7026,7026,7026,
9403,9403,7025,7026,7445,6887,9403,9403,9403,9403,4353,4261,4386,4386,4386,4228,4419,7026,7026,7026,7026,7026,7026,7026,7026,8476,8476,8476,8476,8476,7026,7026,8476,8476,8476,7026,7026,7026,7026,7026,7026,7026,8476,8476,8476,8476,7026,7026,7026,7026,7026,8476,8476,8476,8476,8476,8476,8476,8476,7026,7026,7026,7026,8476,8476,8476,8476,7026,7026,7026,7026,7026,7026,3824,4353,4261,4386,4386,4387,9403,9403,9403,9403,7026,7026,7026,7026,7026,7026,7026,7026,7026,7026,7026,7026,7026,7026,7026,7026,7026,
9403,9403,7025,7026,7026,7445,6887,3824,9403,9403,4385,4386,4386,4386,4228,4419,7026,7026,7026,7026,7026,7026,7026,7026,8476,8476,8476,8476,8476,8476,8476,8476,8476,8476,7026,7026,7026,7026,7026,7026,7026,8476,8476,8476,8476,8476,8476,8476,7026,7026,8476,8476,8476,8476,8476,8476,8476,8476,8476,7026,7026,7026,7026,8476,8476,8476,7026,7026,7026,7026,7026,7026,7026,4353,4261,4386,4228,4418,4419,9403,7026,7026,7026,7026,7026,7026,7026,7026,7026,7026,7026,7026,7026,7026,7026,7026,7026,7026,7026,7026,
9403,9403,7165,7306,7026,7026,7445,6887,9403,9403,4385,4386,4386,4386,4387,9403,7026,7026,7026,7026,7026,7026,7026,7026,8476,8476,8476,8476,8476,8476,8476,8476,8476,7026,7026,7026,7026,7026,7026,7026,8476,8476,8476,8476,8476,8476,8476,8476,8476,8476,8476,8476,8476,8476,8476,8476,8476,8476,8476,7026,7026,7026,7026,8476,8476,8476,7026,7026,7026,7026,7026,7026,7026,4385,4386,4386,4387,9403,9403,7026,7026,7026,7026,7026,7026,7026,7026,7026,7026,7026,7026,8476,8476,8476,8476,8476,8476,7026,7026,7026,
9403,9403,9403,7025,7026,7026,7026,7027,9403,4353,4261,4386,4386,4228,4419,9403,7026,7026,7026,7026,7026,7026,8476,8476,8476,8476,8476,8476,8476,8476,8476,8476,7026,7026,7026,7026,7026,7026,7026,8476,8476,8476,8476,8476,8476,8476,8476,8476,8476,8476,8476,8476,8476,8476,8476,8476,8476,8476,8476,7026,7026,7026,7026,8476,8476,8476,7026,7026,7026,7026,7026,9403,4353,4261,4386,4228,4419,9403,9403,7026,7026,7026,7026,7026,7026,7026,7026,7026,7026,8476,8476,8476,8476,8476,8476,8476,7026,7026,7026,7026,
9403,9403,9403,7165,7306,7026,7026,7027,9403,4385,4386,4386,4228,4419,9403,7026,7026,7026,7026,8476,8476,8476,8476,8476,8476,8476,8476,8476,8476,8476,8476,7026,7026,7026,7026,7026,7026,7026,8476,8476,8476,8476,8476,8476,8476,8476,8476,8476,8476,8476,8476,8476,8476,8476,8476,8476,8476,8476,8476,7026,7026,7026,7026,8476,8476,8476,7026,7026,7026,7026,7026,9403,4385,4386,4386,4387,9403,7026,7026,7026,7026,7026,7026,7026,7026,7026,7026,8476,8476,8476,8476,8476,8476,8476,8476,7026,7026,7026,7026,7026,
9403,9403,9403,9403,7025,7026,7026,7027,9403,4385,4386,4386,4387,9403,7026,7026,7026,7026,7026,8476,8476,8476,8476,8476,8476,8476,8476,8476,7026,7026,7026,7026,7026,7026,7026,7026,8476,8476,8476,8476,8476,8476,8476,8476,8476,8476,8476,8476,8476,8476,8476,8476,8476,8476,8476,8476,8476,8476,7026,7026,7026,7026,7026,8476,8476,8476,7026,7026,7026,7026,7026,4353,4261,4386,4228,4419,9403,7026,7026,7026,7026,7026,7026,7026,7026,7026,8476,8476,8476,8476,8476,8476,7026,7026,7026,7026,7026,7026,7026,7026,
9403,9403,9403,9403,7165,7306,7026,7027,9403,4385,4386,4386,4387,9403,7026,7026,7026,8476,8476,8476,8476,8476,8476,8476,8476,8476,7026,7026,7026,7026,7026,7026,7026,7026,7026,8476,8476,8476,8476,8476,8476,8476,8476,8476,8476,7026,7026,8476,8476,8476,8476,8476,8476,8476,8476,7026,7026,7026,7026,7026,7026,7026,7026,8476,8476,8476,7026,7026,7026,9403,9403,4385,4386,4386,4387,9403,7026,7026,7026,7026,7026,7026,7026,7026,7026,7026,8476,8476,8476,8476,8476,8476,7026,7026,7026,7026,7026,7026,7026,7026,
9403,9403,9403,9403,9403,7025,7026,7027,9403,4385,4386,4386,4387,9403,7026,7026,7026,8476,8476,8476,8476,8476,8476,8476,8476,8476,7026,7026,7026,7026,7026,7026,7026,7026,7026,8476,8476,8476,8476,8476,8476,8476,8476,7026,7026,7026,7026,7026,7026,7026,7026,7026,7026,7026,7026,7026,7026,7026,7026,7026,7026,7026,7026,8476,8476,8476,7026,7026,7026,9403,9403,4385,4386,4386,4387,9403,7026,7026,7026,7026,7026,7026,7026,7026,7026,8476,8476,8476,8476,8476,8476,7026,7026,7026,7026,7026,7026,7026,7026,7026,
9403,9403,9403,9403,9403,7165,7166,7167,9403,4385,4386,4386,4387,9403,7026,7026,8476,8476,8476,8476,8476,8476,8476,7026,7026,8476,8476,7026,7026,7026,7026,7026,7026,7026,7026,8476,8476,8476,8476,8476,8476,8476,8476,7026,7026,7026,7026,7026,7026,7026,7026,7026,7026,7026,7026,7026,7026,7026,7026,7026,7026,7026,7026,8476,8476,8476,7026,7026,7026,7026,9403,4385,4386,4386,4387,9403,7026,7026,7026,7026,7026,7026,7026,7026,8476,8476,8476,8476,8476,8476,8476,7026,7026,7026,7026,7026,7026,7026,7026,7026,
9403,9403,9403,9403,9403,9403,9403,9403,9403,4385,4386,4386,4387,9403,7026,7026,8476,8476,8476,8476,8476,8476,8476,7026,7026,8476,8476,8476,8476,8476,7026,7026,7026,7026,8476,8476,8476,8476,8476,8476,8476,8476,7026,7026,7026,7026,7026,7026,7026,7026,7026,7026,7026,7026,7026,7026,7026,7026,7026,7026,7026,7026,8476,8476,8476,8476,7026,7026,7026,7026,4353,4261,4386,4386,4387,9403,7026,7026,7026,7026,7026,7026,7026,7026,8476,8476,8476,8476,8476,7026,7026,7026,7026,7026,7026,7026,7026,7026,7026,7026,
9403,9403,9403,9403,9403,9403,9403,9403,9403,4385,4386,4386,4387,9403,7026,7026,7026,7026,8476,8476,8476,8476,8476,8476,8476,8476,8476,8476,8476,8476,8476,8476,8476,8476,8476,8476,8476,8476,8476,7026,7026,7026,7026,7026,7026,7026,7026,7026,7026,8476,8476,8476,8476,7026,7026,7026,7026,7026,7026,7026,8476,8476,8476,8476,8476,8476,7026,7026,7026,7026,4385,4386,4386,4228,4419,7026,7026,7026,7026,7026,8476,8476,8476,8476,8476,8476,8476,8476,7026,7026,7026,7026,7026,7026,8476,8476,7026,7026,7026,7026,
6886,6887,9403,9403,9403,9403,9403,9403,9403,4417,4229,4386,4260,4355,7026,7026,7026,7026,7026,7026,8476,8476,8476,8476,8476,8476,8476,8476,8476,8476,8476,8476,8476,8476,8476,8476,8476,8476,8476,7026,7026,7026,7026,7026,7026,8476,8476,8476,8476,8476,8476,8476,8476,8476,7026,7026,7026,7026,7026,7026,7026,8476,8476,7026,7026,7026,7026,7026,7026,7026,4385,4386,4386,4387,9403,7026,7026,7026,7026,8476,8476,8476,8476,8476,8476,8476,8476,8476,7026,7026,7026,7026,7026,8476,8476,8476,8476,7026,7026,7026,
7026,7445,6887,9403,9403,9403,9403,9403,9403,9403,4385,4386,4386,4386,4354,4355,7026,7026,7026,7026,7026,8476,8476,8476,8476,8476,8476,8476,8476,8476,8476,8476,8476,8476,8476,8476,8476,8476,8476,7026,7026,7026,7026,8476,8476,8476,8476,8476,8476,8476,8476,8476,8476,8476,8476,7026,7026,7026,7026,7026,7026,7026,7026,7026,7026,7026,7026,7026,7026,4353,4261,4386,4386,4387,9403,7026,7026,7026,7026,8476,8476,8476,8476,8476,8476,8476,7026,7026,7026,7026,7026,7026,7026,8476,8476,8476,8476,7026,7026,7026,
7165,7306,7445,6887,9403,9403,9403,9403,9403,9403,4417,4229,4386,4386,4386,4260,4355,7026,7026,7026,7026,7026,7026,8476,8476,8476,8476,8476,8476,8476,8476,8476,8476,8476,8476,8476,8476,8476,8476,9324,7026,8476,8476,8476,8476,8476,8476,8476,8476,7026,7026,7026,7026,7026,7026,7026,7026,7026,9403,7026,7026,7026,7026,7026,7026,7026,4353,4354,4354,4261,4386,4386,4386,4387,7026,7026,7026,7026,7026,8476,8476,8476,8476,8476,8476,7026,7026,7026,7026,7026,7026,7026,8476,8476,8476,8476,8476,8476,7026,7026,
9403,7025,7026,7027,9403,9403,9403,9403,9403,9403,9403,4417,4229,4386,4386,4386,4260,4354,4355,7026,7026,7026,7026,7026,7026,7026,8476,8476,8476,8476,8476,8476,8476,8476,8476,8476,8476,8476,8476,8476,8476,8476,8476,8476,8476,8476,8476,8476,7026,7026,7026,7026,7026,7026,7026,7026,7026,9403,9403,9403,9403,9403,7026,7026,7026,4353,4261,4386,4386,4386,4386,4386,4386,4419,7026,7026,7026,7026,7026,8476,8476,8476,8476,8476,8476,7026,7026,7026,7026,7026,7026,8476,8476,8476,8476,8476,8476,8476,7026,7026,
9403,7025,7026,7027,3824,9403,9403,9403,9403,9403,9403,9403,4417,4229,4386,4386,4386,4386,4260,4355,7026,7026,7026,7026,7026,7026,7026,7026,7026,7026,7026,7026,7026,8476,8476,8476,8476,8476,8476,8476,8476,8476,8476,8476,8476,8476,8476,8476,7026,7026,7026,7026,7026,7026,7026,7026,9403,9403,9403,9403,9403,9403,9403,9403,4353,4261,4386,4386,4386,4228,4418,4418,4419,9403,7026,7026,7026,7026,7026,8476,8476,8476,8476,8476,7026,7026,7026,7026,7026,7026,8476,8476,8476,8476,8476,8476,8476,7026,7026,7026,
6885,7446,7026,7027,3824,9403,9403,9403,9403,9403,9403,9403,9403,4417,4229,4386,4386,4386,4386,4260,4354,4355,7026,7026,7026,7026,7026,7026,7026,7026,7026,7026,7026,7026,7026,7026,8476,8476,8476,8476,8476,8476,8476,8476,8476,8476,7026,7026,7026,7026,7026,7026,9403,9403,9403,9403,9403,9403,9403,9403,9403,4353,4354,4354,4261,4386,4386,4228,4418,4419,9403,7026,7026,7026,7026,7026,7026,7026,8476,8476,8476,8476,8476,8476,7026,7026,7026,7026,8476,8476,8476,8476,8476,8476,8476,8476,8476,7026,7026,7026,
7446,7026,7305,7167,9403,3824,9403,9403,9403,9403,9403,9403,9403,9403,4417,4229,4386,4386,4386,4386,4386,4260,4355,7026,7026,7026,7026,7026,7026,7026,7026,7026,7026,7026,7026,7026,7026,7026,7026,7026,7026,7026,7026,7026,7026,7026,7026,7026,7026,7026,7026,7026,9403,3824,9403,9403,9403,9403,4353,4354,4354,4261,4386,4386,4228,4418,4418,4419,7026,7026,7026,7026,7026,7026,7026,7026,7026,7026,7026,8476,8476,8476,8476,8476,7026,7026,7026,7026,8476,8476,8476,8476,8476,8476,8476,8476,7026,7026,7026,7026,
7026,7305,7167,9403,9403,9403,9403,9403,9403,9403,9403,9403,9403,9403,9403,4417,4229,4386,4386,4386,4386,4386,4260,4354,4355,7026,7026,7026,7026,9403,9403,7026,7026,7026,7026,7026,7026,7026,7026,7026,7026,7026,7026,7026,7026,7026,7026,7026,7026,7026,7026,3824,9403,9403,9403,4353,4354,4354,4386,4386,4386,4386,4386,4228,4419,7026,7026,7026,7026,7026,7026,7026,7026,7026,7026,7026,7026,7026,7026,7026,8476,8476,8476,8476,7026,7026,7026,7026,8476,8476,8476,8476,8476,8476,8476,8476,7026,7026,7026,7026,
7166,7167,9403,9403,9403,9403,9403,3824,6885,6886,6886,6887,9403,9403,9403,9403,4417,4229,4386,4386,4386,4386,4386,4386,4260,4354,4354,4354,4354,4354,4354,4354,4354,4355,7026,7026,7026,7026,7026,7026,7026,7026,7026,7026,7026,7026,7026,7026,7026,9403,3824,9403,4353,4354,4354,4261,4386,4386,4386,4386,4386,4228,4418,4419,3824,7026,7026,7026,7026,7026,7026,7026,7026,7026,7026,8476,8476,7026,7026,7026,7026,8476,8476,8476,7026,7026,7026,8476,8476,8476,8476,8476,8476,8476,8476,7026,7026,7026,7026,7026,
9403,9403,9403,9403,9403,9403,9403,9403,7025,7026,7026,7027,9403,9403,9403,9403,9403,4417,4418,4418,4229,4386,4386,4386,4386,4386,4386,4386,4386,4386,4386,4386,4386,4260,4354,4354,4354,4354,4354,4354,4354,4354,4355,9403,7026,7026,7026,9403,3824,4353,4354,4354,4261,4386,4386,4386,4386,4386,4386,4386,4386,4387,9403,9403,7026,7026,7026,7026,7026,7026,7026,7026,7026,7026,8476,8476,8476,8476,7026,7026,7026,7026,7026,7026,7026,7026,8476,8476,8476,8476,8476,8476,8476,7026,7026,7026,7026,7026,7026,7026,
9403,9403,9403,9403,9403,9403,9403,3824,7025,7026,7026,7445,6887,9403,9403,9403,9403,9403,9403,9403,4417,4418,4418,4229,4386,4386,4386,4386,4386,4386,4386,4386,4386,4386,4386,4386,4386,4386,4386,4386,4386,4386,4260,4354,4354,4354,4354,4354,4354,4261,4386,4386,4386,4386,4386,4386,4228,4418,4418,4418,4418,4419,9403,9403,7026,7026,7026,7026,7026,7026,7026,8476,8476,8476,8476,8476,8476,8476,8476,7026,7026,7026,7026,7026,7026,7026,8476,8476,8476,8476,8476,7026,7026,7026,7026,7026,7026,7026,7026,9403,
3824,9403,3824,3824,9403,9403,9403,9403,7025,7026,7026,7026,7445,6887,9403,9403,9403,9403,9403,3824,3824,9403,9403,4417,4418,4229,4386,4386,4386,4228,4229,4228,4418,4418,4418,4229,4386,4386,4386,4386,4386,4386,4386,4386,4386,4386,4386,4386,4386,4386,4386,4386,4386,4386,4228,4418,4419,9403,3824,9403,9403,9403,9403,9403,7026,7026,7026,7026,7026,8476,8476,8476,8476,8476,8476,8476,8476,8476,8476,7026,7026,7026,7026,7026,7026,8476,8476,8476,8476,8476,8476,7026,7026,7026,7026,7026,7026,7026,7026,9403,
9403,9403,9403,9403,6885,6886,6886,6886,7446,7026,7026,7026,7026,7027,9403,9403,3824,9403,9403,9403,9403,9403,9403,3824,9403,4417,4418,4418,4418,4419,4417,4419,9403,9403,9403,4417,4418,4229,4386,4386,4386,4386,4386,4386,4386,4386,4386,4386,4386,4386,4386,4386,4418,4418,4419,9403,9403,3824,9403,9403,9403,9403,9403,7026,7026,7026,7026,7026,8476,8476,8476,8476,8476,8476,8476,8476,8476,7026,7026,7026,7026,7026,8476,8476,8476,8476,8476,8476,8476,8476,8476,7026,7026,7026,7026,7026,7026,7026,9403,9403,
9403,9403,9403,9403,7025,7026,7026,7026,7026,7026,7305,7166,7166,7167,9403,9403,9403,3824,9403,9403,9403,9403,9403,9403,9403,9403,9403,9403,9403,9403,9403,9403,9403,9403,9403,3824,9403,4417,4418,4418,4229,4386,4386,4386,4386,4228,4418,4418,4418,4418,4418,4419,9403,9403,9403,9403,9403,3824,9403,9403,9403,9403,9403,7026,7026,7026,7026,8476,8476,8476,8476,8476,8476,8476,8476,8476,7026,7026,7026,7026,7026,8476,8476,8476,8476,8476,8476,8476,8476,8476,8476,7026,7026,7026,7026,7026,3824,9403,9403,9403,
3824,9403,9403,9403,7165,7166,7166,7166,7166,7166,7167,9403,9403,9403,9403,9403,6885,6886,6887,6885,6886,6887,9403,9403,9403,9403,9403,9403,9403,9403,9403,9403,9403,9403,3824,9403,9403,9403,9403,9403,4417,4418,4418,4418,4418,4419,9403,9403,9403,9403,6885,6886,6886,6887,9403,9403,9403,9403,3824,9403,9403,9403,9403,7026,7026,7026,7026,8476,8476,8476,8476,8476,8476,7026,7026,7026,7026,7026,7026,8476,8476,8476,8476,8476,8476,8476,8476,8476,8476,8476,7026,7026,7026,7026,7026,3824,9403,9403,3824,9403,
3824,9403,9403,9403,9403,9403,9403,9403,9403,9403,9403,9403,9403,9403,9403,9403,7025,7026,7445,7446,7026,7027,9403,9403,9403,9403,9403,9403,6885,6886,6886,6887,9403,6885,6886,6886,6886,6887,9403,9403,9403,9403,9403,9403,9403,9403,6885,6886,6886,6886,7446,7026,7026,7027,9403,9403,9403,9403,9403,9403,9403,3824,7026,7026,7026,7026,7026,7026,7026,7026,7026,7026,7026,7026,7026,7026,7026,7026,7026,8476,8476,8476,8476,8476,8476,8476,8476,8476,8476,7026,7026,7026,7026,7026,7026,9403,9403,9403,9403,9403,
9403,9403,9403,9403,9403,9403,9403,9403,9403,9403,9403,9403,9403,9403,9403,9403,7025,7026,7026,7026,7026,7027,9403,9403,9403,9403,9403,9403,7025,7026,7026,7445,6887,7025,7026,7026,7026,7445,6887,9403,9403,9403,9403,9403,6885,6886,7446,7026,7026,7026,7026,7026,7026,7445,6887,9403,9403,3824,9403,9403,9403,9403,7026,7026,7026,7026,7026,7026,7026,7026,7026,7026,7026,7026,7026,7026,7026,7026,7026,7026,7026,7026,7026,7026,7026,7026,7026,7026,7026,7026,7026,7026,7026,7026,9403,9403,9403,9403,9403,9403,
9403,9403,9403,9403,9403,9403,9403,9403,3824,9403,9403,9403,9403,9403,9403,9403,7165,7166,7166,7166,7166,7167,9403,9403,9403,9403,9403,9403,7165,7306,7026,7026,7027,7165,7306,7026,7026,7026,7027,9403,9403,9403,9403,9403,7025,7026,7026,7305,7166,7166,7306,7026,7026,7026,7027,9403,3824,9403,9403,9403,9403,9403,9403,7026,7026,7026,7026,7026,7026,7026,7026,7026,7026,7026,7026,7026,7026,7026,7026,7026,7026,7026,7026,7026,7026,7026,7026,7026,7026,7026,7026,7026,9403,9403,9403,9403,9403,9403,3824,9403
</data>
 </layer>
 <layer name="Layer 2" width="100" height="57">
  <data encoding="csv">
0,0,6605,6606,6607,7853,0,0,0,0,0,0,0,0,0,0,0,0,0,0,0,0,0,0,0,0,7579,0,0,0,0,0,0,7579,7579,0,0,7579,0,0,0,0,0,0,0,0,0,0,6605,6606,6607,0,0,0,0,0,0,0,0,0,3759,3759,3759,9402,0,0,0,9402,0,0,0,0,9402,0,0,0,9542,9683,0,0,0,9542,9543,9543,9543,3832,0,0,0,0,0,0,0,0,0,0,3831,9543,9543,9543,
0,0,6745,6746,6747,0,0,5751,0,0,0,0,0,0,0,0,0,0,0,0,0,0,0,0,0,0,0,0,0,0,0,0,0,0,0,0,0,0,0,0,0,0,0,0,0,0,0,7719,6745,6746,6747,0,0,0,0,0,0,0,0,0,3759,3792,9262,9823,0,0,0,9402,0,0,0,0,9542,9683,0,0,0,9542,9683,0,0,0,0,0,0,9542,9543,9543,9543,3832,0,0,3926,3926,3831,9543,9544,0,0,0,
4233,4234,4235,0,0,0,0,5891,5892,0,4917,4918,0,0,0,0,0,0,3916,3917,3918,0,0,0,0,3916,3917,3918,0,0,0,3916,3917,3918,0,3916,3917,3918,0,0,0,0,5805,0,4948,0,0,0,0,0,0,0,5938,7719,7719,0,0,0,0,0,3759,3759,9402,0,0,0,9262,9823,0,0,0,0,0,9542,9683,0,0,0,9402,3831,3922,3922,3832,0,0,0,0,0,0,9542,9543,9543,9543,9543,9544,0,0,0,0,0,
4265,4266,4267,0,0,3916,3917,3918,0,3913,3914,3915,0,3916,3917,3918,4105,4106,4107,0,0,0,4105,4106,4107,4952,4953,4954,0,4233,4234,4235,0,0,0,0,0,0,3913,5942,5943,7719,4105,4106,4107,0,0,0,0,0,3913,3914,3915,0,0,0,0,0,0,0,3759,3759,9402,0,0,0,9402,0,0,0,0,0,0,0,9402,0,0,0,9402,3891,0,3857,3864,0,0,0,0,0,0,0,0,0,0,0,0,0,0,0,0,0,
0,0,0,3913,3914,3915,0,0,0,0,0,0,0,0,0,0,4137,4138,4139,0,0,0,4137,4138,4139,4921,4234,4235,4916,4265,4266,4267,4105,4106,4107,3916,3917,3918,0,0,0,0,3916,3917,3918,0,4105,4106,4107,0,0,4948,0,0,0,0,0,0,0,3759,3792,9262,9823,0,0,0,9542,9543,9683,0,0,0,0,0,9402,0,0,0,9402,3863,3859,3889,0,0,0,0,0,0,9682,9543,9543,9543,9543,9543,3832,4152,3831,9543,9543,9543,
0,0,4953,4954,7853,3916,3917,3918,0,5944,3914,3915,0,0,4953,4954,0,7579,0,4233,4234,4235,0,3916,3917,5061,4266,4267,3913,3914,3915,7719,4137,4138,4139,0,0,0,7719,4233,4234,4235,0,0,0,0,4137,4138,4139,4105,4106,4107,0,0,0,0,0,0,0,3759,0,9402,0,0,0,0,0,0,9542,9683,0,0,0,0,9402,0,0,0,9402,0,3863,3864,9682,9683,0,0,0,9682,9544,0,0,0,0,0,3921,3922,3923,0,0,0,
0,4233,4234,4235,0,0,0,0,0,0,0,0,0,4233,4234,4235,0,4952,0,4265,4266,4267,0,0,7579,0,0,0,0,0,0,0,0,0,0,3913,3914,3915,7579,4265,4266,4267,0,0,0,0,0,7719,7719,4137,4138,4139,0,0,0,0,0,0,3759,3759,9262,9823,0,0,0,9682,9683,0,0,9542,9543,9683,0,0,9402,0,0,0,9542,9543,9683,9127,9404,9542,9543,9543,9543,9544,0,0,0,0,0,0,0,0,0,0,0,0,
0,4265,4266,4267,0,4916,0,0,0,4233,4234,4235,0,4265,4918,4267,0,4233,4234,4235,0,0,3913,3914,3915,4920,4921,4946,4947,4948,0,3913,3914,3915,0,0,0,0,0,0,3913,3914,3915,0,4105,4106,4107,0,0,0,0,0,0,0,0,0,0,0,3759,3792,9542,9683,0,0,0,9404,9542,9683,0,0,0,9402,0,0,9402,0,0,0,0,0,9542,9543,9544,0,0,0,0,0,0,0,0,0,9682,9543,9543,9543,3832,3925,7026,7026,
0,0,0,0,0,3913,3914,3915,4920,5232,7853,4267,3913,3914,3915,0,0,4265,4105,4106,4107,0,0,0,3916,3917,3918,4105,4106,4952,0,0,0,0,4233,4234,4105,4106,4107,0,0,3916,3917,3918,4137,4138,4139,4105,4106,4107,0,0,0,0,0,0,0,0,3759,3759,9124,9542,9543,9543,9543,9544,3759,9542,9683,0,9262,9823,0,0,9542,9683,0,0,0,0,0,0,0,0,0,0,0,0,0,0,0,9682,9544,0,0,0,3921,3922,3923,0,
0,0,0,0,0,0,0,3916,3917,3918,4806,3916,3917,3918,7579,0,0,0,4137,4138,4139,4946,0,0,0,0,0,4137,4138,4233,4234,4235,0,9682,3922,3922,3922,3832,4105,4106,4107,0,0,0,4233,4234,4235,4137,4138,4139,0,0,7719,3831,3922,3922,3922,3922,3832,3759,3759,0,0,3792,0,0,3759,0,9402,0,9402,0,0,0,0,9542,9543,9683,0,0,0,0,0,0,0,0,0,0,0,0,9682,9544,0,0,0,0,0,0,0,0,
0,4233,4234,4235,0,0,0,4918,0,0,4946,0,0,0,0,0,0,3916,3917,3918,0,4105,4106,4107,0,0,0,0,0,3831,3922,3922,9543,9544,0,0,0,9542,3922,3922,3832,0,4105,4106,4265,4266,4267,0,4233,4234,4235,7719,0,3891,0,0,0,0,3921,3832,3759,3759,3759,3759,3759,3759,3759,3759,9402,0,9542,9683,0,0,0,0,0,9542,9683,0,0,0,9682,9543,9543,3832,3925,3831,9543,9543,9544,0,0,0,0,0,0,0,0,0,
0,4265,4266,4267,0,3913,3914,3915,0,0,4105,4106,4107,0,3913,3914,3915,0,0,0,0,4137,4138,4139,0,9682,9543,9543,9543,9544,0,0,8335,8336,8336,8336,8336,8336,8337,0,9402,0,4137,4138,4139,0,3913,3914,4265,4266,4267,3831,3922,3923,0,0,0,0,0,3921,3922,3832,3759,3831,3922,3832,3792,3759,9402,0,0,9542,9683,0,0,0,0,0,9542,9543,9543,9543,9544,0,0,3921,3922,3923,0,0,0,0,0,0,8986,9682,9543,9543,9543,9543,
0,0,0,0,0,0,0,0,0,0,4137,4138,4139,7579,0,0,0,0,0,0,0,0,0,0,9682,9544,0,0,8335,8336,8336,8336,8896,0,0,0,0,8757,8477,0,9402,4946,4947,0,0,0,0,0,0,3831,3922,3923,0,0,0,0,0,0,0,0,0,3921,3922,3923,0,3921,3832,3759,9542,9683,0,0,9542,9683,0,0,0,0,0,0,0,0,0,0,0,0,0,0,0,0,0,0,0,8980,9682,9544,0,0,0,0,
0,0,0,0,0,4233,4234,4235,4739,4740,0,0,0,0,4233,4234,4235,0,0,0,0,0,0,0,9404,8335,8336,8336,8896,0,0,0,0,0,0,8755,8616,8616,8617,0,9402,4105,4106,4107,3831,3922,3922,3922,3922,3923,0,0,0,0,0,0,0,0,0,0,0,0,0,0,0,0,3889,3792,3759,9542,9683,0,0,9402,0,0,0,0,0,0,0,0,0,0,0,0,0,0,0,0,0,0,0,9682,9544,0,0,0,0,0,
0,0,0,0,0,4265,4266,4267,0,7579,3913,3914,3915,0,4265,4266,4267,3913,3914,3915,7579,0,9682,9543,9544,8475,0,0,0,8757,0,0,0,8755,8616,8617,0,0,0,9262,9823,4137,4138,3831,3923,0,0,0,8335,8336,8336,8337,0,0,0,0,0,8335,8336,8336,8337,8335,8336,8337,0,0,3889,3759,3759,0,9402,0,0,9542,9543,9543,9683,0,3831,3832,0,0,9682,9543,9543,9683,0,0,9682,9543,9543,9543,9543,9544,0,0,0,9682,9543,9543,
0,0,0,0,0,0,0,0,0,0,0,0,0,0,0,0,7579,7579,0,0,0,9682,9544,0,8335,8896,8757,0,0,0,0,8755,8616,8617,0,9262,9263,9263,9263,9823,0,0,3831,3923,0,0,0,0,8475,0,0,8477,0,0,8335,8336,8336,8896,0,0,8895,8896,0,8477,0,0,3921,3832,3792,3759,9542,9683,0,0,0,0,9402,0,3863,3864,9682,9543,9544,0,0,9542,9543,9543,9544,0,0,0,0,0,0,0,0,9404,0,0,
0,0,0,0,7573,0,0,0,0,0,0,0,4233,4234,4235,0,0,4916,4917,0,0,9404,0,8335,8896,9035,9036,9037,0,8755,8616,8617,9262,9263,9263,9823,3831,3922,3922,3922,3922,3922,3923,0,7855,0,0,0,8475,0,0,8895,8336,8336,8896,0,0,0,0,0,0,4059,4060,8895,8337,0,0,3889,3759,3792,0,9542,9543,9683,0,0,9542,9683,9682,9543,9544,0,0,0,0,0,0,0,0,0,0,0,0,0,0,0,9682,9544,0,0,
3855,3853,4524,4525,4526,0,0,0,0,0,0,7996,4265,4266,4267,0,0,3913,3914,9682,9543,9544,8335,8896,8757,0,0,0,0,8477,0,9262,9823,3831,3922,3922,3923,0,0,0,0,3856,0,7587,0,0,0,8335,8896,0,0,0,0,0,0,0,0,0,0,0,6048,4091,4092,0,8895,8337,0,3889,0,3759,3759,3759,3792,9542,9543,9683,0,9542,9544,0,0,0,9682,9543,9683,0,0,0,9682,9543,9543,9543,9543,9543,9543,9543,9544,0,0,0,
0,3885,4556,4557,4558,3855,12698,0,0,0,0,0,0,0,0,4742,0,0,9682,9544,3856,8335,8896,0,0,0,8755,8616,8616,8617,9262,9823,3831,3923,7993,0,0,0,0,8335,8336,8336,8336,8336,8336,8336,8336,8896,0,0,0,8897,0,9035,9035,0,0,0,0,7868,6188,6189,6190,0,0,8477,0,3921,3832,0,3759,3759,3759,3759,0,9542,9683,0,0,0,0,9682,9544,0,9542,9543,9543,9543,9544,3856,0,0,0,0,0,0,0,0,0,0,
3916,3917,3918,4556,4557,4558,12698,0,0,0,0,0,0,0,0,0,0,0,9404,0,8335,8896,0,8757,8755,8616,8617,0,9262,9263,9823,3831,3923,0,7993,0,8335,8336,8336,8896,0,0,0,0,0,0,0,0,0,0,8897,0,0,0,0,0,0,0,0,0,6328,6329,6330,0,0,8477,9971,7993,3921,3922,3922,3922,3832,3759,3792,0,9402,0,0,9682,9543,9544,0,0,0,0,0,3887,7573,0,0,0,0,0,0,0,0,0,0,3920,
0,0,0,0,0,0,0,0,0,0,0,0,0,0,0,0,0,0,9404,0,8475,0,0,8755,8617,0,9262,9263,9823,0,3831,3923,0,0,8335,8336,8896,0,0,0,0,0,9035,7905,9035,0,0,0,0,0,0,8755,8616,8616,8756,0,0,0,0,0,0,0,0,0,8755,8617,9259,9261,7993,0,0,0,3921,3832,3759,3759,9542,9543,9543,9544,3759,0,3759,0,0,0,3856,0,0,0,3920,0,0,0,0,0,0,0,0,0,
0,0,0,0,0,0,0,0,3855,0,0,0,0,0,0,0,0,0,9404,0,8615,8616,8616,8617,9262,9263,9823,0,0,3831,3923,0,3856,8335,8896,0,0,0,0,0,7905,9035,0,0,0,0,0,0,0,8755,8616,8617,3759,0,8475,0,0,0,9035,0,0,0,0,7868,8477,9259,9820,9541,0,0,0,0,0,3921,3832,4151,0,3759,3759,3759,3759,3759,4742,0,3920,3887,0,0,0,0,0,0,0,0,0,0,0,0,0,0,
3916,3917,3918,3856,3820,3821,3822,0,0,4556,4557,4558,0,0,0,0,0,0,9822,9263,9264,0,0,9262,9823,0,3831,3922,3922,3923,0,0,8335,8896,0,0,0,7905,9035,0,0,0,8755,8616,8616,8616,8616,8616,8616,8617,0,3759,0,8335,8896,0,0,0,9035,0,0,0,0,0,8477,9539,9541,8335,8336,8336,8336,8337,0,0,3889,4151,3759,3759,0,0,0,0,0,0,0,0,0,0,0,0,0,0,0,7996,0,0,0,0,0,0,
0,0,0,0,0,3916,3917,3918,4556,4557,4558,0,0,0,0,0,0,0,0,0,9822,9263,9263,9823,3831,3922,3923,0,7993,0,0,8335,8896,0,6048,6049,6050,7905,7905,0,8755,8616,8617,3792,0,3792,0,0,3792,0,3792,3759,7993,8475,0,0,0,8897,0,0,0,0,8755,8616,8617,8335,8336,8896,0,0,0,8477,0,3857,3864,0,3759,0,0,0,0,0,0,0,0,0,0,0,0,0,0,7996,7996,0,0,0,0,0,0,3887,
0,0,0,0,0,0,0,0,0,0,0,0,0,0,0,0,0,0,0,0,0,0,3831,3922,3923,0,0,0,8335,8336,8336,8896,0,0,6188,6189,6190,0,0,8755,8617,0,0,7855,0,3792,3792,3759,3792,3792,3792,3792,8335,8896,0,0,0,0,0,0,0,0,8477,0,8335,8896,0,6051,6052,6053,0,8477,0,3889,3759,3759,0,0,0,0,0,0,0,0,0,0,0,0,0,0,0,0,0,0,3920,0,0,3887,0,0,
3821,3822,3916,3917,3918,0,3820,3821,3822,0,3855,0,0,0,0,0,0,0,0,0,0,3831,3923,0,0,7993,0,8335,8896,0,0,0,0,0,6328,6329,6330,0,0,8477,0,3759,3759,0,3792,3759,3792,3792,0,3792,3792,8335,8896,0,0,9036,0,0,0,0,0,0,8477,8335,8896,0,7868,6191,6192,6193,0,8477,0,3921,3832,0,0,0,0,0,0,0,0,0,0,0,0,0,3920,0,0,0,0,3887,0,0,9682,9543,9683,0,
0,0,0,0,0,0,0,0,3820,3821,3822,0,0,0,0,0,0,0,0,4739,4740,3891,0,3856,0,8335,8336,8896,0,0,0,0,0,0,0,0,0,0,8755,8617,3759,7855,0,3792,0,3792,3792,3759,3792,3792,8335,8896,0,0,9036,8768,0,0,0,0,0,8755,8617,8475,0,0,0,6331,6332,6333,8755,8617,0,3857,3864,3759,0,0,0,0,0,0,0,0,0,3920,0,0,0,0,0,9682,9543,9543,9543,9543,9544,0,9542,9683,
4458,4459,0,4556,4557,4558,3916,3917,3918,0,3916,3917,3918,0,0,0,0,0,0,0,3831,3923,0,0,8335,8896,0,0,0,0,8755,8756,0,0,0,0,0,0,8477,0,3759,8335,8336,8336,8336,8336,8337,0,3792,0,8475,0,0,0,8768,8897,6048,6049,6050,0,8755,8617,8335,8896,0,8897,0,0,0,8755,8617,0,3857,3864,0,0,0,0,0,0,0,0,0,0,3920,3920,9682,9543,9543,9543,9543,9544,0,0,0,0,0,9971,0,9402,
0,3916,3917,3918,3856,0,0,0,0,0,0,0,0,0,0,0,0,3831,3922,3922,3923,0,0,8335,8896,0,0,0,0,0,8895,8896,0,0,0,8755,8616,8616,8617,3759,8335,8896,0,0,0,0,8895,8336,8337,8335,8896,0,0,0,0,0,6188,6189,6190,8755,8617,0,8475,0,9036,8897,0,8755,8616,8617,0,0,3889,0,0,0,0,0,0,0,0,0,0,9682,9543,9543,9544,0,3792,3792,3792,3792,0,3792,3792,3792,0,7855,0,9402,
0,4425,0,0,0,0,0,4556,4557,4558,0,0,0,0,0,0,3831,3923,0,0,0,0,0,8475,0,0,0,0,0,0,0,0,0,0,8755,8617,0,7993,0,8335,8896,0,6048,6049,6050,8757,0,0,8895,8896,0,0,0,8768,9035,8757,6328,6329,6330,8477,0,7855,8475,0,8768,0,8755,8617,0,7587,0,0,3889,0,0,0,0,0,0,4742,9682,9543,9543,9544,3792,3792,3792,3792,3792,3792,8335,8336,8336,8336,8336,8336,8336,8337,0,9402,
0,4457,4458,4459,3916,3917,3918,0,4556,4557,4558,0,0,0,0,12698,3891,0,0,0,7587,8335,8336,8896,0,0,0,0,0,0,0,0,0,8755,8617,3856,0,7855,8335,8896,0,0,6188,6189,6190,0,0,0,0,0,0,0,0,9035,0,0,0,0,0,8477,7587,7855,8475,0,0,0,8477,9971,0,7993,3857,3858,3864,0,0,0,0,0,0,9682,9544,3792,0,0,3792,3759,3759,7855,8335,8336,8896,0,0,0,0,0,0,8477,9971,9402,
3855,0,0,0,0,0,3856,0,3855,0,0,0,0,0,0,12698,3891,0,8335,8336,8336,8896,0,0,0,0,0,0,0,0,0,0,8755,8617,0,9971,7993,8335,8896,0,0,0,6328,6329,6330,0,0,0,0,0,0,0,0,0,0,0,0,0,0,8477,0,0,8475,0,0,0,8477,7993,0,0,3889,0,0,0,0,0,0,0,0,9404,3792,3792,0,3856,3792,3792,8335,8336,8896,0,0,0,0,0,0,0,8755,8617,0,9542,
3820,3821,3822,3916,3917,3918,3820,3821,3822,0,7996,0,0,0,0,3831,3923,0,8475,0,0,0,0,0,0,0,0,0,0,0,0,8755,8617,7993,3856,8335,8336,8896,0,0,0,0,0,0,8757,8757,0,0,0,0,0,0,0,0,0,4059,4060,0,0,8477,7587,0,8475,0,0,0,8477,0,0,0,3889,0,0,0,0,0,0,9682,9543,9544,3792,0,0,3792,3792,8335,8896,0,0,0,0,0,0,0,0,8755,8617,0,0,3792,
3856,0,4556,4557,4558,0,0,0,0,0,0,0,0,12840,3831,3923,8335,8336,8896,4059,4060,0,0,8757,8757,0,0,0,8755,8616,8616,8617,0,3856,8335,8896,0,0,0,0,0,0,0,0,0,0,0,0,0,0,0,0,0,0,0,4091,4092,0,8755,8617,0,0,8475,6051,6052,6053,8477,0,3857,3858,3864,0,0,0,0,0,0,9404,0,3792,3792,3792,3792,3792,3792,8475,0,0,9035,0,7868,0,8755,8616,8616,8617,0,3792,3759,3792,
0,0,3856,0,0,4556,4557,4558,0,0,0,0,0,12980,3891,0,8475,0,0,4091,4092,0,9035,9035,0,0,8755,8616,8617,0,0,0,7718,0,8475,0,0,0,0,0,0,0,0,0,0,8755,8756,0,0,0,0,0,0,0,0,8755,8616,8616,8617,7993,0,0,8475,6191,6192,6193,8477,0,3889,0,0,0,0,0,0,0,9682,9544,3792,3792,0,3759,3792,0,8335,8896,9035,9035,0,0,0,0,8477,0,3792,3792,3792,0,3792,7855,
4556,4557,4558,4781,0,0,0,4556,4557,4558,0,0,0,12840,3891,8335,8896,0,0,0,0,0,9035,0,0,0,8895,8337,7855,0,0,7855,7587,0,8475,0,0,0,0,0,0,0,0,8755,8616,8617,8615,8616,8616,8616,8616,8616,8616,8616,8616,8617,0,0,7855,0,0,0,8475,6331,6332,6333,8477,0,3889,0,0,0,0,0,0,0,9404,3792,3792,3792,3792,3792,3792,8335,8896,0,9035,0,0,0,0,8755,8617,3792,3792,3792,3759,3792,0,9262,
0,0,3885,5059,5060,5061,0,0,0,0,0,0,0,12980,3891,8475,0,0,0,0,0,0,0,8755,8756,0,0,8895,8336,8336,8337,0,7993,8335,8896,0,0,0,0,0,0,0,0,8477,7587,9971,0,0,0,0,0,0,0,0,7587,0,0,7855,7993,0,0,8335,8896,0,0,0,8477,0,3921,3832,0,0,0,0,0,0,9404,3792,3792,3759,3792,3792,3792,8475,0,0,0,0,0,0,0,8477,0,3792,0,0,3792,3792,0,9402,
0,3916,3917,3918,0,3788,4556,4557,4558,0,0,0,0,12840,3891,8475,0,0,0,0,0,0,0,8895,8896,0,0,0,0,0,8895,8336,8336,8896,0,0,0,0,0,0,0,0,8755,8617,0,0,0,0,8335,8336,8336,8336,8336,8337,0,0,0,7855,0,8335,8336,8896,0,9036,8897,0,8477,0,0,3889,0,0,0,0,0,0,9404,3792,3792,8335,8336,8336,8336,8896,0,0,0,0,0,8755,8616,8617,3792,8335,8336,8336,8337,0,7855,9402,
4458,4459,0,0,0,3820,3821,3822,0,0,0,0,0,12980,3891,8615,8616,8756,0,0,0,0,0,0,0,0,0,0,0,0,0,0,7868,0,0,0,0,0,0,8755,8616,8616,8617,0,8335,8336,8336,8336,8896,0,0,0,0,8895,8337,0,0,0,0,8475,0,0,0,8897,8768,0,8477,0,0,3889,0,0,0,0,0,9682,9544,0,8335,8896,0,0,0,0,0,0,0,0,8755,8617,0,3792,8335,8896,0,0,8895,8337,0,9402,
0,0,0,0,0,0,0,3916,3917,3918,0,0,0,0,3863,3858,3859,8615,8616,8756,0,0,0,0,0,0,0,0,0,0,8757,8757,6050,0,0,0,0,0,0,8477,0,7855,8335,8336,8896,0,0,0,0,0,0,0,0,0,8895,8337,0,3857,3859,8615,8756,0,0,8755,8616,8616,8617,0,3857,3864,0,0,0,0,0,9404,0,0,8475,0,0,0,0,0,0,0,0,0,8477,0,0,0,8475,0,0,0,0,8477,9971,9542,
0,3820,3821,3822,4556,4557,4558,0,0,0,0,0,0,0,0,0,3863,3859,0,8615,8756,0,0,0,0,0,0,0,0,0,6188,6189,6190,0,0,0,0,0,0,8477,8335,8336,8896,0,8757,8768,8768,0,0,0,0,0,0,0,0,8477,0,3889,3863,3859,8615,8616,8616,8617,0,3857,3858,3858,3890,0,0,0,0,0,0,9404,0,7594,8475,0,0,0,0,0,0,0,8755,8616,8617,0,0,8335,8896,0,0,0,0,8895,8337,0,
0,0,0,0,0,0,3916,3917,3918,0,0,0,0,0,0,0,0,3863,3858,3859,8615,8616,8756,0,0,0,0,0,0,0,6328,6329,6330,0,0,0,0,0,0,8895,8896,0,0,0,8757,8768,0,0,0,8755,8616,8616,8616,8616,8616,8617,3857,3864,0,3863,3858,3858,3859,0,3857,3864,0,0,0,0,0,0,0,0,9682,9544,0,7734,8475,9035,0,7868,0,0,0,8755,8617,7855,3792,0,8335,8896,0,0,0,0,0,0,8477,0,
4458,4459,3916,3917,3918,0,0,0,3855,0,0,0,0,0,0,0,0,0,0,3863,3859,0,8615,8616,8616,8756,0,0,0,0,0,0,0,0,0,0,0,0,0,0,0,0,9035,9035,0,8897,0,0,8755,8617,0,0,0,0,0,3857,3864,0,0,0,0,0,3863,3858,3864,0,0,0,0,0,0,0,0,0,9404,0,0,0,8475,9463,0,6051,6052,6053,0,8477,0,3792,3792,8335,8896,0,0,6051,6052,6053,0,0,8477,3792,
0,0,0,0,0,4457,4458,4459,4556,4557,4558,0,0,0,0,7996,0,0,0,0,3863,3858,3859,0,0,8615,8616,8616,8616,8616,8616,8616,8756,0,0,0,0,0,0,0,0,0,8897,8768,8897,0,0,0,8477,0,0,3857,3858,3858,3858,3864,0,0,0,0,0,0,0,0,0,0,0,0,0,0,0,0,0,0,9404,7855,0,8335,8896,0,0,6191,6192,6193,8755,8617,7855,8335,8336,8896,0,0,0,6191,6192,6193,0,8755,8617,3759,
0,3820,3821,3822,0,0,0,0,0,0,0,0,0,0,0,0,7996,0,0,0,0,0,3863,3859,0,0,7587,0,0,0,0,0,8615,8616,8616,8756,0,0,0,0,0,0,0,0,0,0,8755,8616,8617,0,0,3889,0,0,0,0,0,0,0,0,0,4742,0,0,0,0,0,0,0,0,0,9682,9543,9543,9544,0,0,8475,0,0,0,6331,6332,6333,8477,7855,3792,8475,0,0,0,0,0,6331,6332,6333,0,8477,0,0,
0,0,0,0,0,3916,3917,3918,0,4556,4557,4558,0,0,0,0,0,0,0,0,0,0,0,3863,3858,3859,0,0,3857,3858,3858,3859,0,0,0,8615,8616,8616,8616,8616,8616,8616,8616,8616,8616,8616,8617,9971,0,0,3857,3864,0,0,0,0,0,0,0,0,0,0,0,0,0,0,0,0,9682,9543,9543,9544,0,7594,0,0,9971,8615,8756,0,0,0,0,0,8477,0,0,8475,0,9035,0,0,0,0,0,0,8755,8617,0,0,
4458,4459,4556,4557,4558,0,3855,3916,3917,3918,3855,4556,4557,4558,0,0,4742,0,0,0,0,0,0,0,0,3863,3858,3858,3864,0,0,3863,3858,3858,3859,0,0,0,0,9971,0,0,0,0,0,0,0,0,3857,3858,3864,0,0,0,0,0,0,0,0,0,4386,0,0,0,0,9682,9543,9543,9544,0,0,0,0,7734,8335,8336,8336,8337,8615,8756,0,0,0,0,8477,7855,8335,8896,0,9035,0,0,9035,0,0,0,8477,0,3792,9262,
0,0,0,0,0,0,0,0,0,0,0,0,0,0,0,0,0,0,0,0,0,0,0,0,0,0,0,0,0,0,0,0,0,0,3863,3858,3858,3858,3858,3858,3858,3858,3858,3858,3859,0,3857,3858,3864,0,0,0,0,0,0,0,0,0,0,0,7996,0,0,0,0,9404,0,3856,7855,0,0,0,0,8335,8896,0,0,8895,8337,8615,8756,0,0,0,8477,8335,8896,0,0,9035,0,0,0,0,0,8755,8617,3792,3792,9402,
0,0,3884,0,4556,4557,4558,3855,4457,4458,4459,3916,3917,3918,0,0,0,0,0,0,0,0,0,0,0,0,0,0,0,0,0,0,0,0,0,0,0,0,0,0,0,0,0,0,3863,3858,3864,0,0,0,0,0,0,0,0,0,0,0,7996,7996,0,0,0,0,9682,9544,9971,7855,3856,0,8335,8336,8336,8896,0,6051,6052,6053,8895,8337,8615,8616,8616,8616,8617,8475,0,0,9035,0,0,0,0,8755,8616,8617,0,0,9262,9823,
0,0,3916,3917,3918,0,0,0,0,0,0,0,0,4556,4557,4558,0,0,0,0,0,0,0,0,0,0,0,0,0,0,0,0,0,0,0,0,0,0,0,0,0,0,0,0,0,0,0,0,0,0,0,0,0,0,0,0,0,0,0,0,0,4556,4557,4558,9404,0,0,0,8335,8336,8896,0,0,9035,0,6191,6192,6193,9035,8477,3792,3792,3759,3856,8335,8896,0,0,0,0,0,8755,8616,8617,0,0,3792,0,9402,0,
0,0,0,0,0,0,0,3916,3917,3918,0,3916,3917,3918,0,4556,4557,4558,0,0,0,0,0,0,0,0,0,0,0,0,0,0,0,0,0,0,0,0,0,0,0,0,0,0,0,0,0,0,0,0,0,0,0,0,0,0,0,4742,0,0,3788,3789,3790,0,9404,7855,7855,8335,8896,0,0,0,0,0,0,6331,6332,6333,0,8477,0,8335,8336,8336,8896,0,0,0,7868,0,0,8477,0,0,7855,0,0,9262,9823,0,
0,0,0,0,3820,3821,3822,0,0,0,0,0,0,0,0,0,0,3916,3917,3918,3758,0,0,0,0,0,0,0,0,0,0,0,0,0,0,4919,4920,4921,0,0,0,0,0,0,0,0,0,0,0,0,0,0,0,0,0,0,0,0,0,0,3820,3821,3822,9682,9544,7855,8335,8896,0,0,7868,0,0,0,0,0,0,8755,8616,8617,8335,8896,0,0,0,0,0,0,0,0,0,8477,0,0,8987,9262,9263,9823,0,9262,
3820,3821,3822,0,0,0,0,4457,4458,4459,3789,3790,0,4457,4458,4459,0,0,0,0,3790,3821,3822,0,0,3789,4457,4458,4459,4556,4557,4558,3820,3821,3822,3916,3917,3918,0,0,0,0,0,0,0,0,0,0,0,0,0,0,0,0,0,4556,4557,4558,3916,3917,3918,0,0,9404,0,7855,8475,0,0,0,0,0,0,0,0,0,8755,8617,8335,8336,8896,0,0,7868,0,0,0,0,0,0,0,8477,0,0,9262,9823,0,9262,9263,9823,
0,0,4556,4557,4558,3916,3917,3918,0,3820,3821,3822,3884,3885,4556,4557,4558,0,3820,3821,3822,0,0,0,3820,3821,3822,3788,3789,0,0,0,0,0,0,0,0,0,0,0,0,3790,0,3788,3789,0,3916,3917,3918,4457,4458,4459,4556,4557,4558,0,0,0,0,0,0,0,0,9404,0,0,8475,0,0,0,0,0,0,8755,8616,8616,8617,0,8475,0,0,0,0,0,0,0,0,0,0,0,8755,8617,0,0,9402,0,0,9402,0,0,
0,4457,4458,4459,0,0,0,0,0,4526,0,0,3916,3917,3918,3855,0,0,0,0,0,5899,0,3916,3917,3918,0,3820,3821,3822,0,4556,4557,4558,0,0,0,0,0,3820,3821,3822,0,3820,3821,3822,0,0,0,0,3789,3790,0,0,0,3820,3821,3822,3820,3821,3822,0,9682,9544,0,3856,8615,8616,8616,8616,8616,8616,8616,8617,0,7855,7855,0,8475,0,0,0,0,0,0,0,0,0,0,8755,8617,0,0,9262,9823,0,9262,9823,0,9262,
0,0,0,4457,4458,4459,0,4556,4557,4558,0,0,0,0,0,0,3820,3821,3822,4457,4458,4459,0,0,3855,0,0,0,0,3820,3821,3822,0,0,0,3855,3856,0,3820,3821,3822,0,0,0,0,0,0,0,3855,3820,3821,3822,0,3789,3916,3917,3918,0,0,0,0,0,9822,9264,0,0,0,0,0,0,0,0,0,0,0,0,0,0,8615,8616,8616,8616,8616,8616,8616,8616,8616,8616,8616,8617,0,9262,9263,9823,9262,9263,9823,9262,9263,9823,
3916,3917,3918,0,0,4556,4557,4558,0,0,0,0,4556,4557,4558,0,0,3820,3821,3822,0,4556,4557,4558,0,0,0,0,0,0,0,0,0,3916,3917,3918,0,0,0,0,0,0,0,0,0,4556,4557,4558,0,0,0,0,3820,3821,3822,0,0,0,0,4556,4557,4558,0,9822,9263,9263,9263,9263,9263,9263,9263,9263,9263,9263,9263,9263,9263,9263,9263,9264,0,0,0,9262,9263,9263,9263,9263,9263,9263,9263,9823,9262,9263,9823,9262,9263,9823,0,0
</data>
 </layer>
 <layer name="Layer 3" width="100" height="57">
  <data encoding="csv">
0,0,0,0,0,0,5610,5611,5612,5613,0,5662,5663,5664,5665,0,0,0,0,5610,5611,5612,5613,0,0,0,0,5686,5687,5688,5689,0,0,0,0,0,0,0,0,5522,5523,5524,5525,0,5686,5687,5688,5689,0,0,0,0,5662,5663,5664,5665,0,0,0,0,0,0,5478,5479,5480,5481,4496,0,0,0,0,0,0,0,4303,5474,5475,5476,5477,0,0,0,0,4047,0,5470,5471,5472,5473,0,0,4496,0,0,0,0,0,0,4303,0,
4201,4202,4203,0,0,0,5750,4781,5752,5753,5385,5802,5803,5804,5805,4781,4806,4807,3884,5750,5751,5752,5753,0,0,3884,3885,5826,5827,5828,5829,3884,3885,3886,0,3884,3885,3886,0,5662,5663,5664,5665,0,5826,5827,5828,5829,0,0,0,0,5802,5803,5804,5805,0,0,0,0,0,0,5618,5619,5620,5621,0,0,0,0,0,0,0,0,4335,5614,5615,5616,5617,0,4655,4656,0,4079,4496,5610,5611,5612,5613,0,0,0,0,0,0,4176,0,0,4335,0,
0,0,0,0,0,3884,4920,4921,5892,5893,5525,5942,5943,5944,5945,3886,4073,4074,4075,5890,5891,5892,5893,4074,4075,0,0,5966,5967,5968,5969,4203,0,0,0,0,0,0,3881,5802,5803,5804,4946,4074,5966,5967,5968,5969,0,0,3881,4917,4918,5947,5948,5945,0,0,0,0,0,0,5758,5759,5760,5761,5335,5336,5337,0,0,0,0,0,0,5754,5755,5756,5757,0,4591,4592,4176,0,0,5750,5751,5752,5753,0,0,0,0,0,0,4208,0,0,0,0,
0,0,0,3881,3882,3883,0,5662,5663,5664,5665,0,0,0,0,0,0,0,0,0,0,0,0,0,0,5382,5383,5384,5385,0,0,0,4073,4074,4075,3884,3885,3886,0,5057,5058,5944,5945,3885,3886,0,4073,4074,4075,0,0,5546,5547,5548,5549,0,0,0,0,0,0,0,5898,5899,5900,5901,5475,5476,5477,4496,0,0,0,0,0,5894,5895,5896,5897,0,0,0,4208,0,0,5890,5891,5892,5893,0,0,4559,4560,0,0,0,5342,5343,5344,5345,
0,0,0,0,0,3884,3885,5802,5803,5804,5805,3883,0,0,0,0,0,0,0,4201,4202,4203,0,3884,3885,5522,5523,5524,5525,3882,3883,0,0,0,0,0,0,0,0,4201,4202,4203,0,0,0,0,0,0,0,4073,4074,5686,5687,5688,5689,0,0,0,0,0,0,0,0,0,0,5614,5615,5616,5617,0,0,0,0,0,0,0,0,0,0,0,0,0,0,5338,5339,5340,5341,0,0,0,0,4591,4592,4176,0,0,5482,5483,5484,5485,
0,4201,5330,5331,5332,5333,0,5942,5943,5056,5710,0,0,4201,5330,5331,5332,5333,0,0,0,0,0,0,0,5662,5663,5664,5665,0,0,0,0,0,0,3881,3882,3883,0,0,0,0,0,0,3881,3882,3883,0,0,0,5382,5826,5827,5828,5829,0,0,0,0,0,0,0,0,0,0,5754,5755,5756,5757,0,0,0,0,0,0,0,0,0,0,5342,5343,5344,5345,5478,5479,5480,5481,0,0,0,0,0,0,4208,0,0,5622,5623,5624,5625,
0,0,5470,5471,5472,5473,0,0,0,4201,4202,4203,0,0,5470,5471,5472,5473,4202,4203,0,0,3881,3882,3883,5802,5803,5804,5805,0,0,3881,3882,3883,0,0,4041,0,0,0,3881,3882,3883,0,4073,4074,4075,0,0,0,5522,5966,5967,5968,5969,0,0,0,0,0,0,0,4176,0,0,5894,5895,5896,5897,0,0,5342,5343,5344,5345,0,0,4496,4303,5482,5483,5484,5485,5618,5619,5620,5621,0,4496,0,0,0,0,0,0,0,5762,5763,5764,5765,
0,0,5610,5611,5612,5613,3882,3883,0,0,0,0,3881,3882,5610,5611,5612,5613,4073,4074,4075,0,0,0,3884,5942,5330,5331,5332,5333,0,0,0,0,4201,4202,4073,4074,4075,0,0,3884,3885,3886,0,0,0,4073,4074,4075,5662,5663,5664,5665,0,0,0,0,0,0,0,0,4208,0,4496,0,0,0,0,4559,4560,5482,5483,5484,5485,5335,5336,5337,4335,5622,5623,5624,5625,5758,5759,5760,5761,0,0,4303,0,0,0,0,0,4176,5902,5903,5904,5905,
0,0,5750,5751,5752,5753,0,4919,5383,4921,5233,3884,3885,3886,5750,5751,5752,5753,0,0,0,0,0,0,0,0,5470,5471,5472,5473,4202,4203,0,0,0,0,4235,0,4073,4074,4075,0,0,0,4201,4202,4203,0,0,0,5802,5803,5804,5805,0,4220,4222,0,0,0,0,0,0,0,0,4176,0,0,0,4591,4592,5622,5623,5624,5625,5475,5476,5477,0,5762,5763,5764,5765,5898,5899,5900,5901,0,0,4335,0,5342,5343,5344,5345,4208,0,0,0,0,
3974,4201,5890,5891,5892,5893,0,5522,5523,5524,5525,0,0,0,5890,5891,5892,5893,4920,4921,5408,5409,4074,4075,0,0,5610,5611,5612,5613,0,0,0,0,0,0,0,0,0,0,0,0,4073,4074,4075,0,0,0,4201,4202,5942,5943,5944,5945,0,0,0,0,0,0,0,0,0,0,0,4208,0,0,0,0,0,5762,5763,5764,5765,5615,5616,5617,0,4047,5903,5904,5905,0,0,0,0,0,0,0,0,5482,5483,5484,5485,0,0,0,0,0,
0,0,0,0,0,3881,3882,5662,5663,5664,5665,4074,4075,0,3881,3882,3883,0,5546,5547,5548,5549,0,0,0,0,5750,5751,5752,5753,4176,0,0,6048,6049,6050,0,0,0,0,0,0,0,0,4107,0,3881,3882,3883,0,0,0,0,0,0,0,0,0,0,0,0,0,0,0,0,0,0,0,0,0,0,5902,5903,5904,5905,5755,5756,5757,0,4079,0,0,0,0,4303,0,0,0,0,0,0,5622,5623,5624,5625,0,0,0,0,0,
0,0,0,0,0,0,0,5802,5803,5804,5805,0,0,0,0,0,0,0,5686,5687,5688,5689,0,0,0,0,5890,5891,5892,5893,4208,0,0,6188,6189,6190,0,0,0,0,0,0,0,0,0,0,0,0,3915,0,0,0,0,0,0,0,0,0,0,0,0,0,0,0,0,0,0,0,0,0,4496,0,0,0,5894,5895,5896,5897,0,0,0,4176,0,0,4335,0,4176,0,0,0,0,5762,5763,5764,5765,0,0,0,0,4176,
0,0,0,0,0,4201,4202,5942,5943,5944,5945,0,0,0,4201,4202,4203,0,5826,5827,5828,5829,0,0,0,0,0,0,0,0,0,0,0,6328,6329,6330,0,0,0,5382,5383,5384,5385,4075,0,0,0,0,0,0,0,0,0,0,0,0,0,0,0,0,0,0,0,0,0,0,0,0,0,0,0,0,0,0,4655,4656,0,0,0,0,0,4208,0,0,0,0,4208,0,0,0,0,5902,5903,5904,5905,0,4559,4560,0,4208,
0,0,0,0,0,0,0,0,0,0,3881,3882,3883,0,0,0,0,3881,5966,5967,5968,5969,0,0,0,0,0,0,0,0,0,0,0,0,0,4176,0,0,0,5522,5523,5524,5525,0,0,0,0,0,0,0,0,0,0,0,0,0,0,0,6064,6065,6066,0,0,0,0,0,0,0,0,0,0,0,0,0,4591,4592,0,0,0,0,0,0,0,0,0,5342,5343,5344,5345,0,0,0,0,0,0,0,4591,4592,3745,3746,
0,0,0,0,0,0,0,0,0,0,0,0,0,0,0,0,0,0,0,0,0,0,0,4176,0,0,0,0,0,0,0,0,0,0,0,4208,0,0,0,5662,5663,5664,5665,0,5382,5383,5384,5385,0,0,0,0,0,0,0,0,0,0,6204,6205,6206,0,0,0,0,0,0,0,0,0,0,0,0,0,0,0,0,5198,5199,5200,4496,0,0,0,0,5482,5483,5484,5485,0,0,0,4176,0,0,0,0,0,3777,3778,
0,0,0,0,0,0,0,0,0,0,0,0,4201,4202,4203,5330,5331,5332,5333,0,0,0,0,4208,0,0,0,0,0,0,0,0,0,0,0,0,0,4220,4222,5802,5803,5804,5805,0,5522,5523,5524,5525,0,0,0,0,0,0,0,0,0,0,6344,6345,6346,0,0,0,0,0,0,0,0,0,4047,0,0,0,0,0,0,5338,5339,5340,5341,0,4176,0,0,5622,5623,5624,5625,0,7587,0,4208,0,0,0,0,0,3809,3810,
0,0,0,0,0,0,0,0,0,0,0,0,0,0,0,5470,5471,5472,5473,3883,0,0,0,0,0,0,0,0,0,0,0,0,0,0,0,0,0,4252,4254,5942,5943,5944,5945,0,5662,5663,5664,5665,0,0,0,0,0,0,0,0,0,0,6484,6485,6486,0,0,0,0,0,0,0,0,0,4079,0,0,0,0,0,0,5478,5479,5480,5481,0,4208,0,0,5762,5763,5764,5765,0,0,0,0,0,0,0,0,0,3841,3842,
0,5382,3854,4492,4493,0,12558,0,0,0,0,0,0,0,0,5610,5611,5612,5613,5058,0,0,0,0,0,0,0,0,0,0,0,0,0,0,0,0,0,0,0,0,0,0,0,0,5802,5803,5804,5805,0,0,0,0,0,0,0,0,0,0,0,0,0,6049,6050,0,0,0,0,0,0,0,0,0,0,0,0,0,0,5618,5619,5620,5621,0,0,0,0,5902,5903,5904,5905,0,0,0,3876,3877,3878,0,0,0,0,0,
3884,5522,3886,4524,4525,4526,12558,0,0,0,0,0,0,0,0,5750,5751,5752,5753,0,0,0,0,0,0,0,0,0,0,0,0,0,0,0,0,0,0,0,0,0,0,0,0,0,5942,5943,5944,5945,0,0,0,0,0,0,0,0,0,4572,0,6048,6049,6050,0,0,0,0,0,0,0,0,0,0,0,0,0,0,0,5758,5759,5760,5761,0,0,0,5902,5903,5904,5905,0,0,0,0,3908,3909,3910,0,0,0,0,0,
0,5662,5663,5664,5665,0,0,0,0,0,0,0,0,0,0,5890,5891,5892,5893,0,0,0,0,0,0,4176,0,0,0,0,0,0,0,0,0,0,0,0,0,0,0,0,0,0,0,0,0,0,0,0,0,0,0,0,0,0,0,0,0,6188,6189,6190,0,0,0,0,0,0,0,0,0,0,0,0,0,7587,0,5898,5899,5900,5901,0,4655,4656,0,0,0,0,0,0,0,0,3940,3941,3942,0,0,0,0,0,
0,5802,5803,5804,5805,0,0,0,0,0,0,0,0,0,0,0,0,0,4444,0,0,0,0,0,0,4208,0,0,0,0,0,0,0,0,0,0,0,0,0,0,0,0,0,0,0,0,0,0,4572,0,0,0,0,0,0,0,0,0,0,6328,6329,6330,0,0,0,0,0,0,0,0,0,0,0,0,0,4048,0,0,0,0,0,0,4591,4592,0,0,0,0,0,0,0,0,3972,3973,3974,0,0,0,0,0,
3884,5942,5943,5944,5945,3789,3790,0,0,4524,4525,4526,0,0,0,0,0,0,4476,0,0,4239,4240,0,0,0,0,0,0,0,0,0,0,0,0,0,0,0,0,0,5382,5383,5384,5385,0,0,0,0,0,0,0,0,0,0,0,0,0,0,0,0,0,0,0,0,0,0,9679,0,0,0,0,0,0,0,0,4080,0,0,0,0,0,0,0,0,0,0,0,0,0,0,0,0,0,0,0,0,0,0,0,0,
0,0,0,0,0,3884,3885,3886,4524,4525,4526,0,0,0,0,0,0,26981,26982,0,0,4271,4272,0,0,0,0,0,0,0,0,0,0,0,0,0,0,0,0,0,5522,5523,5524,5525,0,0,0,0,0,0,0,0,0,0,0,0,0,0,0,0,0,0,0,0,0,0,0,0,0,0,0,0,0,0,0,0,0,0,0,0,0,0,0,0,0,0,0,0,0,0,0,0,0,0,0,0,0,0,0,0,
0,0,0,0,0,0,0,0,0,0,0,0,0,0,0,0,0,27041,27042,0,0,0,0,0,0,0,0,0,0,0,0,0,0,0,0,0,0,0,0,0,5662,5663,5664,5665,0,0,0,0,0,0,0,0,0,0,0,0,0,0,0,0,0,0,0,0,0,0,0,0,0,0,0,0,0,0,0,0,0,0,0,0,0,0,0,0,0,0,0,0,0,0,0,0,0,0,0,0,0,0,0,0,
3789,3790,3884,3885,3886,0,3788,3789,3790,0,0,0,0,0,0,0,0,0,0,0,0,0,0,0,0,0,0,0,0,0,0,0,0,0,0,0,0,0,0,0,5802,5803,5804,5805,0,0,0,0,0,0,0,0,0,0,0,0,0,0,0,0,0,0,0,0,0,0,0,0,0,0,0,0,0,0,0,0,0,0,0,0,0,0,0,0,0,0,0,0,0,0,0,0,0,0,0,0,0,0,0,0,
0,0,0,0,0,0,0,0,3788,3789,3790,0,0,0,0,0,0,0,0,0,0,0,0,0,0,6064,6065,6066,0,0,0,0,0,0,0,0,0,0,0,0,5942,5943,5944,5945,0,0,0,0,0,0,0,0,0,0,0,0,0,0,0,0,0,0,0,0,0,0,0,0,0,0,0,0,0,0,0,0,0,0,0,0,0,0,0,0,0,0,0,0,0,0,0,7587,0,0,0,0,0,0,0,0,
4426,4427,0,4524,4525,4526,3884,3885,3886,0,3884,3885,3886,0,0,0,0,0,0,0,0,0,0,0,0,6204,6205,6206,0,0,0,0,0,0,0,0,0,0,0,0,0,0,0,0,0,0,0,0,0,0,6064,6065,6066,0,0,0,0,0,0,0,0,0,0,0,0,0,0,0,0,0,0,0,0,0,0,0,0,0,0,0,0,0,0,0,0,0,0,0,0,0,0,0,0,4252,4253,4254,0,0,0,0,
5340,5341,3885,3886,0,0,0,0,0,0,0,0,0,0,0,0,0,0,0,0,0,0,0,0,0,6344,6345,6346,0,0,0,0,0,0,0,0,0,0,0,0,0,0,0,0,0,0,0,0,0,0,6204,6205,6206,0,0,0,0,0,0,0,0,0,0,0,0,0,0,0,0,0,0,0,0,0,0,0,0,0,0,0,0,0,0,0,0,0,0,0,4252,4253,4254,0,0,0,0,0,0,0,0,0,
5480,5481,0,0,0,0,0,4524,4525,4526,0,0,0,0,0,0,0,0,4252,4254,0,0,0,0,0,6484,6485,6486,0,0,0,0,0,0,0,0,0,0,0,0,0,0,0,0,0,0,0,0,0,0,6344,6345,6346,0,8897,0,0,0,0,0,0,0,0,0,0,0,0,0,0,0,0,0,0,0,0,0,0,0,0,0,0,0,0,0,0,0,0,0,0,0,0,0,0,0,0,0,0,0,0,0,
5620,5621,4426,4427,3884,3885,3886,0,4524,4525,4526,0,0,0,0,12558,0,0,0,0,0,0,0,0,0,0,0,0,0,0,0,0,0,0,0,0,0,0,0,0,0,0,0,0,0,0,0,0,0,0,6484,6485,6486,0,0,0,0,0,0,0,0,0,0,0,0,0,0,0,0,0,0,0,0,0,0,0,0,0,0,0,0,0,0,0,0,0,0,0,0,0,0,0,0,0,0,0,0,0,0,0,
5760,5761,0,0,0,0,0,0,0,0,0,0,0,0,0,12558,0,0,0,0,0,0,0,0,0,0,0,0,0,0,0,0,0,0,0,0,0,0,0,0,0,0,0,0,0,0,0,0,0,0,0,0,0,0,0,0,0,0,0,0,0,0,0,0,0,0,0,0,0,0,0,0,0,0,0,0,0,0,0,0,0,0,0,0,0,0,0,0,0,0,0,6048,6049,6050,0,0,0,0,0,0,
5900,5901,3790,3884,3885,3886,3788,3789,3790,0,0,0,0,0,0,0,0,0,0,0,0,0,0,0,0,0,0,0,0,5382,5383,5384,5385,0,0,0,0,0,0,0,0,0,0,0,0,0,0,0,0,0,0,0,4572,4572,0,0,0,0,0,0,0,0,0,4572,0,0,0,0,0,0,0,0,0,0,0,0,0,0,0,0,0,0,0,0,0,0,0,0,0,0,0,6188,6189,6190,0,0,0,0,0,0,
0,0,4524,4525,4526,0,0,0,0,0,0,0,0,0,0,0,0,0,0,0,0,0,0,0,0,0,0,0,0,5522,5523,5524,5525,0,0,0,0,0,0,0,0,0,0,0,0,0,0,0,0,0,0,0,0,0,0,0,0,0,0,0,0,0,0,0,0,0,0,0,0,0,0,0,0,0,0,0,0,0,0,0,0,0,0,0,0,0,0,0,0,8897,0,6328,6329,6330,0,0,0,0,0,0,
0,0,0,4047,0,4524,4525,4526,0,0,0,0,0,0,0,0,0,0,0,0,0,0,0,0,0,0,0,0,0,5662,5663,5664,5665,0,0,0,0,0,0,0,0,0,0,0,0,0,0,0,0,0,0,0,0,0,5382,5383,5384,5385,0,0,0,0,0,0,0,0,0,0,0,0,7587,0,0,0,0,0,0,0,0,0,0,0,0,0,0,0,0,0,0,0,0,0,0,0,0,0,0,0,0,0,
4524,4525,4526,4079,0,0,0,4524,4525,4526,0,0,0,0,0,0,0,0,0,0,0,0,0,0,0,0,0,0,0,5802,5803,5804,5805,0,0,0,0,0,0,0,0,0,0,0,0,0,0,0,0,0,0,0,0,0,5522,5523,5524,5525,0,0,0,0,0,0,0,0,0,0,0,0,0,0,0,0,0,0,0,0,0,0,0,0,0,0,0,0,0,0,0,0,0,0,0,0,0,0,0,0,0,0,
0,0,5382,4919,4920,4921,0,0,26251,26252,0,0,0,0,0,0,0,0,0,0,0,0,0,0,0,0,0,0,0,5942,5943,5944,5945,0,0,0,0,0,0,0,0,0,0,0,0,0,0,0,0,0,0,0,0,0,5662,5663,5664,5665,0,0,0,0,0,0,0,0,0,0,0,0,0,0,0,0,0,0,0,0,0,0,0,0,0,0,0,0,0,0,0,0,0,0,0,0,0,0,0,0,0,0,
0,3884,5522,5523,5524,5525,4524,4525,26311,26312,0,0,0,0,0,0,0,0,0,0,4572,0,0,0,0,0,0,0,0,0,0,0,0,0,0,0,0,0,0,0,0,0,0,0,0,0,0,0,0,0,0,0,0,0,5802,5803,5804,5805,0,0,0,0,0,0,0,0,0,0,0,0,0,0,0,0,0,0,0,0,0,0,0,0,0,0,0,0,8757,0,0,0,0,0,0,0,0,0,0,0,0,0,
4426,4427,5662,5663,5664,5665,3789,3790,0,0,0,0,0,0,0,0,0,0,0,0,0,0,0,0,0,0,0,0,0,0,0,0,0,0,0,0,0,0,0,0,0,0,0,0,0,0,0,0,0,0,0,0,0,0,5942,5943,5944,5945,0,0,0,0,0,0,0,0,0,0,0,0,0,0,0,0,0,0,0,0,0,0,0,0,0,0,6048,6049,6050,0,0,0,0,0,0,0,0,0,0,0,0,0,
0,0,5802,5803,5804,5805,0,3884,3885,3886,0,0,0,0,0,0,0,0,0,0,0,0,0,0,0,6064,6065,6066,0,0,0,0,0,0,0,0,0,0,0,0,0,0,0,0,0,0,0,0,6051,6052,6053,0,0,0,0,0,0,0,0,0,0,0,0,0,0,0,0,0,0,0,0,0,0,0,0,0,0,0,0,0,0,0,0,0,6188,6189,6190,0,0,0,0,0,0,0,0,0,0,0,0,0,
0,3788,5942,5943,5944,5945,4526,0,0,0,0,0,0,0,0,0,0,0,0,0,0,4572,0,0,0,6204,6205,6206,0,0,6048,6049,6050,0,0,0,4572,0,0,0,0,0,0,0,0,0,0,0,6191,6192,6193,0,0,0,0,0,0,0,0,0,0,0,0,0,0,0,0,4446,4447,4448,0,0,0,0,0,0,0,0,0,0,0,0,0,0,6328,6329,6330,0,0,0,0,0,0,0,0,0,0,0,0,0,
0,0,0,0,0,4047,3884,3885,3886,0,0,0,0,0,0,0,3823,0,0,0,0,0,0,0,0,6344,6345,6346,0,0,0,0,0,0,0,0,0,0,0,0,0,0,0,0,0,0,0,0,6331,6332,6333,0,4572,0,0,0,0,0,0,0,0,0,0,0,0,0,0,4478,4479,4480,0,0,0,0,0,0,0,0,0,0,0,0,0,0,0,0,0,0,0,0,0,0,0,0,0,8757,0,0,0,0,
4426,4427,3884,3885,3886,4079,0,0,0,0,0,0,0,0,0,0,0,0,7587,0,0,0,0,0,0,6484,6485,6486,0,0,0,0,0,0,0,0,0,0,0,0,0,0,0,0,0,8768,8768,0,0,0,0,0,0,0,0,0,0,0,0,0,3823,0,0,0,0,0,0,0,0,0,0,0,0,0,0,0,0,0,0,0,0,0,0,0,0,0,0,0,0,0,0,0,0,0,0,0,0,0,0,0,
0,0,0,0,0,4425,4426,4427,4524,4525,4526,0,0,0,0,0,0,0,0,0,0,0,0,0,0,0,0,0,0,0,0,0,0,0,0,0,0,0,0,0,0,0,0,0,0,0,0,0,0,0,0,0,0,0,0,0,0,7587,0,0,0,0,0,0,0,0,0,0,0,0,0,0,0,0,0,8008,0,0,0,0,8897,0,0,0,0,0,0,0,0,0,0,0,0,0,0,0,0,0,0,0,
0,3788,3789,3790,0,0,0,0,0,0,0,0,0,0,0,0,0,0,0,0,0,3823,0,0,0,0,0,0,0,0,0,0,0,0,0,0,0,0,0,0,0,0,0,0,0,0,0,0,0,0,0,0,4220,4221,4222,0,0,0,0,0,0,0,0,0,0,0,0,0,0,0,0,0,0,0,0,0,0,0,0,0,6048,6049,6050,0,0,0,0,0,0,0,0,0,0,0,0,0,0,0,7594,0,
0,0,0,0,0,3884,3885,3886,0,4524,4525,4526,0,0,0,0,0,0,0,0,0,0,0,0,0,0,0,0,0,0,0,0,0,0,0,0,0,0,0,0,0,0,0,0,0,0,0,0,0,0,0,0,0,0,0,0,0,0,0,0,0,0,0,0,0,0,0,0,0,0,0,0,0,0,0,0,0,0,0,8757,6188,6189,6190,0,0,0,0,0,0,0,0,8897,6048,6049,6050,0,0,0,7734,0,
4426,4427,4524,4525,4526,0,0,3884,3885,3886,0,4524,4525,4526,0,0,0,0,0,0,0,0,0,0,4446,4447,4448,0,0,0,0,0,0,0,0,0,0,0,0,0,0,0,0,0,0,0,0,0,0,0,0,0,0,0,0,0,0,0,0,0,0,0,0,0,0,0,0,0,0,0,0,0,0,0,0,0,0,0,0,0,6328,6329,6330,0,0,8008,0,0,0,0,0,0,6188,6189,6190,0,0,0,0,0,
5383,5384,5385,0,0,0,0,0,0,0,0,0,0,0,0,0,0,0,0,0,0,0,0,0,4478,4479,4480,0,0,0,0,0,0,0,0,0,0,0,0,0,0,4446,4447,4448,0,0,0,0,0,3823,0,0,0,0,0,0,0,0,0,0,0,0,0,0,0,0,0,0,0,0,0,0,0,0,0,0,0,0,0,0,0,0,0,0,0,0,0,0,0,0,8757,0,6328,6329,6330,0,0,0,0,0,
5523,5524,5525,0,4524,4525,4526,0,4425,4426,4427,3884,3885,3886,0,0,0,0,0,0,0,0,0,0,0,0,0,0,0,0,0,0,0,0,0,4220,4221,4222,0,0,3823,4478,4479,4480,0,0,0,0,0,0,0,0,0,0,0,0,0,0,0,0,0,0,0,0,0,0,3823,0,0,0,0,0,0,0,0,0,0,0,0,0,0,0,0,0,0,0,0,0,8897,0,0,0,0,0,0,0,0,0,0,0,
5663,5664,5665,3885,3886,0,0,0,0,0,0,0,0,4524,4525,4526,0,0,0,4047,0,0,0,0,0,0,0,0,0,0,0,0,0,0,0,0,0,0,0,0,0,0,0,0,0,0,0,0,0,0,0,0,0,0,0,0,0,0,0,0,0,4524,4525,4526,0,0,0,0,0,0,0,0,0,0,0,0,0,0,0,0,0,0,0,0,0,0,0,0,0,0,0,0,0,0,0,7594,0,0,0,0,
5803,5804,5805,0,0,0,0,3884,3885,3886,0,3884,3885,3886,0,4524,4525,4526,0,4079,0,0,0,0,0,0,0,0,0,0,0,0,0,0,0,0,0,0,0,0,0,0,0,0,0,0,0,0,0,0,0,0,0,0,0,0,0,0,0,0,0,0,0,0,0,0,0,0,0,0,0,0,0,6048,6049,6050,0,0,0,0,0,0,0,0,0,0,0,0,0,0,0,0,0,0,0,7734,0,4041,4042,4043,
5943,5944,5945,0,3788,3789,3790,0,0,0,0,0,0,0,0,0,0,3884,3885,3886,5338,3756,3757,3758,0,0,0,0,0,0,0,0,0,0,0,0,0,0,0,0,0,0,0,0,0,0,0,0,0,0,0,0,0,0,0,0,0,0,0,0,5382,5383,5384,5385,0,0,0,0,0,0,0,0,0,6188,6189,6190,0,0,0,0,0,0,0,0,0,0,0,0,0,0,0,0,0,0,0,0,0,4073,4074,4075,
3788,3789,3790,0,0,0,0,4425,4426,4427,0,0,0,4425,4426,4427,0,0,0,0,5478,3788,3789,3790,0,0,4425,4426,4427,4524,4525,4526,3788,3789,3790,5382,5383,5384,5385,0,0,0,0,0,0,0,0,0,0,0,0,0,0,0,0,4524,4525,4526,3884,3885,3886,5523,5524,5525,0,0,0,0,0,0,0,0,0,6328,6329,6330,0,0,0,0,0,0,0,0,0,0,0,0,0,0,0,0,0,0,0,0,0,4105,4106,4107,
0,0,4524,4525,4526,3884,3885,3886,0,3788,5383,5384,5385,0,4524,4525,4526,0,3788,3789,5618,5619,5620,5621,3788,5338,3790,5340,5341,0,0,0,0,0,0,5522,5523,5524,5525,0,0,5338,5339,5340,5341,0,3884,3885,3886,4425,4426,4427,4524,4525,4526,0,0,0,0,0,5662,5663,5664,5665,0,0,0,0,0,8757,0,0,0,0,0,0,0,0,0,0,0,0,0,0,0,0,7594,7594,0,7594,0,0,0,0,0,0,0,4137,4138,4139,
0,4425,4426,4427,0,0,0,0,0,5522,5523,5524,5525,3885,3886,0,0,0,0,0,5758,5759,5760,5761,3885,3886,5479,5480,5481,3790,0,4524,4525,4526,0,5662,5663,5664,5665,3788,3789,5478,5479,5480,5481,3790,0,0,0,0,5382,5383,5384,5385,0,3788,3789,3790,3788,3789,5802,5803,5804,5805,0,0,0,0,0,0,0,8897,0,0,0,0,0,0,0,0,0,0,0,0,0,7594,7734,7734,7594,7734,0,0,0,0,0,0,0,0,4041,4042,
0,0,0,4425,4426,4427,0,4524,4525,5662,5663,5664,5665,0,0,0,3788,3789,3790,4425,5898,4427,5900,5901,0,5618,5619,5620,5621,3788,3789,3790,0,0,0,5802,5803,5804,5805,3789,3790,5618,5619,5620,5621,0,0,0,0,3788,5522,5523,5524,5525,3884,3885,3886,0,0,0,5942,5943,5944,5945,0,0,0,0,4169,4170,4171,0,0,0,0,0,0,0,0,0,0,0,0,0,0,7734,0,0,7734,0,0,0,0,0,0,0,0,0,4073,4074,
3884,3885,3886,0,0,4524,4525,4526,0,5802,5803,5804,5805,4525,4526,0,0,3788,3789,3790,0,4524,4525,4526,0,5758,5759,5760,5761,0,0,0,0,3884,3885,5942,5943,5944,5945,0,0,5758,5759,5760,5761,4524,4525,4526,0,0,5662,5663,5664,5665,3790,0,0,0,0,4524,4525,4526,0,0,3852,3853,3854,0,4201,4202,4203,0,0,0,0,3849,3850,3851,0,0,0,0,0,0,0,0,0,3849,3850,3851,0,0,0,0,0,0,0,0,4105,4106,
0,0,0,4425,4426,4427,0,0,0,5942,5943,5944,5945,0,4524,4525,4526,0,0,0,4524,4525,4526,0,4524,4525,5899,5900,5901,3886,0,4524,4525,4526,0,0,4524,4525,4526,0,4524,5898,5899,5900,5901,3790,0,0,4524,4525,5802,5803,5804,5805,0,0,3788,3789,3790,4524,4525,4526,0,0,3884,3885,3886,0,4233,4234,4235,0,4041,4042,4043,3881,3882,3883,0,0,0,0,0,0,0,0,0,3881,3882,3883,0,0,0,0,0,0,0,0,4137,4138
</data>
 </layer>
 <layer name="Layer 4" width="100" height="57">
  <data encoding="csv">
4812,4813,4814,0,0,0,0,0,0,0,0,0,0,0,0,6605,6606,6607,3852,3853,3854,0,0,0,0,3852,3853,3854,0,0,0,3852,3853,3854,0,3852,3853,3854,0,0,0,0,0,0,0,0,0,0,0,0,0,0,0,0,0,0,0,0,0,0,0,0,0,0,0,0,0,0,0,0,5342,5343,5344,5345,0,0,0,0,0,0,0,0,0,0,0,0,0,0,0,0,0,0,0,0,0,0,0,0,0,0,
0,0,0,0,0,3852,3853,5382,5383,5384,3850,3851,0,3852,3853,6745,6746,6747,4043,4920,4921,0,4041,4042,4043,0,0,4921,5238,4812,4813,4814,0,0,0,0,0,0,3849,3850,3851,0,4041,4042,4043,0,0,0,0,0,3849,3850,3851,0,0,0,0,0,0,0,0,0,0,0,0,0,0,0,0,0,5482,5483,5484,5485,0,0,0,0,0,0,0,0,0,0,0,0,0,0,0,0,0,0,0,0,0,0,0,0,0,0,
3875,0,0,3849,3850,3851,0,5522,5523,5524,0,0,0,4919,4920,0,0,0,0,0,0,0,4946,0,4811,4812,4813,4814,6455,4952,4953,0,4041,4042,4043,3852,3853,3854,0,4917,4918,0,4779,3853,3854,0,4041,4042,4043,0,0,5406,5407,5408,5409,0,0,0,0,0,0,0,0,0,0,5334,5335,0,0,0,5622,5623,5624,5625,0,0,0,0,0,0,0,0,0,0,0,0,0,0,5330,5331,5332,5333,0,0,0,0,0,0,0,0,
3907,0,0,0,0,3852,3853,3854,0,3849,3850,3851,0,0,0,0,0,0,0,4812,4813,4814,0,3852,3853,3854,0,0,3849,3850,3851,0,0,0,0,0,0,0,0,4812,4813,4814,4919,0,0,0,0,0,0,4041,4042,4043,0,0,0,0,0,0,0,0,0,0,0,0,0,5474,5475,0,0,0,5762,5763,5764,5765,0,0,0,0,0,0,0,0,0,0,0,0,0,0,5470,5471,5472,5473,0,0,0,0,0,0,0,0,
3939,4812,4813,4814,0,0,0,4921,0,4916,4917,0,0,4812,4813,4814,0,0,0,0,0,0,6455,0,0,0,0,0,0,0,0,0,0,0,0,3849,3850,3851,0,0,0,0,0,0,3849,3850,3851,0,0,0,0,0,0,0,0,0,0,0,0,0,0,0,0,0,0,0,0,0,0,0,5902,5903,5904,5905,0,0,0,0,0,0,0,0,0,0,0,0,0,0,5610,5611,5612,5613,0,0,0,0,0,0,0,0,
3971,0,0,0,0,0,0,0,0,4812,4813,4814,0,0,0,0,0,4812,4813,4814,0,0,3849,3850,3851,0,0,0,0,0,0,3849,3850,3851,6455,0,0,0,0,0,3849,3850,3851,0,4041,4042,4043,0,0,0,5382,5383,5384,5385,0,0,0,0,0,0,0,0,0,0,0,0,0,0,0,0,0,0,0,0,0,0,0,0,0,0,0,0,0,0,5338,5339,5340,5341,5750,5751,5752,5753,0,0,0,0,0,0,0,0,
3878,0,0,0,0,3849,3850,3851,0,0,0,0,3849,3850,3851,0,0,0,4041,4042,4043,0,0,0,3852,3853,3854,4041,4042,4043,0,0,0,0,4812,4813,4814,4042,4043,0,0,3852,3853,3854,0,0,0,4041,4042,4043,5522,5523,5524,5525,0,0,0,0,0,0,0,0,0,0,0,0,0,0,0,0,0,0,0,0,0,0,0,0,0,0,0,0,0,0,5478,5479,5480,5481,5890,5891,5892,5893,0,0,0,0,0,5334,5335,5336,
3910,0,0,0,0,0,0,3852,3853,3854,0,3852,3853,3854,0,0,0,0,0,0,0,0,0,0,0,4920,4921,0,5238,4812,4813,4814,6465,6466,6467,0,4203,0,4041,4042,4043,0,0,0,4812,4813,4814,0,0,0,0,0,0,0,0,0,0,0,0,0,0,0,0,0,0,0,0,0,0,0,0,0,0,0,0,0,0,0,0,0,0,0,0,0,5618,5619,5620,5621,0,0,0,0,0,0,0,0,0,5474,5475,5476,
3942,4812,4813,4814,0,0,0,0,0,5384,5385,0,0,0,0,0,0,3852,3853,3854,0,4041,4042,4043,0,0,0,0,0,0,0,0,6605,6606,6607,0,0,0,0,0,0,0,4041,4042,4043,0,0,0,4812,4813,4814,0,0,0,11646,4151,4151,11650,0,0,0,0,0,0,0,0,0,0,0,0,0,0,0,0,5474,5342,5343,5344,5345,0,0,0,0,0,5758,5759,5760,5761,0,0,0,0,0,0,0,0,0,5614,5615,5616,
3746,3747,4953,4954,0,3849,3850,3851,0,0,5521,4042,4043,0,3849,3850,3851,4919,5406,5407,0,0,0,0,0,3753,3753,4119,0,0,0,0,6745,6746,6747,0,0,0,0,0,0,0,0,0,0,0,3849,3850,3851,0,4954,0,0,0,11926,11927,11928,11930,0,0,0,0,0,0,0,0,0,0,0,0,0,0,0,0,5614,5482,5483,5484,5485,0,0,0,0,0,5898,5899,5900,5901,0,5334,5335,5336,5337,0,0,0,0,5754,5755,5756,
3778,3779,3745,3746,3747,0,0,0,0,0,0,0,0,0,0,0,0,0,0,0,6100,6101,6102,6103,6104,7853,0,4119,0,0,0,0,0,0,0,0,0,0,0,0,0,6455,0,0,0,0,0,0,0,0,0,0,11580,0,12066,12067,12068,12070,0,0,0,0,0,0,0,0,0,0,0,0,0,0,0,0,5754,5622,5623,5624,5625,0,0,0,0,0,0,0,0,0,0,5474,5475,5476,5477,0,0,0,0,5894,5895,5896,
3810,3811,3777,3778,3779,4812,4813,4814,0,0,0,0,0,0,4812,4813,4814,0,0,0,6240,6241,6242,6243,6244,6245,0,0,6100,6101,6102,6103,6104,6105,0,0,0,0,0,0,0,4041,4042,4043,0,0,0,0,0,0,0,0,11720,0,12346,12347,12348,12350,0,0,0,0,0,0,0,0,0,0,0,0,0,0,0,0,0,5762,5763,5764,5765,0,0,0,0,0,0,0,0,0,0,5614,5615,5616,5617,0,0,0,0,0,0,0,
3842,3843,3809,3810,3811,0,4953,4954,0,0,3849,3850,3851,0,0,0,0,3849,3850,3851,6380,6381,6382,6383,6384,6385,0,0,6240,6241,6242,6243,6244,6245,0,0,0,0,0,0,0,0,0,0,0,0,0,6455,0,0,0,0,11860,0,0,0,0,0,0,0,0,0,0,0,0,11580,0,0,0,0,0,0,0,0,0,5902,5903,5904,5905,0,0,0,0,0,0,0,0,0,0,5754,5755,5756,5757,0,0,0,0,0,0,0,
0,0,3841,3842,3843,0,0,0,12553,12554,0,0,0,0,0,0,0,0,4917,4918,6520,6521,6522,6523,6524,6525,0,0,6380,6381,6382,6383,6384,6385,0,0,0,0,0,0,0,0,0,0,0,0,0,0,0,0,0,0,0,0,0,0,0,0,0,0,0,0,0,0,0,11720,0,0,0,0,0,0,0,0,0,0,0,0,0,0,0,0,0,0,0,0,0,0,0,5894,5895,5896,5897,0,0,0,0,0,0,0,
0,0,0,0,0,0,0,0,12693,12694,0,0,4172,4173,4174,0,0,0,0,0,6660,6661,6662,6663,6664,6665,0,0,6520,6521,6522,6523,6524,6525,0,0,0,0,0,0,0,0,0,0,0,0,0,0,0,0,0,0,0,0,0,0,0,0,0,0,0,0,0,0,0,11860,0,0,0,0,0,0,0,0,0,0,0,0,0,0,0,0,0,0,5338,5339,5340,5341,0,0,0,0,0,0,0,0,0,0,0,0,
0,0,0,0,0,0,0,0,0,0,0,0,0,0,0,0,0,3849,3850,3851,6800,6801,6802,6803,6804,6805,0,0,6660,6661,6662,6663,6664,6665,0,0,0,0,0,0,0,0,0,0,0,0,0,0,0,0,0,0,0,0,0,0,0,0,0,0,0,0,0,0,0,0,0,0,0,0,0,0,0,0,0,0,0,0,0,0,0,0,0,0,5478,5479,5480,5481,0,0,0,0,0,0,0,0,3745,3746,3747,0,
0,0,4492,4493,4494,0,0,0,0,0,0,0,0,0,0,0,0,0,0,0,6940,6941,6942,6943,6944,6945,0,0,6800,6801,6802,6803,6804,6805,0,0,0,0,0,0,0,0,0,0,0,0,0,0,0,0,0,0,0,0,0,0,0,0,0,0,0,0,0,0,0,0,0,0,0,0,0,0,0,0,0,0,0,0,0,0,0,0,0,0,5618,5619,5620,5621,0,3745,3746,3747,0,0,0,0,3777,3778,3779,0,
3852,5382,5383,5384,5385,4494,0,0,0,0,0,0,0,0,0,0,0,0,0,0,7080,7081,7082,7083,7084,7085,0,0,6940,6941,6942,6943,6944,6945,0,0,0,0,0,0,0,0,0,0,0,0,0,0,0,0,0,0,0,0,0,0,0,0,0,0,0,0,0,0,0,0,0,0,0,0,0,0,0,0,0,0,0,0,0,0,0,0,0,0,5758,5759,5760,5761,0,3777,3778,3779,0,0,0,0,3809,3810,3811,0,
0,0,5523,5524,5525,0,0,0,0,0,0,0,0,0,0,0,0,0,0,0,7220,7221,7222,7223,7224,7225,0,0,7080,7081,7082,7083,7084,7085,0,0,0,0,0,0,0,0,0,0,0,0,0,0,0,0,0,0,0,0,0,0,0,0,0,0,0,0,0,0,0,0,0,0,0,0,0,0,0,0,0,0,0,0,0,0,0,0,0,0,3876,3877,3878,5901,0,3809,3810,3811,0,0,0,0,3841,3842,3843,0,
0,0,0,0,0,0,0,0,0,0,0,0,0,0,0,0,0,0,4380,0,0,0,0,0,0,0,0,0,7220,7221,7222,7223,7224,7225,0,0,0,0,0,0,0,0,0,0,0,0,0,0,0,0,0,0,0,11580,0,0,0,0,0,0,0,0,0,0,0,0,0,0,0,0,0,0,0,0,0,0,0,0,0,0,0,0,0,0,3908,3909,3910,0,0,3841,3842,3843,0,0,0,0,0,0,0,0,
3852,3853,3854,0,3756,3757,3758,0,0,4492,4493,4494,0,0,0,0,0,0,0,0,0,0,0,0,0,0,0,0,0,0,0,0,0,0,0,0,0,0,0,0,0,0,0,0,0,0,0,0,0,0,0,0,0,11720,0,0,0,0,0,0,0,6048,6049,6050,0,0,0,0,0,0,0,0,0,0,0,0,0,0,0,0,0,0,0,0,3940,3941,3942,0,0,0,0,0,0,0,0,0,0,0,0,0,
0,3885,3886,6455,3788,3852,3853,3854,4492,4493,4494,0,0,0,0,0,0,0,0,0,0,0,0,0,0,0,0,0,0,0,0,0,0,0,0,0,0,0,0,0,0,0,0,0,0,0,0,0,0,0,0,0,0,11860,0,0,0,0,0,0,0,6188,6189,6190,0,0,0,0,0,0,0,0,0,0,0,0,0,0,0,0,0,0,0,0,3972,3973,3974,0,0,0,0,0,0,0,0,0,0,0,0,0,
0,0,0,0,0,0,0,0,0,0,0,0,0,0,0,0,0,0,5406,5407,5408,5409,0,0,0,0,0,0,0,0,0,0,0,0,0,0,0,0,0,0,0,0,0,0,0,0,0,0,0,0,0,0,0,0,0,0,0,0,0,0,0,6328,6329,6330,0,0,0,0,0,0,0,0,0,0,0,0,0,0,0,0,0,0,0,0,0,0,0,0,0,0,0,0,0,0,0,0,0,0,0,0,
3757,3758,3852,3853,3854,0,3756,3757,3758,0,0,0,0,0,0,0,0,0,5546,5547,5548,5549,0,0,0,0,0,0,0,0,0,0,0,0,0,0,0,0,0,0,0,0,0,0,0,0,0,0,0,0,0,0,0,0,0,0,0,0,6100,6101,6102,6103,6104,6105,0,0,0,0,0,0,0,0,0,0,0,0,0,0,0,0,0,0,0,0,0,0,0,0,0,0,0,0,0,0,0,0,0,0,0,0,
0,0,0,0,0,0,0,0,3756,3757,3758,0,0,0,0,0,0,0,5686,5687,5688,5689,0,0,0,0,0,0,0,0,0,0,0,0,0,0,0,0,0,0,0,0,0,0,0,0,0,0,0,0,0,0,0,0,0,0,0,0,6240,6241,6242,6243,6244,6245,0,0,0,0,0,0,0,0,11580,0,0,0,0,0,0,0,0,0,0,0,0,0,0,0,0,0,0,0,0,0,0,0,0,0,0,0,
4394,4395,0,4492,4493,4494,3852,3853,3854,0,3852,3853,3854,0,0,0,0,0,5826,5827,5828,5829,0,0,0,0,0,0,0,0,0,0,0,6051,6052,6053,0,0,0,0,0,0,0,0,0,0,0,0,0,0,0,0,0,0,0,0,0,0,6380,6381,6382,6383,6384,6385,0,0,0,0,0,0,0,0,11720,0,0,0,0,0,0,0,7372,7373,7374,7375,7376,7377,0,0,0,0,0,0,0,0,0,0,0,0,0,0,
0,3852,3853,3854,0,0,0,0,0,0,0,0,0,0,0,0,0,0,5966,5967,5968,5969,0,0,0,0,0,0,0,0,0,0,0,6191,6192,6193,0,0,0,0,0,0,0,0,0,0,0,0,0,0,0,0,0,0,0,0,0,0,6520,6521,6522,6523,6524,6525,0,0,0,0,0,0,0,0,11860,0,0,0,0,0,0,0,7512,7513,7514,7515,7516,7517,0,0,0,0,0,0,0,0,0,0,0,0,0,0,
0,3884,0,0,0,0,0,4492,4493,4494,0,0,0,0,0,0,0,0,0,0,0,0,11580,0,0,0,0,0,0,0,0,0,0,6331,6332,6333,0,0,0,0,0,0,0,0,0,0,0,0,0,0,0,0,0,0,0,0,0,0,6660,6661,6662,6663,6664,6665,0,0,0,0,0,0,0,0,0,0,0,0,0,0,0,0,7652,7653,7654,7655,7656,7657,0,0,0,0,0,0,0,0,0,0,0,0,0,0,
0,4393,4394,4395,3852,3853,3854,0,4492,4493,4494,0,0,0,0,0,0,0,0,0,0,0,11720,0,0,0,0,0,0,0,0,0,0,0,0,0,4176,0,0,0,0,0,0,0,0,0,0,0,0,0,0,0,0,0,0,0,0,0,6800,6801,6802,6803,6804,6805,0,0,0,0,0,0,0,0,0,0,0,0,0,0,0,0,7792,7793,7794,7795,7796,7797,0,0,0,0,0,0,0,0,0,0,0,0,0,0,
0,0,0,0,0,0,0,0,0,0,0,0,0,0,0,0,0,0,0,0,0,0,11860,0,0,0,0,6112,6113,6114,6115,6116,6117,0,0,0,4208,0,0,0,0,0,0,0,0,0,0,0,0,0,0,0,0,0,0,0,0,0,6940,6941,6942,6943,6944,6945,0,0,0,0,0,0,0,0,0,0,0,0,0,0,0,0,7932,7933,7934,7935,7936,7937,0,0,0,0,0,0,0,0,0,0,0,0,0,0,
3756,3757,3758,3852,3853,3854,3756,3757,3758,0,0,0,0,0,0,0,0,0,0,0,0,0,0,0,0,0,0,6252,6253,6254,6255,6256,6257,0,0,0,0,0,0,0,0,0,0,0,0,0,0,0,0,0,0,0,0,0,0,0,0,0,7080,7081,7082,7083,7084,7085,0,0,0,0,0,0,0,25813,25814,0,0,0,0,0,0,0,8072,8073,8074,8075,8076,8077,0,0,0,0,0,0,0,0,0,0,0,0,0,0,
3788,3789,4492,4493,4494,0,0,0,0,0,0,0,0,0,0,0,0,0,0,0,0,0,0,0,0,0,0,6392,6393,6394,6395,6396,6397,0,0,0,0,0,0,0,0,0,0,0,0,0,6051,6052,6053,0,0,0,0,0,0,0,0,0,7220,7221,7222,7223,7224,7225,0,0,0,0,0,0,0,25873,25874,0,0,0,0,0,0,0,8212,8213,8214,8215,8216,8217,0,0,0,0,0,0,0,0,0,0,0,0,0,0,
0,0,0,0,0,4492,4493,4494,0,0,0,0,0,0,0,0,0,0,0,0,0,0,0,0,0,0,0,6532,6533,6534,6535,6536,6537,0,0,0,0,0,0,0,0,0,0,0,0,0,6191,6192,6193,0,0,0,0,0,0,0,0,0,0,0,0,0,0,0,0,0,0,0,0,0,0,0,0,0,0,0,0,0,0,0,8352,8353,8354,8355,8356,8357,0,0,0,0,0,0,0,0,0,0,0,0,0,0,
4492,4493,4494,0,0,0,0,4492,4493,4494,0,0,0,0,0,0,0,0,0,0,0,0,0,0,0,0,0,6672,6673,6674,6675,6676,6677,0,0,0,0,0,6106,6107,6108,6109,6110,6111,0,0,6331,6332,6333,0,0,0,0,0,0,0,0,0,0,0,0,0,0,0,0,0,0,0,0,0,0,0,0,0,0,0,0,0,0,0,8492,8493,8494,8495,8496,8497,0,0,0,0,0,0,0,0,0,0,0,0,0,0,
0,0,0,3852,3853,3854,0,0,0,0,0,0,0,0,0,0,0,0,0,0,0,0,0,0,0,0,0,6812,6813,6814,6815,6816,6817,0,0,0,0,0,6246,6247,6248,6249,6250,6251,0,0,0,0,0,0,0,0,0,0,0,0,0,0,0,0,0,0,0,0,0,0,0,0,0,25819,25820,0,0,0,0,0,0,0,0,0,0,0,0,0,0,0,0,0,6100,6101,6102,6103,6104,6105,0,0,0,0,0,0,
0,3852,3853,5383,5384,5385,4492,4493,4494,0,0,0,0,0,0,0,0,0,0,0,0,0,0,0,0,0,0,6952,6953,6954,6955,6956,6957,0,0,0,0,0,6386,6387,6388,6389,6390,6391,0,0,0,0,0,0,0,4176,0,0,0,0,0,0,0,0,0,0,0,0,0,0,0,0,0,25879,25880,0,0,0,0,0,0,0,0,0,0,0,0,0,0,0,0,0,6240,6241,6242,6243,6244,6245,0,0,0,0,0,0,
4394,4395,0,0,0,3756,3757,3758,4526,0,0,0,0,0,0,0,0,0,0,0,0,0,0,0,0,0,0,7092,7093,7094,7095,7096,7097,0,0,0,0,0,6526,6527,6528,6529,6530,6531,0,0,0,0,0,0,0,4208,0,0,0,0,0,0,0,0,0,0,0,0,0,0,0,0,0,0,0,0,0,0,0,0,0,0,0,0,0,0,0,0,0,0,0,0,6380,6381,6382,6383,6384,6385,0,0,0,0,0,0,
0,0,0,0,0,0,0,3852,3853,3854,0,0,0,0,0,0,0,0,0,0,0,0,0,0,0,0,0,7232,7233,7234,7235,7236,7237,0,0,0,0,0,6666,6667,6668,6669,6670,6671,0,0,0,0,0,0,0,0,0,0,0,0,0,0,0,0,0,0,0,0,0,0,0,0,0,0,0,0,0,0,7372,7373,7374,7375,7376,7377,0,0,0,0,0,0,0,0,6520,6521,6522,6523,6524,6525,0,0,0,0,0,0,
0,3756,3757,3758,4492,4493,4494,0,0,0,0,0,0,0,0,0,0,0,0,0,0,0,0,0,0,0,0,0,0,0,0,0,0,0,0,0,0,0,6806,6807,6808,6809,6810,6811,0,0,0,0,0,0,0,0,0,0,0,0,0,0,0,0,0,0,0,0,0,0,0,0,0,0,0,0,0,0,7512,7513,7514,7515,7516,7517,0,0,0,6051,6052,6053,0,0,6660,6661,6662,6663,6664,6665,0,0,0,0,0,0,
6455,0,3789,3790,4524,4525,3852,3853,3854,0,0,0,0,0,0,0,0,0,0,0,0,0,0,0,0,0,0,0,0,0,0,0,0,0,0,0,0,0,6946,6947,6948,6949,6950,6951,0,0,0,0,0,0,0,0,0,0,0,0,0,0,0,0,0,0,0,11580,0,0,0,0,0,0,0,0,0,0,7652,7653,7654,7655,7656,7657,0,0,0,6191,6192,6193,0,0,6800,6801,6802,6803,6804,6805,0,0,0,0,0,0,
4394,4395,3852,3853,3854,0,0,0,0,0,0,0,0,0,0,0,0,0,0,0,0,0,0,0,0,0,0,0,0,0,0,0,6051,6052,6053,0,0,0,7086,7087,7088,7089,7090,7091,0,0,0,0,0,0,0,0,0,0,0,0,0,0,0,0,0,0,0,11720,0,0,0,0,6100,6101,6102,6103,6104,6105,7792,7793,7794,7795,7796,7797,0,0,0,6331,6332,6333,0,0,6940,6941,6942,6943,6944,6945,0,0,0,0,0,0,
0,0,0,0,0,4393,4394,4395,4492,4493,4494,0,0,0,0,0,0,0,0,0,0,0,0,0,0,0,0,0,0,0,0,0,6191,6192,6193,0,0,0,7226,7227,7228,7229,7230,7231,0,0,0,0,0,0,0,0,0,0,0,0,0,0,0,0,0,0,0,11860,0,0,0,0,6240,6241,6242,6243,6244,6245,7932,7933,7934,7935,7936,7937,0,0,0,0,0,0,0,0,7080,7081,7082,7083,7084,7085,0,0,0,0,0,0,
0,3756,3757,3758,0,0,0,0,0,0,0,0,0,0,0,0,0,0,0,0,0,0,0,0,0,0,0,0,0,0,0,0,6331,6332,6333,0,0,0,0,0,0,0,0,0,0,0,0,0,0,0,0,0,0,0,0,0,0,0,0,0,0,0,25941,25942,0,0,0,0,6380,6381,6382,6383,6384,6385,8072,8073,8074,8075,8076,8077,0,0,0,0,0,0,0,0,7220,7221,7222,7223,7224,7225,0,0,0,0,0,0,
0,0,0,0,0,3852,3853,3854,0,4492,4493,4494,0,0,0,0,0,0,0,0,0,0,0,0,0,0,0,0,0,0,0,0,0,0,0,0,0,0,0,0,0,0,0,0,0,0,0,0,0,0,0,0,0,0,0,26039,26040,0,0,0,0,0,26001,26002,0,0,0,0,6520,6521,6522,6523,6524,6525,8212,8213,8214,8215,8216,8217,0,0,0,0,0,0,0,0,0,0,0,0,0,0,0,0,0,0,0,0,
4394,4395,4492,4493,4494,0,0,3852,3853,3854,0,4492,4493,4494,0,0,0,0,0,0,0,0,0,0,0,0,0,0,0,0,0,0,0,0,0,0,0,0,0,0,0,0,0,0,0,0,0,0,0,0,0,0,0,0,0,26099,26100,0,0,0,0,0,0,0,0,0,0,0,6660,6661,6662,6663,6664,6665,8352,8353,8354,8355,8356,8357,0,6051,6052,6053,0,0,0,0,0,0,0,0,0,0,0,0,0,0,0,0,
0,0,0,0,0,0,0,0,0,0,0,0,0,0,28657,28658,0,0,0,0,0,0,0,0,0,0,0,26385,26386,0,0,28779,28780,0,0,0,0,0,0,0,0,0,0,0,0,0,0,0,0,0,0,0,0,0,0,0,0,0,0,0,0,0,0,0,0,0,0,0,6800,6801,6802,6803,6804,6805,8492,8493,8494,8495,8496,8497,0,6191,6192,6193,0,0,0,0,0,0,0,0,0,0,0,0,0,0,0,0,
0,0,0,0,4492,4493,4494,0,4393,4394,4395,3852,3853,3854,28717,28718,0,0,0,0,0,0,0,0,0,0,0,26445,26446,0,0,28839,28840,0,0,0,0,0,0,0,0,0,0,0,0,0,0,0,0,0,0,0,0,0,0,0,0,0,0,0,0,0,0,0,0,0,0,0,6940,6941,6942,6943,6944,6945,0,0,0,0,0,0,0,6331,6332,6333,0,0,0,0,0,0,0,0,0,0,0,0,0,0,0,0,
0,0,3852,3853,3854,0,0,0,0,0,0,0,0,4492,4493,4494,0,0,0,0,0,0,0,0,0,0,0,0,0,0,0,0,0,0,0,0,0,0,0,0,0,0,0,0,0,0,0,0,0,0,0,0,0,0,0,0,0,0,0,0,0,4492,4493,4494,0,0,0,0,7080,7081,7082,7083,7084,7085,0,0,0,0,0,0,0,0,0,0,0,0,0,0,0,0,0,0,0,0,0,0,0,0,0,0,
0,0,0,0,0,0,0,3852,3853,3854,0,3852,3853,3854,0,4492,4493,4494,0,0,0,0,0,0,0,0,0,0,0,0,0,0,0,0,0,0,0,0,0,0,0,0,0,0,0,0,0,0,0,0,0,0,0,0,0,0,0,0,0,0,0,0,0,0,0,0,0,0,7220,7221,7222,7223,7224,7225,0,0,0,0,0,0,0,0,0,0,0,0,0,0,0,0,7372,7373,7374,7375,7376,7377,0,0,0,0,
0,0,0,0,3756,3757,3758,0,0,0,6455,0,0,0,0,0,0,3852,3853,3854,0,0,0,0,0,0,0,0,0,0,0,0,0,0,0,0,0,0,0,0,0,0,0,0,0,0,0,0,0,0,0,0,0,0,0,0,0,0,0,0,3756,3757,3758,0,0,0,0,0,0,0,0,0,0,0,0,0,0,0,0,0,0,0,0,0,0,0,0,0,0,0,7512,7513,7514,7515,7516,7517,0,0,0,0,
3756,3757,3758,0,0,0,0,4393,4394,4395,0,0,0,4393,4394,4395,0,0,0,0,5338,5339,5340,5341,0,0,4393,4394,4395,4492,4493,4494,3756,3757,3758,3852,3853,3854,0,0,0,0,0,0,0,0,0,0,0,0,0,0,0,0,0,4492,4493,4494,3852,3853,3854,0,0,0,0,0,0,0,0,0,0,0,6051,6052,6053,0,0,0,0,0,0,0,0,0,0,0,0,0,0,0,7652,7653,7654,7655,7656,7657,0,0,0,0,
0,0,4492,4493,4494,3852,3853,3854,0,3756,3757,3758,0,0,4492,4493,4494,0,3756,3757,5478,5479,5480,5481,3756,3757,3758,0,0,0,0,0,0,0,0,0,0,0,0,0,0,0,0,0,0,0,3852,3853,3854,4393,4394,4395,4492,4493,4494,0,0,0,0,0,5522,0,0,0,0,0,0,0,0,0,0,0,6191,6192,6193,0,0,0,0,0,0,0,0,0,0,0,0,0,0,0,7792,7793,7794,7795,7796,7797,0,0,0,0,
0,4393,4394,4395,0,0,0,0,0,0,0,0,3852,3853,3854,0,0,0,0,0,5618,5619,5620,3852,3853,3854,5339,3756,3757,3758,0,4492,4493,4494,0,0,0,0,0,3756,3757,3758,0,3756,3757,3758,0,0,0,0,0,0,0,0,0,3756,3757,3758,3756,3757,3758,0,0,0,0,0,0,0,0,0,0,0,6331,6332,6333,0,0,0,0,0,0,0,0,0,0,0,0,0,0,0,7932,7933,7934,7935,7936,7937,0,0,0,0,
0,0,0,4393,4394,4395,0,4492,4493,4494,0,0,0,0,0,0,3756,3757,3758,4393,4394,4395,0,3884,0,5478,0,0,0,3756,3757,3758,0,0,0,0,0,0,3756,3757,3758,0,0,0,0,0,0,0,0,3756,3757,3758,0,0,3852,3853,3854,0,0,0,3790,0,0,0,0,0,0,0,0,0,0,0,0,0,0,0,0,0,0,0,0,0,0,0,0,0,0,0,0,0,8072,8073,8074,8075,8076,8077,0,0,0,0,
3852,3853,3854,0,0,4492,4493,4494,0,0,0,0,4492,4493,4494,0,0,3756,3757,3758,4426,4492,4493,4494,0,0,0,0,0,0,0,0,0,3852,3853,3854,0,0,3788,0,0,0,0,0,0,4492,4493,4494,6455,0,0,0,3756,3757,3758,0,0,0,0,4492,4493,4494,5338,5339,5340,5341,0,0,0,0,0,0,0,0,0,0,0,0,0,0,0,0,0,0,0,0,0,0,0,0,8212,8213,8214,8215,8216,8217,0,0,0,0,
0,0,0,4393,4394,4395,0,0,0,3756,3757,3758,4524,0,4492,4493,4494,0,0,0,4492,4493,4494,0,4492,4493,4494,3852,3853,3854,0,4492,4493,4494,0,3886,4492,4493,4494,0,4492,4493,4494,3756,3757,3758,0,0,4492,4493,4494,0,0,0,0,0,3756,3757,3758,4492,4493,4494,5478,5479,5480,5481,0,0,0,0,0,0,0,0,0,0,0,0,0,0,0,0,0,0,0,0,0,0,0,0,8352,8353,8354,8355,8356,8357,0,0,0,0,
4393,4394,4395,0,0,0,0,0,0,3788,3789,3790,0,0,0,0,4492,4493,4494,0,0,0,0,4492,4493,4494,4526,3884,3885,0,0,0,4492,4493,4494,0,0,0,4492,4493,4494,4525,4526,3788,3789,0,0,0,0,4525,4526,0,4492,4493,4494,0,0,0,0,0,0,0,5618,5619,5620,5621,0,0,0,0,0,0,0,0,0,0,0,0,0,0,0,0,0,0,0,0,0,0,0,0,8492,8493,8494,8495,8496,8497,0,0,0,0
</data>
 </layer>
</map>
