<?xml version="1.0" encoding="UTF-8"?>
<map version="1.0" orientation="orthogonal" renderorder="right-down" width="41" height="36" tilewidth="32" tileheight="32" nextobjectid="1">
 <tileset firstgid="1" name="Pro all tiles" tilewidth="32" tileheight="32" tilecount="1024" columns="32">
  <image source="Tiles/Pro all tiles.png" width="1024" height="1024"/>
 </tileset>
 <tileset firstgid="1025" name="tile group" tilewidth="32" tileheight="32" tilecount="21000" columns="140">
  <image source="Tiles/tile group.png" width="4480" height="4800"/>
 </tileset>
 <tileset firstgid="22025" name="Pro all tiles ash" tilewidth="32" tileheight="32" tilecount="1024" columns="32">
  <image source="Tiles/Pro all tiles ash.png" width="1024" height="1024"/>
 </tileset>
 <tileset firstgid="23049" name="Hoen pokémon overworld 2.0" tilewidth="32" tileheight="32" tilecount="1170" columns="26">
  <image source="Tiles/Hoen pokémon overworld 2.0.png" width="832" height="1450"/>
 </tileset>
 <tileset firstgid="24219" name="Sinoh Pokémon overworld" tilewidth="32" tileheight="32" tilecount="1188" columns="22">
  <image source="Tiles/Sinoh Pokémon overworld.png" width="704" height="1728"/>
 </tileset>
 <layer name="Layer 1" width="41" height="36">
  <data encoding="csv">
5650,5650,5650,5650,5650,5650,5650,5650,5650,5650,5650,5650,5650,5650,5650,5650,5650,5650,5650,5650,5650,5650,5650,5650,5650,5650,5650,5650,5650,5650,5650,5650,5650,5650,5650,5650,5650,5650,5650,5650,5650,
5650,5650,5650,5650,5650,5650,5650,5650,5650,5650,5650,5650,5650,5650,5650,5650,5650,5650,5650,5650,5650,5650,5650,5650,5650,5650,5650,5650,5650,5650,5650,5650,5650,5650,5650,5650,5650,5650,5650,5650,5650,
5650,5650,5650,5650,5650,5650,5650,5650,5650,5650,5650,5650,5650,5650,5650,5650,5650,5650,5650,5650,5650,5650,5650,5650,5650,5650,5650,5650,5650,5650,5650,5650,5650,5650,5650,5650,5650,5650,5650,5650,5650,
5650,5650,5650,5650,5650,5650,5650,5650,5650,5650,5650,5650,5650,5650,5650,5650,5650,5650,5650,5650,5650,5650,5650,5650,5650,5650,5650,5650,5650,5650,5650,5650,5650,5650,5650,5650,5650,5650,5650,5650,5650,
5650,5650,5650,5650,5650,5650,5650,5650,5650,5650,5650,5650,5650,5650,5650,5650,5650,5650,5650,5650,5650,5650,5650,5650,5650,5650,5650,5650,5650,5650,5650,5650,5650,5650,5650,5650,5650,5650,5650,5650,5650,
5650,5650,5650,5650,5650,5650,5650,5650,5650,5650,5650,5650,5650,5650,5650,5650,5650,5650,5650,5650,5650,5650,5650,5650,5650,5650,5650,5650,5650,5650,5650,5650,5650,5650,5650,5650,5650,5650,5650,5650,5650,
5650,5650,5650,5650,5650,5650,5650,5650,5650,5650,5650,5650,5650,5650,5650,5650,5650,5650,5650,5650,5650,5650,5650,5650,5650,5650,5650,5650,5650,5650,5650,5650,5650,5650,5650,5650,5650,5650,5650,5650,5650,
5650,5650,5650,5650,5650,5650,5650,5650,5650,5650,5650,5650,5650,5650,5650,5650,5650,5650,5650,5650,5650,5650,5650,5650,5650,5650,5650,5650,5650,5650,5650,5650,5650,5650,5650,5650,5650,5650,5650,5650,5650,
5650,5650,5650,5650,5650,5650,5650,5650,5650,5650,5650,5650,5650,5650,5650,5650,5650,5650,5650,5650,5650,5650,5650,5650,5650,5650,5650,5650,5650,5650,5650,5650,5650,5650,5650,5650,5650,5650,5650,5650,5650,
5650,5650,5650,5650,5650,5650,5650,5650,5650,5650,5650,5650,5650,5650,5650,5650,5650,5650,5650,5650,5650,5650,5650,5650,5650,5650,5650,5650,5650,5650,5650,5650,5650,5650,5650,5650,5650,5650,5650,5650,5650,
5650,5650,5650,5650,5650,5650,5650,5650,5650,5650,5650,5650,5650,5650,5650,5650,5650,5650,5650,5650,5650,5650,5650,5650,5650,5650,5650,5650,5650,5650,5650,5650,5650,5650,5650,5650,5650,5650,5650,5650,5650,
5650,5650,5650,5650,5650,5650,5650,5650,5650,5650,5650,5650,5650,5650,5650,5650,5650,5650,5650,5650,5650,5650,5650,5650,5650,5650,5650,5650,5650,5650,5650,5650,5650,5650,5650,5650,5650,5650,5650,5650,5650,
5650,5650,5650,5650,5650,5650,5650,5650,5650,5650,5650,5650,5650,5650,5650,5650,5650,5650,5650,5650,5650,5650,5650,5650,5650,5650,5650,5650,5650,5650,5650,5650,5650,5650,5650,5650,5650,5650,5650,5650,5650,
5650,5650,5650,5650,5650,5650,5650,5650,5650,5650,5650,5650,5650,5650,5650,5650,5650,5650,5650,5650,5650,5650,5650,5650,5650,5650,5650,5650,5650,5650,5650,5650,5650,5650,5650,5650,5650,5650,5650,5650,5650,
5650,5650,5650,5650,5650,5650,5650,5650,5650,5650,5650,5650,5650,5650,5650,5650,5650,5650,5650,5650,5650,0,5650,5650,5650,5650,5650,0,5650,5650,5650,5650,5650,5650,5650,5650,5650,5650,5650,5650,5650,
5650,5650,5650,5650,5650,5650,5650,5650,5650,5650,5650,5650,5650,5650,5650,5650,5650,5650,5650,5650,5650,0,5650,5650,5650,5650,5650,5650,0,0,5650,5650,5650,5650,5650,5650,5650,5650,5650,5650,5650,
5650,5650,5650,5650,5650,5650,5650,5650,5650,5650,5650,5650,5650,5650,5650,5650,5650,5650,5650,5650,5650,0,5650,5650,5650,5650,5650,5650,5650,5650,5650,5650,5650,5650,5650,5650,5650,5650,5650,5650,5650,
5650,5650,5650,5650,5650,5650,5650,5650,5650,5650,5650,5650,5650,5650,5650,5650,5650,5650,5650,0,0,0,5650,5650,5650,5650,5650,5650,5650,5650,5650,5650,5650,5650,5650,5650,5650,5650,5650,5650,5650,
5650,5650,5650,5650,5650,5650,5650,5650,5650,5650,5650,5650,5650,5650,5650,5650,5650,5650,5650,0,0,0,5650,5650,5650,5650,5650,5650,5650,5650,5650,5650,5650,5650,5650,5650,5650,5650,5650,5650,5650,
5650,5650,5650,5650,5650,5650,5650,5650,5650,5650,5650,5650,5650,0,5650,5650,5650,5650,5650,0,5650,5650,0,5650,5650,5650,5650,5650,5650,5650,5650,5650,5650,5650,5650,5650,5650,5650,5650,5650,5650,
5650,5650,5650,5650,5650,5650,5650,5650,5650,5650,5650,0,5650,5650,5650,0,5650,5650,5650,0,5650,5650,0,0,0,5650,5650,5650,5650,5650,5650,5650,5650,5650,5650,5650,5650,5650,5650,0,5650,
5650,5650,5650,5650,5650,5650,5650,5650,5650,5650,5650,930,930,930,930,930,5650,5650,0,0,0,0,0,5650,5650,5650,5650,5650,5650,5650,5650,5650,5650,5650,5650,5650,5650,5650,5650,5650,5650,
5650,5650,5650,5650,5650,5650,5650,5650,5650,5650,5650,5650,5650,5650,5650,5650,5650,0,0,0,5650,5650,5650,5650,5650,5650,5650,5650,5650,5650,5650,5650,0,4248,5650,5650,5650,5650,5650,5650,5650,
5650,5650,5650,5650,5650,5650,5650,5650,5650,0,0,0,0,0,0,0,5650,5650,5650,5650,5650,5650,5650,5650,5650,5650,5650,5650,5650,5650,5650,944,944,5650,5650,5650,5650,5650,5650,5650,5650,
5650,5650,5650,5650,5650,5650,5650,5650,0,0,5650,5650,5650,5650,5650,5650,5650,5650,5650,5650,5650,5650,5650,5650,5650,5650,5650,5650,5650,5650,5650,5650,5650,5650,5650,5650,5650,5650,5650,5650,5650,
5650,5650,5650,5650,5650,5650,5650,5650,5650,5650,5650,5650,5650,5650,5650,5650,5650,5650,5650,5650,5650,5650,5650,5650,5650,5650,5650,5650,5650,5650,5650,5650,5650,5650,5650,5650,5650,5650,5650,5650,5650,
5650,5650,5650,5650,5650,5650,5650,5650,5650,5650,5650,5650,5650,5650,5650,5650,5650,5650,5650,5650,5650,5650,5650,5650,5650,5650,5650,5650,5650,5650,5650,5650,5650,5650,5650,5650,5650,5650,5650,5650,5650,
5650,5650,5650,5650,5650,5650,5650,5650,5650,5650,5650,5650,5650,944,5650,5650,5650,5650,5650,5650,5650,5650,5650,5650,5650,5650,5650,5650,5650,5650,5650,5650,5650,5650,5650,5650,5650,5650,5650,5650,5650,
5650,5650,5650,5650,5650,5650,5650,5650,5650,5650,5650,5650,552,5650,5650,5650,5650,5650,5650,5650,5650,5650,5650,5650,5650,5650,5650,5650,5650,5650,5650,5650,5650,5650,5650,5650,5650,5650,5650,5650,5659,
5650,5650,5650,5650,5650,5650,5650,5650,5650,5650,5650,5650,5650,5650,5650,5650,5650,5650,5650,5650,5650,5650,5650,5650,5650,5650,5650,5650,5650,5650,5650,5650,0,5650,5650,5650,5650,5650,5650,0,5659,
5650,5650,5650,5650,5650,5650,5650,5650,5650,5650,5650,5650,5650,5650,5650,5650,5650,5650,5650,5650,5650,5650,5650,5650,5650,5650,5650,5650,5650,5650,5650,5650,5650,5650,5650,5650,5650,5650,0,5659,359,
5650,5650,5650,5650,5650,5650,5650,5650,5650,5650,5650,5650,5650,5650,5650,930,5650,5650,5650,5650,5650,5650,5650,5650,5650,0,5650,5650,5650,5650,5650,5650,5650,5650,5650,5659,5659,5659,5659,944,5659,
5650,5650,5650,5650,5650,5650,5650,5650,5650,5650,5650,5650,5650,5650,930,930,5650,5650,5650,5650,5650,5650,5650,5650,5650,5650,5650,5650,5650,5650,5650,5650,5650,5650,5650,5659,5659,5659,5659,5659,5659,
5650,5650,5650,5650,5650,5650,5650,5650,5650,5650,5650,5650,930,930,930,5650,5650,5650,5650,5650,5650,0,5650,5650,5650,5650,5650,5650,5650,5659,5659,5659,5659,5659,5659,5659,5659,5659,5659,5659,5659,
5650,5650,5650,5650,5650,5650,5650,5650,5650,5650,5650,930,930,930,930,5650,5650,5650,5650,5650,5650,5650,5650,5650,5650,5659,5659,5659,5659,5659,5650,5650,5659,5659,5659,5659,5659,5659,5659,359,5659,
5650,5650,5650,5650,5650,5650,5650,5650,5650,930,930,930,930,930,5650,5650,5650,5650,5650,5650,5650,5650,5650,5650,5659,5659,5659,359,5650,5650,5650,5650,5659,5659,5659,5659,5659,944,5659,5659,5659
</data>
 </layer>
 <layer name="Layer 2" width="41" height="36">
  <data encoding="csv">
5929,5790,5790,5790,5791,0,0,0,5929,5790,5790,5791,0,0,0,0,5929,5790,5790,5790,5930,0,995,996,0,5789,5790,5790,5790,5790,5790,5790,5791,0,5789,5930,0,5789,5790,5930,0,
5791,0,0,0,0,5929,5790,5790,5791,0,0,0,5929,5790,5790,5790,5791,0,0,0,5789,5930,0,5929,5790,5790,5790,5790,5790,5790,5790,5930,0,0,0,5649,0,0,0,5789,5790,
0,5929,5790,5790,5790,5791,24889,0,0,0,0,5929,5791,0,0,0,0,5929,5790,5790,5930,5789,5790,5791,5929,5790,5790,5790,5790,5790,5930,5789,5790,5930,0,5789,5930,0,0,0,0,
5790,5791,0,0,0,0,0,0,5929,5790,5790,5791,0,0,5929,5790,5790,5791,0,0,5789,5790,5790,5790,5791,6228,0,0,0,0,5789,5790,5930,5649,0,5369,5789,5790,5790,5790,5790,
0,0,0,0,5929,5790,5790,5790,5791,2711,0,0,0,5929,5791,0,0,0,0,0,0,6229,0,6228,0,0,0,0,0,0,0,0,5649,5789,5930,0,0,0,0,0,23920,
0,0,0,5929,5791,0,0,0,0,0,0,0,0,5651,0,0,0,5929,5790,5790,5790,5790,5790,5790,5790,5790,5790,5790,5790,5930,0,0,5789,5930,5789,5790,5790,5790,5790,5790,5790,
0,0,0,5651,0,0,0,0,0,0,5929,5790,5790,5791,0,5929,5790,5791,0,0,0,0,0,0,0,0,0,0,0,5789,5930,0,0,5649,0,5929,5790,5790,5790,5790,5790,
0,0,0,5651,0,0,0,0,0,5929,5791,0,1001,0,5929,5791,0,0,0,5929,5790,5790,5790,5790,5790,5790,5790,5930,0,0,5789,5930,0,5789,5790,5791,0,0,0,2711,0,
5929,5790,5790,5791,0,0,5929,5790,5790,5791,23026,0,0,5929,5791,1360,1361,5929,5790,5791,0,0,0,0,0,0,0,5649,0,0,0,5789,5930,0,5929,5790,5790,5790,5790,5790,5930,
5791,0,0,0,5929,5790,5791,0,0,23026,1001,5929,5790,5791,0,0,5234,5651,3976,0,0,0,0,0,0,0,0,5789,5930,0,0,0,5789,5790,5791,0,0,0,0,0,5789,
0,0,5929,5790,5791,1001,23026,1001,1001,0,1001,5651,0,0,5234,5234,5929,5791,0,0,0,3285,0,0,0,0,0,0,5789,5930,0,0,0,0,0,6229,6228,5929,5790,5790,5930,
0,3985,5651,0,0,5929,5790,5790,5930,1001,5929,5791,0,5234,5929,5790,5791,0,23026,0,3284,3285,3286,0,0,0,0,0,0,5789,5790,5790,5790,5790,5790,5790,5790,5791,0,0,5789,
0,5929,5791,0,5929,5791,0,0,5789,5790,5791,5367,0,5929,5791,0,0,1001,0,23971,3284,3285,3286,23920,0,0,0,0,0,0,0,0,0,0,0,0,0,0,0,0,0,
0,5651,6228,5929,5791,0,0,0,0,0,0,0,5929,5791,23026,1001,1001,1001,23026,0,3284,3285,3286,0,3976,0,0,0,0,0,0,0,0,0,0,0,0,0,0,0,0,
5511,5651,0,5651,0,0,0,0,0,0,0,5929,5791,0,1001,1001,1001,1001,1001,0,3284,3285,3286,0,0,0,0,0,0,0,0,0,0,0,0,0,3286,0,0,995,996,
5651,5651,1001,6069,5511,0,0,3985,3985,5234,5234,5651,0,0,1001,23026,0,1001,0,3144,3705,3285,3286,0,0,0,0,0,0,3144,3145,3145,3145,3145,3285,3285,3286,0,0,0,0,
5791,5651,23026,1001,5651,0,0,3985,0,5234,5929,5791,0,1001,23026,1001,1001,0,3144,3705,3285,3285,3286,0,0,0,0,0,0,0,3285,3285,3285,3285,3285,3564,3426,5929,5790,5930,0,
0,5651,1001,23026,5651,0,0,0,5234,5929,5791,0,0,0,0,0,1001,0,3284,3285,3285,3285,3286,0,0,3144,3145,3145,3285,3285,3285,3285,3285,3285,3564,3426,5929,5791,0,5649,0,
0,5651,1001,5929,5791,0,5234,5234,5929,5791,0,0,0,0,0,0,0,3144,3705,3285,3285,3285,3704,3146,3144,3705,3285,3285,3285,3285,3285,3285,3564,3425,3426,0,6069,5510,5510,6070,0,
5929,5791,5929,5791,5234,5234,5234,5929,5791,0,0,0,0,0,0,0,0,3284,3285,3285,3285,3285,3285,3704,3705,3285,3285,3285,3285,3285,3564,3425,3426,0,0,3976,0,0,0,0,5929,
5651,0,5651,0,5234,5234,5929,5791,0,23972,23920,0,0,0,0,3144,3145,3705,3285,3285,3285,3285,3285,3285,3285,3285,3564,3425,3425,3425,3426,0,0,0,0,0,0,0,0,5929,5791,
5651,0,5651,5234,5234,5234,5651,0,0,0,3144,0,0,0,0,0,3285,3285,3285,3285,3285,3285,3285,3564,3425,3425,3426,0,0,0,0,0,3549,3410,3550,0,0,0,5929,5791,5929,
5651,0,6069,5511,0,5234,5651,0,3144,3145,3705,3285,3285,3285,3285,3285,3285,3285,3285,3285,3564,3425,3425,3426,6228,23945,0,0,3843,0,3549,3410,3411,0,3269,0,0,0,5651,5929,5791,
6069,5511,5234,5651,0,5234,5651,3144,3705,3285,3285,3285,3285,3285,3285,3285,3564,3425,3425,3425,3426,0,0,0,0,0,6228,0,0,0,3271,3271,0,3129,3690,0,0,5929,5791,5651,0,
0,5651,5234,5651,0,5234,5651,3284,3285,3285,3564,3425,3425,3425,3425,3425,3426,0,0,0,0,3843,0,0,0,0,0,0,0,0,3689,3130,3130,3690,0,0,0,5651,5929,5791,0,
5929,5791,5929,5791,0,5234,5651,3424,3425,3425,3426,0,0,0,0,0,0,0,0,0,0,0,0,0,0,0,0,0,0,0,0,0,0,0,0,0,0,5651,5651,0,0,
5651,0,5651,0,995,996,6069,5511,0,0,0,0,615,773,616,0,0,0,0,0,0,0,0,0,0,0,0,0,0,0,0,0,0,0,0,5929,5790,5791,5651,0,0,
5651,0,5651,0,0,5234,5234,6069,5511,0,0,615,774,994,740,0,0,0,0,0,0,0,0,0,0,0,0,0,24978,24934,0,0,0,5929,5790,5791,5929,5790,5791,3549,3410,
5651,0,6069,5511,0,0,5234,5234,6069,5511,0,742,176,708,648,0,0,0,0,1001,0,0,0,1001,0,0,0,0,0,0,5929,5790,5790,5791,5929,5790,5791,0,3549,3411,5938,
5651,0,0,6069,5511,0,0,5234,5234,5651,0,647,709,648,0,0,0,0,0,1001,0,1001,1001,0,0,0,5929,5790,5790,5790,5791,5929,5790,5790,5791,2711,0,3549,3411,5938,5800,
5791,0,0,0,5651,0,0,0,0,5651,0,0,0,0,897,898,899,1001,0,0,1001,0,0,0,5929,5790,5791,5929,5790,5790,5790,5791,0,0,3549,3410,3410,3411,5938,5800,0,
0,0,5929,5790,5791,0,0,0,0,5651,0,0,0,897,840,0,931,0,1001,0,1001,1001,1001,5929,5791,5929,5790,5791,0,0,0,0,0,0,3271,5938,5799,5799,5800,0,4124,
5929,5790,5791,0,0,0,0,0,5929,5791,0,897,898,840,0,0,931,0,0,1001,1001,0,5929,5791,5929,5791,0,0,3549,3410,3410,3410,3410,3410,3411,5660,0,0,0,0,5938,
5791,0,0,0,0,0,5929,5790,5791,0,897,840,0,0,0,807,963,0,1001,1001,0,5929,5791,5929,3549,3410,3410,3410,3411,5938,5799,5799,5799,5799,5799,5800,0,5938,5799,5799,5800,
0,0,0,5234,5929,5790,5791,0,897,898,840,0,0,0,0,931,0,1001,1001,1001,5929,5791,5929,3549,3411,5938,5799,5799,5799,5800,3129,3131,0,0,0,0,5938,5800,0,0,0,
0,0,5929,5790,5791,0,0,897,840,0,0,0,0,0,807,963,1001,1001,1001,5929,5791,5929,5791,3271,5938,5800,3843,5236,0,3549,3690,3411,0,5938,5799,5799,5800,0,0,5938,5799
</data>
 </layer>
 <layer name="Layer 3" width="41" height="36">
  <data encoding="csv">
0,0,0,0,0,0,0,0,0,0,0,0,0,0,0,0,0,0,0,0,0,0,0,0,0,0,6634,6635,6636,0,0,0,0,0,0,0,0,0,0,0,0,
1595,1596,1597,0,0,0,0,0,0,0,1594,1595,1596,1597,0,0,0,0,0,0,0,0,0,0,0,0,6774,6775,6776,1598,1599,1600,1601,3985,0,0,0,0,0,0,0,
1735,1736,1737,0,0,0,0,0,0,0,1734,1735,1736,1737,0,0,0,0,0,0,0,0,0,0,0,0,6914,6915,6916,1738,1739,1740,1741,0,3985,0,0,0,0,0,0,
1875,1876,1877,0,1598,1599,1600,1601,0,0,1874,1875,1876,1877,0,0,0,0,2846,2847,0,0,0,0,0,0,0,0,0,1878,1879,1880,1881,0,0,3985,0,0,0,0,0,
2015,2016,2017,0,1738,1739,1740,1741,0,0,2014,2015,2016,2017,0,0,0,0,2986,2987,0,0,0,0,0,0,0,0,0,2018,2019,2020,2021,0,0,0,0,111,0,0,0,
2155,2156,2157,0,1878,1879,1880,1881,0,3985,2154,2155,2156,2157,0,0,0,0,0,0,0,0,0,0,0,0,508,509,510,2158,2159,2160,2161,0,0,0,0,0,0,0,0,
2006,2007,2008,2009,2018,2019,2020,2021,3985,0,0,0,0,0,0,1080,1081,1082,0,13112,13113,13114,13115,13116,13117,0,0,0,0,0,2006,2007,2008,2009,0,0,0,0,0,0,0,
0,0,0,0,0,0,0,0,0,0,0,0,0,0,0,1220,1221,1222,0,13252,13253,13254,13255,13256,508,509,510,0,0,0,0,0,0,0,0,0,0,0,0,0,0,
0,0,0,0,0,0,0,0,0,0,0,0,0,0,1083,1084,1373,1362,0,13392,13393,13394,13395,13396,13397,0,0,2337,2338,2339,0,0,0,0,0,0,0,7067,7068,0,0,
0,3829,0,0,0,0,0,0,0,0,0,0,0,0,1223,1224,1225,1502,0,13532,13533,13534,13535,13536,13537,0,0,2477,2478,2479,0,0,0,0,0,3829,0,7207,7208,0,0,
0,0,0,7067,7068,1590,1591,1592,1593,0,0,0,0,0,1363,1364,1365,0,0,13672,13673,13674,13675,13676,13677,0,0,2617,2618,2619,0,0,10592,10593,10594,10595,10596,10597,0,0,0,
0,0,0,7207,7208,1730,1731,1732,1733,0,0,0,0,0,0,0,0,3985,0,13812,13813,13814,13815,13816,13817,0,0,2757,2758,990,991,992,10732,10733,10734,10735,10736,10737,2846,2847,0,
0,0,0,0,0,1870,1871,1872,1873,0,0,0,0,0,0,0,0,0,0,13952,13953,13954,13955,13956,13957,0,0,2897,2898,1022,1023,1024,10872,10873,10874,10875,10876,10877,2986,2987,0,
0,0,0,0,0,2010,2011,2012,2013,0,0,0,0,0,0,0,0,0,0,14092,14093,14094,14095,14096,14097,0,10738,10739,10740,10741,10742,0,11012,11013,11014,11015,11016,11017,0,0,0,
0,0,0,0,0,2150,2151,2152,2153,0,0,0,0,0,0,0,0,0,0,0,0,0,0,0,0,0,10878,10879,10880,10881,10882,0,11152,11153,11154,11155,11156,11157,0,0,0,
0,0,0,0,0,0,0,0,0,0,0,0,0,0,0,0,0,0,0,0,0,0,0,0,0,0,11018,11019,11020,11021,11022,0,11292,11293,11294,11295,11296,11297,0,0,0,
0,0,0,0,0,0,0,0,0,0,13118,13119,13120,13121,13122,13123,13124,0,0,0,0,0,0,0,0,0,11158,11159,11160,11161,11162,0,11432,11433,11434,11435,11436,11437,0,0,0,
0,0,0,0,0,0,0,0,0,0,13258,13259,13260,13261,13262,13263,13264,0,0,0,0,0,0,0,0,0,11298,11299,11300,11301,11302,0,11572,11573,11574,11575,11576,11577,0,0,6228,
0,0,1598,1599,1600,1601,0,0,0,0,13398,13399,13400,13401,13402,13403,13404,0,0,0,0,0,0,0,0,0,11438,11439,11440,11441,11442,0,0,0,0,0,0,0,7067,7068,0,
0,0,1738,1739,1740,1741,0,0,0,0,13538,13539,13540,13541,13542,13543,13544,0,0,0,0,0,0,0,0,1662,1663,1664,1665,0,0,0,0,0,0,0,0,0,7207,7208,0,
0,0,1878,1879,1880,1881,0,0,0,0,13678,13679,13680,13681,13682,13683,13684,0,0,0,0,1658,1659,1660,1661,1802,1803,1804,1805,0,1646,1647,1648,1649,0,0,0,0,0,0,0,
0,0,2018,2019,2020,2021,0,0,0,0,13818,13819,13820,13821,13822,13823,13824,0,0,0,0,1798,1799,1800,1801,1942,1943,1944,1945,0,1786,1787,1788,1789,0,111,0,0,0,0,0,
0,0,2158,2159,2160,2161,0,0,0,0,13958,13959,13960,13961,13962,13963,13964,0,0,0,0,1938,1939,1940,1941,2082,2083,2084,2085,0,1926,1927,1928,1929,0,0,0,0,0,0,0,
0,0,0,0,0,0,0,0,0,0,14098,14099,14100,14101,14102,14103,14104,0,0,0,0,2078,2079,2080,2081,2222,2223,2224,2225,0,2066,2067,2068,2069,0,0,0,0,1586,1587,1588,
0,0,0,0,0,0,0,0,0,0,0,0,0,0,0,0,0,0,0,0,0,2218,2219,2220,2221,0,0,0,0,0,2206,2207,2208,2209,0,0,0,0,1726,1727,1728,
2352,2353,2354,2355,0,0,0,0,0,0,0,0,0,0,0,0,0,0,0,0,0,0,0,0,0,0,0,0,0,0,0,0,0,0,0,0,0,0,1866,1867,1868,
2492,2493,2494,2495,0,0,0,0,0,7067,7068,0,0,0,0,0,0,0,0,0,0,0,0,0,0,0,0,0,0,0,0,0,0,0,0,0,0,0,2006,2007,2008,
2632,2633,2634,2635,0,0,0,0,0,7207,7208,0,0,0,0,0,0,0,0,0,0,0,0,0,0,0,0,0,0,0,0,0,0,0,0,0,0,0,2146,2147,2148,
2772,2773,2774,2775,0,0,0,0,2711,0,0,0,0,0,0,0,0,0,0,0,0,0,0,0,0,0,0,0,0,0,0,0,0,0,0,0,0,0,0,0,0,
2912,2913,2914,2915,0,0,7067,7068,0,0,0,0,0,0,0,0,0,0,0,0,0,0,0,0,0,0,0,0,1104,1105,1106,0,0,0,0,0,0,0,0,0,0,
0,0,0,0,0,0,7207,7208,0,0,0,0,0,0,0,0,0,0,0,0,0,0,0,0,0,0,0,0,1244,1245,1246,0,0,0,0,0,0,0,0,0,0,
0,0,0,0,0,0,0,0,0,0,0,0,0,0,0,0,0,0,0,0,0,0,0,0,0,0,0,0,1384,1385,1386,0,0,0,0,0,560,0,2717,0,0,
0,0,0,2846,2847,0,0,0,0,0,0,0,0,0,0,0,0,0,0,0,0,0,0,0,0,0,0,0,1524,1525,1526,0,0,0,0,0,592,0,2857,0,0,
0,0,0,2986,2987,0,0,0,0,0,0,0,0,0,0,0,0,0,0,0,0,0,0,0,5791,0,0,0,0,0,0,0,560,0,2717,0,0,0,2997,0,560,
0,0,0,0,0,0,0,0,0,0,0,0,0,0,0,0,0,0,0,0,0,0,0,5791,0,0,0,0,0,0,0,0,592,0,2857,0,0,0,0,0,592,
0,0,0,0,0,0,0,0,0,0,0,0,0,0,0,0,0,0,0,0,0,0,0,0,0,0,0,0,3129,3130,3410,0,0,0,2997,0,0,0,752,0,0
</data>
 </layer>
 <layer name="Layer 4" width="41" height="36">
  <data encoding="csv">
0,0,0,0,0,0,0,0,0,0,0,0,0,0,0,0,0,0,0,0,0,0,0,0,0,0,0,0,0,0,0,0,0,0,0,0,0,0,0,0,0,
0,0,0,0,0,0,0,0,0,0,1602,1603,1604,1605,0,0,0,0,0,0,0,0,0,0,0,0,0,0,0,0,0,0,0,0,0,0,0,1638,1639,1640,1641,
0,0,0,0,0,0,0,0,0,0,1742,1743,1744,1745,0,0,0,0,0,0,0,0,0,0,0,0,0,0,0,0,0,0,0,0,0,0,0,1778,1779,1780,1781,
1606,1607,1608,1609,1602,1603,1604,1605,0,0,1882,1883,1884,1885,0,0,0,0,0,0,0,0,0,0,0,0,0,0,0,0,1606,1607,1608,1609,0,0,0,1918,1919,1920,1921,
1746,1747,1748,1749,1742,1743,1744,1745,0,0,2022,2023,2024,2025,0,0,0,0,0,0,0,0,0,0,0,0,0,0,0,0,1746,1747,1748,1749,0,0,0,2058,2059,2060,2061,
1886,1887,1888,1889,1882,1883,1884,1885,0,0,0,0,0,0,0,0,0,0,0,0,0,0,0,0,0,0,0,0,0,0,1886,1887,1888,1889,0,0,0,2198,2199,2200,2201,
2026,2027,2028,2029,2022,2023,2024,2025,0,0,0,0,0,0,0,1092,1093,1094,0,15749,15750,15751,15752,15753,15754,0,0,0,0,0,2026,2027,2028,2029,0,0,0,0,0,0,0,
2150,2151,2152,2153,2150,2151,2152,2153,0,0,0,0,0,0,0,1232,1233,1234,0,15889,15890,15891,15892,15893,15894,0,0,0,0,0,2154,2155,2156,2157,0,0,0,0,0,0,0,
0,0,0,0,0,0,0,0,0,0,0,0,0,0,1092,1093,1094,0,0,16029,16030,16031,16032,16033,16034,0,0,0,0,0,0,0,0,0,0,0,0,0,0,0,0,
0,0,0,0,0,0,0,0,0,0,0,0,0,0,1232,1233,1234,0,0,16169,16170,16171,16172,16173,16174,0,0,0,0,0,0,0,0,0,0,0,0,0,0,0,0,
0,0,0,0,0,1602,1603,1604,1605,0,0,0,0,0,1372,1373,1374,0,0,16309,16310,16311,16312,16313,16314,0,0,0,0,0,0,0,0,0,0,0,0,0,0,0,0,
0,0,0,0,0,1742,1743,1744,1745,0,0,0,0,0,1503,1504,1505,0,0,16449,16450,16451,16452,16453,16454,0,0,0,0,2759,0,0,0,0,0,0,0,0,0,0,0,
0,0,0,0,0,1882,1883,1884,1885,0,0,0,0,0,0,0,0,0,0,0,0,0,0,0,0,0,0,0,0,0,0,0,0,0,0,0,0,0,0,0,0,
0,0,0,0,0,2022,2023,2024,2025,0,0,0,0,0,0,0,0,0,0,0,0,0,0,0,0,0,0,0,0,0,0,0,0,0,0,0,0,0,0,0,0,
0,0,0,0,0,0,0,0,0,0,0,0,0,0,0,0,0,0,0,0,0,0,0,0,0,0,0,0,0,0,0,0,0,0,0,0,0,0,0,0,0,
0,0,0,0,0,0,0,0,0,0,0,0,0,0,0,0,0,0,0,0,0,0,0,0,0,0,0,0,0,0,0,0,0,0,0,0,0,0,0,0,0,
0,0,0,0,0,0,0,0,0,0,15755,15756,15757,15758,15759,15760,15761,0,0,0,0,0,0,0,0,0,0,0,0,0,0,0,0,0,0,0,0,0,0,0,0,
0,0,0,0,0,0,0,0,0,0,15895,15896,15897,15898,15899,15900,15901,0,0,0,0,0,0,0,0,0,0,0,0,0,0,0,0,0,0,0,0,0,0,0,0,
0,0,1602,1603,1604,1605,0,0,0,0,16035,16036,16037,16038,16039,16040,16041,0,0,0,0,0,0,0,0,0,0,0,0,0,0,0,0,0,0,0,0,0,0,0,0,
0,0,1742,1743,1744,1745,0,0,0,0,16175,16176,16177,16178,16179,16180,16181,0,0,0,0,0,0,0,0,1678,1679,1680,1681,0,0,0,0,0,0,0,0,0,0,0,0,
0,0,1882,1883,1884,1885,0,0,0,0,16315,16316,16317,16318,16319,16320,16321,0,0,0,0,1674,1675,1676,1677,1818,1819,1820,1821,0,1650,1651,1652,1653,0,0,0,0,0,0,0,
0,0,2022,2023,2024,2025,0,0,0,0,16455,16456,16457,16458,16459,16460,16461,0,0,0,0,1814,1815,1816,1817,1958,1959,1960,1961,0,1790,1791,1792,1793,0,0,0,0,0,0,0,
0,0,0,0,0,0,0,0,0,0,16595,16596,16597,16598,16599,16600,16601,0,0,0,0,1954,1955,1956,1957,2098,2099,2100,2101,0,1930,1931,1932,1933,0,0,0,0,0,0,0,
0,0,0,0,0,0,0,0,0,0,0,0,0,0,0,0,0,0,0,0,0,2094,2095,2096,2097,0,0,0,0,0,0,0,0,0,0,0,0,0,1606,1607,1608,
0,0,0,0,0,0,0,0,0,0,0,0,0,0,0,0,0,0,0,0,0,0,0,0,0,0,0,0,0,0,0,0,0,0,0,0,0,0,1746,1747,1748,
0,0,0,0,0,0,0,0,0,0,0,0,0,0,0,0,0,0,0,0,0,0,0,0,0,0,0,0,0,0,0,0,0,0,0,0,0,0,1886,1887,1888,
0,0,0,0,0,0,0,0,0,0,0,0,0,0,0,0,0,0,0,0,0,0,0,0,0,0,0,0,0,0,0,0,0,0,0,0,0,0,2026,2027,2028,
0,0,0,0,0,0,0,0,0,0,0,0,0,0,0,0,0,0,0,0,0,0,0,0,0,0,0,0,0,0,0,0,0,0,0,0,0,0,0,0,0,
0,0,0,0,0,0,0,0,0,0,0,0,0,0,0,0,0,0,0,0,0,0,0,0,0,0,0,0,0,0,0,0,0,0,0,0,0,0,0,0,0,
0,0,0,0,0,0,0,0,0,0,0,0,0,0,0,0,0,0,0,0,0,0,0,0,0,0,0,0,1110,1111,1112,0,0,0,0,0,0,0,0,0,0,
0,0,0,0,0,0,0,0,0,0,0,0,0,0,0,0,0,0,0,0,0,0,0,0,0,0,0,0,1250,1251,1252,0,0,0,0,0,0,0,0,0,0,
0,0,0,0,0,0,0,0,0,0,0,0,0,0,0,0,0,0,0,0,0,0,0,0,0,0,0,0,1390,1391,1392,0,0,0,0,0,0,0,0,0,0,
0,0,0,0,0,0,0,0,0,0,0,0,0,0,0,0,0,0,0,0,0,0,0,0,0,0,0,0,0,0,0,0,0,0,0,0,0,0,0,0,0,
0,0,0,0,0,0,0,0,0,0,0,0,0,0,0,0,0,0,0,0,0,0,0,0,0,0,0,0,0,0,0,0,0,0,0,0,0,0,0,0,0,
0,0,0,0,0,0,0,0,0,0,0,0,0,0,0,0,0,0,0,0,0,0,0,0,0,0,0,0,0,0,0,0,0,0,0,0,0,0,0,0,0,
0,0,0,0,0,0,0,0,0,0,0,0,0,0,0,0,0,0,0,0,0,0,0,0,0,0,0,0,0,0,0,0,0,0,0,0,0,0,0,0,0
</data>
 </layer>
 <layer name="Layer of clouds" width="41" height="36">
  <data encoding="csv">
3523,3523,3523,3523,3523,3523,3523,3523,3523,3523,3523,3523,3523,3523,3523,3523,3523,3523,3524,4781,4781,4781,4781,4781,4781,4781,4781,4781,4781,4781,4781,4781,4781,4781,4781,4781,4781,2684,2684,2684,2684,
3523,3523,3523,3523,3523,3523,3523,3523,3523,3523,3523,3523,3523,3523,3523,3523,3523,3523,3524,4781,4781,4781,4781,4781,4781,4781,4781,4781,4781,4781,4781,4781,4781,4781,4781,4781,2684,2684,2684,2684,2684,
3523,3523,3523,3523,3523,3523,3523,3523,3523,3523,3523,3523,3523,3523,3523,3523,3523,3806,3664,4781,4781,4781,4781,4781,4781,4781,4781,4781,4781,4781,4781,4781,3382,3383,3383,2684,2684,2684,2684,2684,2684,
3523,3523,3523,3523,3523,3523,3523,3523,3523,3523,3523,3523,3523,3523,3523,3523,3806,3664,4781,4781,4781,4781,4781,4781,4781,4781,4781,4781,4781,4781,3382,3383,4088,3523,3523,2684,2684,2684,2684,2684,2684,
3523,3523,3523,3523,3523,3523,3523,3523,3523,3523,3523,3523,3523,3523,3523,3806,3664,4781,4781,4781,4781,4781,4781,4781,4781,4781,3382,3383,3383,3383,4088,3523,3523,3523,2684,2684,2684,2684,2684,2684,2684,
3523,3523,3523,3523,3523,3523,3523,3523,3523,3523,3523,3523,3523,3523,3806,3664,4781,4781,4781,4781,4781,3382,3383,3383,3383,3383,4088,3523,3523,3523,3523,3523,2685,3523,2684,2684,2684,2684,2684,2684,2684,
3523,3523,3523,3523,3523,3523,3523,3523,3523,3523,3523,3523,3523,3806,3664,4781,4781,4781,4781,4781,3382,4088,3523,3523,3523,3523,3523,3806,3663,3663,3663,3808,3523,2685,2684,2684,2684,2684,2684,2684,3523,
3523,3523,3523,3523,3523,3523,3523,3523,3523,3523,3523,3806,3663,3664,4781,4781,4781,4781,4781,3382,4088,3523,3523,3806,3807,3807,3807,3664,3382,3383,3383,4088,3523,2684,2684,2684,2684,2684,2684,2684,3523,
3523,3523,3523,3523,3523,3523,3523,3806,3663,3663,3663,3664,4781,4781,4781,4781,4781,4781,3382,4088,3523,3523,3806,3664,4781,4781,4781,3382,4088,3523,3523,3523,2684,2684,2684,2684,2684,2684,2684,2684,3523,
3523,3523,3523,3523,3523,3806,3663,3664,4781,4781,4781,4781,4781,4781,4781,4781,4781,4781,3522,3523,3523,3806,3664,4781,4781,3382,3383,4088,3523,3523,3523,2684,2684,2684,2684,2684,2684,2684,2684,3523,3523,
3523,3523,3523,3523,3806,3664,4781,4781,4781,4781,4781,4781,4781,4781,4781,4781,4781,4781,3522,3523,2682,3946,4781,3382,3383,4088,3523,3523,3523,3523,3523,3523,2684,2684,2684,2684,2684,2684,2684,3523,3523,
3523,3523,3523,3806,3664,4781,4781,4781,4781,4781,4781,4781,4781,4781,4781,4781,4781,4781,3522,3523,3523,4086,4087,4088,3523,3523,3523,3523,3523,2828,2828,3523,3523,3523,2684,2684,2684,2684,2684,2684,3523,
3523,3523,3806,3664,4781,4781,4781,4781,4781,4781,4781,4781,4781,4781,4781,4781,3382,3383,4088,2685,3523,3523,3523,3523,3523,3523,3523,3523,3806,3808,3523,3523,3523,2684,2684,2684,2684,2684,2684,3523,3523,
3523,3806,3664,4781,4781,4781,4781,4781,4781,4781,4781,4781,3382,3383,3383,3384,3522,3523,3523,2685,2685,3523,3523,3523,3523,3523,3523,3806,3664,3948,3523,3523,2684,2684,2684,2684,2684,2684,2684,2684,2684,
3663,3664,4781,4781,4781,4781,4781,4781,4781,4781,3382,3383,4088,3523,3523,4086,4088,3523,3523,3523,3523,3523,3523,3523,3523,3806,3807,3664,3382,4088,3523,2684,2684,2684,2684,2684,2684,2684,2684,2684,2684,
3383,3384,4781,4781,4781,4781,4781,4781,4781,3382,4088,3523,3523,3523,3523,3523,3523,3523,3523,4507,4507,3523,3523,3523,3523,3524,4781,3382,4088,3523,2684,2684,2684,2684,2684,2684,2684,2684,2684,2684,2684,
3523,3524,4781,4781,4781,4781,4781,4781,3382,4088,3523,3523,3523,3523,4507,4507,4507,4507,4507,4507,3523,3523,3523,3806,3663,3664,3382,4088,3523,3523,3523,2684,2684,2684,2684,2684,2684,2684,2684,2684,2684,
3523,4086,3384,4781,4781,4781,4781,3382,4088,3523,3523,3523,3523,4507,4507,4507,4507,4507,4507,3523,3523,3806,3663,3664,4781,3382,4088,3523,3523,2684,2684,2684,2684,2684,2684,2684,2684,2684,2684,3523,2684,
3523,3523,3524,4781,4781,4781,4781,3522,3523,3523,4507,4507,4507,4507,3523,4507,4507,3523,3523,3806,3663,3664,4781,4781,3382,4088,3523,3523,2684,2684,2684,2684,2684,2684,2684,2684,2684,2684,3523,3523,3523,
3523,3523,3524,4781,4781,4781,4781,3522,3523,3523,3523,3523,3523,3523,3523,3523,3523,2828,4366,4086,3384,3382,3383,3383,4088,3523,3523,2828,2684,2684,2684,2684,2684,2684,2684,2684,2684,2684,3523,3523,3523,
3523,3523,3524,4781,4781,4781,4781,3662,3663,3663,3808,4368,4368,3523,3523,2828,2828,2828,2828,2828,4086,4088,3523,3523,3523,3523,3523,2684,2684,2684,2684,2684,2684,2684,2684,2684,2684,3523,3523,3523,3523,
3523,3523,3524,4781,4781,4781,4781,4781,4781,3382,4088,3523,3523,4507,3523,3523,3523,2828,2828,3523,3523,4507,4507,4507,4507,4507,3523,2684,2684,2684,2684,2684,2684,2684,2684,2684,3523,3523,3523,3523,3523,
3523,3523,3524,4781,4781,4781,4781,3382,3383,4088,3523,4507,4507,4507,2828,3523,3523,3523,4507,4507,4507,4507,3806,3663,3808,2828,3523,2684,2684,2684,2684,2684,2684,2684,2684,2684,3523,3523,3523,3523,3523,
3523,3523,3524,4781,4781,4781,3382,4088,3523,3523,4507,4507,3806,3663,3808,4507,4507,4507,4507,3806,3663,3663,3664,3382,4088,3523,2684,2684,2684,2684,2684,2684,2684,2684,2684,2684,2684,3523,3523,3523,3523,
3523,3806,3664,4781,4781,4781,3522,3523,4507,4507,4507,3806,3664,4781,3662,3663,3663,3663,3663,3664,4781,4781,3382,4088,3523,2684,2684,2684,2684,2684,2684,2684,2684,2684,2684,2684,2684,3523,3523,3523,3523,
3523,3524,4781,4781,4781,3382,4088,3523,4507,3806,3663,3664,4781,4781,4781,4781,4781,4781,4781,3382,3383,3383,4088,3523,2684,2684,2965,2684,2684,2684,2684,2684,2684,2684,2684,2684,3523,3523,3523,3523,3523,
3663,3664,4781,4781,3382,4088,3523,4507,4507,3524,4781,4781,4781,4781,4781,4781,3382,3383,3383,4088,3523,3523,3523,3523,3806,3808,2965,2684,2684,2684,2684,2684,2684,2684,2684,3523,3523,3523,3523,3523,3523,
4781,4781,4781,4781,3522,3523,3523,4507,4507,4086,3384,4781,3382,3383,3383,3383,4088,3523,3523,3523,3523,3806,3807,3807,3664,3948,2684,2684,2684,2684,2684,2684,2684,2684,2684,2684,3523,3523,3523,3523,3523,
4781,4781,4781,4781,3522,3523,3523,4507,4507,4507,4086,3383,4088,3523,3523,3523,3523,3523,3523,3523,3523,3946,4781,4781,4781,3948,2684,2684,2684,2684,2684,2684,2684,2684,2684,2684,3523,3523,3523,3523,3523,
4781,4781,4781,4781,3522,3523,3523,4507,4507,4507,4507,3523,3523,3523,3523,3523,3806,3808,3523,3523,3806,3664,4781,3382,3383,4088,2684,2684,2684,2684,2684,2684,2684,2684,2684,2684,2684,3523,3523,3523,3523,
4781,4781,4781,4781,3662,3808,4507,4507,4507,4507,3523,3523,3523,3523,3523,3806,3664,3522,3523,3806,3664,4781,3382,4088,2684,2684,2684,2684,2684,2684,3523,2684,2684,2684,2684,2684,2684,2684,3523,3523,3523,
4781,4781,4781,4781,3382,4088,4507,4507,3523,3523,3523,3523,3806,3663,3663,3664,4781,3522,3523,3946,3382,4087,4088,3523,2684,3523,3523,3523,3523,3523,3523,3523,2684,2684,2684,2684,2684,2684,2684,3523,2684,
4781,4781,4781,3382,4088,3523,3523,3523,3523,3523,3523,3523,3524,4781,4781,4781,3382,4088,3523,4086,4088,3523,3523,3523,3523,3523,3523,3523,3523,3523,3523,3523,3523,2684,2684,2684,2684,2684,2684,2684,2684,
4781,4781,4781,3522,3523,3523,3523,3523,3523,3523,3806,3663,3664,4781,4781,3382,4088,3523,3523,3951,3523,3523,3523,3523,3523,3523,3523,3523,3523,3523,3523,3523,3523,3523,2684,2684,2684,2684,2684,2684,2684,
4781,4781,4781,3662,3808,3523,3523,3523,3523,3806,3664,4781,4781,4781,4781,3522,3523,3523,3523,3523,3523,3523,3523,3523,3523,3523,3523,3523,3523,3523,3523,3523,3523,3523,3523,2684,2684,2684,2684,2684,2684,
4781,4781,4781,4781,3662,3663,3663,3663,3663,3664,4781,4781,4781,4781,4781,3662,3808,3523,3523,3523,3523,3523,3523,3523,3523,3523,3523,3523,3523,3523,3523,3523,3523,3523,3523,2684,2684,2684,2684,2684,2684
</data>
 </layer>
</map>
