<?xml version="1.0" encoding="UTF-8"?>
<map version="1.0" orientation="orthogonal" renderorder="right-down" width="92" height="96" tilewidth="32" tileheight="32" nextobjectid="1">
 <tileset firstgid="1" name="tile group" tilewidth="32" tileheight="32" tilecount="21000" columns="140">
  <image source="Tiles/tile group.png" width="4480" height="4800"/>
 </tileset>
 <tileset firstgid="21001" name="3" tilewidth="32" tileheight="32" tilecount="256" columns="8">
  <image source="Tiles/3.png" width="256" height="1024"/>
 </tileset>
 <tileset firstgid="21257" name="the_public_pokemon_tileset_by_thatssowitty-d4ni56y" tilewidth="32" tileheight="32" tilecount="7000" columns="8">
  <image source="Tiles/the_public_pokemon_tileset_by_thatssowitty-d4ni56y.png" width="256" height="28000"/>
 </tileset>
 <tileset firstgid="28257" name="sinnohtiles" tilewidth="32" tileheight="32" tilecount="1554" columns="37">
  <image source="Tiles/sinnohtiles.png" width="1214" height="1356"/>
 </tileset>
 <tileset firstgid="29811" name="1" tilewidth="32" tileheight="32" tilecount="256" columns="8">
  <image source="Tiles/1.png" width="256" height="1024"/>
 </tileset>
 <tileset firstgid="30067" name="new tilesert2" tilewidth="32" tileheight="32" tilecount="3744" columns="8">
  <image source="Tiles/new tilesert2.png" width="256" height="14976"/>
 </tileset>
 <tileset firstgid="33811" name="4 - Copie (2)" tilewidth="32" tileheight="32" tilecount="256" columns="8">
  <image source="Tiles/4 - Copie (2).png" width="256" height="1024"/>
 </tileset>
 <layer name="Layer 1" width="92" height="96">
  <data encoding="csv">
3673,3673,3673,3673,3673,3951,3951,3951,3951,3951,3951,3951,3951,3951,3951,3951,3951,3951,3951,3951,3951,4638,4638,4638,4638,4638,4638,4638,4638,4638,4638,4638,4638,4638,4638,4638,4638,4638,4638,4638,4638,4638,4638,4638,4638,4638,4638,4638,4638,4638,4638,4638,4638,4638,4638,4638,4638,4638,4638,4638,4638,4638,4638,4638,4638,4638,4638,4638,4638,4638,4638,4638,4638,4638,3951,3951,3951,3951,3951,3951,3673,3673,3673,3673,3673,3673,3673,3673,3673,3673,3673,3673,
3673,3673,3673,3673,3951,3951,3951,3951,3951,3951,3951,3951,3951,3951,3951,3951,3951,3951,3951,3951,3951,4638,4638,4638,4638,4638,4638,4638,4638,4638,4638,4638,4638,4638,4638,4638,4638,4638,4638,4638,4638,4638,4638,4638,4638,4638,4638,4638,4638,4638,4638,4638,4638,4638,4638,4638,4638,4638,4638,4638,4638,4638,4638,4638,4638,4638,4638,4638,4638,4638,4638,4638,4638,4638,3951,3951,3951,3951,3951,3951,3951,3673,3673,3673,3673,3673,3673,3673,3673,3673,3673,3673,
3673,3673,3673,3673,3951,3951,3951,3951,3951,3951,3951,3951,3951,3951,3951,3951,3951,3951,3951,4638,4638,4638,4638,4638,4638,4638,4638,4638,4638,4638,4638,4638,4638,4638,4638,4638,4638,4638,4638,4638,4638,4638,4638,4638,4638,4638,4638,4638,4638,4638,4638,4638,4638,4638,4638,4638,4638,4638,4638,4638,4638,4638,4638,4638,4638,4638,4638,4638,4638,4638,4638,4638,4638,4638,3951,3951,3951,3951,3951,3951,3951,3673,3673,3673,3673,3673,3673,3673,3673,3673,3673,3673,
3673,3673,3673,3673,3951,3951,3951,3951,3951,3951,3951,3951,3951,3951,3951,3951,3951,3951,3951,4638,4638,4638,4638,4638,4638,4638,4638,4638,4638,4638,4638,4638,4638,4638,4638,4638,4638,4638,4638,4638,4638,4638,4638,4638,4638,4638,4638,4638,4638,4638,4638,4638,4638,4638,4638,4638,4638,4638,4638,4638,4638,4638,4638,4638,4638,4638,4638,4638,4638,4638,4638,4638,4638,4638,4638,3951,3951,3951,3951,3951,3951,3951,3673,3673,3673,3673,3673,3673,3673,3673,3673,3673,
3673,3673,3673,3673,3951,3951,3951,3951,3951,3951,3951,3951,3951,3951,3951,3951,3951,3951,3951,4638,4638,4638,4638,4638,4638,4638,4638,4638,4638,4638,4638,4638,4638,4638,4638,4638,4638,4638,4638,4638,4638,4638,4638,4638,4638,4638,4638,4638,4638,4638,4638,4638,4638,4638,4638,4638,4638,4638,4638,4638,4638,4638,4638,4638,4638,4638,4638,4638,4638,4638,4638,4638,4638,4638,4638,3951,3951,3951,3951,3951,3951,3951,3951,3673,3673,3673,3673,3673,3673,3673,3673,3673,
3673,3673,3673,3673,3951,3951,3951,3951,3951,3951,3951,3951,3951,3951,3951,3951,3951,3951,3951,4638,4638,4638,4638,4638,4638,4638,4638,4638,4638,4638,4638,4638,4638,4638,4638,4638,4638,4638,4638,4638,4638,4638,4638,4638,4638,4638,4638,4638,4638,4638,4638,4638,4638,4638,4638,4638,4638,4638,4638,4638,4638,4638,4638,4638,4638,4638,4638,4638,4638,4638,4638,4638,4638,4638,4638,4638,3951,3951,3951,3951,3951,3951,3951,3673,3673,3673,3673,3673,3673,3673,3673,3673,
3673,3673,3673,3673,3951,3951,3951,3951,3951,3951,3951,3951,3951,3951,3951,3951,3951,4638,4638,4638,4638,4638,4638,4638,4638,4638,4638,4638,4638,4638,4638,4638,4638,4638,4638,4638,4638,4638,4638,4638,4638,4638,4638,4638,4638,4638,4638,4638,4638,4638,4638,4638,4638,4638,4638,4638,4638,4638,4638,4638,4638,4638,4638,4638,4638,4638,4638,4638,4638,4638,4638,4638,4638,4638,4638,4638,3951,3951,3951,3951,3951,3951,3951,3951,3673,3673,3673,3673,3673,3673,3673,3673,
3673,3673,3673,3673,3951,3951,3951,3951,3951,3951,3951,3951,3951,3951,3951,3951,3951,4638,4638,4638,4638,4638,4638,4638,4638,4638,4638,4638,4638,4638,4638,4638,4638,4638,4638,4638,4638,4638,4638,4638,4638,4638,4638,4638,4638,4638,4638,4638,4638,4638,4638,4638,21210,21210,21210,21210,21210,4638,4638,4638,4638,4638,4638,4638,4638,4638,4638,4638,4638,4638,4638,4638,4638,4638,4638,4638,3951,3951,3951,3951,3951,3951,3951,3951,3951,3951,3673,3673,3673,3673,3673,3673,
3673,3673,3673,3673,3673,3951,3951,3951,3951,3951,3951,3951,3951,3951,3951,3951,3951,4638,4638,4638,4638,4638,4638,4638,4638,4638,4638,4638,4638,4638,4638,4638,4638,4638,4638,4638,4638,4638,4638,4638,4638,4638,4638,4638,4638,4638,4638,4638,4638,4638,4638,21210,21210,21210,21210,21210,21210,21210,21210,21210,4638,4638,4638,4638,4638,4638,4638,4638,4638,4638,4638,4638,4638,4638,4638,4638,4638,3951,3951,3951,3951,3951,3951,3951,3951,3951,3951,3951,3951,3951,3951,3951,
3673,3673,3673,3673,3673,3951,3951,3951,3951,3951,3951,3951,3951,3951,3951,3951,3951,3951,3951,4638,4638,4638,4638,4638,4638,4638,4638,4638,4638,4638,4638,4638,4638,4638,4638,4638,4638,4638,4638,4638,4638,4638,4638,4638,4638,4638,4638,4638,4638,4638,21210,21210,21210,21210,21210,21210,21210,21210,21210,21210,21210,21210,21210,4638,4638,4638,4638,4638,4638,4638,4638,4638,4638,4638,4638,4638,4638,4638,3951,3951,3951,3951,3951,3951,3951,3951,3951,3951,3951,3951,3951,3951,
3673,3673,3673,3673,3673,3951,3951,3951,3951,3951,3951,3951,3951,3951,3951,3951,3951,3951,3951,4638,4638,4638,4638,4638,4638,4638,4638,4638,4638,4638,4638,4638,4638,4638,4638,4638,4638,4638,4638,4638,4638,4638,4638,4638,4638,4638,4638,4638,21210,21210,21210,21210,21210,21210,21210,21210,21210,21210,21210,21210,21210,21210,21210,21210,4638,4638,4638,4638,4638,4638,4638,4638,4638,4638,4638,4638,4638,4638,4638,3951,3951,3951,3951,3951,3951,3951,3951,3951,3951,3951,3951,3951,
3673,3673,3673,3673,3673,3951,3951,3951,3951,3951,3951,3951,3951,3951,3951,3951,3951,3951,3951,3951,3951,3951,4638,4638,4638,4638,4638,4638,4638,4638,4638,4638,4638,4638,4638,4638,4638,4638,4638,4638,4638,4638,4638,4638,4638,4638,4638,4638,4638,4638,4638,4638,4638,21210,21210,21210,21210,21210,21210,21210,21210,21210,21210,21210,21210,21210,4638,4638,4638,4638,4638,4638,4638,4638,4638,4638,4638,4638,4638,3951,3951,3951,3951,3951,3951,3951,3951,3951,3951,3951,3951,4638,
3673,3673,3673,3673,3673,3951,3951,3951,3951,3951,3951,3951,3951,3951,3951,3951,3951,3951,3951,3951,3951,3951,4638,4638,4638,4638,4638,4638,4638,4638,4638,4638,4638,4638,4638,4638,4638,4638,4638,4638,4638,4638,4638,4638,4638,4638,4638,4638,4638,4638,4638,4638,4638,4638,4638,4638,21210,21210,21210,21210,21210,21210,21210,21210,21210,21210,4638,4638,4638,4638,4638,4638,4638,4638,4638,4638,4638,4638,4638,4638,4638,3951,3951,3951,3951,3951,3951,3951,3951,3951,4638,4638,
3673,3673,3673,3673,3673,3951,3951,3951,3951,3951,3951,3951,3951,3951,3951,3951,3951,3951,3951,3951,3951,3951,4638,4638,4638,4638,4638,4638,4638,4638,4638,4638,4638,4638,4638,4638,4638,4638,4638,4638,4638,4638,4638,4638,4638,4638,4638,4638,4638,4638,4638,4638,4638,4638,4638,4638,4638,4638,21210,21210,21210,21210,21210,21210,21210,21210,21210,4638,4638,4638,4638,4638,4638,4638,4638,4638,4638,4638,4638,4638,4638,4638,4638,4638,4638,4638,4638,4638,4638,4638,4638,4638,
3673,3673,3673,3673,3673,3951,3951,3951,3951,3951,3951,3951,3951,3951,3951,3951,3951,3951,3951,3951,3951,3951,3951,4638,4638,4638,4638,4638,4638,4638,4638,4638,4638,4638,4638,4638,4638,4638,4638,4638,4638,4638,4638,4638,4638,4638,4638,4638,4638,4638,4638,4638,4638,4638,4638,4638,4638,4638,4638,21210,21210,21210,21210,21210,21210,21210,21210,21210,4638,4638,4638,4638,4638,4638,4638,4638,4638,4638,4638,4638,4638,4638,4638,4638,4638,4638,4638,4638,4638,4638,4638,4638,
3673,3673,3673,3673,3673,3951,3951,3951,3951,3951,3951,3951,3951,3951,3951,3951,3951,3951,3951,3951,3951,3951,3951,4638,4638,4638,4638,4638,4638,4638,4638,4638,4638,4638,4638,4638,4638,4638,4638,4638,4638,4638,4638,4638,4638,4638,4638,4638,4638,4638,4638,4638,4638,4638,4638,4638,4638,4638,4638,21210,21210,21210,21210,21210,21210,21210,21210,21210,4638,4638,4638,4638,4638,4638,4638,4638,4638,4638,4638,4638,4638,4638,4638,4638,4638,4638,4638,4638,4638,4638,4638,4638,
3673,3673,3673,3673,3951,3951,3951,3951,3951,3951,3951,3951,3951,3951,3951,3951,3951,3951,3951,3951,3951,3951,3951,4638,4638,4638,4638,4638,4638,4638,4638,4638,4638,4638,4638,4638,4638,4638,4638,4638,4638,4638,4638,4638,4638,4638,4638,4638,4638,4638,4638,4638,4638,4638,4638,4638,4638,4638,4638,21210,21210,21210,21210,21210,21210,21210,21210,21210,21210,4638,4638,4638,4638,4638,4638,4638,4638,4638,4638,4638,4638,4638,4638,4638,4638,4638,4638,4638,4638,4638,4638,4638,
3673,3673,3673,3673,3951,3951,3951,3951,3951,3951,3951,3951,3951,3951,3951,3951,3951,3951,3951,3951,3951,3951,3951,3951,4638,4638,4638,4638,4638,4638,4638,4638,4638,4638,4638,4638,4638,4638,4638,4638,4638,4638,4638,4638,4638,4638,4638,4638,4638,4638,4638,4638,4638,4638,4638,4638,4638,4638,4638,4638,21210,21210,21210,21210,21210,21210,21210,21210,21210,4638,4638,4638,4638,4638,4638,4638,4638,4638,4638,4638,4638,4638,4638,4638,4638,4638,4638,4638,4638,4638,4638,4638,
3673,3673,3673,3951,3951,3951,3951,3951,3951,3951,3951,3951,3951,3951,3951,3951,3951,3951,3951,3951,3951,3951,3951,3951,4638,4638,4638,4638,4638,4638,4638,4638,4638,4638,4638,4638,4638,4638,4638,4638,4638,4638,4638,4638,4638,4638,4638,4638,4638,4638,4638,4638,4638,4638,4638,4638,4638,4638,4638,4638,21210,21210,21210,21210,21210,21210,21210,21210,21210,4638,4638,4638,4638,4638,4638,4638,4638,4638,4638,4638,4638,4638,4638,4638,4638,4638,4638,4638,4638,4638,4638,4638,
3673,3673,3951,3951,3951,3951,3951,3951,3951,3951,3951,3951,3951,3951,3951,3951,3951,3951,3951,3951,3951,3951,3951,3951,4638,4638,4638,4638,4638,4638,4638,4638,4638,4638,4638,4638,4638,4638,4638,4638,4638,4638,4638,4638,4638,4638,4638,4638,4638,4638,4638,4638,4638,4638,4638,4638,4638,4638,4638,4638,21210,21210,21210,21210,21210,21210,21210,21210,21210,4638,4638,4638,4638,4638,4638,4638,4638,4638,4638,4638,4638,4638,4638,4638,4638,4638,4638,4638,4638,4638,4638,4638,
3673,3951,3951,3951,3951,3951,3951,3951,3951,3951,3951,3951,3951,3951,3951,3951,3951,3951,3951,3951,3951,3951,3951,4638,4638,4638,4638,4638,4638,4638,4638,4638,4638,4638,4638,4638,4638,4638,4638,4638,4638,4638,4638,4638,4638,4638,4638,4638,4638,4638,4638,4638,4638,4638,4638,4638,4638,4638,4638,4638,4638,21210,21210,21210,21210,21210,21210,21210,21210,4638,4638,4638,4638,4638,4638,4638,4638,4638,4638,4638,4638,4638,4638,4638,4638,4638,4638,4638,4638,4638,4638,4638,
3951,3951,3951,3951,3951,3951,3951,3951,3951,3951,3951,3951,3951,3951,3951,3951,3951,3951,3951,3951,4638,4638,4638,4638,4638,4638,4638,4638,4638,4638,4638,4638,4638,4638,4638,4638,4638,4638,4638,4638,4638,4638,4638,4638,4638,4638,4638,4638,4638,4638,4638,4638,4638,4638,4638,4638,4638,4638,4638,4638,4638,21210,21210,21210,21210,21210,21210,21210,21210,4638,4638,4638,4638,4638,4638,4638,4638,4638,4638,4638,4638,4638,4638,4638,4638,4638,4638,4638,4638,4638,4638,4638,
3951,3951,3951,3951,3951,3951,3951,3951,3951,3951,3951,3951,3951,3951,3951,3951,3951,3951,3951,3951,4638,4638,4638,4638,4638,4638,4638,4638,4638,4638,4638,4638,4638,4638,4638,4638,4638,4638,4638,4638,4638,4638,4638,4638,4638,4638,4638,4638,4638,4638,4638,4638,4638,4638,4638,4638,4638,4638,4638,4638,4638,21210,21210,21210,21210,21210,21210,21210,21210,4638,4638,4638,4638,4638,4638,4638,4638,4638,4638,4638,4638,4638,4638,4638,4638,4638,4638,4638,4638,4638,4638,4638,
3951,3951,3951,3951,3951,3951,3951,3951,3951,3951,3951,3951,3951,3951,3951,4638,4638,4638,4638,4638,4638,4638,4638,4638,4638,4638,4638,4638,4638,4638,4638,4638,4638,4638,4638,4638,4638,4638,4638,4638,4638,4638,4638,4638,4638,4638,4638,4638,4638,4638,4638,4638,4638,4638,4638,4638,4638,4638,4638,4638,4638,21210,21210,21210,21210,21210,21210,21210,4638,4638,4638,4638,4638,4638,4638,4638,4638,4638,4638,4638,4638,4638,4638,4638,4638,4638,4638,4638,4638,4638,4638,4638,
3951,3951,3951,3951,3951,3951,3951,3951,3951,3951,3951,3951,4638,4638,4638,4638,4638,4638,4638,4638,4638,4638,4638,4638,4638,4638,4638,4638,4638,4638,4638,4638,4638,4638,4638,4638,4638,4638,4638,4638,4638,4638,4638,4638,4638,4638,4638,4638,4638,4638,4638,4638,4638,4638,4638,4638,4638,4638,4638,4638,4638,21210,21210,21210,21210,21210,21210,21210,4638,4638,4638,4638,4638,4638,4638,4638,4638,4638,4638,4638,4638,4638,4638,4638,4638,4638,4638,4638,4638,4638,4638,4638,
3951,3951,3951,3951,3951,3951,3951,3951,3951,3951,3951,3951,4638,4638,4638,4638,4638,4638,4638,4638,4638,4638,4638,4638,4638,4638,4638,4638,4638,4638,4638,4638,4638,4638,4638,4638,4638,4638,4638,4638,4638,4638,4638,4638,4638,4638,4638,4638,4638,4638,4638,4638,4638,4638,4638,4638,4638,4638,4638,4638,4638,21210,21210,21210,21210,21210,21210,4638,4638,4638,4638,4638,4638,4638,4638,4638,4638,4638,4638,4638,4638,4638,4638,4638,4638,4638,4638,4638,4638,4638,4638,4638,
3951,3951,3951,3951,3951,3951,3951,3951,3951,3951,3951,3951,4638,4638,4638,4638,4638,4638,4638,4638,4638,4638,4638,4638,4638,4638,4638,4638,4638,4638,4638,4638,4638,4638,4638,4638,4638,4638,4638,4638,4638,4638,4638,21210,21210,4638,4638,4638,4638,4638,4638,4638,4638,4638,4638,4638,4638,4638,4638,4638,4638,21210,21210,21210,21210,21210,21210,4638,4638,4638,4638,4638,4638,4638,4638,4638,4638,4638,4638,4638,4638,4638,4638,4638,4638,4638,4638,4638,4638,4638,4638,4638,
3951,3951,3951,3951,3951,3951,3951,3951,3951,3951,4638,4638,4638,4638,4638,4638,4638,4638,4638,4638,4638,4638,4638,4638,4638,4638,4638,4638,4638,4638,4638,4638,4638,4638,4638,4638,4638,4638,21210,21210,21210,21210,21210,21210,21210,21210,21210,4638,4638,4638,4638,4638,4638,4638,4638,4638,4638,4638,4638,4638,4638,21210,21210,21210,21210,21210,21210,4638,4638,4638,4638,4638,4638,4638,4638,4638,4638,4638,4638,4638,4638,4638,4638,4638,4638,4638,4638,4638,4638,4638,4638,4638,
3951,3951,3951,3951,3951,3951,3951,3951,3951,3951,4638,4638,4638,4638,4638,4638,4638,4638,4638,4638,4638,4638,4638,4638,4638,4638,4638,4638,4638,4638,4638,4638,4638,4638,4638,4638,4638,21210,21210,21210,21210,21210,21210,21210,21210,21210,21210,4638,4638,4638,4638,4638,4638,4638,4638,4638,4638,4638,4638,4638,4638,21210,21210,21210,21210,21210,21210,4638,4638,4638,4638,4638,4638,4638,4638,4638,4638,4638,4638,4638,4638,4638,4638,4638,4638,4638,4638,4638,4638,4638,4638,3951,
3951,3951,3951,3951,3951,3951,3951,3951,3951,3951,4638,4638,4638,4638,4638,4638,4638,4638,4638,4638,4638,4638,4638,4638,4638,4638,4638,4638,4638,4638,4638,4638,4638,4638,4638,21210,21210,21210,21210,21210,21210,4635,4635,4635,4635,21210,21210,21210,21210,21210,4638,4638,4638,4638,4638,4638,4638,4638,4638,4638,4638,21210,21210,21210,21210,21210,4638,4638,4638,4638,4638,4638,4638,4638,4638,4638,4638,4638,4638,4638,4638,4638,4638,4638,4638,4638,4638,4638,3951,3951,3951,3951,
3951,3951,3951,3951,3951,3951,3951,3951,3951,3951,4638,4638,4638,4638,4638,4638,4638,4638,4638,4638,4638,4638,4638,4638,4638,4638,4638,4638,4638,4638,4638,4638,4638,21210,21210,21210,21210,21210,21210,4635,4635,4635,4635,4635,4635,4635,4635,21210,21210,21210,4638,4638,4638,4638,4638,4638,4638,4638,4638,4638,4638,21210,21210,21210,21210,21210,4638,4638,4638,4638,4638,4638,4638,4638,4638,4638,4638,4638,4638,4638,3951,3951,3951,3951,3951,3951,3951,3951,3951,3951,3951,3951,
3951,3951,3951,3951,3951,3951,3951,4638,4638,4638,4638,4638,4638,4638,4638,4638,4638,4638,4638,4638,4638,4638,4638,4638,4638,4638,4638,4638,4638,4638,4638,4638,21210,21210,21210,21210,21210,21210,4635,4635,4635,4635,4635,4635,4635,4635,4635,21210,21210,21210,4638,4638,4638,4638,4638,4638,4638,4638,4638,4638,4638,4638,4638,4638,4638,4638,4638,4638,4638,4638,4638,4638,4638,4638,4638,4638,4638,4638,3951,3951,3951,3951,3951,3951,3951,3951,3951,3951,3951,3951,3951,3951,
3951,3951,3951,3951,3951,3951,3951,4638,4638,4638,4638,4638,4638,4638,4638,4638,4638,4638,4638,4638,4638,4638,4638,4638,4638,4638,4638,4638,4638,4638,4638,21210,21210,21210,21210,21210,21210,4635,4635,4635,4635,4635,4635,4635,4635,4635,21210,21210,21210,4638,4638,4638,4638,4638,4638,4638,4638,4638,4638,4638,4638,4638,4638,4638,4638,4638,4638,4638,4638,4638,4638,4638,4638,4638,4638,3951,3951,3951,3951,3951,3951,3951,3951,3951,3951,3951,3951,3951,3951,3951,3951,3951,
3951,3951,3951,3951,3951,3951,3951,4638,4638,4638,4638,4638,4638,4638,4638,4638,4638,4638,4638,4638,4638,4638,4638,4638,4638,4638,4638,4638,4638,21210,21210,21210,21210,21210,21210,21210,21210,4635,4635,4635,4635,4635,4635,4635,4635,4635,21210,21210,21210,4638,4638,4638,4638,4638,4638,4638,4638,4638,4638,4638,4638,4638,4638,4638,4638,4638,4638,4638,4638,4638,4638,4638,4638,4638,3951,3951,3951,3951,3951,3951,3951,3951,3951,3532,3533,3533,3533,3533,3533,3533,3533,3533,
3951,3951,3951,3951,3951,3951,3951,4638,4638,4638,4638,4638,4638,4638,4638,4638,4638,4638,4638,4638,4638,4638,4638,4638,4638,4638,21210,21210,21210,21210,21210,21210,21210,21210,21210,21210,21210,4635,4635,4635,4635,4635,4635,4635,4635,4635,21210,21210,21210,4638,4638,4638,4638,4638,4638,4638,4638,4638,4638,4638,4638,4638,4638,4638,4638,4638,4638,4638,4638,4638,4638,4638,4638,4638,3951,3951,3951,3951,3951,3951,3951,3532,3533,4093,3673,3673,3673,3673,3673,3673,3673,3673,
3951,3951,3951,3951,3951,3951,3951,4638,4638,4638,4638,4638,4638,4638,4638,4638,4638,4638,4638,4638,4638,4638,4638,4638,4638,21210,21210,21210,21210,21210,21210,21210,21210,21210,21210,21210,21210,21210,4635,4635,4635,4635,4635,4635,21210,21210,21210,21210,4638,4638,4638,4638,4638,4638,4638,4638,4638,4638,4638,4638,4638,4638,4638,4638,4638,4638,4638,4638,4638,4638,4638,4638,3951,3951,3951,3951,3951,3951,3951,3951,3951,3672,3673,3673,3673,3673,3673,3673,3673,3673,3673,3673,
3951,3951,3951,3951,3951,3951,4638,4638,4638,4638,4638,4638,4638,4638,4638,4638,4638,4638,4638,4638,4638,4638,4638,21210,21210,21210,21210,21210,21210,21210,21210,21210,21210,21210,21210,21210,21210,21210,21210,21210,4635,4635,4635,21210,21210,21210,21210,21210,4638,4638,4638,4638,4638,4638,4638,4638,4638,4638,4638,4638,4638,4638,4638,4638,4638,4638,4638,4638,4638,4638,4638,4638,3951,3951,3951,3951,3951,3951,3951,3951,3532,4093,3673,3673,3673,3673,3673,3673,3673,3673,3673,3673,
3951,3951,3951,3951,3951,3951,4638,4638,4638,4638,4638,4638,4638,4638,4638,4638,4638,4638,4638,4638,4638,4638,4638,21210,21210,21210,21210,21210,21210,21210,21210,21210,21210,21210,21210,21210,21210,21210,21210,21210,21210,21210,21210,21210,21210,21210,21210,4638,4638,4638,4638,4638,4638,4638,4638,4638,4638,4638,4638,4638,4638,4638,4638,4638,4638,4638,4638,4638,4638,4638,4638,4638,3951,3951,3951,3951,3951,3951,3951,3951,3672,3673,3673,3673,3673,3673,23274,23274,23275,3673,3673,3673,
3951,3951,3951,3951,3951,3951,4638,4638,4638,4638,4638,4638,4638,4638,4638,4638,4638,4638,4638,4638,4638,4638,21210,21210,21210,21210,21210,21210,21210,21210,21210,21210,21210,21210,21210,21210,21210,21210,21210,21210,21210,21210,21210,21210,21210,21210,4638,4638,4638,4638,4638,4638,4638,4638,4638,4638,4638,4638,4638,4638,4638,4638,4638,4638,4638,4638,4638,4638,4638,4638,4638,4638,3951,3951,3951,3951,3951,3951,3951,3951,3672,3673,3673,3673,3673,3673,23282,23282,23283,3673,3673,3673,
3951,3951,3951,3951,3951,3951,4638,4638,4638,4638,4638,4638,4638,4638,4638,4638,4638,4638,4638,4638,4638,21210,21210,21210,21210,21210,21210,4635,4635,21210,21210,21210,21210,21210,21210,21210,21210,21210,21210,21210,21210,4638,4638,4638,4638,4638,4638,4638,4638,4638,4638,4638,4638,4638,4638,4638,4638,4638,4638,4638,4638,4638,4638,4638,4638,4638,4638,4638,4638,4638,4638,4638,4638,4638,3951,3951,3951,3951,3951,3951,3672,3673,3673,3673,3673,3673,3673,3673,3673,3673,3673,3673,
3951,3951,3951,3951,3951,4638,4638,4638,4638,4638,4638,4638,4638,4638,4638,4638,4638,4638,4638,4638,21210,21210,21210,21210,21210,3224,4635,3224,4635,4635,21210,21210,21210,21210,21210,4638,4638,4638,4638,4638,4638,4638,4638,4638,4638,4638,4638,4638,4638,4638,4638,4638,4638,4638,4638,4638,4638,4638,4638,4638,4638,4638,4638,4638,4638,4638,4638,4638,4638,4638,4638,4638,4638,4638,3951,3951,3951,3951,3951,3951,3812,3813,3953,3673,3673,3673,3673,3673,3673,3673,3673,3673,
3951,3951,3951,3951,3951,4638,4638,4638,4638,4638,4638,4638,4638,4638,4638,4638,4638,4638,4638,4638,21210,21210,21210,21210,4635,4635,6359,4635,4635,4635,21210,21210,21210,4638,4638,4638,4638,4638,4638,4638,4638,4638,4638,4638,4638,4638,4638,4638,4638,4638,4638,4638,4638,4638,4638,4638,4638,4638,4638,4638,4638,4638,4638,4638,4638,4638,4638,4638,4638,4638,4638,4638,4638,4638,3951,3951,3951,3951,3951,3951,3951,3951,3672,3673,3673,3673,3673,3673,3673,3673,3673,3673,
3951,3951,3951,3951,3951,4638,4638,4638,4638,4638,4638,4638,4638,4638,4638,4638,4638,4638,4638,21210,21210,21210,4635,3224,4635,6637,4635,4635,4635,21210,21210,4638,4638,4638,4638,4638,4638,4638,4638,4638,4638,4638,4638,4638,4638,4638,4638,4638,4638,4638,4638,4638,4638,4638,4638,4638,4638,4638,4638,4638,4638,4638,4638,4638,4638,4638,4638,4638,4638,4638,4638,4638,4638,4638,4638,3951,3951,3951,3951,3951,3951,3951,3812,3813,3813,3813,3813,3813,3953,3673,3673,3673,
3951,3951,3951,3951,3951,4638,4638,4638,4638,4638,4638,4638,4638,4638,4638,4638,4638,4638,4638,21210,21210,4635,6496,6637,4635,4635,4635,4635,21210,21210,21210,4638,4638,4638,4638,4638,4638,4638,4638,4638,4638,4638,4638,4638,4638,4638,4638,4638,4638,4638,4638,4638,4638,4638,4638,4638,4638,4638,4638,4638,4638,4638,4638,4638,4638,4638,4638,4638,4638,4638,4638,4638,4638,4638,4638,3951,3951,3951,3951,3951,3951,3951,3951,3951,3951,3951,3951,3951,3812,3813,3813,3813,
3951,3951,3951,3951,3951,4638,4638,4638,4638,4638,4638,4638,4638,4638,4638,4638,4638,4638,21210,21210,21210,4635,4635,4635,4635,4635,4635,21210,21210,21210,4638,4638,4638,4638,4638,4638,4638,4638,4638,4638,4638,4638,4638,4638,4638,4638,4638,4638,4638,4638,4638,4638,4638,4638,4638,4638,4638,4638,4638,4638,4638,4638,4638,4638,4638,4638,4638,4638,4638,4638,4638,4638,4638,4638,4638,4638,4638,3951,3951,3951,3951,3951,3951,3951,3951,3951,3951,3951,3951,3951,3951,3951,
3951,3951,3951,3951,3951,4638,4638,4638,4638,4638,4638,4638,4638,4638,4638,4638,4638,4638,21210,21210,4635,4635,4635,4635,4635,4635,21210,21210,21210,21210,4638,4638,4638,4638,4638,4638,4638,4638,4638,4638,4638,4638,4638,4638,4638,4638,4638,4638,4638,4638,4638,4638,4638,4638,4638,4638,4638,4638,4638,4638,4638,4638,4638,4638,21210,4638,4638,4638,4638,4638,4638,4638,4638,4638,4638,4638,4638,3951,3951,3951,3951,3951,3951,3951,3951,3951,3951,3951,3951,3951,4638,4638,
3951,3951,3951,3951,4638,4638,4638,4638,4638,4638,4638,4638,4638,4638,4638,4638,4638,4638,21210,4635,4635,4635,4635,4635,4635,3224,21210,21210,21210,4638,4638,4638,4638,4638,4638,4638,4638,4638,4638,4638,4638,4638,4638,4638,4638,4638,4638,4638,4638,4638,4638,4638,4638,4638,4638,4638,4638,4638,4638,4638,4638,4638,4638,21210,21210,21210,21210,4638,4638,4638,4638,4638,4638,4638,4638,4638,4638,3951,3951,3951,3951,3951,3951,3951,3951,3951,3951,3951,3951,3951,4638,4638,
3951,3951,3951,3951,4638,4638,4638,4638,4638,4638,4638,4638,4638,4638,4638,4638,4638,21210,21210,4635,4635,4635,4635,4635,4635,21210,21210,21210,21210,4638,4638,4638,4638,4638,4638,4638,4638,4638,4638,4638,4638,4638,4638,4638,4638,4638,4638,4638,4638,4638,4638,4638,4638,4638,4638,4638,4638,4638,4638,4638,4638,21210,21210,21210,21210,21210,21210,4638,4638,4638,4638,4638,4638,4638,4638,4638,4638,4638,3951,3951,3951,3951,3951,3951,3951,3951,3951,3951,3951,4638,4638,4638,
3951,3951,3951,3951,4638,4638,4638,4638,4638,4638,4638,4638,4638,4638,4638,4638,4638,21210,4635,4635,4635,4635,4635,4635,4635,21210,21210,21210,21210,4638,4638,4638,4638,4638,4638,4638,4638,4638,4638,4638,4638,4638,4638,4638,4638,4638,4638,4638,21210,21210,21210,21210,21210,21210,4638,4638,4638,4638,2802,21210,21210,21210,21210,21210,21210,21210,21210,4638,4638,4638,4638,4638,4638,4638,4638,4638,4638,4638,4638,4638,4638,4638,4638,3951,3951,3951,3951,3951,3951,4638,4638,4638,
3951,3951,3951,3951,3951,4638,4638,4638,4638,4638,4638,4638,4638,4638,4638,4638,4638,21210,4635,4635,4635,4635,4635,2102,2104,21210,21210,21210,21210,4638,4638,4638,4638,4638,4638,4638,4638,4638,4638,4638,4638,4638,4638,4638,4638,4638,4638,21210,21210,21210,21210,21210,21210,21210,21210,21210,21210,21210,21210,21210,21210,21210,21210,21210,21210,21210,21210,4638,4638,4638,4638,4638,4638,4638,4638,4638,4638,4638,4638,4638,4638,4638,4638,3951,3951,3951,3951,3951,3951,4638,4638,4638,
3951,3951,3951,3951,3951,4638,4638,4638,4638,4638,4638,4638,4638,4638,4638,4638,4638,21210,4635,2102,2104,4635,4635,2382,2384,21210,21210,21210,21210,4638,4638,4638,4638,4638,4638,4638,4638,4638,4638,4638,4638,4638,4638,4638,4638,4638,21210,21210,21210,21210,21210,21210,21210,2802,2802,2802,2802,21210,21210,21210,21210,21210,21210,21210,21210,21210,4638,4638,4638,4638,4638,4638,4638,4638,4638,4638,4638,4638,4638,4638,4638,4638,4638,4638,4638,3951,3951,3951,4638,4638,4638,4638,
3951,3951,3951,3951,3951,4638,4638,4638,4638,4638,4638,4638,4638,4638,4638,4638,4638,21210,3224,2382,2523,2104,4635,4635,4635,21210,21210,21210,21210,4638,4638,4638,4638,4638,4638,4638,4638,4638,4638,4638,4638,4638,4638,4638,4638,21210,21210,21210,21210,21210,2802,2802,2802,2802,2802,2802,2802,2802,2802,2802,2802,21210,21210,21210,21210,4638,4638,4638,4638,4638,4638,4638,4638,4638,4638,4638,4638,4638,4638,4638,4638,4638,4638,4638,4638,3951,3951,3951,4638,4638,4638,4638,
3951,3951,3951,3951,3951,4638,4638,4638,4638,4638,4638,4638,4638,4638,4638,4638,4638,21210,4635,3224,2382,2384,4635,4635,4635,21210,21210,21210,21210,4638,4638,4638,4638,4638,4638,4638,4638,4638,4638,4638,4638,4638,4638,4638,4638,21210,21210,21210,21210,2802,2802,2802,2802,2802,2802,2802,2802,2802,3224,2802,2802,21210,21210,21210,21210,4638,4638,4638,4638,4638,4638,4638,4638,4638,4638,4638,4638,4638,4638,4638,4638,4638,4638,4638,4638,4638,4638,4638,4638,4638,4638,4638,
3951,3951,3951,3951,3951,3951,4638,4638,4638,4638,4638,4638,4638,4638,4638,4638,4638,21210,21210,21210,4635,4635,4635,4635,4635,4635,21210,21210,21210,4638,4638,4638,4638,4638,4638,4638,4638,4638,4638,4638,4638,4638,4638,4638,21210,21210,21210,21210,2802,2802,2802,2802,3224,2802,2802,3224,2802,2802,2802,21210,21210,21210,4638,4638,4638,4638,4638,4638,4638,4638,4638,4638,4638,4638,4638,4638,4638,4638,4638,4638,4638,4638,4638,4638,4638,4638,4638,4638,4638,4638,4638,4638,
3951,3951,3951,3951,3951,3951,4638,4638,4638,4638,4638,4638,4638,4638,4638,4638,4638,4638,21210,21210,4635,4635,4635,4635,4635,4635,21210,21210,21210,4638,4638,4638,4638,4638,4638,4638,4638,4638,4638,4638,4638,4638,4638,4638,21210,21210,21210,21210,2802,2802,2802,2802,2802,2802,2802,2802,2802,2802,21210,21210,4638,4638,4638,4638,4638,4638,4638,4638,4638,4638,4638,4638,4638,4638,4638,4638,4638,4638,4638,4638,4638,4638,4638,4638,4638,4638,4638,4638,4638,4638,4638,4638,
3951,3951,3951,3951,3951,3951,4638,4638,4638,4638,4638,4638,4638,4638,4638,4638,4638,4638,21210,21210,4635,4635,4635,4635,4635,4635,4635,21210,21210,4638,4638,4638,4638,4638,4638,4638,4638,4638,4638,4638,4638,4638,4638,4638,21210,21210,21210,21210,2802,2802,2802,2802,2802,2802,2802,2802,2802,2802,21210,4638,4638,4638,4638,4638,4638,4638,4638,4638,4638,4638,4638,4638,4638,4638,4638,4638,4638,4638,4638,4638,4638,4638,4638,4638,4638,4638,4638,4638,4638,4638,4638,4638,
3951,3951,3951,3951,3951,3951,3951,4638,4638,4638,4638,4638,4638,4638,4638,4638,4638,4638,21210,21210,21210,4635,4635,4635,4635,3224,4635,21210,21210,4638,4638,4638,4638,4638,4638,4638,4638,4638,4638,4638,4638,4638,4638,4638,21210,21210,21210,2802,2802,3224,2802,2802,2802,2802,2802,2802,2802,2802,21210,4638,4638,4638,4638,4638,4638,4638,4638,4638,4638,4638,4638,4638,4638,4638,4638,4638,4638,4638,4638,4638,4638,4638,4638,4638,4638,4638,4638,4638,4638,4638,4638,4638,
3951,3951,3951,3951,3951,3951,3951,4638,4638,4638,4638,4638,4638,4638,4638,4638,4638,4638,21210,21210,21210,4635,4635,4635,3224,4635,4635,4635,21210,21210,4638,4638,4638,4638,4638,4638,4638,4638,4638,4638,4638,4638,4638,4638,21210,21210,21210,21210,2802,2802,2802,2802,2802,2802,2802,2802,2802,2802,21210,4638,4638,4638,4638,4638,4638,4638,4638,4638,4638,4638,4638,4638,4638,4638,4638,4638,4638,4638,4638,4638,4638,4638,4638,4638,4638,4638,4638,4638,4638,4638,4638,4638,
3951,3951,3951,3951,3951,3951,3951,4638,4638,4638,4638,4638,4638,4638,4638,4638,4638,4638,4638,21210,21210,4635,3224,4635,4635,4635,4635,4635,21210,21210,4638,4638,4638,4638,4638,4638,4638,4638,4638,4638,4638,4638,4638,4638,21210,21210,21210,21210,2802,2802,3224,2802,2802,2802,2802,2802,2802,2802,21210,4638,4638,4638,4638,4638,4638,4638,4638,4638,4638,4638,4638,4638,4638,4638,4638,4638,4638,4638,4638,4638,4638,4638,4638,4638,4638,4638,4638,4638,4638,4638,4638,4638,
3951,3951,3951,3951,3951,3951,3951,3951,4638,4638,4638,4638,4638,4638,4638,4638,4638,4638,4638,21210,21210,4635,4635,4635,4635,4635,4635,4635,21210,21210,4638,4638,4638,4638,4638,4638,4638,4638,4638,4638,4638,4638,4638,4638,4638,21210,21210,21210,21210,21210,3224,2802,2802,2802,2802,2802,2802,3224,21210,4638,4638,4638,4638,4638,4638,4638,4638,4638,4638,4638,4638,4638,4638,4638,4638,4638,4638,4638,4638,4638,4638,4638,4638,4638,4638,4638,4638,4638,4638,4638,4638,4638,
3951,3951,3951,3951,3951,3951,3951,3951,4638,4638,4638,4638,4638,4638,4638,4638,4638,4638,4638,4638,21210,21210,21210,4635,4635,4635,3224,21210,21210,4638,4638,4638,4638,4638,4638,4638,4638,4638,4638,4638,4638,4638,4638,4638,4638,21210,21210,21210,21210,21210,21210,21210,21210,2802,2802,2802,3224,2802,21210,4638,4638,4638,4638,4638,4638,4638,4638,4638,4638,4638,4638,4638,4638,4638,4638,4638,4638,4638,4638,4638,4638,4638,4638,4638,4638,4638,4638,4638,4638,4638,4638,4638,
3951,3951,3951,3951,3951,3951,3951,3951,3951,4638,4638,4638,4638,4638,4638,4638,4638,4638,4638,4638,4638,21210,21210,21210,4635,4635,4635,21210,21210,4638,4638,4638,4638,4638,4638,4638,4638,4638,4638,4638,4638,4638,4638,4638,4638,4638,21210,21210,21210,21210,21210,21210,21210,2802,2802,2802,2802,21210,21210,4638,4638,4638,4638,4638,4638,4638,4638,4638,4638,4638,4638,4638,4638,4638,4638,4638,4638,4638,4638,4638,4638,4638,4638,4638,4638,4638,4638,4638,4638,4638,4638,4638,
3951,3951,3951,3951,3951,3951,3951,3951,3951,4638,4638,4638,4638,4638,4638,4638,4638,4638,4638,4638,4638,4638,21210,21210,4635,4635,21210,21210,21210,4638,4638,4638,4638,4638,4638,4638,4638,4638,4638,4638,4638,4638,4638,4638,4638,4638,4638,4638,4638,4638,21210,21210,21210,21210,2802,21210,21210,21210,4638,4638,4638,4638,4638,4638,4638,4638,4638,4638,4638,4638,4638,4638,4638,4638,4638,4638,4638,4638,4638,4638,4638,4638,4638,4638,4638,4638,4638,4638,4638,4638,4638,4638,
3951,3951,3951,3951,3951,3951,3951,3951,3951,4638,4638,4638,4638,4638,4638,4638,4638,4638,4638,4638,4638,4638,4638,21210,21210,21210,21210,21210,4638,4638,4638,4638,4638,4638,4638,4638,4638,4638,4638,4638,4638,4638,4638,4638,4638,4638,4638,4638,4638,4638,4638,4638,4638,21210,21210,21210,4638,4638,4638,4638,4638,4638,4638,4638,4638,4638,4638,4638,4638,4638,4638,4638,4638,4638,4638,4638,4638,4638,4638,4638,4638,4638,4638,4638,4638,4638,4638,4638,4638,4638,4638,4638,
3951,3951,3951,3951,3951,3951,3951,3951,3951,3951,3951,4638,4638,4638,4638,4638,4638,4638,4638,4638,4638,4638,4638,21210,21210,21210,21210,4638,4638,4638,4638,4638,4638,4638,4638,4638,4638,4638,4638,4638,4638,4638,4638,4638,4638,4638,4638,4638,4638,4638,4638,4638,4638,4638,4638,4638,4638,4638,4638,4638,4638,4638,4638,4638,4638,4638,4638,4638,4638,4638,4638,4638,4638,4638,4638,4638,4638,4638,4638,4638,4638,4638,4638,4638,4638,4638,4638,4638,4638,4638,4638,4638,
3951,3951,3951,3951,3951,3951,3951,3951,3951,3951,3951,4638,4638,4638,4638,4638,4638,4638,4638,4638,4638,4638,4638,4638,4638,21210,4638,4638,4638,4638,4638,4638,4638,4638,4638,4638,4638,4638,4638,4638,4638,4638,4638,4638,4638,4638,4638,4638,4638,4638,4638,4638,4638,4638,4638,4638,4638,4638,4638,4638,4638,4638,4638,4638,4638,4638,4638,4638,4638,4638,4638,4638,4638,4638,4638,4638,4638,4638,4638,4638,4638,4638,4638,4638,4638,4638,4638,4638,4638,4638,4638,21210,
3951,3951,3951,3951,3951,3951,3951,3951,3951,3951,3951,3951,4638,4638,4638,4638,4638,4638,4638,4638,4638,4638,4638,4638,4638,4638,4638,4638,4638,4638,4638,4638,4638,4638,4638,4638,4638,4638,4638,4638,4638,4638,4638,4638,4638,4638,4638,4638,4638,4638,4638,4638,4638,4638,4638,4638,4638,4638,4638,4638,4638,4638,4638,4638,4638,4638,4638,4638,4638,4638,4638,4638,4638,4638,4638,4638,4638,4638,4638,4638,4638,4638,4638,4638,21210,21210,21210,21210,21210,21210,21210,21210,
3951,3951,3951,3951,3951,3951,3951,3951,3951,3951,3951,3951,4638,4638,4638,4638,4638,4638,4638,4638,4638,4638,4638,4638,4638,4638,4638,4638,4638,4638,4638,4638,4638,4638,4638,4638,4638,4638,4638,4638,4638,4638,4638,4638,4638,4638,4638,4638,4638,4638,4638,4638,4638,4638,4638,4638,4638,4638,4638,4638,4638,4638,4638,4638,4638,4638,4638,4638,4638,4638,4638,4638,4638,4638,4638,4638,4638,4638,4638,4638,4638,4638,21210,21210,21210,21210,21210,4635,4629,4629,4629,4629,
3951,3951,3951,3951,3951,3951,3951,3951,3951,3951,3951,3951,3951,4638,4638,4638,4638,4638,4638,4638,4638,4638,4638,4638,4638,4638,4638,4638,4638,4638,4638,4638,4638,4638,4638,4638,4638,4638,4638,4638,4638,4638,4638,4638,4638,4638,4638,4638,4638,4638,4638,4638,4638,4638,4638,4638,4638,4638,4638,4638,4638,4638,4638,4638,4638,4638,4638,4638,4638,4638,4638,4638,4638,4638,4638,4638,4638,4638,4638,4638,21210,21210,21210,21210,21210,21210,21210,4635,4629,4629,4629,4629,
3951,3951,3951,3951,3951,3951,3951,3951,3951,3951,3951,3951,3951,4638,4638,4638,4638,4638,4638,4638,4638,4638,4638,4638,4638,4638,4638,4638,4638,4638,4638,4638,4638,4638,4638,4638,4638,4638,4638,4638,4638,4638,4638,4638,4638,4638,4638,4638,4638,4638,4638,4638,4638,4638,4638,4638,4638,4638,4638,4638,4638,4638,4638,4638,4638,4638,4638,4638,4638,4638,4638,4638,4638,4638,4638,4638,4638,4638,4638,21210,21210,21210,21210,21210,4635,4635,4635,4635,4629,4629,4629,4629,
3951,3951,3951,3951,3951,3951,3951,3951,3951,3951,3951,3951,3951,4638,4638,4638,4638,4638,4638,4638,4638,4638,4638,4638,4638,4638,4638,4638,4638,4638,4638,4638,4638,4638,4638,4638,4638,4638,4638,4638,4638,4638,4638,4638,4638,4638,4638,4638,4638,4638,4638,4638,4638,4638,4638,4638,4638,4638,4638,4638,4638,4638,4638,4638,4638,4638,4638,4638,4638,4638,4638,4638,4638,4638,4638,4638,4638,4638,21210,21210,21210,21210,21210,21210,4635,4635,4635,4629,4629,4629,4629,4629,
3951,3951,3951,3951,3951,3951,3951,3951,3951,3951,3951,3951,3951,4638,4638,4638,4638,4638,4638,4638,4638,4638,4638,4638,4638,4638,4638,4638,4638,4638,4638,4638,4638,4638,4638,4638,4638,4638,4638,4638,4638,4638,4638,4638,4638,4638,4638,4638,4638,4638,4638,4638,4638,4638,4638,4638,4638,4638,4638,4638,4638,4638,4638,4638,4638,4638,4638,4638,4638,4638,4638,4638,4638,4638,4638,4638,4638,4638,21210,21210,21210,21210,4635,4635,4635,4629,4629,4629,4629,4629,4629,4629,
3951,3951,3951,3951,3951,3951,3951,3951,3951,3951,3951,3951,4638,4638,4638,4638,4638,4638,4638,4638,4638,4638,4638,4638,4638,4638,4638,4638,4638,4638,4638,4638,4638,4638,4638,21210,21210,21210,21210,21210,21210,4638,4638,4638,4638,4638,4638,4638,4638,4638,4638,4638,4638,4638,4638,4638,4638,4638,4638,4638,4638,4638,4638,4638,4638,4638,4638,4638,4638,4638,4638,4638,4638,4638,4638,4638,4638,4638,21210,21210,21210,21210,4635,4635,4635,4629,4629,4629,4629,4629,4629,4629,
3951,3951,3951,3951,3951,3951,3951,3951,3951,3951,3951,3951,4638,4638,4638,4638,4638,4638,4638,4638,4638,4638,4638,4638,4638,4638,4638,4638,4638,4638,4638,21210,21210,21210,21210,21210,21210,21210,21210,21210,21210,21210,21210,21210,21210,4638,4638,4638,4638,4638,4638,4638,4638,4638,4638,4638,4638,4638,4638,4638,4638,4638,4638,4638,4638,4638,4638,4638,4638,4638,4638,4638,4638,4638,4638,4638,4638,21210,21210,21210,21210,21210,4635,4635,4635,4629,4629,4629,4629,4629,4629,4629,
3951,3951,3951,3951,3951,3951,3951,3951,3951,3951,3951,3951,4638,4638,4638,4638,4638,4638,4638,4638,4638,4638,4638,4638,4638,4638,4638,4638,4638,21210,21210,21210,21210,21210,21210,29225,29226,29226,29226,29226,29227,21210,21210,21210,21210,21210,4638,4638,4638,4638,4638,4638,4638,4638,4638,4638,4638,4638,4638,4638,4638,4638,4638,4638,4638,4638,4638,4638,4638,4638,4638,4638,4638,4638,4638,4638,21210,21210,21210,21210,4635,4635,4635,4635,4635,4629,4629,4629,4629,4629,4629,4629,
3951,3951,3951,3951,3951,3951,3951,3951,3951,3951,3951,4638,4638,4638,4638,4638,4638,4638,4638,4638,4638,4638,4638,4638,4638,4638,4638,4638,21210,21210,21210,21210,21210,21210,21210,29262,29263,29263,29263,29263,29264,21210,21210,21210,21210,21210,21210,21210,4638,4638,4638,4638,4638,4638,4638,4638,4638,4638,4638,4638,4638,4638,4638,4638,4638,4638,4638,4638,4638,4638,4638,4638,4638,4638,4638,4638,21210,21210,21210,21210,4635,4635,4635,4635,4635,4629,4629,4629,4629,4629,4629,4629,
3951,3951,3951,3951,3951,3951,3951,3951,3951,3951,3951,4638,4638,4638,4638,4638,4638,4638,4638,4638,4638,4638,4638,4638,4638,4638,4638,21210,21210,21210,21210,21210,21210,3224,4635,29262,29263,29264,29262,29263,29264,4635,4635,4635,21210,21210,21210,21210,21210,21210,4638,4638,4638,4638,4638,4638,4638,4638,4638,4638,4638,4638,4638,4638,4638,4638,4638,4638,4638,4638,4638,4638,4638,4638,4638,21210,21210,21210,21210,21210,4635,4635,4635,4635,4629,4629,4629,4629,4629,4629,4629,4629,
3951,3951,3951,3951,3951,3951,3951,3951,4638,4638,4638,4638,4638,4638,4638,4638,4638,4638,4638,4638,4638,4638,4638,4638,4638,4638,21210,21210,21210,4635,4635,4635,4635,4635,4635,29262,29263,29263,29263,29263,29264,4635,4635,4635,4635,21210,21210,21210,21210,21210,4638,4638,4638,4638,4638,4638,4638,4638,4638,4638,4638,4638,4638,4638,4638,4638,4638,4638,4638,4638,4638,4638,4638,4638,21210,21210,21210,21210,21210,21210,4635,4635,4635,4635,4629,4629,4629,4629,4629,4629,4629,4629,
3951,3951,3951,3951,3951,3951,3951,3951,4638,4638,4638,4638,4638,4638,4638,4638,4638,4638,4638,4638,4638,4638,4638,4638,4638,21210,21210,21210,4635,4635,4635,4635,4635,4635,4635,29262,29263,29263,29263,29263,29264,4635,4635,4635,4635,21210,21210,21210,21210,21210,21210,21210,21210,21210,21210,21210,21210,4638,4638,4638,4638,4638,4638,4638,4638,4638,4638,4638,4638,4638,21210,21210,21210,21210,21210,21210,21210,21210,21210,21210,4635,4635,4635,4635,4629,4629,4629,4629,4629,4629,4629,4629,
3951,3951,3951,3951,3951,4638,4638,4638,4638,4638,4638,4638,4638,4638,4638,4638,4638,4638,4638,4638,4638,4638,4638,4638,4638,21210,21210,21210,4635,4635,4635,4635,4635,4635,4635,29262,29263,29264,29262,29263,29264,4635,4635,4635,4635,4635,4635,4635,4635,21210,21210,21210,21210,21210,21210,21210,21210,21210,21210,21210,21210,21210,21210,21210,21210,21210,21210,21210,21210,21210,21210,21210,21210,21210,21210,21210,21210,21210,4635,4635,4635,4635,4635,4629,4629,4629,4629,4629,4629,4629,4629,4629,
3951,4638,4638,4638,4638,4638,4638,4638,4638,4638,4638,4638,4638,4638,4638,4638,4638,4638,4638,4638,4638,4638,4638,4638,21210,21210,21210,21210,4635,4635,4635,4635,4635,4635,4635,29262,29263,29263,29263,29263,29264,4635,4635,4635,4635,4635,4635,4635,4635,4635,4635,4635,4635,21210,21210,21210,21210,21210,21210,21210,21210,21210,21210,21210,21210,21210,21210,21210,21210,21210,21210,21210,4635,4635,4635,4635,4635,4635,4635,4635,4635,4635,4635,4629,4629,4629,4629,4629,4629,4629,4629,4629,
3951,4638,4638,4638,4638,4638,4638,4638,4638,4638,4638,4638,4638,4638,4638,4638,4638,4638,4638,4638,4638,4638,21210,21210,21210,21210,21210,4635,4635,4635,4635,4635,4635,4635,4635,29262,29263,29263,29263,29263,29264,4635,4635,4635,4635,4635,4635,4635,4635,4635,4635,4635,4635,4635,4635,4635,4635,4635,21210,21210,21210,21210,21210,21210,21210,21210,21210,21210,4635,4635,4635,4635,4635,4635,4635,4635,4635,4635,4635,4635,4635,4635,4635,4629,4629,4629,4629,4629,4629,4629,4629,4629,
4638,4638,4638,4638,4638,4638,4638,4638,4638,4638,4638,4638,4638,4638,4638,4638,4638,4638,4638,4638,4638,21210,21210,21210,21210,4635,4635,4635,4635,4635,4635,4635,4635,4635,4635,29262,29263,29264,29262,29263,29264,4635,4635,4635,4635,4635,4635,4635,4635,4635,4635,4635,4635,4635,4635,4635,4635,4635,4635,4635,4635,21745,21746,21747,4635,4635,4635,4635,4635,4635,4635,4635,4635,4635,4635,4635,4635,4635,4635,4635,4635,4635,4635,4629,4629,4629,4629,4629,4629,4629,4629,4629,
4638,4638,4638,4638,4638,4638,4638,4638,4638,4638,4638,4638,4638,4638,4638,4638,4638,4638,4638,4638,21210,21210,21210,21210,21210,4635,4635,4635,4635,4635,4635,4635,4635,3224,4635,29262,29263,29263,29263,29263,29264,4635,4635,4635,4635,4635,4635,4635,4635,4635,4635,21746,4635,4635,4635,4635,4635,4635,4635,4635,4635,21745,21746,21747,4635,4635,4635,4635,4635,4635,4635,4635,4635,4635,4635,4635,4635,4635,4635,4635,4635,4635,4635,4629,4629,4629,4629,4629,4629,4629,4629,4629,
4638,4638,4638,4638,4638,4638,4638,4638,4638,4638,4638,4638,4638,4638,4638,4638,4638,4638,4638,21210,21210,21210,4635,4635,4635,4635,4635,4635,4635,4635,4635,4635,4635,4635,4635,29262,29263,29263,29263,29263,29264,4635,4635,4635,4635,4635,4635,4635,4635,4635,4635,21746,4635,4635,4635,4635,4635,4635,4635,4635,4635,21745,21746,21747,4635,4635,4635,4635,4635,4635,4635,4635,21737,4635,4635,21739,4635,4635,4635,4635,4635,4635,4635,4629,4629,4629,4629,4629,4629,4629,4629,4629,
4638,4638,4638,4638,4638,4638,4638,4638,4638,4638,4638,4638,4638,4638,21210,21210,21210,21210,21210,21210,21210,4635,4635,4635,4635,4635,4635,4635,4635,4635,4635,4635,4635,3224,4635,29262,29263,29264,29262,29263,29264,4635,4635,4635,4635,4635,4635,4635,4635,21737,21855,21746,21856,21738,21738,21738,21738,21738,21738,21738,21738,21855,21746,21856,21738,21739,4635,4635,4635,4635,4635,4635,21745,21746,21746,21747,4635,4635,4635,4635,4635,4635,4635,4629,4629,4629,4629,4629,4629,4629,4629,4629,
4638,4638,4638,4638,4638,4638,4638,4638,4638,4638,4638,4638,4638,21210,21210,21210,21210,21210,21210,4635,4635,4635,4635,4635,4635,4635,4635,4635,4635,4635,4635,4635,4635,4635,4635,29262,29263,29263,29263,29263,29264,4635,4635,4635,4635,4635,4635,4635,4635,21753,21754,21754,21754,21754,21754,21754,21754,21754,21746,21746,21746,21746,21746,21746,21746,21879,21738,21738,21738,21738,21738,21738,1610634615,21746,21746,21747,4635,4635,4635,4635,4635,4635,4635,4629,4629,4629,4629,4629,4629,4629,4629,4629,
4638,4638,4638,4638,4638,4638,4638,4638,4638,4638,4638,4638,21210,21210,21210,4635,3224,4635,4635,4635,4635,3224,4635,4635,4635,4635,4635,4635,4635,4635,4635,4635,4635,3224,4635,29262,29263,29263,29263,29263,29264,4635,4635,4635,4635,4635,4635,4635,4635,4635,4635,4635,4635,4635,4635,4635,4635,4635,4635,21746,21746,21746,21746,21746,21746,21746,21754,21754,21754,21754,21754,21754,21754,21754,21754,21755,4635,4635,4635,4635,4635,4635,4629,4629,4629,4629,4629,4629,4629,4629,4629,4629,
4638,4638,4638,4638,4638,4638,4638,4638,4638,4638,4638,4638,21210,21210,21210,4635,4635,4635,3224,4635,4635,4635,4635,4635,4635,4635,4635,4635,4635,4635,4635,4635,4635,4635,4635,29262,29263,29264,29262,29263,29264,4635,4635,4635,4635,4635,4635,4635,4635,4635,4635,4635,4635,4635,4635,4635,4635,4635,4635,4635,21746,21745,21746,21746,21746,4635,4635,4635,4635,4635,4635,4635,4635,4635,4635,4635,4635,4635,4635,4635,4635,4635,4629,4629,4629,4629,4629,4629,4629,4629,4629,4629,
4638,4638,4638,4638,4638,4638,4638,4638,4638,4638,21210,21210,21210,21210,4635,4635,4635,4635,4635,4635,4635,4635,4635,4635,4635,4635,4635,4635,4635,4635,4635,4635,4635,4635,4635,29262,29263,29263,29263,29263,29264,4635,4635,4635,4635,4635,4635,4635,4635,4635,4635,4635,4635,4635,4635,4635,4635,4635,4635,4635,4635,21745,21746,21746,21746,4635,4635,4635,4635,4635,4635,4635,4635,4635,4635,4635,4635,4635,4635,4635,4635,4635,4629,4629,4629,4629,4629,4629,4629,4629,4629,4629,
4638,4638,4638,4638,4638,4638,4638,4638,4638,4638,21210,21210,21210,4635,4635,4635,4635,4635,4635,4629,4629,4635,4635,4635,4635,4635,4635,4635,4635,4635,4635,4635,4635,4635,4635,29262,29263,29263,29263,29263,29264,21737,21746,21739,4635,4635,4635,4635,4635,4635,4635,4635,4635,4635,4635,4635,4635,21737,21746,21746,21739,21745,21746,21746,21746,21746,21746,21739,4635,4635,4635,4635,4635,4635,4635,4635,4635,4635,4635,4635,4629,4629,4629,4629,4629,4629,4629,4629,4629,4629,4629,4629,
4638,4638,4638,4638,4638,4638,4638,4638,4638,21210,21210,4635,4635,4635,4635,4635,4635,4635,4635,4629,4629,4629,4629,4629,4635,4635,4635,4635,4635,4635,4635,4635,4635,3224,4635,29262,29263,29264,29262,29263,29264,21745,21746,21879,21738,21738,21738,21738,21738,21738,21738,21738,21738,21738,21738,21738,21738,1610634615,21746,21746,21879,1610634615,21746,21746,21746,21746,21746,21747,4635,4635,4635,4635,4635,4635,4635,4635,4635,4635,4635,4635,4629,4629,4629,4629,4629,4629,4629,4629,4629,4629,4629,4629,
4638,4638,4638,4638,4638,4638,4638,21210,21210,21210,21210,4635,4635,4635,4635,4635,4635,4635,4635,4635,4635,4635,4635,4635,4635,4635,4635,4635,4635,4635,4635,4635,4635,4635,4635,29262,29263,29263,29263,29263,29264,21753,21754,21754,21754,21754,21754,21754,21754,21754,21754,21754,21754,21754,21754,21754,21754,21754,21754,21754,21754,21754,21754,21754,21754,21754,21754,21755,4635,4635,4635,4635,4635,4635,4635,4635,4635,4635,4635,4635,4629,4629,4629,4629,4629,4629,4629,4629,4629,4629,4629,4629,
4638,4638,4638,4638,4638,4638,21210,21210,21210,21210,4635,4635,4635,4635,4635,285,286,287,4635,4635,4635,4635,4635,4635,4635,4635,4635,4635,4635,4635,4635,4635,4635,3224,4635,29262,29263,29263,29263,29263,29264,4635,4635,4635,4635,4635,4635,4635,4635,4635,4635,4635,4635,4635,4635,4635,4635,4635,4635,4635,4635,4635,4635,4635,4635,4635,4635,4635,4635,4635,4635,4635,4635,4635,4635,4635,4635,4635,4629,4629,4629,4629,4629,4629,4629,4629,4629,4629,4629,4629,4629,4629,
4638,4638,4638,4638,4638,21210,21210,21210,4635,4635,4635,4635,4635,4635,4635,4635,4635,4635,4635,4635,4635,4635,4635,4635,4635,285,286,287,4635,4635,4635,4635,4635,4635,4635,29262,29263,29264,29262,29263,29264,4635,4635,4635,4635,4635,4635,4635,4635,4635,4635,4635,4635,4635,4635,4635,4635,4635,4635,4635,4635,4635,4635,4635,4635,4635,4635,4635,4635,4635,4635,4635,4635,4635,4635,4635,4635,4635,4629,4629,4629,4629,4629,4629,4629,4629,4629,4629,4629,4629,4629,4629,
4638,4638,4638,4638,21210,21210,21210,21210,4635,4635,4635,4635,4635,4635,4635,4635,4635,4635,4635,4635,4635,4635,4635,4635,4635,4635,4635,4635,4635,4635,4635,4635,4635,4635,4635,29262,29263,29263,29263,29263,29264,4635,4635,4635,4635,4635,4635,4635,4635,4635,4635,4635,4635,4635,4635,4635,4635,4635,4635,4635,4635,4635,4635,4635,4635,4635,4635,4635,4635,4635,4635,4635,4635,4629,4629,4629,4629,4629,4629,4629,4629,4629,4629,4629,4629,4629,4629,4629,4629,4629,4629,4629
</data>
 </layer>
 <layer name="Layer 2" width="92" height="96">
  <data encoding="csv">
5628,0,0,3952,3814,0,0,0,0,0,0,0,0,21204,21204,0,0,0,0,0,4637,0,0,0,0,0,4497,5058,0,0,0,0,0,4639,4639,0,0,4637,4777,4918,0,0,9089,9090,0,0,0,0,0,0,0,0,2949,0,0,0,0,0,0,0,0,0,0,0,0,0,8809,8810,0,0,0,0,0,4639,4639,0,0,2944,5346,0,3812,3953,0,0,0,0,3225,3225,0,0,3225,3225,
5488,0,0,3674,0,0,0,0,0,0,0,0,0,0,21204,0,0,0,4497,4498,5058,0,3250,0,0,4497,5058,0,0,0,0,0,0,4639,4639,0,4497,5058,0,4637,0,0,0,0,0,0,0,0,0,0,0,0,0,0,0,0,0,0,0,3252,3252,0,0,0,0,0,8949,8950,0,0,0,0,0,4639,4639,0,0,3924,0,0,0,3672,0,0,3225,0,0,3225,0,0,0,0,
5628,0,0,3674,0,0,0,0,0,0,0,5346,0,0,21204,0,0,0,4637,0,0,0,0,0,4497,5058,0,0,0,0,0,8809,8810,4639,5057,4498,5058,4497,4498,5058,0,0,0,0,0,0,2949,0,0,0,0,0,0,0,0,0,0,0,0,3252,0,0,0,0,0,0,9089,9090,0,0,0,0,0,4639,5057,4499,0,0,0,0,0,3812,3953,0,0,0,0,0,3225,0,3225,0,
0,0,0,3674,0,0,0,0,0,0,0,0,0,0,0,0,0,0,4637,0,0,0,0,4497,5058,0,0,0,0,0,0,8949,8950,5057,4499,4497,4498,5058,0,0,0,0,0,0,0,0,0,0,0,0,0,0,0,0,0,0,0,0,0,0,0,0,0,0,0,0,0,0,0,0,0,0,0,5057,4499,4639,0,0,0,0,0,0,3812,3953,0,3225,0,0,3225,3225,0,3225,
0,0,0,3674,0,0,0,0,0,0,5346,0,0,0,0,0,0,0,4637,0,0,0,0,4637,0,0,0,0,0,0,0,9089,9090,0,5057,5058,0,0,0,0,0,0,0,0,0,0,0,0,0,0,0,0,0,0,0,0,0,0,0,0,0,0,0,0,0,0,0,0,0,0,0,0,0,0,4639,5057,4499,0,2810,0,2944,2944,0,3672,0,0,0,5346,0,0,0,0,
0,21204,0,3674,0,0,0,0,0,0,0,0,0,0,0,0,4497,4498,5058,0,0,0,4497,5058,0,0,0,0,0,8809,8810,0,0,0,2949,0,0,0,0,0,0,0,2949,0,0,0,0,0,0,0,0,0,0,0,0,0,0,0,0,0,0,0,0,0,0,0,0,0,0,0,0,0,0,0,5057,4499,4639,0,0,0,0,2944,0,3812,3953,0,0,0,0,0,3225,0,
0,21204,0,3674,0,0,0,0,0,0,0,0,0,0,0,0,4637,0,0,0,0,0,4637,0,0,0,0,0,0,8949,8950,0,0,0,0,0,0,0,0,0,0,0,0,0,0,0,0,0,0,0,0,33823,33823,33823,33823,33823,33823,33823,0,0,0,0,0,0,0,0,0,0,0,0,0,0,0,0,0,4639,4639,0,0,3924,0,0,0,0,3812,3812,3953,0,0,0,0,0,
0,21204,0,3674,0,0,0,0,0,0,0,0,0,0,0,0,4637,0,0,0,21204,0,4637,0,0,0,0,0,0,9089,9090,0,0,0,0,0,0,0,0,3250,0,0,0,0,0,0,0,0,0,0,33823,33823,0,0,0,0,0,33823,33823,33823,33823,0,0,0,0,0,0,0,0,0,0,0,0,0,0,4639,5057,4499,0,0,2810,2810,2944,0,0,0,3812,3813,3813,5346,3813,3813,
3225,0,0,4092,3534,0,0,0,0,0,0,21204,0,0,0,0,4637,0,0,0,21204,0,4637,0,0,0,0,0,0,0,0,0,0,0,0,0,0,0,0,0,0,0,0,0,0,0,0,0,0,33823,33823,0,2949,0,21056,0,0,0,0,0,33823,33823,33823,33823,0,0,0,0,0,0,0,0,0,0,0,5057,4499,5057,4499,0,0,0,2944,0,0,3924,0,0,0,0,0,0,
0,0,0,0,3674,0,0,0,0,0,0,0,21204,0,0,0,4777,4778,4918,0,0,0,4777,4918,0,0,0,0,21204,0,0,0,0,0,0,0,0,0,0,3250,0,0,0,0,0,0,0,33823,33823,33823,0,0,0,0,21064,0,0,0,0,0,0,0,0,33823,33823,33823,33823,0,0,0,0,0,0,0,0,0,5057,4499,5057,4499,0,0,0,0,0,0,0,2944,2944,0,0,0,
0,0,0,0,3674,0,0,0,0,0,0,0,21204,21204,0,0,0,0,4637,0,0,0,0,4777,4918,0,0,0,21204,0,0,0,0,0,0,8809,8810,0,0,0,0,0,0,0,0,0,33823,33823,0,2819,0,0,0,0,0,0,0,0,0,0,0,0,0,0,0,0,33823,0,0,0,0,0,0,0,0,0,0,5057,4499,4639,0,0,3924,0,0,2944,0,0,0,0,4497,4498,
3225,5485,0,0,3674,0,0,0,0,0,0,0,0,0,0,0,0,0,4777,4778,4778,4918,0,0,4777,4918,0,0,0,0,0,0,0,8809,8810,8949,8950,0,0,0,0,0,0,0,0,0,33823,33823,33823,33823,33823,33823,33823,0,2949,0,0,0,0,0,0,0,0,0,2819,0,33823,0,0,0,0,0,0,0,0,0,0,0,4639,5057,4498,4499,0,0,0,0,0,0,0,4497,5058,0,
0,5485,0,0,3674,0,0,0,0,0,0,0,0,0,0,0,0,0,0,0,0,4637,0,0,0,4777,4778,4918,0,0,0,0,0,8949,8950,9089,9090,0,0,0,0,0,0,0,0,0,0,0,0,0,0,0,33823,33823,33823,33823,0,0,0,0,0,0,0,0,0,0,33823,33823,0,0,0,0,0,0,0,0,0,0,5057,4498,4499,5057,4498,4498,4498,4498,4498,4498,4498,5058,0,0,
0,0,0,0,3674,0,0,0,0,0,0,0,0,0,0,0,0,0,0,0,0,4637,0,0,3250,0,0,4777,4778,4918,0,0,0,9089,9090,0,0,0,0,0,0,0,0,0,0,0,0,0,0,0,0,0,0,0,0,33823,33823,33823,0,0,0,0,0,0,0,0,0,33823,33823,0,0,0,0,0,3252,0,0,0,0,0,4639,0,0,0,0,0,0,0,0,0,0,0,
5625,0,0,0,3674,0,0,0,0,0,0,0,0,0,0,0,0,0,0,0,0,4777,4918,0,0,0,0,0,0,4777,4918,0,0,0,0,4917,4918,0,0,0,0,0,0,0,0,0,0,0,0,0,0,0,0,0,0,0,0,33823,33823,0,0,0,0,0,0,0,0,0,33823,0,0,0,0,0,0,0,0,0,0,0,5057,4498,4498,4498,4498,4499,0,4497,4498,4498,4498,4498,
0,21204,0,3952,3814,0,0,0,5346,0,0,0,0,0,0,0,21204,0,0,0,0,0,4637,0,0,0,0,0,0,0,4637,0,0,0,4917,4779,4637,0,0,0,2810,0,0,8249,8250,0,0,0,0,0,0,0,0,0,0,0,0,0,33823,0,0,2684375624,2684375616,0,0,0,0,0,33823,33823,0,0,0,0,0,0,0,8809,8810,0,0,0,0,0,0,5057,4498,5058,0,0,0,0,
21204,21204,0,3674,0,0,0,0,0,0,0,0,0,0,0,0,21204,0,0,0,0,0,4637,0,0,3250,0,0,4497,4498,5058,0,0,0,4639,0,4637,0,0,0,0,0,0,8389,8390,0,0,0,0,0,0,0,0,3252,0,0,0,0,33823,0,0,0,0,0,0,0,0,0,0,33823,0,0,0,0,0,3252,0,8949,8950,0,0,0,0,0,0,0,0,0,0,0,0,0,
21204,0,3952,3814,0,0,0,0,0,0,0,0,0,0,0,0,21204,0,0,0,0,0,4777,4918,0,0,0,0,4637,0,0,0,0,0,5057,4498,5058,0,0,0,0,0,8249,8250,0,0,0,0,0,0,0,0,0,0,0,0,0,0,33823,33823,0,0,0,0,0,21056,21056,0,0,33823,0,0,0,0,0,0,0,9089,9090,0,0,0,0,0,0,0,3250,0,0,0,0,0,
0,3952,3814,0,0,0,0,0,0,0,21204,21204,0,0,0,0,0,0,0,0,0,0,0,4637,0,0,21204,0,4777,4918,0,0,0,0,0,0,0,0,0,0,0,0,8389,8390,0,0,0,2972,2973,0,0,0,0,0,0,0,3250,0,0,33823,0,0,0,0,0,21064,21064,0,0,33823,0,0,8809,8810,0,0,0,0,0,0,0,0,3250,0,0,0,0,0,0,0,0,0,
3952,3814,0,0,5346,0,0,0,0,0,21204,0,0,0,0,0,0,0,0,0,0,0,4497,5058,0,0,0,0,4497,5058,0,0,0,0,0,0,0,0,0,0,0,0,0,0,0,0,0,3112,3113,0,0,0,0,0,0,0,0,0,0,33823,0,0,2819,0,0,0,0,0,0,33823,0,0,8949,8950,0,0,0,0,0,0,0,0,0,0,0,0,3114,3115,0,0,0,0,
3814,0,0,0,0,0,0,0,0,21204,21204,0,0,0,0,0,0,0,0,4497,4498,4498,5058,0,0,0,0,4497,5058,0,0,0,0,0,0,0,0,3251,0,0,0,0,0,0,0,0,0,0,0,0,0,0,0,0,0,0,3250,2810,0,33823,33823,0,0,0,0,0,0,0,0,33823,0,0,9089,9090,0,0,0,0,0,0,0,3114,3115,0,0,0,0,0,0,0,0,0,
0,0,0,0,0,0,0,0,0,0,0,0,0,0,0,0,0,0,0,4637,0,0,0,0,0,4497,4498,5058,0,0,0,0,0,0,0,0,0,0,0,0,0,0,2810,0,0,0,0,0,0,0,2972,2973,0,0,0,0,0,0,0,0,33823,0,0,0,0,0,0,0,0,33823,0,0,0,0,0,0,0,0,0,3250,3250,0,0,0,0,3114,3115,0,0,0,0,0,
0,0,0,0,0,0,0,0,0,0,0,0,0,0,4497,4498,4498,4498,4498,5058,3250,0,0,0,4497,5058,0,0,0,0,0,0,0,3251,0,0,3251,0,0,0,0,0,0,0,0,0,0,0,0,0,3112,3113,0,0,0,0,0,0,0,0,33823,0,0,0,0,2819,0,0,0,33823,0,0,0,0,0,0,0,0,0,3114,3115,0,0,0,0,0,0,3252,0,0,0,0,
0,0,0,0,0,0,0,0,0,0,0,4497,4498,4498,5058,0,0,0,0,0,0,4497,4498,4498,5058,0,0,0,0,0,0,2810,0,0,0,0,0,0,0,0,0,0,0,0,0,0,0,0,0,0,0,0,0,0,0,0,0,0,0,0,33823,2949,0,0,0,0,0,0,33823,33823,0,0,0,0,3250,0,0,0,0,0,0,0,3114,3115,0,0,0,0,0,0,0,0,
0,0,0,0,0,0,0,0,0,0,0,4637,0,0,0,3250,0,0,0,4497,4498,5058,0,0,0,0,0,0,0,0,0,0,0,0,0,0,0,0,0,0,0,0,0,0,0,0,0,0,0,0,0,0,0,0,0,0,0,0,0,0,33823,0,0,0,0,0,0,0,33823,0,0,0,0,3250,0,0,0,0,0,0,0,0,0,0,0,0,0,0,0,2974,2975,0,
0,0,0,0,0,0,0,0,0,0,0,4637,0,0,0,0,0,4497,4498,5058,0,0,0,0,0,0,0,0,3252,0,0,0,0,0,0,0,0,0,0,0,0,0,33823,33823,33823,33823,0,0,0,0,0,0,0,0,0,0,0,0,0,0,33823,0,0,0,0,0,0,33823,33823,0,0,0,3114,3115,0,0,0,0,0,0,0,0,0,0,0,0,0,0,0,3114,3115,0,
0,21204,0,0,0,0,0,0,0,4497,4498,5058,0,4497,4498,4498,4498,5058,0,0,0,0,8809,8810,0,0,0,0,0,0,0,0,0,0,0,0,0,33823,33823,33823,33823,33823,33823,0,0,33823,33823,33823,0,0,0,0,0,0,0,0,3251,0,0,0,33823,0,2684375624,2684375616,0,0,21056,33823,0,0,0,0,3114,3115,0,0,3114,3115,0,0,0,0,0,0,0,0,0,0,0,0,0,4917,
0,21204,21204,0,0,5346,5346,0,0,4637,0,0,0,4637,0,0,0,0,0,0,0,0,8949,8950,8809,8810,0,0,0,0,0,0,0,0,0,0,33823,33823,21204,0,3228,0,0,0,3228,0,0,33823,0,0,0,0,0,0,0,0,0,0,0,0,33823,0,0,0,0,0,21064,33823,0,0,0,0,0,0,0,0,0,0,0,0,0,0,0,0,0,0,0,0,0,4917,4778,4779,
0,0,0,0,0,0,0,0,0,4637,0,0,0,4637,21204,0,0,0,0,0,0,0,9089,9090,8949,8950,0,0,0,0,0,3252,0,0,33823,33823,33823,0,0,0,4494,4495,4495,4495,4495,4496,0,33823,33823,33823,33823,0,0,0,0,0,0,0,0,0,33823,0,0,0,0,0,0,33823,0,0,0,0,0,0,0,0,0,0,4917,4778,4778,4778,4778,4778,4778,4778,4778,4778,4778,4779,0,4917,
0,0,0,0,0,0,0,0,0,4637,0,0,0,4637,0,21204,0,0,0,0,2810,0,0,0,9089,9090,0,0,0,0,0,0,33823,33823,33823,0,0,0,4494,4495,5055,0,0,0,0,5054,4496,0,0,0,33823,0,0,0,0,0,0,0,0,0,33823,0,0,2949,0,0,33823,33823,0,0,0,0,0,0,0,0,4917,4778,4779,0,0,0,0,0,0,0,0,0,4917,4778,4778,4779,
0,0,0,0,0,0,4497,4498,4498,5058,0,0,0,4637,0,0,0,0,0,0,0,0,0,3252,0,0,0,0,0,0,0,33823,33823,0,0,0,0,4494,5055,0,29817,0,29817,29817,29817,29817,5054,4496,21204,0,33823,0,0,0,0,0,0,0,0,0,33823,0,0,0,0,0,33823,0,0,0,3114,3115,0,0,0,0,4639,0,0,0,4917,4778,4778,4778,4778,4778,4778,4778,4779,0,0,0,
0,5346,0,0,0,0,4637,0,0,3228,0,0,0,4777,4918,0,0,3228,0,0,0,0,3252,3252,0,0,0,0,0,0,33823,33823,0,0,0,0,4494,5055,29817,29817,0,0,29817,29817,29817,0,0,4636,0,0,33823,0,0,0,0,0,0,0,0,0,33823,33823,33823,33823,33823,33823,33823,0,0,0,0,0,0,0,4917,4778,4779,0,4917,4778,4779,0,0,0,0,0,0,2944,2944,2944,0,0,
0,0,0,0,0,0,4637,0,0,0,0,0,0,0,4637,0,0,3228,3252,0,0,0,0,0,0,0,0,0,33823,33823,33823,0,4494,4495,4496,0,4634,0,29817,29817,29817,29817,0,29817,29817,29817,4914,4776,0,33823,33823,0,3250,0,0,0,3252,0,0,0,0,0,33823,33823,0,0,0,0,0,0,0,0,0,4917,4779,4917,4778,4778,4779,0,0,3924,3924,0,0,0,0,0,0,0,0,0,
0,0,0,0,0,0,4637,0,3228,0,0,0,0,0,4777,4918,0,0,0,0,0,0,0,0,0,33823,33823,33823,33823,0,0,0,4634,4635,4636,3228,4634,0,0,29817,29817,29817,29817,0,0,0,4636,0,0,33823,0,0,0,0,0,0,0,0,0,0,0,0,0,0,0,0,0,0,0,0,0,0,4917,4779,4917,4779,0,0,0,0,0,3924,0,0,0,0,0,0,0,0,0,0,
0,0,0,0,0,0,4637,0,3228,0,0,0,0,4497,4498,5058,0,0,2972,2973,0,0,0,0,33823,33823,0,0,0,0,0,4494,4914,4775,4776,3228,4634,29817,29817,0,29817,29817,29817,29817,0,0,4636,0,0,33823,0,3250,0,0,0,0,0,0,0,0,0,0,0,0,0,0,0,0,0,0,0,4917,4779,0,4639,0,0,0,2944,0,3924,0,0,0,0,0,0,0,0,0,0,0,
0,0,0,0,0,4497,5058,0,0,0,4497,4498,4498,5058,0,0,0,0,3112,3113,0,0,33823,33823,33823,1582,1583,1584,0,0,0,4774,4776,0,3228,0,4774,4915,0,29817,29817,29817,29817,0,4914,4775,4776,0,33823,33823,0,0,0,0,0,0,0,0,0,0,0,0,0,0,0,0,0,0,0,0,0,4639,4917,4778,4779,0,2944,2944,0,0,0,0,0,0,0,0,22795,22796,22797,0,0,3225,
0,0,0,0,0,4637,0,2972,2973,0,4637,0,0,0,3228,4917,4918,0,0,0,0,0,33823,3228,0,0,0,0,0,0,0,0,0,0,0,0,0,4774,4775,4915,0,0,0,4914,4776,0,0,0,33823,0,0,0,0,0,0,0,0,0,0,0,0,0,0,0,8249,8250,0,0,0,0,0,4639,4639,0,0,0,2944,0,0,0,0,0,0,0,3225,23265,23266,23266,23267,23268,0,3225,
0,0,0,0,0,4637,0,3112,3113,0,4637,0,0,0,4917,4779,4637,0,0,0,0,33823,33823,0,0,0,0,0,0,0,0,0,0,0,0,0,0,0,0,4774,4775,4775,4775,4776,0,0,0,33823,33823,0,0,0,0,0,0,0,0,0,0,0,0,0,8249,8250,8389,8390,0,0,0,0,0,4639,4639,0,0,0,0,0,2810,0,0,0,0,0,0,23273,23274,23274,23275,23276,0,0,
21204,21204,0,0,0,4637,0,0,0,4497,5058,0,0,0,4639,0,4637,0,0,0,33823,33823,0,0,0,0,4494,4495,4495,4496,0,0,0,0,0,0,21204,21204,0,0,0,0,0,0,0,0,33823,33823,0,0,0,0,0,0,0,0,0,0,0,0,0,0,8389,8390,0,0,0,2810,0,0,0,4639,5057,4498,4499,0,0,0,0,0,0,0,0,0,0,23281,23282,23282,23283,23284,0,0,
21204,0,0,0,4497,5058,0,0,0,4637,0,0,0,0,5057,4498,5058,0,0,33823,33823,1582,1583,1584,4494,4495,5055,0,0,5054,4496,0,21204,0,0,0,0,0,0,0,0,33823,33823,33823,33823,33823,33823,0,0,0,0,0,0,0,0,0,0,0,0,0,0,0,0,0,0,0,0,0,0,0,0,5057,4498,4499,4639,0,0,0,0,0,0,0,0,0,0,23289,23290,23290,23291,23292,0,0,
0,0,0,0,4637,0,0,0,0,4637,0,0,0,3228,0,0,0,0,0,33823,21204,0,0,4494,5055,0,0,0,0,0,4636,0,0,0,0,33823,33823,33823,33823,33823,33823,33823,0,0,0,0,0,0,0,0,4917,4778,4778,4918,0,0,0,0,0,0,0,0,0,0,0,0,0,0,0,0,0,0,0,4639,4639,0,0,0,0,0,0,0,0,0,0,3225,3225,3225,0,0,3225,3225,
0,0,0,0,4637,0,0,0,0,4637,0,0,0,0,0,0,0,0,33823,33823,0,4494,4495,5055,0,0,0,0,29147,0,4636,0,0,33823,33823,33823,0,0,0,0,0,0,0,0,0,0,0,0,0,0,4639,0,0,4637,0,0,0,0,0,0,0,0,0,0,0,0,0,0,0,8809,8810,0,0,4639,5057,4499,0,0,0,3924,3924,0,0,0,0,0,0,0,0,0,0,0,
0,0,0,0,4637,0,0,0,0,4637,8809,8810,0,0,2972,2973,0,0,33823,0,4494,5055,0,0,0,0,0,0,0,4914,4776,33823,33823,33823,0,0,0,0,0,0,0,0,0,0,0,0,0,0,0,0,4639,0,4497,5058,0,0,0,0,0,0,0,0,0,0,0,0,0,0,0,8949,8950,0,0,5057,4499,4639,0,0,0,0,0,0,0,0,0,0,0,0,0,0,0,0,
0,0,0,0,4637,0,0,0,0,4637,8949,8950,0,0,3112,3113,0,0,33823,0,4634,0,0,0,0,0,0,0,4914,4776,0,33823,0,0,0,0,8249,8250,0,0,0,0,0,0,0,0,0,2810,0,0,5057,4498,5058,0,2972,2973,2972,2973,0,0,0,0,0,0,0,0,0,0,0,9089,9090,0,0,0,4639,5057,4498,4499,0,0,2944,0,0,0,0,0,0,0,0,0,0,0,
0,0,0,0,4637,0,0,0,0,4637,9089,9090,0,0,0,0,0,33823,33823,4494,5055,0,0,0,0,0,0,4914,4776,0,33823,33823,0,0,0,0,8389,8390,0,0,0,3252,0,0,0,0,0,0,0,0,0,0,0,0,3112,3113,3112,3113,0,0,0,0,0,33823,33823,33823,0,0,0,0,0,0,0,0,5057,4499,0,4639,0,0,0,2944,0,0,0,0,3924,0,0,4497,4498,4498,
0,0,0,4497,5058,0,0,0,0,4637,0,0,0,0,0,0,0,33823,4494,5055,0,0,0,0,0,0,4914,4776,0,0,33823,0,0,0,8249,8250,0,0,0,0,0,3252,0,0,0,0,0,0,0,0,0,0,0,0,0,0,0,0,0,0,0,0,33823,33823,0,33823,33823,33823,0,0,0,0,8809,8810,0,5057,4499,4639,0,0,0,0,0,0,0,2944,2944,0,0,4637,0,0,
0,0,0,4637,0,0,0,0,0,4777,4918,8809,8810,0,0,0,33823,33823,4634,0,0,0,0,0,0,0,4636,0,0,33823,33823,0,0,0,8389,8390,0,0,0,0,0,0,0,0,0,0,0,0,0,0,0,0,0,0,0,0,0,0,0,0,33823,33823,33823,0,4491,4493,0,33823,0,0,0,0,8949,8950,0,0,4639,5057,4499,0,0,0,0,0,0,2944,0,0,4497,5058,4497,4498,
0,0,0,4637,0,0,0,0,0,0,4637,8949,8950,0,0,0,33823,4494,5055,0,0,0,0,0,0,4914,4776,0,0,33823,0,0,0,0,0,0,2810,0,0,0,0,0,0,3252,0,0,0,33823,33823,33823,33823,33823,33823,33823,33823,0,0,0,33823,33823,33823,0,0,4491,5052,4773,0,33823,0,0,0,0,9089,9090,0,0,5057,4499,5057,4498,4498,4498,4498,4499,0,0,0,0,4637,0,4637,0,
0,0,0,4637,0,0,0,0,0,4497,5058,9089,9090,0,0,0,33823,4634,0,29147,0,0,0,0,0,4636,0,0,0,33823,0,0,0,0,0,0,0,0,0,0,0,0,0,0,0,0,33823,33823,0,0,0,0,0,0,33823,33823,33823,33823,33823,0,0,0,0,4771,4773,2946,2946,33823,0,0,0,0,0,0,0,0,0,5057,4498,4498,4498,4499,0,4639,0,0,0,0,4637,4497,5058,0,
0,0,0,4777,4918,0,0,0,0,4637,0,0,0,0,0,0,33823,4634,0,0,0,0,0,0,0,4636,0,0,0,33823,0,0,0,0,0,0,21204,0,0,0,0,0,0,0,0,33823,33823,0,0,0,0,2946,4494,4495,4495,4495,4495,4496,0,0,0,0,0,0,0,0,0,33823,0,0,0,0,0,0,0,0,0,0,0,0,0,5057,4499,5057,4498,4499,0,4497,5058,4637,0,0,
5346,0,0,0,4637,0,0,0,0,4637,0,0,0,0,0,0,33823,4634,29147,0,0,0,0,0,0,4636,0,0,0,33823,0,0,0,0,0,21204,21204,0,0,0,0,0,0,0,33823,33823,0,0,0,4494,4495,4495,5055,0,0,29817,29817,5054,4495,4495,4495,4496,0,0,0,0,33823,33823,0,0,0,0,0,0,0,0,0,0,0,0,0,0,5057,4499,0,4639,0,4637,4497,5058,0,0,
0,0,0,0,4637,0,0,0,0,4637,0,0,0,0,0,0,33823,4634,0,0,2665,0,0,2812,0,4636,0,0,0,33823,0,0,0,0,0,0,0,0,0,0,0,0,0,0,33823,0,0,0,4494,5055,2951,29826,0,29817,29826,29826,29826,29817,29817,29817,29817,5054,4496,0,0,33823,33823,0,0,0,0,0,0,0,0,2810,0,0,0,0,0,0,0,5057,4499,5057,4498,5058,4637,0,0,0,
5346,0,0,0,4637,0,0,0,0,4637,0,0,0,0,0,0,33823,4634,0,0,0,0,0,0,0,5054,4496,0,0,33823,0,0,0,0,0,4917,4778,4778,4918,0,0,0,0,33823,33823,0,0,4494,5055,29817,2951,0,29817,29817,0,29817,29817,29817,0,0,0,4914,4776,0,0,33823,0,0,0,0,0,0,0,0,0,0,0,0,0,0,0,21204,0,0,5057,4499,0,0,4637,0,0,21204,
5346,0,0,0,4777,4918,0,0,0,4637,0,0,0,0,0,0,33823,4774,4775,4915,2812,0,0,0,0,0,4636,0,0,33823,0,0,0,0,4917,4779,0,0,4777,4918,0,0,0,33823,0,0,2946,4634,1687,29817,29817,29817,0,29826,29826,0,2952,29817,0,4914,4775,4776,33823,33823,33823,33823,0,0,0,0,0,0,8249,8250,0,0,0,0,0,0,0,21204,0,0,0,4639,4497,4498,5058,0,0,21204,
0,0,0,0,0,4637,0,2972,2973,4637,0,0,0,0,0,0,33823,33823,0,4634,0,0,0,0,0,0,5054,4496,0,33823,0,0,0,0,4639,4917,4778,4778,4918,4637,0,0,0,33823,0,0,2946,4634,0,29817,0,29817,29826,29817,29817,29817,29817,29817,4914,4776,33823,33823,33823,0,0,0,0,0,0,0,0,0,8389,8390,0,0,0,0,0,0,0,0,0,0,0,5057,5058,0,0,21204,21204,21204,
0,0,0,0,0,4637,0,3112,3113,4637,0,0,0,0,0,0,0,33823,0,4634,0,0,0,0,0,0,0,4636,0,33823,0,0,0,0,4639,4639,21204,0,4637,4777,4918,0,0,33823,0,0,4494,5055,29817,29826,29826,0,29826,29817,0,29817,29817,2952,4636,33823,33823,0,0,0,0,0,0,0,0,0,0,0,0,0,0,0,0,8249,8250,0,0,0,0,0,0,0,0,0,0,21204,0,0,
0,0,0,0,0,4777,4918,0,0,4637,0,0,0,0,0,0,0,33823,0,4774,4915,0,0,29147,0,0,0,5054,4496,33823,33823,0,0,0,4639,4639,0,4497,5058,0,4637,0,0,33823,0,0,4634,29826,29817,0,29817,29817,29826,0,29826,29826,29817,29817,4636,33823,0,0,0,0,0,0,8249,8250,0,0,0,0,0,8249,8250,0,0,8389,8390,0,0,0,2972,2973,0,0,0,0,0,21204,0,0,
0,0,0,0,0,0,4637,0,0,4777,4918,0,0,0,0,0,0,33823,0,0,4634,0,29147,0,0,0,0,0,4636,0,33823,0,0,0,4639,5057,4498,5058,4497,4498,5058,0,0,33823,0,0,4774,4915,29817,29817,29817,29817,0,29826,29817,29817,0,29817,4636,33823,0,0,0,0,0,0,8389,8390,0,21204,0,0,0,8389,8390,0,0,0,0,0,0,0,3112,3113,0,0,0,0,0,21204,21204,0,
0,0,0,0,0,0,4637,0,0,0,4637,0,0,0,0,0,0,33823,33823,0,4634,0,0,0,0,0,29147,0,4636,0,33823,0,0,0,5057,4499,4497,4498,5058,0,0,0,0,33823,0,0,2946,4634,2951,0,0,29817,29817,0,0,2951,0,29817,4636,33823,0,0,0,0,0,0,0,0,21204,21204,0,0,0,0,0,0,0,0,0,0,0,0,2972,2973,0,0,0,0,0,0,0,21204,
0,0,0,0,0,0,4777,4918,0,0,4777,4918,0,0,0,0,0,0,33823,0,4634,0,21042,21042,21042,0,0,0,4636,0,33823,0,0,0,0,5057,5058,0,0,0,0,0,0,33823,33823,0,2946,4774,4775,4915,0,0,29817,0,29817,29826,0,0,4636,33823,0,0,0,0,0,0,0,0,21204,0,0,0,0,0,0,0,0,0,0,0,0,0,3112,3113,0,0,0,0,0,0,0,0,
0,0,0,0,0,0,0,4637,0,0,0,4777,4918,0,0,0,8809,8810,33823,33823,4774,4775,4915,0,0,2819,0,4914,4776,33823,33823,0,0,0,0,0,0,0,0,0,0,0,0,0,33823,0,0,0,0,4774,4775,4775,4915,29817,29817,29817,0,1687,4636,33823,0,0,0,0,0,0,0,0,0,0,0,0,0,0,0,0,0,0,0,0,0,0,0,0,0,0,0,0,0,0,0,0,
0,0,0,21204,0,0,0,4777,4918,2972,2973,0,4637,0,0,0,8949,8950,0,33823,33823,0,4774,4915,0,2830,29111,4636,0,33823,0,0,0,0,0,0,0,0,0,0,0,0,0,0,33823,33823,0,0,0,0,0,0,4634,0,2951,0,0,4914,4776,33823,0,0,0,0,0,0,0,0,0,0,0,0,0,0,0,0,0,0,0,0,0,0,0,0,0,0,0,0,0,0,0,0,
0,0,0,0,0,0,0,0,4637,3112,3113,0,4777,4918,0,0,9089,9090,0,0,33823,33823,0,4634,2819,0,4914,4776,0,33823,0,0,0,0,0,0,0,0,0,0,0,0,0,0,0,33823,33823,33823,33823,33823,0,0,4774,4915,0,4914,4775,4776,33823,33823,0,0,0,0,0,0,0,0,4917,4778,4778,4918,0,3114,3115,0,0,0,0,0,0,0,0,0,0,0,0,0,0,0,0,0,
0,0,0,0,0,0,0,0,4637,0,0,0,0,4637,0,0,0,0,0,0,0,33823,33823,4774,4915,4914,4776,0,33823,33823,0,0,0,0,0,0,0,0,0,0,0,0,0,0,0,0,0,0,0,33823,33823,33823,33823,4774,4775,4776,33823,33823,33823,0,0,0,0,0,0,0,0,4917,4779,0,0,4777,4918,0,0,0,3114,3115,0,0,0,0,0,0,0,0,0,0,0,0,0,0,
0,0,0,0,0,0,0,0,4777,4778,4918,0,0,4637,0,0,0,0,0,8809,8810,0,33823,0,4774,4776,0,33823,33823,0,0,0,0,0,0,0,0,0,0,0,0,0,0,0,0,0,0,0,0,0,0,0,33823,33823,33823,33823,33823,0,0,0,0,0,0,0,0,0,0,4639,4917,4778,4778,4918,4637,0,3114,3115,0,0,3114,3115,0,0,0,0,0,0,0,0,0,0,33823,33823,
0,0,0,0,0,0,0,0,0,0,4637,0,0,4777,4778,4918,0,0,0,8949,8950,0,33823,33823,33823,0,33823,33823,0,0,0,0,2810,0,0,4917,4778,4778,4918,0,0,0,2810,0,0,0,0,0,0,0,0,0,0,0,0,0,0,0,0,0,0,0,0,0,0,0,0,4639,4639,21204,0,4637,4777,4918,0,0,3114,3115,0,0,0,0,0,33823,33823,33823,33823,33823,33823,33823,33823,0,
0,0,0,0,0,0,5346,0,0,0,4777,4918,0,0,0,4777,4918,0,0,9089,9090,0,0,0,33823,33823,33823,0,0,0,0,0,0,0,0,4639,0,0,4637,0,0,0,0,0,0,0,0,0,0,0,0,0,0,0,8249,8250,0,0,0,0,0,0,0,3114,3115,0,0,4639,4639,0,4497,5058,0,4637,0,0,0,3114,3115,0,0,33823,33823,33823,0,0,4494,4495,4489,4489,4489,4489,
0,0,0,0,0,0,0,0,0,0,0,4637,0,0,0,0,4637,0,0,0,0,0,0,0,0,0,0,0,0,0,0,0,0,0,0,4639,0,4497,5058,0,0,0,0,0,0,0,0,2949,0,0,0,0,0,0,8389,8390,0,0,0,0,0,0,0,0,0,0,0,4639,5057,4498,5058,4497,4498,5058,0,3114,3115,0,0,33823,33823,33823,0,0,0,0,4634,4628,4628,4488,4489,4489,
0,0,0,0,0,0,0,0,0,0,0,4777,4918,0,0,0,4777,4918,0,0,0,0,0,0,0,0,0,0,0,0,0,0,0,0,0,5057,4498,5058,0,0,0,0,0,0,0,2949,0,0,0,0,0,0,0,0,0,0,0,0,0,0,3114,3115,0,0,0,0,0,5057,4499,4497,4498,5058,0,0,0,0,0,0,33823,33823,0,0,0,4494,4495,4495,5055,4628,4628,0,0,0,
0,0,0,5346,0,0,0,0,0,0,0,0,4637,0,0,0,0,4637,0,0,0,0,0,0,0,0,0,0,0,0,0,0,0,0,0,0,0,0,0,0,0,0,0,0,0,0,0,0,0,0,0,21204,0,0,0,0,0,0,0,0,0,0,3114,3115,0,0,0,0,5057,5058,0,0,0,0,0,0,0,33823,0,0,0,0,0,4634,29858,29873,4488,5049,5049,0,0,0,
0,0,0,0,0,0,0,0,0,0,0,0,4637,0,0,2972,2973,4777,4918,0,0,0,0,0,0,0,0,0,0,0,0,0,0,0,0,0,0,0,0,0,0,0,0,0,0,0,0,0,0,0,0,0,21204,0,0,0,0,0,0,0,0,3114,3115,0,0,0,0,0,0,0,0,0,0,0,0,0,0,33823,8781,8781,0,4494,4495,5055,4488,4489,5049,4628,0,0,0,0,
0,0,0,0,0,0,0,0,0,0,0,4497,5058,0,0,3112,3113,0,4637,0,0,0,0,0,0,0,0,0,0,0,0,0,0,0,33823,33823,33823,33823,33823,33823,33823,33823,0,0,0,0,0,0,0,0,0,0,0,0,0,0,0,0,0,4917,4918,0,0,0,3114,3115,0,0,0,0,0,0,0,0,0,0,0,33823,8921,8921,0,4634,29858,29858,4628,0,0,4628,0,0,0,0,
0,0,0,0,0,0,0,0,0,0,0,4637,0,0,0,0,0,4497,5058,0,0,0,0,0,0,0,0,0,0,0,33823,33823,33823,33823,33823,0,0,0,0,0,0,33823,33823,33823,33823,33823,0,0,0,0,0,0,0,0,0,21204,0,0,4917,4779,4637,0,0,0,0,0,0,0,0,0,0,0,3114,3115,0,0,33823,33823,0,0,0,4634,0,0,4628,0,0,4628,0,0,0,0,
0,0,0,0,0,0,0,0,0,0,0,4637,0,0,0,4497,4498,5058,0,0,0,0,0,0,0,0,0,0,33823,33823,0,0,0,0,4494,4495,4495,4495,4495,4495,4495,4496,0,0,0,33823,33823,0,0,0,0,0,0,0,0,0,0,0,4639,0,4637,0,0,0,0,0,0,0,0,3114,3115,0,0,0,0,33823,33823,0,0,4494,4495,5055,1583,1584,4628,0,4488,5049,5049,0,0,0,
0,0,0,0,0,0,0,0,0,0,4497,5058,0,0,0,4637,0,0,0,0,2810,0,0,0,0,0,0,33823,33823,8781,8781,0,0,0,4634,0,0,0,0,0,0,4636,0,0,0,0,33823,33823,33823,0,0,0,0,0,0,0,0,0,5057,4498,5058,0,0,0,0,0,0,0,0,0,0,0,0,0,0,33823,0,0,0,4634,0,0,1723,1724,4628,0,4628,0,0,4489,4489,4489,
0,0,0,0,0,0,0,0,0,0,4637,0,0,0,0,4637,0,0,0,0,0,0,0,0,0,0,33823,33823,0,8921,8921,0,4494,4495,5055,0,0,0,0,0,0,5054,4495,4495,4496,0,0,0,33823,33823,33823,0,0,0,0,0,0,0,0,0,0,0,0,0,0,0,0,0,0,0,0,0,0,0,33823,33823,0,0,0,4634,291,292,293,4488,5049,0,4628,0,0,0,0,0,
0,0,0,0,0,0,0,4497,4498,4498,5058,0,0,4497,4498,5058,0,0,0,0,0,0,0,0,0,33823,33823,0,4494,4495,4495,4495,5055,0,0,0,0,0,0,0,0,0,0,0,5054,4496,0,0,0,0,33823,0,0,0,0,0,0,0,0,0,0,0,0,0,0,0,0,0,0,0,0,0,0,33823,33823,0,0,0,0,4634,1583,1584,0,4628,0,0,4628,0,0,0,0,0,
0,0,0,0,0,0,0,4637,0,2810,0,4497,4498,5058,0,0,0,0,0,0,0,0,0,0,33823,33823,0,4494,5055,0,0,1582,1583,1584,0,0,0,0,0,0,0,29865,29817,0,0,4636,0,0,0,0,33823,33823,33823,33823,33823,33823,33823,33823,0,0,0,0,0,0,0,0,0,0,0,33823,33823,33823,33823,33823,0,0,0,0,0,4634,1566,1567,1568,4628,0,4488,5049,0,0,0,0,0,
0,0,0,0,4497,4498,4498,5058,0,0,4497,5058,0,0,0,0,0,0,0,0,0,0,0,0,33823,0,0,4634,0,1563,1564,1565,0,29111,0,0,0,0,0,0,0,0,29858,29817,29865,29865,4495,4495,4495,4496,0,0,8781,8781,0,0,0,33823,33823,33823,33823,33823,33823,33823,33823,33823,33823,33823,33823,33823,0,0,0,0,0,0,0,4494,4495,5055,292,293,0,4628,0,4628,0,0,0,0,0,0,
4497,4498,4498,4498,5058,0,0,0,4497,4498,5058,0,0,0,0,0,0,0,2972,2973,0,0,0,33823,33823,0,0,4634,286,287,0,291,292,293,0,0,0,0,0,0,0,29865,29817,29865,29826,29858,29826,29826,29817,29817,4495,4495,8921,8921,0,0,0,0,0,0,0,0,0,0,0,0,0,0,0,0,0,4494,4495,4495,4495,4495,4495,5055,0,0,1582,1583,4488,5049,0,4628,0,0,5049,0,0,0,
4637,0,2972,2973,0,0,0,4497,5058,0,0,0,0,0,0,0,0,0,3112,3113,0,33823,33823,33823,0,0,4494,5055,0,1582,1583,1584,0,0,0,0,0,0,0,0,0,0,29817,29817,29817,29826,29825,29825,29817,29817,0,0,0,5054,4495,4495,4495,4495,4496,0,0,0,0,0,0,0,0,4494,4495,4495,4495,5055,0,0,0,0,0,0,1566,1567,1568,1723,4628,0,0,4628,4628,0,4488,4489,4489,4489,
5058,0,3112,3113,0,0,4497,5058,0,0,0,0,0,0,0,0,0,0,0,0,33823,33823,0,0,4494,4495,5055,1563,1564,1565,0,1566,1567,1568,0,0,0,0,0,0,0,0,29817,29826,29817,29817,29817,29817,29865,0,0,0,0,29833,29833,0,285,286,287,4495,4495,21745,21746,21747,4495,4495,4495,5055,0,0,0,0,0,5203,0,0,285,286,287,1563,1564,1565,4628,0,0,4628,4628,0,4628,0,0,0,
0,0,2810,0,0,4497,5058,0,0,0,0,0,0,0,0,0,0,0,0,33823,33823,0,0,0,4634,285,286,287,0,291,292,293,0,0,0,0,0,0,0,0,0,29865,29865,29826,0,29825,29858,29826,0,0,0,0,0,0,291,292,293,0,1563,1564,1565,0,0,0,1582,1583,1584,0,285,286,287,0,0,0,0,0,0,0,1582,1583,1584,29858,4628,0,4488,5049,4628,0,4628,0,0,0,
0,0,0,0,4497,5058,0,0,0,0,0,0,0,0,0,0,0,0,33823,33823,0,4494,4495,4495,5055,2951,0,1566,1567,1568,0,1563,1564,1565,0,0,0,0,0,0,0,0,29817,29825,29817,0,29825,29825,29826,0,0,0,0,0,12698,0,1582,1583,1584,0,0,0,0,0,0,0,291,292,293,0,0,0,0,0,0,0,291,292,293,285,286,287,4628,0,4628,4488,5049,0,4628,0,0,0,
0,0,4497,4498,5058,0,0,0,0,0,2810,0,0,33823,33823,33823,33823,33823,33823,0,4494,5055,1567,1568,0,1582,1583,1584,0,285,286,287,0,29111,0,0,0,0,0,0,0,29865,29826,0,29817,29858,29817,29817,0,0,0,0,0,0,1566,1567,1722,1723,1724,292,293,0,0,0,285,286,287,0,1582,1583,1584,0,0,0,0,0,11422,0,285,286,287,0,4628,0,4628,4628,4628,4488,5049,0,0,0,
4497,4498,5058,0,0,0,0,0,0,0,0,0,33823,33823,0,0,0,0,4494,4495,5055,2951,0,1563,1564,1565,0,1582,1583,1584,0,285,286,287,0,0,0,0,0,0,0,0,0,0,29817,29817,29817,29817,29817,0,0,0,0,0,0,0,0,0,0,0,0,0,0,0,0,0,1566,1567,1568,1723,1724,0,0,0,0,0,1582,1583,1584,1566,1567,1568,4628,0,4628,4628,4628,4768,4769,4769,4769,4769,
5058,0,0,0,0,0,0,0,0,0,0,33823,33823,0,4494,4495,4495,4495,5055,2951,0,285,286,287,0,285,286,287,0,285,286,287,0,0,0,0,0,0,0,0,0,0,0,0,0,0,29817,29817,0,0,0,0,0,0,0,0,0,0,0,0,0,0,0,0,0,0,0,0,0,0,0,0,0,0,0,0,11702,0,1563,1564,1565,4488,5049,0,4628,4628,4768,4769,4769,4769,0,0,
0,0,0,0,2972,2973,0,0,0,0,0,33823,0,0,4634,0,0,0,0,0,0,0,0,291,292,293,0,1563,1564,1565,0,291,292,293,0,0,0,0,0,0,0,0,0,0,0,0,0,29817,29817,0,13254,13255,13256,0,13258,0,0,0,0,0,0,0,0,0,0,0,0,0,0,0,0,0,0,0,0,0,285,286,287,0,29858,4628,0,4488,5049,4768,4769,4769,0,4769,4909,0,
0,0,0,0,3112,3113,0,0,0,33823,33823,33823,0,4494,5055,0,2951,0,0,0,0,1582,1583,1584,0,1563,1564,1565,0,291,292,293,0,0,0,0,0,0,0,0,0,0,0,0,0,0,0,29817,0,0,285,286,287,0,285,286,287,0,0,0,0,0,0,0,0,0,0,0,0,0,0,0,29833,0,0,0,0,0,291,292,293,4628,0,4628,0,0,0,0,0,0,4628,0,
0,0,2972,2973,0,0,0,0,0,33823,0,0,4494,5055,0,0,0,2951,4488,4489,4489,4490,0,285,286,287,0,1582,1583,1584,0,1566,1567,1568,0,0,0,0,0,0,0,0,0,0,0,0,0,0,285,286,287,0,1563,1564,1565,0,0,0,0,0,0,0,0,0,0,0,0,0,1582,1583,1584,0,0,0,29833,0,0,0,0,4488,4489,5049,0,4628,0,0,0,0,0,0,4768,4909,
0,0,3112,3113,0,0,0,0,33823,33823,4494,4495,5055,1566,1567,1568,0,0,4628,0,0,5048,4489,4489,4490,285,286,287,0,285,286,287,0,29111,0,0,0,0,0,0,0,0,0,0,0,0,0,0,29826,29826,1582,1583,1584,0,291,292,293,0,0,0,0,0,0,0,0,0,0,0,11702,0,1563,1564,1565,0,0,0,0,0,0,4628,0,0,4488,5049,0,0,0,0,0,7768,7769,4628,
0,2810,0,0,0,0,33823,33823,33823,0,4634,285,286,287,0,1582,1583,4488,5049,0,0,0,0,0,4630,2951,0,1566,1567,1568,0,1563,1564,1565,0,0,0,0,0,0,0,0,0,0,0,0,0,0,0,0,1722,1723,1724,0,0,0,0,0,0,0,0,0,0,0,0,0,0,0,285,286,287,0,1566,1567,1568,0,29833,0,0,4628,0,0,4628,0,0,0,0,0,0,7908,7909,4628,
0,0,0,0,0,33823,33823,0,0,4494,1564,1565,0,291,292,293,0,4768,4768,4769,4769,4769,4769,4769,4770,1582,1583,1584,0,1566,1567,1568,0,29111,0,0,0,0,0,0,0,0,0,0,0,0,0,0,0,0,0,0,0,0,0,0,0,0,0,0,0,0,0,0,0,0,0,0,0,0,1563,1564,1565,0,1582,1583,1584,4488,4489,5049,0,0,4628,0,0,0,0,0,0,8468,8469,4628,
0,0,0,0,33823,33823,0,4494,4495,5055,0,1582,1583,1584,0,0,0,0,0,0,0,0,0,0,2951,0,0,1563,1564,1565,0,291,292,293,0,0,0,0,0,0,0,0,29865,0,29858,29842,0,29865,0,0,0,0,0,0,0,0,0,0,0,0,0,0,0,0,0,0,0,0,291,292,293,0,285,286,287,0,0,4628,0,0,4488,4489,5049,7910,7911,7916,7917,0,0,0,4488,5049,
0,0,0,33823,33823,0,0,4634,0,1566,1567,1568,0,1563,1564,1565,0,1566,1567,1568,0,1566,1567,1568,0,0,0,0,0,291,292,293,0,29111,0,0,0,0,0,0,0,29865,29842,12168,12169,29865,12171,12172,0,0,285,286,287,0,1582,1583,1584,0,285,286,287,0,1582,1583,1584,0,1563,1564,1565,0,1582,1583,1584,4489,4489,4489,4489,5049,0,0,4628,0,0,8050,8051,8056,8057,0,0,4488,5049,0,
0,0,33823,33823,0,4494,4495,5055,1564,1565,0,291,292,293,0,291,292,293,0,1582,1583,1584,0,291,292,293,0,1566,1567,1568,0,1582,1583,1584,0,0,0,0,0,0,0,29865,0,0,0,0,0,0,291,292,293,0,1563,1564,1565,0,291,292,293,0,285,286,287,0,291,292,293,0,4488,4489,1722,1723,4489,0,0,0,0,0,4488,4489,5049,4488,4489,4489,4489,4489,4489,4489,4489,5049,0,0
</data>
 </layer>
 <layer name="Layer 3" width="92" height="96">
  <data encoding="csv">
33823,33823,33823,33823,33823,33823,33823,33823,33823,33823,33823,33823,33823,33823,33823,33823,33823,33823,33823,33823,33823,33823,33823,33823,33823,33823,33823,33823,33823,33823,33823,33823,33823,33823,33823,33823,33823,33823,33823,33823,33823,33823,33823,33823,33823,33823,33823,33823,33823,33823,33823,33823,33823,33823,33823,33823,33823,33823,33823,33823,33823,33823,33823,33823,33823,33823,33823,33823,33823,33823,33823,33823,33823,33823,33823,33823,33823,33823,33823,33823,33823,33823,33823,33823,33823,33823,33823,33823,33823,33823,33823,33823,
33823,33823,33823,33823,33823,33823,33823,33823,33823,33823,33823,33823,33823,33823,33823,33823,33823,33823,33823,33823,33823,33823,33823,33823,33823,33823,33823,33823,33823,33823,33823,33823,33823,33823,33823,33823,33823,33823,33823,33823,33823,33823,33823,33823,33823,33823,33823,33823,33823,33823,33823,33823,33823,33823,33823,33823,33823,33823,33823,33823,33823,33823,33823,33823,33823,33823,33823,33823,33823,33823,33823,33823,33823,33823,33823,33823,33823,33823,33823,33823,33823,33823,33823,33823,33823,33823,33823,33823,33823,33823,33823,33823,
33823,33823,33823,33823,33823,33823,33823,33823,33823,33823,33823,33823,33823,33823,33823,33823,33823,33823,33823,33823,33823,33823,33823,33823,33823,33823,33823,33823,33823,33823,33823,33823,33823,33823,33823,33823,33823,33823,33823,33823,33823,33823,33823,33823,33823,33823,33823,33823,33823,33823,33823,33823,33823,33823,33823,33823,33823,33823,33823,33823,33823,33823,33823,33823,33823,33823,33823,33823,33823,33823,33823,33823,33823,33823,33823,33823,33823,33823,33823,33823,33823,33823,33823,33823,33823,33823,33823,33823,33823,33823,33823,33823,
33823,33823,33823,33823,33823,33823,33823,33823,33823,33823,33823,33823,33823,33823,33823,33823,33823,33823,33823,33823,33823,33823,33823,33823,33823,33823,33823,33823,33823,33823,33823,33823,33823,33823,33823,33823,33823,33823,33823,33823,33823,33823,33823,33823,33823,33823,33823,33823,33823,33823,33823,33823,33823,33823,33823,33823,33823,33823,33823,33823,33823,33823,33823,33823,33823,33823,33823,33823,33823,33823,33823,33823,33823,33823,33823,33823,33823,33823,33823,33823,33823,33823,33823,33823,33823,33823,33823,33823,33823,33823,33823,33823,
33823,33823,33823,33823,33823,33823,33823,33823,33823,33823,33823,33823,33823,33823,33823,33823,33823,33823,33823,33823,33823,33823,33823,33823,33823,33823,33823,33823,33823,33823,33823,33823,33823,33823,33823,33823,33823,33823,33823,33823,33823,33823,33823,33823,33823,33823,33823,33823,33823,33823,33823,33823,33823,33823,33823,33823,33823,33823,33823,33823,33823,33823,33823,33823,33823,33823,33823,33823,33823,33823,33823,33823,33823,33823,33823,33823,33823,33823,33823,33823,33823,33823,33823,33823,33823,33823,33823,33823,33823,33823,33823,33823,
33823,33823,33823,33823,33823,33823,33823,33823,33823,33823,33823,33823,33823,33823,33823,33823,33823,33823,33823,33823,33823,33823,33823,33823,33823,33823,33823,33823,33823,33823,33823,33823,33823,33823,33823,33823,33823,33823,33823,33823,33823,33823,33823,33823,33823,33823,33823,33823,33823,33823,33823,33823,33823,33823,33823,33823,33823,33823,33823,33823,33823,33823,33823,33823,33823,33823,33823,33823,33823,33823,33823,33823,33823,33823,33823,33823,33823,33823,33823,33823,33823,33823,33823,33823,33823,33823,33823,33823,33823,33823,33823,33823,
33823,33823,33823,33823,33823,33823,33823,33823,33823,33823,33823,33823,33823,33823,33823,33823,33823,33823,33823,33823,33823,33823,33823,33823,33823,33823,33823,33823,33823,33823,33823,33823,33823,33823,33823,33823,33823,33823,33823,33823,33823,33823,33823,33823,33823,33823,33823,33823,33823,33823,33823,21201,21202,21202,21202,21202,21202,21203,33823,33823,33823,33823,33823,33823,33823,33823,33823,33823,33823,33823,33823,33823,33823,33823,33823,33823,33823,33823,33823,33823,33823,33823,33823,33823,33823,33823,33823,33823,33823,33823,33823,33823,
33823,33823,33823,33823,33823,33823,33823,33823,33823,33823,33823,33823,33823,33823,33823,33823,33823,33823,33823,33823,33823,33823,33823,33823,33823,33823,33823,33823,33823,33823,33823,33823,33823,33823,33823,33823,33823,33823,33823,33823,33823,33823,33823,33823,33823,33823,33823,33823,33823,33823,21201,21212,0,0,21007,21008,0,21213,21202,21202,21203,33823,33823,33823,33823,33823,33823,33823,33823,33823,33823,33823,33823,33823,33823,33823,33823,33823,33823,33823,33823,33823,33823,33823,33823,33823,33823,33823,33823,33823,33823,33823,
33823,33823,33823,33823,33823,33823,33823,33823,33823,33823,33823,33823,33823,33823,33823,33823,33823,33823,33823,33823,33823,33823,33823,33823,33823,33823,33823,33823,33823,33823,33823,33823,33823,33823,33823,33823,33823,33823,33823,33823,33823,33823,33823,33823,33823,33823,33823,33823,33823,21201,21212,24267,24268,0,21015,21016,0,0,0,0,21213,21202,21202,21203,33823,33823,33823,33823,33823,33823,33823,33823,33823,33823,33823,33823,33823,33823,33823,33823,33823,33823,33823,33823,33823,33823,33823,33823,33823,33823,33823,33823,
33823,33823,33823,33823,33823,33823,33823,33823,33823,33823,33823,33823,33823,33823,33823,33823,33823,33823,33823,33823,33823,33823,33823,33823,33823,33823,33823,33823,33823,33823,33823,33823,33823,33823,33823,33823,33823,33823,33823,33823,33823,33823,33823,33823,33823,33823,33823,21201,21202,21212,0,24275,24276,0,21023,21024,4497,4498,4498,4498,4499,0,0,21213,21203,33823,33823,33823,33823,33823,33823,33823,33823,33823,33823,33823,33823,33823,33823,33823,33823,33823,33823,33823,33823,33823,33823,33823,33823,33823,33823,33823,
33823,33823,33823,33823,33823,33823,33823,33823,33823,33823,33823,33823,33823,33823,33823,33823,33823,33823,33823,33823,33823,33823,33823,33823,33823,33823,33823,33823,33823,33823,33823,33823,33823,33823,33823,33823,33823,33823,33823,33823,33823,33823,33823,33823,33823,33823,21201,21212,0,0,0,0,0,0,0,0,4637,4638,4638,4638,5057,4499,0,0,21213,21202,21203,33823,33823,33823,33823,33823,33823,33823,33823,33823,33823,33823,33823,33823,33823,33823,33823,33823,33823,33823,33823,33823,33823,33823,33823,33823,
33823,33823,33823,33823,33823,33823,33823,33823,33823,33823,33823,33823,33823,33823,33823,33823,33823,33823,33823,33823,33823,33823,33823,33823,33823,33823,33823,33823,33823,33823,33823,33823,33823,33823,33823,33823,33823,33823,33823,33823,33823,33823,33823,33823,33823,33823,21217,21218,21218,21218,21218,21218,21220,0,0,0,4777,4778,4918,4638,4638,5057,4499,0,0,0,21211,33823,33823,33823,33823,33823,33823,33823,33823,33823,33823,33823,33823,33823,33823,33823,33823,33823,33823,33823,33823,33823,33823,33823,33823,33823,
33823,33823,33823,33823,33823,33823,33823,33823,33823,33823,33823,33823,33823,33823,33823,33823,33823,33823,33823,33823,33823,33823,33823,33823,33823,33823,33823,33823,33823,33823,33823,33823,33823,33823,33823,33823,33823,33823,33823,33823,33823,33823,33823,33823,33823,33823,33823,33823,33823,33823,33823,33823,21217,21218,21218,21220,0,0,4777,4778,4918,4638,4639,0,0,0,21213,21203,33823,33823,33823,33823,33823,33823,33823,33823,33823,33823,33823,33823,33823,33823,33823,33823,33823,33823,33823,33823,33823,33823,33823,33823,
33823,33823,33823,33823,33823,33823,33823,33823,33823,33823,33823,33823,33823,33823,33823,33823,33823,33823,33823,33823,33823,33823,33823,33823,33823,33823,33823,33823,33823,33823,33823,33823,33823,33823,33823,33823,33823,33823,33823,33823,33823,33823,33823,33823,33823,33823,33823,33823,33823,33823,33823,33823,33823,33823,33823,21217,21218,21220,0,0,4777,4778,4779,0,0,0,0,21213,21203,33823,33823,33823,33823,33823,33823,33823,33823,33823,33823,33823,33823,33823,33823,33823,33823,33823,33823,33823,33823,33823,33823,33823,
33823,33823,33823,33823,33823,33823,33823,33823,33823,33823,33823,33823,33823,33823,33823,33823,33823,33823,33823,33823,33823,33823,33823,33823,33823,33823,33823,33823,33823,33823,33823,33823,33823,33823,33823,33823,33823,33823,33823,33823,33823,33823,33823,33823,33823,33823,33823,33823,33823,33823,33823,33823,33823,33823,33823,33823,33823,21217,21220,0,0,0,21031,21032,0,0,0,0,21211,33823,33823,33823,33823,33823,33823,33823,33823,33823,33823,33823,33823,33823,33823,33823,33823,33823,33823,33823,33823,33823,33823,33823,
33823,33823,33823,33823,33823,33823,33823,33823,33823,33823,33823,33823,33823,33823,33823,33823,33823,33823,33823,33823,33823,33823,33823,33823,33823,33823,33823,33823,33823,33823,33823,33823,33823,33823,33823,33823,33823,33823,33823,33823,33823,33823,33823,33823,33823,33823,33823,33823,33823,33823,33823,33823,33823,33823,33823,33823,33823,33823,21209,0,0,0,21039,21040,0,21007,21008,0,21213,21203,33823,33823,33823,33823,33823,33823,33823,33823,33823,33823,33823,33823,33823,33823,33823,33823,33823,33823,33823,33823,33823,33823,
33823,33823,33823,33823,33823,33823,33823,33823,33823,33823,33823,33823,33823,33823,33823,33823,33823,33823,33823,33823,33823,33823,33823,33823,33823,33823,33823,33823,33823,33823,33823,3764,33823,33823,33823,33823,33823,33823,3771,3772,33823,33823,33823,33823,33823,33823,33823,33823,33823,33823,33823,33823,33823,33823,33823,33823,33823,33823,21209,0,24365,0,21047,21048,0,21015,21016,24267,24268,21211,33823,33823,33823,33823,33823,33823,33823,33823,33823,33823,33823,33823,33823,33823,33823,33823,33823,33823,33823,33823,33823,33823,
33823,33823,33823,33823,33823,33823,33823,33823,33823,33823,33823,33823,33823,33823,33823,33823,33823,33823,33823,33823,33823,33823,33823,33823,33823,33823,33823,33823,33823,33823,33823,3904,33823,33823,33823,33823,33823,33823,3911,3912,33823,33823,33823,33823,33823,33823,33823,33823,33823,33823,33823,33823,33823,33823,33823,33823,33823,33823,21217,21220,0,0,0,0,0,21023,21024,24275,24276,21211,33823,33823,33823,33823,33823,33823,33823,33823,33823,33823,33823,33823,33823,33823,33823,33823,0,0,33823,33823,33823,33823,
33823,33823,33823,33823,33823,33823,33823,33823,33823,33823,33823,33823,33823,33823,33823,33823,33823,33823,33823,33823,33823,33823,33823,33823,33823,33823,33823,33823,33823,33823,33823,4044,4045,33823,33823,33823,33823,33823,4051,4052,33823,33823,33823,33823,33823,33823,33823,33823,33823,33823,33823,33823,33823,33823,33823,33823,33823,33823,33823,21209,0,0,0,0,0,0,0,0,0,21211,33823,33823,33823,33823,33823,33823,33823,33823,33823,33823,33823,0,0,33823,33823,33823,2974,2975,33823,33823,33823,33823,
33823,33823,33823,33823,33823,33823,33823,33823,33823,33823,33823,33823,33823,33823,33823,33823,33823,33823,33823,33823,33823,33823,33823,33823,33823,33823,33823,33823,33823,33823,33823,33823,33823,33823,33823,33823,33823,33823,33823,33823,33823,33823,33823,33823,33823,33823,33823,33823,33823,33823,33823,33823,33823,33823,33823,33823,33823,33823,33823,21209,0,0,0,4497,4498,4498,4498,4498,4499,21211,33823,33823,33823,33823,33823,33823,33823,33823,33823,33823,33823,2974,2975,33823,33823,0,0,0,33823,33823,33823,33823,
33823,33823,33823,33823,33823,33823,33823,33823,33823,33823,33823,33823,33823,33823,33823,33823,33823,33823,33823,33823,33823,33823,33823,33823,33823,33823,33823,33823,33823,33823,33823,33823,33823,33823,33823,33823,33823,33823,33823,33823,33823,33823,33823,33823,33823,33823,33823,33823,33823,33823,33823,33823,33823,33823,33823,33823,33823,33823,33823,21217,21220,0,4497,5058,4638,4638,4638,4638,4639,21211,33823,33823,33823,33823,33823,33823,33823,33823,33823,0,0,33823,33823,33823,33823,2974,2975,33823,33823,33823,33823,33823,
33823,33823,33823,33823,33823,33823,33823,33823,33823,33823,33823,33823,33823,33823,33823,33823,33823,33823,33823,33823,33823,33823,33823,33823,33823,33823,33823,33823,33823,33823,33823,4464,33823,33823,33823,33823,33823,33823,33823,33823,33823,33823,33823,33823,33823,33823,33823,33823,33823,33823,33823,33823,33823,33823,33823,33823,33823,33823,33823,33823,21209,0,4637,4638,4917,4778,4778,4778,4779,21211,33823,33823,33823,33823,33823,33823,33823,33823,33823,2974,2975,33823,0,0,33823,33823,33823,33823,33823,33823,33823,33823,
33823,33823,33823,33823,33823,33823,33823,33823,33823,33823,33823,33823,33823,33823,33823,33823,33823,33823,33823,33823,33823,33823,33823,33823,33823,33823,33823,33823,33823,33823,33823,4604,4605,4606,33823,33823,33823,33823,4611,4612,33823,33823,33823,33823,33823,33823,33823,33823,33823,33823,33823,33823,33823,33823,33823,33823,33823,33823,33823,33823,21209,0,4637,4638,4639,0,0,0,0,21211,33823,33823,33823,33823,33823,33823,33823,33823,33823,33823,33823,33823,2974,2975,33823,33823,33823,33823,33823,33823,33823,33823,
33823,33823,33823,33823,33823,33823,33823,33823,33823,33823,33823,33823,33823,33823,33823,33823,33823,33823,33823,33823,33823,33823,33823,33823,33823,33823,33823,33823,33823,33823,33823,4744,4745,4746,33823,33823,33823,33823,4751,4752,33823,33823,33823,33823,33823,33823,33823,33823,33823,33823,33823,33823,33823,33823,33823,33823,33823,33823,33823,33823,21209,0,4777,4778,4779,0,0,0,21221,21219,33823,33823,0,0,33823,33823,33823,33823,33823,33823,33823,33823,33823,33823,33823,33823,33823,33823,33823,0,0,33823,
33823,33823,33823,33823,33823,33823,33823,33823,33823,33823,33823,33823,33823,33823,33823,33823,33823,33823,33823,33823,33823,33823,33823,33823,33823,33823,33823,33823,33823,33823,33823,33823,33823,33823,33823,33823,33823,33823,33823,33823,33823,33823,33823,33823,33823,33823,33823,33823,33823,33823,33823,33823,33823,33823,33823,33823,33823,33823,33823,33823,21209,0,0,21007,21008,21031,21032,0,21211,33823,33823,33823,2974,2975,33823,33823,0,0,33823,33823,33823,33823,33823,33823,33823,33823,33823,33823,33823,0,0,33823,
33823,33823,33823,33823,33823,33823,33823,33823,33823,33823,33823,33823,33823,33823,33823,33823,33823,33823,33823,33823,33823,33823,33823,33823,33823,33823,33823,33823,33823,33823,33823,33823,33823,33823,33823,33823,33823,33823,33823,33823,33823,33823,21201,21202,21202,21203,33823,33823,33823,33823,33823,33823,33823,33823,33823,33823,33823,33823,33823,33823,21209,0,0,21015,21016,21039,21040,21221,21219,33823,33823,33823,2974,2975,33823,33823,2974,2975,33823,33823,33823,33823,33823,33823,33823,33823,33823,33823,33823,33823,33823,33823,
33823,33823,33823,33823,33823,33823,33823,33823,33823,33823,33823,33823,33823,33823,33823,33823,33823,33823,33823,33823,33823,33823,33823,33823,33823,33823,33823,33823,33823,33823,33823,33823,33823,33823,33823,33823,33823,21201,21202,21202,21202,21202,21212,0,0,21213,21202,21203,33823,33823,33823,33823,33823,33823,33823,33823,33823,33823,33823,33823,21209,0,0,21023,21024,21047,21048,21211,33823,33823,33823,33823,33823,33823,33823,33823,33823,33823,33823,33823,33823,33823,33823,33823,33823,33823,33823,33823,33823,33823,33823,33823,
33823,33823,33823,33823,33823,33823,33823,33823,33823,33823,33823,33823,33823,33823,33823,33823,33823,33823,33823,33823,33823,33823,33823,33823,33823,33823,33823,33823,33823,33823,33823,33823,33823,33823,33823,33823,21201,21212,0,0,0,0,0,0,0,0,0,21211,33823,33823,33823,33823,33823,33823,33823,33823,33823,33823,33823,33823,21209,0,0,0,0,0,0,21211,33823,33823,33823,33823,33823,33823,33823,33823,33823,33823,33823,33823,33823,33823,33823,33823,33823,33823,33823,33823,33823,33823,33823,33823,
33823,33823,33823,33823,33823,33823,33823,33823,33823,33823,33823,33823,33823,33823,33823,33823,33823,33823,33823,33823,33823,33823,33823,33823,33823,33823,33823,33823,33823,33823,33823,33823,33823,33823,21201,21202,21212,0,0,29922,0,6235,6797,6798,6799,6800,0,21213,21202,21202,21203,33823,33823,33823,33823,33823,33823,33823,33823,33823,21209,0,0,0,0,0,0,21211,33823,33823,0,0,33823,33823,33823,33823,33823,33823,33823,33823,33823,33823,33823,33823,33823,33823,33823,33823,33823,33823,33823,33823,
33823,33823,33823,33823,33823,33823,33823,33823,33823,33823,33823,33823,33823,33823,33823,33823,33823,33823,33823,33823,33823,33823,33823,33823,33823,33823,33823,33823,33823,33823,33823,33823,21201,21202,21212,0,0,0,0,29930,0,6375,6937,6938,6939,6940,6792,0,0,0,21211,33823,33823,33823,33823,33823,33823,33823,33823,33823,21209,24365,0,0,0,0,21221,21219,33823,33823,2974,2975,33823,33823,33823,33823,33823,33823,33823,33823,33823,33823,33823,33823,33823,33823,33823,33823,33823,33823,33823,33823,
33823,33823,33823,33823,33823,33823,33823,33823,33823,33823,33823,33823,33823,33823,33823,33823,33823,33823,33823,33823,33823,33823,33823,33823,33823,33823,33823,33823,33823,33823,33823,21201,21212,0,0,0,0,0,0,3224,7080,6518,0,0,0,7080,6932,0,0,0,21211,33823,33823,33823,33823,33823,33823,33823,33823,33823,21209,0,0,0,0,0,21211,33823,33823,33823,33823,33823,33823,33823,33823,33823,33823,33823,33823,33823,33823,33823,33823,33823,33823,33823,33823,33823,33823,33823,33823,33823,
33823,33823,33823,33823,33823,33823,33823,33823,33823,33823,33823,33823,33823,33823,33823,33823,33823,33823,33823,33823,33823,33823,33823,33823,33823,33823,33823,33823,33823,33823,21201,21212,0,0,0,0,0,0,0,0,7220,6658,29922,3224,0,7220,7072,0,0,0,21211,33823,33823,33823,33823,33823,33823,33823,33823,33823,21217,21218,21220,21221,21218,21218,21219,33823,33823,33823,33823,33823,33823,33823,33823,33823,33823,33823,33823,33823,33823,33823,33823,33823,33823,33823,33823,33823,33823,33823,33823,33823,
33823,33823,33823,33823,33823,33823,33823,33823,33823,33823,33823,33823,33823,33823,33823,33823,33823,33823,33823,33823,33823,33823,33823,33823,33823,33823,33823,33823,21201,21202,21212,0,1858,1859,1860,1861,1862,1863,1864,0,0,0,29930,0,0,0,0,0,0,21221,21219,33823,33823,33823,33823,33823,33823,33823,33823,33823,33823,33823,21217,21219,33823,33823,33823,33823,33823,33823,33823,33823,33823,33823,33823,33823,33823,33823,33823,33823,33823,33823,33823,33823,33823,33823,33823,33823,33823,33823,33823,33823,
33823,33823,33823,33823,33823,33823,33823,33823,33823,33823,33823,33823,33823,33823,33823,33823,33823,33823,33823,33823,33823,33823,33823,33823,33823,21201,21202,21202,21212,0,0,0,1998,1999,2000,2001,2002,2003,2004,0,3224,0,0,0,0,8071,0,0,0,21211,33823,33823,33823,33823,33823,33823,33823,33823,33823,33823,33823,33823,33823,33823,33823,33823,33823,33823,33823,33823,33823,33823,33823,33823,33823,33823,33823,33823,33823,33823,33823,33823,33823,33823,33823,33823,33823,33823,33823,33823,33823,33823,
33823,33823,33823,33823,33823,33823,33823,33823,33823,33823,33823,33823,33823,33823,33823,33823,33823,33823,33823,33823,33823,33823,33823,33823,21201,21212,0,0,0,0,0,0,5052,1723,1724,0,1722,1723,1724,0,0,0,0,0,0,8211,0,0,0,21211,33823,33823,33823,33823,33823,33823,33823,33823,33823,33823,33823,33823,33823,33823,33823,33823,33823,33823,33823,33823,33823,33823,33823,33823,33823,33823,33823,33823,33823,33823,33823,33823,33823,33823,33823,33823,33823,33823,33823,33823,33823,33823,
33823,33823,33823,33823,33823,33823,33823,33823,33823,33823,33823,33823,33823,33823,33823,33823,33823,33823,33823,33823,33823,33823,21201,21202,21212,0,0,0,0,0,0,0,29922,0,0,0,0,0,0,0,0,0,0,0,0,0,0,0,21221,21219,33823,33823,33823,33823,33823,33823,33823,33823,33823,33823,33823,33823,33823,33823,33823,33823,33823,33823,33823,33823,33823,33823,33823,33823,33823,33823,33823,33823,33823,33823,33823,33823,33823,33823,33823,33823,33823,33823,33823,33823,33823,33823,
33823,33823,33823,33823,33823,33823,33823,33823,33823,33823,33823,33823,33823,33823,33823,33823,33823,33823,33823,33823,33823,33823,21209,0,0,1722,1723,1724,0,0,0,0,29930,0,0,0,0,0,0,0,0,0,0,0,0,0,0,0,21211,33823,33823,33823,33823,33823,33823,33823,33823,33823,33823,33823,33823,33823,33823,33823,33823,33823,33823,33823,33823,33823,33823,33823,33823,33823,33823,33823,33823,33823,33823,33823,33823,33823,33823,33823,33823,33823,22803,22804,22805,33823,33823,33823,
33823,33823,33823,33823,33823,33823,33823,33823,33823,33823,33823,33823,33823,33823,33823,33823,33823,33823,33823,33823,33823,21201,21212,0,0,0,0,0,0,0,0,0,24365,0,0,0,0,0,0,0,21124,21125,21126,0,0,0,0,21221,21219,33823,33823,33823,33823,33823,33823,33823,33823,33823,33823,33823,33823,33823,33823,33823,33823,33823,33823,33823,33823,33823,33823,33823,33823,33823,33823,33823,33823,33823,33823,33823,33823,33823,33823,33823,33823,33823,22811,22812,22813,33823,33823,33823,
33823,33823,33823,33823,33823,33823,33823,33823,33823,33823,33823,33823,33823,33823,33823,33823,33823,33823,33823,33823,21201,21212,0,0,0,0,0,0,0,0,0,0,0,0,0,0,0,0,0,0,0,0,0,0,0,0,21221,21219,33823,33823,33823,33823,33823,33823,33823,33823,33823,33823,33823,33823,33823,33823,33823,33823,33823,33823,33823,33823,33823,33823,33823,33823,33823,33823,33823,33823,33823,33823,33823,33823,33823,33823,33823,33823,33823,33823,33823,33823,33823,33823,33823,33823,
33823,33823,33823,33823,33823,33823,33823,33823,33823,33823,33823,33823,33823,33823,33823,33823,33823,33823,33823,21201,21212,0,0,0,0,0,0,0,0,0,0,0,0,0,24365,0,0,0,0,0,0,21221,21218,21218,21218,21218,21219,33823,33823,33823,33823,33823,33823,33823,33823,33823,33823,33823,33823,33823,33823,33823,33823,33823,33823,33823,33823,33823,33823,33823,33823,33823,33823,33823,33823,33823,33823,33823,33823,33823,33823,33823,33823,33823,33823,33823,33823,33823,33823,33823,33823,33823,
33823,33823,33823,33823,33823,33823,33823,33823,33823,33823,33823,33823,33823,33823,33823,33823,33823,33823,33823,21209,0,1722,1723,1724,0,0,0,0,0,8071,0,0,0,0,0,21221,21218,21218,21218,21218,21218,21219,33823,33823,33823,33823,33823,33823,33823,33823,33823,33823,33823,33823,33823,33823,33823,33823,33823,33823,33823,33823,33823,33823,33823,33823,33823,33823,33823,33823,33823,33823,33823,33823,33823,33823,33823,33823,33823,33823,33823,33823,33823,33823,33823,33823,33823,33823,33823,33823,33823,33823,
33823,33823,33823,33823,33823,33823,33823,33823,33823,33823,33823,33823,33823,33823,33823,33823,33823,33823,21201,21212,0,0,0,0,0,0,0,0,0,8211,0,0,0,21221,21218,21219,33823,33823,33823,33823,33823,33823,33823,33823,33823,33823,33823,33823,33823,33823,33823,33823,33823,33823,33823,33823,33823,33823,33823,33823,33823,33823,33823,33823,33823,33823,33823,33823,33823,33823,33823,33823,33823,33823,33823,33823,33823,33823,33823,33823,33823,33823,33823,33823,33823,33823,33823,33823,33823,33823,33823,33823,
33823,33823,33823,33823,33823,33823,33823,33823,33823,33823,33823,33823,33823,33823,33823,33823,33823,33823,21209,0,0,0,0,6792,6793,6794,0,0,0,0,0,21221,21218,21219,33823,33823,33823,33823,33823,33823,33823,33823,33823,33823,33823,33823,33823,33823,33823,33823,33823,33823,33823,33823,33823,33823,33823,33823,33823,33823,33823,33823,33823,33823,33823,33823,33823,33823,33823,33823,33823,33823,33823,33823,33823,33823,33823,33823,33823,33823,33823,33823,33823,33823,33823,33823,33823,33823,33823,33823,33823,33823,
33823,33823,33823,33823,33823,33823,33823,33823,33823,33823,33823,33823,33823,33823,33823,33823,33823,33823,21209,0,7080,7075,7077,6932,6933,6934,6800,0,0,0,0,21211,33823,33823,33823,33823,33823,33823,33823,33823,33823,33823,33823,33823,33823,33823,33823,33823,33823,33823,33823,33823,33823,33823,33823,33823,33823,33823,33823,33823,33823,33823,33823,33823,33823,33823,33823,33823,33823,33823,33823,33823,33823,33823,33823,33823,33823,33823,33823,33823,33823,33823,33823,33823,33823,33823,33823,33823,33823,33823,33823,33823,
33823,33823,33823,33823,33823,33823,33823,33823,33823,33823,33823,33823,33823,33823,33823,33823,33823,21201,21212,0,7220,7215,7217,7072,7073,7074,6940,0,29922,0,21221,21219,33823,33823,33823,33823,33823,33823,33823,33823,33823,33823,33823,33823,33823,33823,33823,33823,33823,33823,33823,33823,33823,33823,33823,33823,33823,33823,33823,33823,33823,33823,33823,21201,21202,21203,33823,33823,33823,33823,33823,33823,33823,33823,33823,33823,33823,33823,33823,33823,33823,33823,33823,33823,33823,33823,33823,33823,33823,33823,33823,33823,
33823,33823,33823,33823,33823,33823,33823,33823,33823,33823,33823,33823,33823,33823,33823,33823,33823,21209,0,0,0,0,0,7212,7213,7214,0,0,29930,0,21211,33823,33823,33823,33823,33823,33823,33823,33823,33823,33823,33823,33823,33823,33823,33823,33823,33823,33823,33823,33823,33823,33823,33823,33823,33823,33823,33823,33823,33823,33823,33823,21201,21212,0,21213,21202,21203,33823,33823,33823,33823,33823,33823,33823,33823,33823,33823,33823,33823,33823,33823,33823,33823,33823,33823,33823,33823,33823,33823,33823,33823,
33823,33823,33823,33823,33823,33823,33823,33823,33823,33823,33823,33823,33823,33823,33823,33823,21201,21212,0,0,0,0,0,0,0,0,0,0,0,21221,21219,33823,33823,33823,33823,33823,33823,33823,33823,33823,33823,33823,33823,33823,33823,33823,33823,33823,33823,33823,33823,33823,33823,33823,33823,33823,33823,33823,33823,33823,21201,21202,21212,0,0,0,0,21211,33823,33823,33823,33823,33823,33823,33823,33823,33823,33823,33823,33823,33823,33823,33823,33823,33823,33823,33823,33823,33823,33823,33823,33823,
33823,33823,33823,33823,33823,33823,33823,33823,33823,33823,33823,33823,33823,33823,33823,33823,21209,0,0,0,0,0,0,0,0,0,0,0,0,21211,33823,33823,33823,33823,33823,33823,33823,33823,33823,33823,33823,33823,33823,33823,33823,33823,33823,21201,21202,21202,21202,21202,21202,21202,21203,33823,33823,33823,21201,21202,21212,0,0,0,4911,0,0,21211,33823,33823,33823,33823,33823,33823,33823,33823,33823,33823,33823,33823,33823,33823,33823,33823,33823,33823,33823,33823,33823,33823,33823,33823,
33823,33823,33823,33823,33823,33823,33823,33823,33823,33823,33823,33823,33823,33823,33823,33823,21209,0,0,0,0,0,21104,0,0,21156,0,0,0,21211,33823,33823,33823,33823,33823,33823,33823,33823,33823,33823,33823,33823,33823,33823,33823,33823,21201,21212,0,0,0,0,0,0,21213,21202,21202,21202,21212,0,0,0,0,0,0,0,0,21211,33823,33823,33823,33823,33823,33823,33823,33823,33823,33823,33823,33823,33823,33823,33823,33823,33823,33823,33823,33823,33823,33823,33823,33823,
33823,33823,33823,33823,33823,33823,33823,33823,33823,33823,33823,33823,33823,33823,33823,33823,21209,0,0,0,0,0,21112,0,0,21164,0,24365,0,21211,33823,33823,33823,33823,33823,33823,33823,33823,33823,33823,33823,33823,33823,33823,33823,21201,21212,0,0,0,29937,29938,0,0,29111,0,0,0,0,0,0,0,0,0,0,0,0,21211,33823,33823,33823,33823,33823,33823,33823,33823,33823,33823,33823,33823,33823,33823,33823,33823,33823,33823,33823,33823,33823,33823,33823,33823,
33823,33823,33823,33823,33823,33823,33823,33823,33823,33823,33823,33823,33823,33823,33823,33823,21209,0,0,0,0,0,0,0,0,21172,0,0,0,21211,33823,33823,33823,33823,33823,33823,33823,33823,33823,33823,33823,33823,33823,33823,21201,21212,0,0,24365,0,29945,29946,0,0,0,0,0,0,29111,21116,21118,0,0,0,0,0,21221,21219,33823,33823,33823,33823,33823,33823,33823,33823,33823,33823,33823,33823,33823,33823,33823,33823,33823,33823,33823,33823,33823,33823,33823,33823,
33823,33823,33823,33823,33823,33823,33823,33823,33823,33823,33823,33823,33823,33823,33823,33823,21209,0,0,0,0,0,0,0,0,21180,0,0,0,21211,33823,33823,33823,33823,33823,33823,33823,33823,33823,33823,33823,33823,33823,33823,21209,0,0,0,0,0,0,0,0,0,0,0,0,0,0,29937,29938,0,0,0,0,21221,21219,33823,33823,33823,33823,33823,33823,33823,33823,33823,33823,33823,33823,33823,33823,33823,33823,33823,33823,33823,33823,33823,33823,33823,33823,33823,
33823,33823,33823,33823,33823,33823,33823,33823,33823,33823,33823,33823,33823,33823,33823,33823,21209,0,0,0,0,0,0,0,0,0,0,0,0,21211,33823,33823,33823,33823,33823,33823,33823,33823,33823,33823,33823,33823,33823,21201,21212,0,0,0,0,0,0,0,0,0,0,0,0,0,0,29945,29946,0,0,0,0,21211,33823,33823,33823,33823,33823,33823,33823,33823,33823,33823,33823,33823,33823,33823,33823,33823,33823,33823,33823,33823,33823,33823,33823,33823,33823,33823,
33823,33823,33823,33823,33823,33823,33823,33823,33823,33823,33823,33823,33823,33823,33823,33823,21209,0,29922,0,0,0,0,0,0,0,0,0,0,21211,33823,33823,33823,33823,33823,33823,33823,33823,33823,33823,33823,33823,33823,21209,0,0,0,0,0,0,0,0,0,0,0,0,0,0,0,0,0,0,21221,21218,21218,21219,33823,33823,33823,33823,33823,33823,33823,33823,33823,33823,33823,33823,33823,33823,33823,33823,33823,33823,33823,33823,33823,33823,33823,33823,33823,33823,
33823,33823,33823,33823,33823,33823,33823,33823,33823,33823,33823,33823,33823,33823,33823,33823,21217,21220,29930,0,0,0,0,0,0,0,0,0,0,21211,33823,33823,33823,33823,33823,33823,33823,33823,33823,33823,33823,33823,33823,21209,0,0,0,0,0,0,0,0,0,0,0,0,0,0,0,0,21221,21218,21219,33823,33823,33823,33823,33823,33823,33823,33823,33823,33823,33823,33823,33823,33823,33823,33823,33823,33823,33823,33823,33823,33823,33823,33823,33823,33823,33823,33823,33823,
33823,33823,33823,33823,33823,33823,33823,33823,33823,33823,33823,33823,33823,33823,33823,33823,33823,21209,0,0,0,21025,21042,21042,21046,21042,21027,0,0,21211,33823,33823,33823,33823,33823,33823,33823,33823,33823,33823,33823,33823,33823,21209,0,0,0,0,0,0,0,0,0,0,0,0,0,0,0,21221,21219,33823,33823,33823,33823,33823,33823,33823,33823,33823,33823,33823,33823,33823,33823,33823,33823,33823,33823,33823,33823,33823,33823,33823,33823,33823,33823,33823,33823,33823,33823,33823,
33823,33823,33823,33823,33823,33823,33823,33823,33823,33823,33823,33823,33823,33823,33823,33823,33823,21209,0,0,0,21033,0,0,0,0,21035,0,0,21213,21203,33823,33823,33823,33823,33823,33823,33823,33823,33823,33823,33823,33823,21209,0,0,0,0,0,0,0,0,0,0,0,0,0,0,0,21211,33823,33823,33823,33823,33823,33823,33823,33823,33823,33823,33823,33823,33823,33823,33823,33823,33823,33823,33823,33823,33823,33823,33823,33823,33823,33823,33823,33823,33823,33823,33823,33823,
33823,33823,33823,33823,33823,33823,33823,33823,33823,33823,33823,33823,33823,33823,33823,33823,33823,21209,0,0,0,21033,0,0,0,0,21045,21027,0,0,21211,33823,33823,33823,33823,33823,33823,33823,33823,33823,33823,33823,33823,21209,0,0,0,0,0,0,0,0,0,0,0,0,0,0,0,21211,33823,33823,33823,33823,33823,33823,33823,33823,33823,33823,33823,33823,33823,33823,33823,33823,33823,33823,33823,33823,33823,33823,33823,33823,33823,33823,33823,33823,33823,33823,33823,33823,
33823,33823,33823,33823,33823,33823,33823,33823,33823,33823,33823,33823,33823,33823,33823,33823,33823,21217,21220,0,0,21033,0,0,0,0,0,21035,0,0,21211,33823,33823,33823,33823,33823,33823,33823,33823,33823,33823,33823,33823,21209,0,0,1286,1287,1288,0,0,0,0,0,0,0,0,0,0,21211,33823,33823,33823,33823,33823,33823,33823,33823,33823,33823,33823,33823,33823,33823,33823,33823,33823,33823,33823,33823,33823,33823,33823,33823,33823,33823,33823,33823,33823,33823,33823,33823,
33823,33823,33823,33823,33823,33823,33823,33823,33823,33823,33823,33823,33823,33823,33823,33823,33823,33823,21209,0,0,21041,1423,1424,1425,21038,21030,21043,0,0,21211,33823,33823,33823,33823,33823,33823,33823,33823,33823,33823,33823,33823,21217,21220,0,1426,1427,1428,0,0,0,0,29111,0,0,29111,0,0,21211,33823,33823,33823,33823,33823,33823,33823,33823,33823,33823,33823,33823,33823,33823,33823,33823,33823,33823,33823,33823,33823,33823,33823,33823,33823,33823,33823,33823,33823,33823,33823,33823,
33823,33823,33823,33823,33823,33823,33823,33823,33823,33823,33823,33823,33823,33823,33823,33823,33823,33823,21217,21220,0,29922,1563,1564,1565,0,0,0,0,21221,21219,33823,33823,33823,33823,33823,33823,33823,33823,33823,33823,33823,33823,33823,21209,0,1566,1567,1568,0,21124,21126,0,0,0,0,0,0,0,21211,33823,33823,33823,33823,33823,33823,33823,33823,33823,33823,33823,33823,33823,0,0,33823,33823,33823,33823,33823,33823,33823,33823,33823,33823,33823,33823,33823,33823,33823,33823,33823,
33823,33823,33823,33823,33823,33823,33823,33823,33823,33823,33823,33823,33823,33823,33823,33823,33823,33823,33823,21217,21220,29930,0,0,0,0,0,0,0,21211,33823,33823,33823,33823,33823,33823,33823,33823,33823,33823,33823,33823,33823,33823,21217,21220,0,0,0,0,0,0,0,29111,0,0,0,0,0,21211,33823,33823,33823,33823,33823,33823,33823,33823,33823,33823,33823,33823,33823,2974,2975,33823,0,0,33823,33823,33823,33823,33823,33823,33823,33823,33823,33823,33823,33823,33823,33823,
33823,33823,33823,33823,33823,33823,33823,33823,33823,33823,33823,33823,33823,33823,33823,33823,33823,33823,33823,33823,21217,21220,0,0,0,0,0,0,0,21211,33823,33823,33823,33823,33823,33823,33823,33823,33823,33823,33823,33823,33823,33823,33823,21217,21218,21218,21218,21220,0,0,0,0,0,0,0,0,21221,21219,33823,33823,33823,33823,33823,33823,33823,33823,33823,33823,33823,33823,33823,33823,0,0,2974,2975,0,0,33823,33823,33823,33823,33823,33823,33823,33823,33823,33823,33823,33823,
33823,33823,33823,33823,33823,33823,33823,33823,33823,33823,33823,33823,33823,33823,33823,33823,33823,33823,33823,33823,33823,21217,21220,0,0,0,0,0,21221,21219,33823,33823,33823,33823,33823,33823,33823,33823,33823,33823,33823,33823,33823,33823,33823,33823,33823,33823,33823,21217,21218,21218,21220,0,0,0,21221,21218,21219,33823,33823,33823,33823,33823,33823,33823,33823,33823,33823,33823,33823,33823,33823,33823,2974,2975,0,0,2974,2975,33823,33823,33823,33823,33823,33823,33823,33823,33823,33823,33823,33823,
33823,33823,33823,33823,33823,33823,33823,33823,33823,33823,33823,33823,33823,33823,33823,33823,33823,33823,33823,33823,33823,33823,21209,0,0,0,0,21221,21219,33823,33823,33823,33823,33823,33823,33823,33823,33823,33823,33823,33823,33823,33823,33823,33823,33823,33823,33823,33823,33823,33823,33823,21217,21218,21218,21218,21219,33823,33823,33823,33823,33823,33823,0,0,33823,33823,33823,33823,33823,33823,33823,33823,33823,33823,33823,2974,2975,0,33823,33823,33823,33823,33823,33823,33823,33823,33823,33823,33823,21201,21202,
33823,33823,33823,33823,33823,33823,33823,33823,33823,33823,33823,33823,33823,33823,33823,33823,33823,33823,33823,33823,33823,33823,21217,21218,21220,0,21221,21219,33823,33823,33823,33823,33823,33823,33823,33823,33823,33823,33823,33823,33823,33823,33823,33823,33823,33823,33823,33823,33823,33823,33823,33823,33823,33823,33823,33823,33823,33823,33823,33823,33823,33823,33823,2974,2975,33823,33823,33823,33823,33823,33823,33823,33823,33823,33823,0,0,2974,2975,33823,33823,33823,33823,21201,21202,21202,21202,21202,21202,21202,21212,21204,
33823,33823,33823,33823,33823,33823,33823,33823,33823,33823,33823,33823,33823,33823,33823,33823,33823,33823,33823,33823,33823,33823,33823,33823,21217,21218,21219,33823,33823,33823,33823,33823,33823,33823,33823,33823,33823,33823,33823,33823,33823,33823,33823,33823,33823,33823,33823,33823,33823,33823,33823,33823,33823,33823,33823,33823,33823,33823,33823,33823,0,0,33823,33823,33823,33823,33823,33823,33823,33823,33823,33823,33823,33823,33823,2974,2975,33823,33823,33823,33823,21201,21202,21212,21204,0,0,4488,4488,0,0,0,
33823,33823,33823,33823,33823,33823,33823,33823,33823,33823,33823,33823,33823,33823,33823,33823,33823,33823,33823,33823,33823,33823,33823,33823,33823,33823,33823,33823,33823,33823,33823,33823,33823,33823,33823,33823,33823,33823,33823,33823,33823,33823,33823,33823,33823,33823,33823,33823,33823,33823,33823,33823,33823,33823,33823,33823,33823,33823,33823,33823,2974,2975,0,0,33823,33823,33823,33823,33823,33823,33823,33823,33823,33823,33823,33823,33823,33823,33823,21201,21202,21212,0,0,29833,0,0,0,0,0,0,0,
33823,33823,33823,33823,33823,33823,33823,33823,33823,33823,33823,33823,33823,33823,33823,33823,33823,33823,33823,33823,33823,33823,33823,33823,33823,33823,33823,33823,33823,33823,33823,33823,33823,33823,33823,33823,33823,33823,33823,33823,33823,33823,33823,33823,33823,33823,33823,33823,33823,33823,33823,33823,33823,33823,33823,33823,33823,33823,33823,33823,33823,0,2974,2975,33823,33823,33823,33823,33823,33823,33823,33823,33823,33823,33823,33823,33823,33823,21201,21212,0,0,0,0,29833,0,0,0,0,4628,0,0,
33823,33823,33823,33823,33823,33823,33823,33823,33823,33823,33823,33823,33823,33823,33823,33823,33823,33823,33823,33823,33823,33823,33823,33823,33823,33823,33823,33823,33823,33823,33823,33823,33823,33823,33823,33823,33823,33823,33823,33823,33823,33823,33823,33823,33823,33823,33823,33823,33823,33823,33823,33823,33823,33823,33823,33823,33823,33823,33823,33823,33823,2974,2975,33823,0,0,33823,33823,33823,33823,33823,33823,33823,33823,33823,33823,33823,21201,21212,0,0,29833,0,0,0,0,0,4488,0,4628,0,0,
33823,33823,33823,33823,33823,33823,33823,33823,33823,33823,33823,33823,33823,33823,33823,33823,33823,33823,33823,33823,33823,33823,33823,33823,33823,33823,33823,33823,33823,33823,33823,33823,33823,33823,33823,33823,33823,33823,33823,33823,33823,33823,33823,33823,33823,33823,33823,33823,33823,33823,33823,33823,33823,33823,33823,33823,33823,33823,33823,33823,33823,33823,33823,33823,2974,2975,33823,33823,33823,33823,33823,33823,0,0,33823,33823,33823,21209,0,0,0,0,29833,29873,0,0,0,0,4488,5049,0,0,
33823,33823,33823,33823,33823,33823,33823,33823,33823,33823,33823,33823,33823,33823,33823,33823,33823,33823,33823,33823,33823,33823,33823,33823,33823,33823,33823,33823,33823,33823,33823,33823,33823,33823,21201,21202,21202,21202,21202,21202,21202,21203,33823,33823,33823,33823,33823,33823,33823,33823,33823,33823,33823,33823,33823,33823,33823,33823,33823,33823,33823,33823,33823,33823,33823,33823,33823,33823,33823,0,0,33823,2974,2975,33823,33823,33823,21209,0,0,0,0,0,0,0,5203,0,0,4628,0,0,0,
33823,33823,33823,33823,33823,33823,33823,33823,33823,33823,33823,33823,33823,33823,33823,33823,33823,33823,33823,33823,33823,33823,33823,33823,33823,33823,33823,33823,33823,33823,21201,21202,21202,21202,21212,0,0,0,0,0,0,21213,21202,21202,21202,21203,33823,33823,33823,33823,33823,33823,33823,33823,33823,33823,33823,33823,33823,33823,33823,33823,33823,33823,33823,33823,33823,33823,33823,2974,2975,33823,33823,33823,33823,33823,21201,21212,0,0,0,1442,1443,1444,0,0,0,0,4628,0,0,0,
33823,33823,33823,33823,33823,33823,33823,33823,33823,33823,33823,33823,33823,33823,33823,33823,33823,33823,33823,33823,33823,33823,33823,33823,33823,33823,33823,33823,21201,21202,21212,0,21204,0,0,0,0,0,0,0,0,0,0,0,0,21213,21203,33823,33823,33823,33823,33823,33823,33823,33823,33823,33823,33823,33823,33823,33823,33823,33823,33823,33823,33823,33823,33823,33823,33823,33823,33823,33823,33823,33823,21201,21212,0,0,0,29833,1582,0,0,0,0,0,4488,0,0,0,0,
33823,33823,33823,33823,33823,33823,33823,33823,33823,33823,33823,33823,33823,33823,33823,33823,33823,33823,33823,33823,33823,33823,33823,33823,33823,33823,33823,21201,21212,0,0,0,0,0,21013,0,0,0,0,0,0,0,638,639,640,641,21213,21202,21203,33823,33823,33823,33823,33823,33823,33823,33823,33823,33823,33823,33823,33823,33823,33823,33823,33823,33823,33823,33823,33823,33823,33823,33823,33823,33823,21209,0,0,0,0,151,152,153,0,0,5203,0,4628,4488,0,0,5203,
33823,33823,33823,33823,33823,33823,33823,33823,33823,33823,33823,33823,33823,33823,33823,33823,33823,33823,33823,33823,33823,33823,33823,33823,33823,33823,21201,21212,0,0,0,0,0,0,21011,0,0,0,0,0,0,21012,778,779,780,781,0,0,21213,21202,21203,33823,33823,33823,33823,33823,33823,33823,33823,33823,33823,33823,33823,33823,33823,33823,33823,33823,33823,33823,33823,33823,33823,33823,21201,21212,0,0,21204,1442,1443,1444,0,0,0,0,0,4628,4628,0,0,0,
33823,33823,33823,33823,33823,33823,33823,33823,33823,33823,33823,33823,33823,33823,33823,33823,33823,33823,33823,33823,33823,33823,33823,33823,33823,21201,21212,0,0,0,0,1442,1443,1444,21011,0,0,0,0,0,0,21009,918,919,920,921,0,0,0,0,21211,33823,33823,33823,33823,33823,33823,33823,33823,33823,33823,33823,33823,33823,33823,33823,33823,33823,33823,33823,33823,33823,33823,21201,21212,21204,0,0,0,1582,1426,1427,1428,0,0,0,0,4628,4628,0,0,0,
33823,33823,33823,33823,33823,33823,33823,33823,33823,33823,33823,33823,33823,33823,33823,33823,33823,33823,33823,33823,33823,33823,33823,33823,21201,21212,0,0,0,1423,1424,1425,0,0,21011,0,0,0,0,0,0,21009,1058,1059,1060,1061,0,0,0,0,21213,21202,21202,21202,21202,21202,21202,21203,33823,33823,33823,33823,33823,33823,33823,33823,33823,33823,33823,21201,21202,21202,21202,21212,0,0,0,0,0,151,152,153,0,0,0,0,0,4628,4628,5203,0,0,
33823,33823,33823,33823,33823,33823,33823,33823,33823,33823,33823,33823,33823,33823,33823,33823,33823,33823,33823,33823,33823,33823,33823,33823,21209,0,0,145,146,147,0,151,152,153,21011,0,0,0,0,0,0,21009,1198,1199,1200,29858,0,29858,0,0,0,0,0,0,0,0,0,21213,21202,21202,21202,21202,21202,21202,21202,21202,21202,21202,21202,21212,0,0,0,0,0,0,0,0,29833,291,1442,1443,1444,0,0,0,4488,5049,4628,0,0,0,
33823,33823,33823,33823,33823,33823,33823,33823,33823,33823,33823,33823,33823,33823,33823,33823,33823,33823,33823,33823,33823,33823,33823,21201,21212,0,0,285,0,1442,1443,1444,0,0,21011,0,0,0,0,0,0,21009,0,0,0,0,0,0,0,12133,12134,12135,12136,12137,12138,0,0,0,0,0,0,0,0,0,0,0,0,0,0,0,0,0,29833,21116,21117,21118,29833,0,1426,1427,1428,0,1584,5203,0,0,4628,4488,0,0,0,0,
33823,33823,33823,33823,33823,33823,33823,33823,33823,33823,33823,33823,33823,33823,33823,33823,33823,33823,33823,33823,33823,21201,21202,21212,0,0,0,1423,1424,1425,0,1426,1427,1428,21011,0,0,0,0,0,0,21009,0,0,0,0,0,0,0,12273,12274,12275,12276,12277,29833,29833,145,146,147,0,0,0,0,0,0,0,0,0,29833,0,29833,0,10858,10859,10860,10861,145,146,147,1423,1424,1425,1724,0,0,0,0,4628,0,5763,5764,0,
33823,33823,33823,33823,33823,33823,33823,33823,33823,33823,33823,33823,33823,33823,33823,33823,33823,33823,33823,33823,21201,21212,0,0,0,145,146,147,0,151,152,153,0,0,21011,0,0,0,0,0,0,21009,0,0,0,0,0,0,0,12413,12414,12415,12416,12417,151,152,153,0,1423,1424,1425,21116,21117,21118,1442,1443,1444,0,145,146,147,0,10998,10999,11000,11001,11002,0,1442,1443,1444,0,0,0,0,0,0,4628,0,5903,5904,0,
33823,33823,33823,33823,33823,33823,33823,33823,33823,33823,33823,33823,33823,33823,33823,33823,33823,33823,33823,21201,21212,0,0,0,0,0,0,1426,1427,1428,0,1423,1424,1425,21011,0,0,0,0,0,0,21009,0,0,0,0,0,0,0,12553,12554,12555,12556,12557,12558,0,1442,1443,1444,0,0,0,0,0,0,0,151,152,153,0,0,0,11138,11139,11140,11141,151,152,153,145,146,147,0,0,0,0,0,4628,0,0,0,0,
33823,33823,33823,33823,33823,33823,33823,33823,33823,33823,33823,33823,33823,33823,33823,33823,33823,33823,21201,21212,0,1426,1427,1428,0,1442,1443,1444,0,145,146,147,0,0,21011,0,0,0,0,0,0,21009,0,0,0,0,0,0,0,12693,12694,12695,12696,12697,1426,1427,1428,0,151,152,153,0,0,0,145,146,147,0,1442,1443,1444,0,11278,11279,11280,11281,11282,0,145,146,147,0,0,0,0,0,4488,5049,0,0,0,0,
33823,33823,33823,33823,33823,33823,33823,33823,33823,33823,33823,33823,33823,21201,21202,21202,21202,21202,21212,29937,29938,1566,0,1423,1424,1425,0,1442,1443,1444,0,145,146,147,21011,0,0,0,0,0,0,21009,0,0,0,0,0,0,0,12833,12834,12835,12836,12837,12838,0,1568,0,291,0,0,0,0,0,0,0,1426,1427,1428,0,0,0,11418,11419,11420,11421,1442,1443,1444,1426,1427,1428,0,5203,0,0,0,0,0,0,0,0,
33823,33823,33823,33823,33823,33823,33823,33823,33823,33823,33823,33823,21201,21212,0,0,0,0,0,29945,29946,145,146,147,0,145,146,147,0,145,146,147,0,0,21011,0,0,0,0,0,0,21009,0,0,0,0,0,0,0,12973,12974,12975,12976,12977,12978,0,0,10863,10864,10865,10866,10867,0,0,10868,10869,10870,10871,1722,0,0,0,11558,11559,11560,11561,11562,0,1423,1424,1425,0,0,0,0,0,0,0,0,0,0,0,
33823,33823,33823,33823,33823,33823,33823,33823,33823,33823,33823,21201,21212,21204,0,0,0,0,0,0,0,0,0,151,152,153,0,1423,1424,1425,0,151,152,153,21011,0,0,0,0,0,0,0,0,0,0,0,0,0,0,13113,13114,13115,13116,13117,13118,0,0,11003,11004,11005,11006,11007,0,0,11008,11009,11010,11011,11012,0,0,0,11698,11699,11700,11701,145,146,147,0,0,0,0,0,0,0,0,0,0,0,4769,4909,
33823,33823,33823,33823,33823,33823,33823,33823,33823,33823,33823,21209,0,0,0,0,0,0,0,0,0,1442,1443,1444,0,1423,1424,1425,0,151,152,153,0,0,21011,0,0,0,0,0,0,0,0,0,0,0,0,0,0,13253,145,146,147,13257,145,146,147,11143,11144,11145,11146,11147,0,0,11148,11149,11150,11151,11152,0,0,0,11838,11839,11840,11841,11842,0,151,152,153,0,0,0,29842,0,6722,0,0,0,0,4628,
33823,33823,33823,33823,33823,33823,33823,33823,33823,21201,21202,21212,0,0,0,0,0,0,0,0,0,0,0,145,146,147,0,1442,1443,1444,0,1426,1427,1428,21011,0,0,0,0,0,0,0,0,0,0,0,0,0,145,146,147,0,1423,1424,1425,0,0,11283,11284,11285,11286,11287,0,0,11288,11289,11290,11291,1442,1443,1444,0,0,0,0,0,0,29833,0,0,0,0,0,0,0,0,0,0,0,0,0,4768,
33823,33823,33823,33823,33823,33823,33823,33823,33823,21209,0,0,0,1426,1427,1428,0,0,0,21116,21118,1722,1723,1724,0,145,146,147,0,145,146,147,0,0,21011,0,0,0,0,0,0,0,0,0,0,0,0,29858,0,0,1442,1443,1444,0,151,152,153,11423,11424,11425,11426,11427,0,0,11428,11429,11430,11431,11432,0,1423,1424,1425,0,0,0,0,0,29833,21157,0,0,0,0,0,0,0,0,0,0,0,0,
33823,33823,33823,33823,33823,33823,33823,33823,21201,21212,0,145,146,147,0,1442,1443,1444,0,0,0,0,0,0,0,0,0,1426,1427,1428,0,1423,1424,1425,21011,0,0,0,0,0,0,0,0,0,0,0,3085,29858,0,0,0,0,0,29858,0,0,0,11563,11564,11565,11566,11567,0,0,11568,11569,11570,11571,145,146,147,0,1426,1427,1428,0,0,0,0,21165,0,0,21157,0,0,0,0,0,0,0,0,0,
33823,33823,33823,33823,33823,33823,21201,21202,21212,1423,1424,1425,0,151,152,153,0,1584,0,0,0,0,0,0,0,1442,1443,1444,0,1426,1427,1428,0,0,21011,0,0,0,0,0,0,0,0,0,0,0,0,0,0,0,0,0,0,0,0,0,0,11703,11704,11705,11706,11707,0,0,11708,11709,11710,11711,11712,0,1423,1424,1425,0,1442,1443,1444,29833,0,21173,0,0,21165,0,0,0,0,0,0,0,0,0,
33823,33823,33823,33823,33823,21201,21212,0,0,1563,0,1442,1443,1444,0,145,146,147,0,0,0,0,0,0,0,0,0,1423,1424,1425,0,151,152,153,21011,0,0,0,0,0,0,0,0,0,0,0,0,0,0,0,0,0,0,0,0,0,0,11843,11844,11845,11846,11847,0,0,11848,11849,11850,11851,151,152,153,0,145,146,147,0,0,0,0,0,0,0,21173,0,0,0,0,0,0,0,0,0,
33823,33823,33823,33823,21201,21212,0,0,0,1426,1427,1428,0,1423,1424,1425,0,1426,1427,1428,0,1426,1427,1428,0,145,146,147,0,151,152,153,0,0,21011,0,0,0,0,0,0,12026,0,29858,0,0,29858,0,0,0,145,146,147,0,1442,1443,1444,0,145,146,147,0,1442,1443,1444,0,1423,1424,1425,0,1442,1443,1444,0,1722,1723,1724,0,0,0,0,0,0,0,0,0,0,0,0,0,0,0,
33823,33823,33823,21201,21212,0,0,1423,1424,1425,0,151,152,153,0,151,152,153,0,1442,1443,1444,0,151,152,153,0,1426,1427,1428,0,1442,1443,1444,21011,0,0,0,0,0,0,21009,0,0,0,0,0,0,151,152,153,0,1423,1424,1425,0,151,152,153,0,145,146,147,0,151,152,153,0,0,29858,0,0,5763,5764,0,0,0,0,0,0,0,0,0,0,0,0,0,0,0,5763,5764,5203,
33823,33823,21201,21212,0,0,0,1563,0,145,146,147,0,1426,1427,1428,0,1423,1424,1425,0,1423,1424,1425,0,151,152,153,0,1442,1443,1444,0,0,21011,0,0,0,0,0,0,21009,145,146,147,0,1442,1443,1444,0,1442,1443,1444,0,1426,1427,1428,0,1442,1443,1444,0,145,146,147,0,0,29858,0,0,4489,4489,5903,5904,0,5203,0,5203,0,0,29842,0,0,0,0,0,0,0,0,5903,5904,0
</data>
 </layer>
 <layer name="Layer 4" width="92" height="96">
  <data encoding="csv">
0,0,0,0,0,0,0,0,0,0,0,0,0,0,0,0,0,0,0,0,0,0,0,0,0,0,0,0,0,0,0,0,0,0,0,0,0,0,0,0,0,0,0,0,0,0,0,0,0,0,0,0,0,0,0,0,0,0,0,0,0,0,0,0,0,0,8811,8812,0,0,0,0,0,0,0,0,0,0,0,0,0,0,0,0,0,0,0,0,0,0,0,0,
0,0,0,0,0,0,0,0,0,0,0,0,0,0,0,0,0,0,0,0,0,0,0,0,0,0,0,0,0,0,0,0,0,0,0,0,0,0,0,0,0,0,0,0,0,0,0,0,0,0,0,0,0,0,0,0,0,0,0,0,0,0,0,0,0,0,8951,8952,0,0,0,0,0,0,0,0,0,0,0,0,0,0,0,0,0,0,0,0,0,0,0,0,
0,0,0,0,0,0,0,0,0,0,0,0,0,0,0,0,0,0,0,0,0,0,0,0,0,0,0,0,0,0,0,8811,8812,0,0,0,0,0,0,0,0,0,0,0,0,0,0,0,0,0,0,0,0,0,0,0,0,0,0,0,0,0,0,0,0,0,0,0,0,0,0,0,0,0,0,0,0,0,0,0,0,0,0,0,0,0,0,0,0,0,0,0,
0,0,0,0,0,0,0,0,0,0,0,0,0,0,0,0,0,0,0,0,0,0,0,0,0,0,0,0,0,0,0,8951,8952,0,0,0,0,0,0,0,0,0,0,0,0,0,0,0,0,0,0,0,0,0,0,0,0,0,0,0,0,0,0,0,0,0,0,0,0,0,0,0,0,0,0,0,0,0,0,0,0,0,0,0,0,0,0,0,0,0,0,0,
0,0,0,0,0,0,0,0,0,0,0,0,0,0,0,0,0,0,0,0,0,0,0,0,0,0,0,0,0,0,0,0,0,0,0,0,0,0,0,0,0,0,0,0,0,0,0,0,0,0,0,0,0,0,0,0,0,0,0,0,0,0,0,0,0,0,0,0,0,0,0,0,0,0,0,0,0,0,0,0,0,0,0,0,0,0,0,0,0,0,0,0,
0,0,0,0,0,0,0,0,0,0,0,0,0,0,0,0,0,0,0,0,0,0,0,0,0,0,0,0,0,8811,8812,0,0,0,0,0,0,0,0,0,0,0,0,0,0,0,0,0,0,0,0,0,0,0,0,0,0,0,0,0,0,0,0,0,0,0,0,0,0,0,0,0,0,0,0,0,0,0,0,0,0,0,0,0,0,0,0,0,0,0,0,0,
0,0,0,0,0,0,0,0,0,0,0,0,0,0,0,0,0,0,0,0,0,0,0,0,0,0,0,0,0,8951,8952,0,0,0,0,0,0,0,0,0,0,0,0,0,0,0,0,0,0,0,0,0,0,0,0,0,0,0,0,0,0,0,0,0,0,0,0,0,0,0,0,0,0,0,0,0,0,0,0,0,0,0,0,0,0,0,0,0,0,0,0,0,
0,0,0,0,0,0,0,0,0,0,0,0,0,0,0,0,0,0,0,0,0,0,0,0,0,0,0,0,0,0,0,0,0,0,0,0,0,0,0,0,0,0,0,0,0,0,1305,1306,1307,1308,1309,0,0,0,0,0,0,0,0,0,0,0,0,0,0,0,0,0,0,0,0,0,0,0,0,0,0,0,0,0,0,0,0,0,0,0,0,0,0,0,0,0,
0,0,0,0,0,0,0,0,0,0,0,0,0,0,0,0,0,0,0,0,0,0,0,0,0,0,0,0,0,0,0,0,0,0,0,0,0,0,0,0,0,0,0,0,0,0,1445,1446,1447,1448,1449,0,0,0,0,0,0,0,0,0,0,2818,0,1305,1306,1307,1308,1309,0,0,0,0,0,0,0,0,0,0,0,0,0,0,0,0,0,0,0,0,0,0,0,0,
0,0,0,0,0,0,0,0,0,0,0,0,0,0,0,0,0,0,0,0,0,0,0,0,0,0,0,0,0,0,0,0,0,0,0,0,0,0,0,0,0,0,0,0,0,0,1585,1586,1587,1588,1589,0,0,0,0,0,0,3228,0,0,0,2958,0,1445,1446,1447,1448,1449,0,0,0,0,0,0,0,0,0,0,0,0,0,0,0,0,0,0,0,0,0,0,0,0,
0,0,0,0,0,0,0,0,0,0,0,0,0,0,0,0,0,0,0,0,0,0,0,0,0,0,0,0,0,0,0,0,0,0,0,8811,8812,0,0,0,0,0,0,0,0,0,1725,1726,1727,1728,1729,0,0,0,0,0,0,0,0,0,3228,0,0,1585,1586,1587,1588,1589,0,0,0,0,0,0,0,0,0,0,0,0,0,0,0,0,0,0,0,0,0,0,0,0,
0,0,0,0,0,0,0,0,0,0,0,0,0,0,0,0,0,0,0,0,0,0,0,0,0,0,0,7401,0,0,0,0,0,8811,8812,8951,8952,0,0,0,0,0,0,0,0,0,1865,1866,1867,1868,1869,0,0,0,0,0,0,0,0,0,0,0,0,1725,1726,1727,1728,1729,0,0,0,0,0,0,0,0,0,0,0,0,0,0,0,0,0,0,0,0,0,0,0,0,
0,0,0,0,0,0,0,0,0,0,0,0,0,0,0,0,0,0,0,0,0,0,0,0,0,0,0,7541,0,0,0,0,0,8951,8952,7549,0,0,0,0,0,0,0,0,0,0,0,0,0,0,0,0,0,0,0,0,0,0,0,2818,0,3228,0,1865,1866,1867,1868,1869,0,0,0,0,0,0,0,0,0,0,0,0,0,0,0,0,0,0,0,0,0,0,0,0,
0,0,0,0,0,0,0,0,0,0,0,0,0,0,0,0,0,0,0,0,0,0,0,0,0,0,0,0,7682,0,0,0,0,0,0,7689,0,0,0,0,0,0,0,0,0,0,0,0,0,0,0,0,0,0,0,0,0,0,0,2958,0,0,0,0,0,0,0,0,0,0,0,0,0,0,0,0,0,0,0,0,0,0,0,0,0,0,0,0,0,0,0,0,
0,0,0,0,0,0,0,0,0,0,0,0,0,0,0,0,0,0,0,0,0,0,0,0,0,0,0,0,0,0,0,0,0,0,0,0,0,0,0,0,0,0,0,0,0,0,0,0,0,0,0,0,0,0,0,0,0,0,0,0,0,0,0,0,0,0,0,0,0,0,0,0,0,0,0,0,0,0,0,0,0,0,0,0,0,0,0,0,0,0,0,0,
0,0,0,0,0,0,0,0,0,0,0,0,0,0,0,0,0,0,0,0,0,0,0,0,0,0,0,0,0,0,0,0,0,0,0,0,0,0,0,0,0,0,0,8111,8112,0,0,0,0,0,0,0,0,0,0,0,0,0,0,0,0,0,0,0,0,0,0,0,0,0,0,0,0,0,0,0,0,8811,8812,0,0,0,0,0,0,0,0,0,0,0,0,0,
0,0,0,0,0,0,0,0,0,0,0,0,0,0,0,0,0,0,0,0,0,0,0,0,0,0,0,0,0,0,0,0,0,0,0,0,0,0,0,0,0,0,0,8251,8252,0,0,0,0,0,0,0,0,0,0,0,0,0,0,0,0,0,0,0,0,0,0,0,0,0,0,0,0,0,0,0,0,8951,8952,0,0,0,0,0,0,0,0,0,0,0,0,0,
0,0,0,0,0,0,0,0,0,0,0,0,0,0,0,0,0,0,0,0,0,0,0,0,0,0,0,0,0,0,0,0,0,0,0,0,0,0,0,0,0,0,8111,8112,0,0,0,0,0,0,0,0,0,0,0,0,0,0,0,0,0,0,0,0,0,0,0,0,0,0,0,0,0,0,0,0,0,0,0,0,0,0,0,0,0,0,2834,2835,0,0,0,0,
0,0,0,0,0,0,0,0,0,0,0,0,0,0,0,0,0,0,0,0,0,0,0,0,0,0,0,0,0,0,0,0,0,0,0,0,0,0,0,0,0,0,8251,8252,0,0,0,0,0,0,0,0,0,0,0,0,0,0,0,0,0,0,0,0,0,0,0,0,0,0,0,0,8811,8812,0,0,0,0,0,0,0,2834,2835,0,0,0,0,0,0,0,0,0,
0,0,0,0,0,0,0,0,0,0,0,0,0,0,0,0,0,0,0,0,0,0,0,0,0,0,0,0,0,0,0,0,0,0,0,0,0,0,0,0,0,0,0,0,0,0,0,0,0,0,0,0,0,0,0,0,0,0,0,0,0,0,0,0,0,0,0,3228,0,0,0,0,8951,8952,0,0,0,0,0,0,0,0,0,0,0,2834,2835,0,0,0,0,0,
0,0,0,0,0,0,0,0,0,0,0,0,0,0,0,0,0,0,0,0,0,0,0,0,0,0,0,0,0,0,0,0,0,0,0,0,0,0,0,0,0,0,0,0,0,0,0,0,0,0,0,0,0,0,0,0,0,0,0,0,0,0,0,3228,0,0,0,0,0,0,0,0,0,0,0,0,0,0,0,2834,2835,0,0,0,0,0,0,0,0,0,0,0,
0,0,0,0,0,0,0,0,0,0,0,0,0,0,0,0,0,0,0,0,0,0,0,0,0,0,0,0,0,0,0,0,0,0,0,0,0,0,0,0,0,0,0,0,0,0,0,0,0,0,0,0,0,0,0,0,0,0,0,0,0,0,0,0,0,0,2818,0,0,0,0,0,0,0,0,0,0,0,0,0,0,0,2834,2835,0,0,0,0,0,0,0,0,
0,0,0,0,0,0,0,0,0,0,0,0,0,0,0,0,0,0,0,0,0,0,0,0,0,0,0,0,0,0,0,0,0,0,0,0,0,0,0,0,0,0,0,0,0,0,0,0,0,0,0,0,0,0,0,0,0,0,0,0,0,0,0,3228,0,0,2958,0,0,0,0,0,0,0,0,0,0,0,0,0,0,0,0,0,0,0,0,0,0,0,0,0,
0,0,0,0,0,0,0,0,0,0,0,0,0,0,0,0,0,0,0,0,0,0,0,0,0,0,0,0,0,0,0,0,0,0,0,0,0,0,0,0,0,0,0,0,0,0,0,0,0,0,0,0,0,0,0,0,0,0,0,0,0,0,0,0,0,0,0,0,0,0,0,0,2834,2835,0,0,0,0,0,0,0,0,0,0,0,0,0,0,0,2834,2835,0,
0,0,0,0,0,0,0,0,0,0,0,0,0,0,0,0,0,0,0,0,0,0,0,0,0,0,0,0,0,0,0,0,0,0,0,0,0,0,0,0,0,0,0,0,0,0,0,0,0,0,0,0,0,0,0,0,0,0,0,0,0,0,0,0,0,0,0,0,0,0,0,0,2834,2835,0,0,2834,2835,0,0,0,0,0,0,0,0,0,0,0,0,0,0,
0,0,0,0,0,0,0,0,0,0,0,0,0,0,0,0,0,0,0,0,0,0,0,0,0,0,0,0,0,0,0,0,0,0,0,0,0,0,0,0,0,0,0,0,0,0,0,0,0,0,0,0,0,0,0,0,0,0,0,0,0,0,0,0,0,0,0,0,0,0,0,0,0,0,0,0,0,0,0,0,0,0,0,0,0,0,0,0,0,0,0,0,
0,0,0,0,0,0,0,0,0,0,0,0,0,0,0,0,0,0,0,0,0,0,8811,8812,0,0,0,0,0,0,0,0,0,0,0,0,0,0,0,0,0,0,0,0,0,0,0,0,0,0,0,0,0,0,0,0,0,0,0,0,0,0,0,0,0,0,0,0,0,0,0,0,0,0,0,0,0,0,0,0,0,0,0,0,0,0,0,0,0,0,0,0,
0,0,0,0,0,0,0,0,0,0,0,0,0,0,0,0,0,0,0,0,0,0,8951,8952,8811,8812,0,0,0,0,0,0,0,0,0,0,0,0,0,0,0,0,0,0,0,0,0,0,0,0,0,0,0,0,0,0,0,0,0,0,0,0,0,0,0,0,0,0,0,0,0,0,0,0,0,0,0,0,0,0,0,0,0,0,0,0,0,0,0,0,0,0,
0,0,0,0,0,0,0,0,0,0,0,0,0,0,0,0,0,0,0,0,0,0,0,0,8951,8952,0,0,0,0,0,0,0,0,0,0,0,0,0,0,0,0,0,0,0,0,0,0,0,0,0,0,0,0,0,0,0,0,0,0,0,0,0,0,0,0,0,0,0,0,2834,2835,0,0,0,0,0,0,0,0,0,0,0,0,0,0,0,0,0,0,0,0,
0,0,0,0,0,0,0,0,0,0,0,0,0,0,0,0,0,0,0,0,0,0,0,0,0,0,0,0,0,0,0,0,0,0,0,0,0,0,0,0,0,0,0,0,0,0,0,0,0,0,0,0,0,0,0,0,0,0,0,0,0,0,0,0,0,0,0,0,0,0,0,0,0,0,0,0,0,0,0,0,0,0,0,0,0,0,0,0,0,0,0,0,
0,0,0,0,0,0,0,0,0,0,0,0,0,0,0,0,0,0,0,0,0,0,0,0,0,0,0,0,0,0,0,0,0,0,0,0,0,0,0,0,0,0,0,0,0,0,0,0,0,0,0,0,0,0,0,0,0,0,0,0,0,0,0,0,0,0,0,0,0,0,0,0,0,0,0,0,0,0,0,0,0,0,0,0,0,0,0,0,0,0,0,0,
0,0,0,0,0,0,0,0,0,0,0,0,0,0,0,0,0,0,0,0,0,0,0,0,0,0,0,0,0,0,0,0,1302,1303,1304,0,1302,1303,1304,0,0,0,0,0,0,0,0,0,0,0,0,0,0,0,0,0,0,0,0,0,0,0,0,0,0,0,0,0,0,0,0,0,0,0,0,0,0,0,0,0,0,0,0,0,0,0,0,0,0,0,0,0,
0,0,0,0,0,0,0,0,0,0,0,0,0,0,0,0,0,0,0,0,0,0,0,0,0,0,0,0,0,0,0,0,0,0,0,0,0,0,0,0,0,0,0,0,0,0,0,0,0,0,0,0,0,0,0,0,0,0,0,0,0,0,0,0,0,0,0,0,0,0,0,0,0,0,0,0,0,0,0,0,0,0,0,0,0,0,0,0,0,0,0,0,
0,0,0,0,0,0,0,0,0,0,0,0,0,0,0,0,0,0,0,0,0,0,0,0,0,1302,1303,1304,0,0,0,0,0,0,0,0,0,0,0,0,0,0,0,0,0,0,0,0,0,0,0,0,0,0,0,0,0,0,0,0,0,0,0,0,0,0,0,0,0,0,0,0,0,0,0,0,0,0,0,0,0,0,0,0,0,0,0,0,0,0,0,0,
0,0,0,0,0,0,0,0,0,0,0,0,0,0,0,0,0,0,0,0,0,0,0,0,0,1442,1443,1444,0,0,0,0,1722,0,0,0,0,0,0,0,0,0,0,0,0,0,0,0,0,0,0,0,0,0,0,0,0,0,0,0,0,0,0,0,0,0,0,0,0,0,0,0,0,0,0,0,0,0,0,0,0,0,0,0,0,0,0,0,0,0,0,0,
0,0,0,0,0,0,0,0,0,0,0,0,0,0,0,0,0,0,0,0,0,0,0,0,0,0,0,0,0,0,0,0,0,0,0,0,0,0,0,0,0,0,0,0,0,0,0,0,0,0,0,0,0,0,0,22988,22989,22990,22991,22992,0,0,0,0,0,0,0,0,0,0,0,0,0,0,0,0,0,0,0,0,0,0,0,0,0,0,0,0,0,0,0,0,
0,0,0,0,0,0,0,0,0,0,0,0,0,0,0,0,0,0,0,0,0,0,0,0,0,0,0,0,0,0,0,0,0,0,0,0,0,0,0,0,0,0,0,0,0,0,0,0,0,0,0,0,0,0,0,22996,22997,22998,22999,23000,0,0,0,0,8111,8112,0,0,0,0,0,0,0,0,0,0,0,0,0,0,0,0,0,0,0,0,0,0,0,0,0,0,
0,0,0,0,0,0,0,0,0,0,0,0,0,0,0,0,0,0,0,0,0,1302,1303,1304,0,0,0,0,0,0,0,0,0,0,0,0,0,0,0,0,0,0,0,0,0,0,0,0,0,0,0,0,0,0,0,23004,23005,23006,23007,23008,0,0,8111,8112,8251,8252,0,0,0,0,0,0,0,0,0,0,0,0,0,0,0,0,0,0,0,0,0,0,0,0,0,0,
0,0,0,0,0,0,0,0,0,0,0,0,0,0,0,0,0,0,0,0,0,1442,1443,1444,0,0,0,0,0,0,0,0,0,0,0,0,0,0,0,0,0,0,0,0,0,0,0,0,0,0,0,0,0,0,0,23012,23013,23014,23015,23016,0,0,8251,8252,0,0,0,0,0,0,0,0,0,0,0,0,0,0,0,0,0,0,0,0,0,0,0,0,0,0,0,0,
0,0,0,0,0,0,0,0,0,0,0,0,0,0,0,0,0,0,0,0,0,0,0,0,0,0,0,3100,0,0,0,0,0,0,0,0,0,0,0,0,0,0,0,0,0,0,0,0,0,0,0,0,0,0,0,23020,23021,23022,23023,23024,0,0,0,0,0,0,0,0,0,0,0,0,0,0,0,0,0,0,0,0,0,0,0,0,0,0,0,0,0,0,0,0,
0,0,0,0,0,0,0,0,0,0,0,0,0,0,0,0,0,0,0,0,0,0,0,0,0,0,0,0,0,0,0,0,0,0,0,0,0,0,0,0,0,0,0,0,0,0,0,0,0,0,0,0,0,0,0,0,0,0,0,0,0,0,0,0,0,0,0,0,0,0,0,0,0,0,0,0,0,0,0,0,0,0,0,0,0,0,0,0,0,0,0,0,
0,0,0,0,0,0,0,0,0,0,0,0,0,0,0,0,0,0,0,0,0,0,0,0,0,2830,0,0,0,0,0,0,0,0,0,0,0,0,0,0,0,0,0,0,0,0,0,0,0,0,0,0,0,0,0,0,0,0,0,0,0,0,0,0,0,0,0,0,0,8811,8812,0,0,0,0,0,0,0,0,0,0,0,0,0,0,0,0,0,0,0,0,0,
0,0,0,0,0,0,0,0,0,0,8811,8812,0,0,0,0,0,0,0,0,0,2830,0,0,0,0,0,3100,0,0,0,0,0,0,0,0,0,0,0,0,0,0,0,0,0,0,0,0,0,0,0,0,0,0,0,0,0,0,0,0,0,0,0,0,0,0,0,0,0,8951,8952,0,0,0,0,0,0,0,0,0,0,0,0,0,0,0,0,0,0,0,0,0,
0,0,0,0,0,0,0,0,0,0,8951,8952,0,0,0,0,0,0,10713,10714,10715,10716,7271,0,0,0,0,0,0,0,0,0,0,0,0,0,8111,8112,0,0,0,0,0,0,0,0,0,0,0,0,0,0,0,0,0,0,0,0,0,0,0,0,0,0,0,0,0,0,0,0,0,0,0,0,0,0,0,0,0,0,0,0,0,0,0,0,0,0,0,0,0,0,
0,0,0,0,0,0,0,0,0,0,0,0,0,0,0,0,0,0,10853,10854,7273,10856,7411,7272,0,0,0,0,0,0,0,0,0,0,0,0,8251,8252,0,0,0,0,0,0,0,0,0,0,0,0,0,0,0,0,0,0,0,0,0,0,0,0,0,0,0,0,0,0,0,0,0,0,0,0,0,0,0,0,0,0,0,0,0,0,0,0,0,0,0,0,0,0,
0,0,0,0,0,0,0,0,0,0,0,0,0,0,0,0,0,0,10993,10994,10995,10996,10997,0,0,0,0,0,0,0,0,0,0,0,8111,8112,0,0,0,0,0,0,0,0,0,0,0,0,0,0,0,0,0,0,0,0,0,0,0,0,0,0,0,0,0,0,0,0,0,0,0,0,8811,8812,0,0,0,0,0,0,0,0,0,0,0,0,0,0,0,0,0,0,
0,0,0,0,0,0,0,0,0,0,0,8811,8812,0,0,0,0,0,11133,11134,11135,11136,11137,0,0,0,0,0,0,0,0,0,0,0,8251,8252,0,0,0,0,0,0,0,0,0,0,0,0,0,0,0,0,0,0,0,0,0,0,0,0,0,0,0,0,0,0,0,0,0,0,0,0,8951,8952,0,0,0,0,0,0,0,0,0,0,0,0,0,0,0,0,0,0,
0,0,0,0,0,0,0,0,0,0,0,8951,8952,0,0,0,0,0,11273,11274,11275,11276,11277,0,0,0,0,0,0,0,0,0,0,0,0,0,0,0,0,0,0,0,0,0,0,0,0,0,0,0,0,0,0,0,0,0,0,0,0,0,0,0,0,0,0,0,0,0,0,0,0,0,0,0,0,0,0,0,0,0,0,0,0,0,0,0,0,0,0,0,0,0,
0,0,0,0,0,0,0,0,0,0,0,0,0,0,0,0,0,0,11413,11414,11415,11416,11417,0,0,0,0,0,0,0,0,0,0,0,0,0,0,0,0,0,0,0,0,0,0,0,0,0,0,0,0,0,0,0,0,0,0,0,0,0,0,0,0,0,0,0,0,0,0,0,0,0,0,0,0,0,0,0,0,0,0,0,0,0,0,0,0,0,0,0,0,0,
0,0,0,0,0,0,0,0,0,0,0,0,0,0,0,0,0,0,11553,11554,11555,11556,11557,0,0,0,0,0,0,0,0,0,0,0,0,0,0,0,0,0,0,0,0,0,0,0,0,0,0,0,0,0,0,0,0,0,0,0,0,0,0,0,0,0,0,0,0,0,0,0,0,0,0,0,0,0,0,0,0,0,0,0,0,0,0,0,0,0,0,0,0,0,
0,0,0,0,0,0,0,0,0,0,0,0,0,0,0,0,0,0,11693,11694,11695,11696,11697,0,0,0,0,0,0,0,0,0,0,0,0,0,0,0,0,0,0,0,0,0,0,0,0,0,0,0,0,0,0,0,0,0,0,0,0,0,0,0,0,0,0,0,0,0,0,0,0,0,0,0,0,0,0,0,0,0,0,0,0,0,0,0,0,0,0,0,0,0,
0,0,0,0,0,0,0,0,0,0,0,0,0,0,0,0,0,0,11833,11834,11835,11836,11837,0,0,0,0,0,0,0,0,0,0,0,0,0,0,0,0,0,0,0,0,0,0,0,0,0,0,0,0,0,0,0,0,0,0,0,0,0,0,0,0,0,0,0,0,0,0,0,0,0,0,0,0,0,0,0,0,0,0,0,0,0,0,0,0,0,0,0,0,0,
0,0,0,0,0,0,0,0,0,0,0,0,0,0,0,0,0,0,0,0,0,0,0,0,0,0,0,0,0,0,0,0,7400,7401,7402,7403,0,0,7406,7407,7408,0,0,0,0,0,0,0,0,0,0,0,0,0,0,0,0,0,0,0,0,0,0,0,0,0,0,0,0,0,0,0,0,0,0,0,0,0,0,0,0,0,0,0,0,0,0,0,0,0,0,0,
0,0,0,0,0,0,0,0,0,0,0,0,0,0,0,0,0,0,0,0,0,0,0,0,0,0,0,0,0,0,0,0,7540,7541,7542,0,0,0,0,0,0,0,0,0,0,0,0,0,0,0,0,0,0,0,0,0,0,0,0,0,0,0,0,0,0,0,0,0,0,0,0,0,8111,8112,0,0,0,0,0,0,0,0,0,0,0,0,0,0,0,0,0,0,
0,0,0,0,0,0,0,0,0,0,0,0,0,0,0,0,0,0,0,0,0,0,0,0,0,0,0,0,0,0,0,0,7680,7681,0,0,0,0,0,7687,7688,0,0,0,0,0,0,0,0,0,0,0,0,0,0,0,0,0,0,0,0,0,0,0,0,0,0,0,0,0,0,0,8251,8252,0,0,0,0,0,0,0,0,0,0,0,0,0,0,0,0,0,0,
0,0,0,0,0,0,0,0,0,0,0,0,0,0,0,0,0,0,0,0,0,0,0,0,0,0,0,0,0,0,0,0,7820,0,0,0,0,0,0,0,0,0,0,0,0,0,0,0,0,0,0,0,0,0,0,0,0,0,0,0,0,0,0,0,0,0,0,0,0,0,0,0,0,0,0,0,0,8111,8112,0,0,0,0,0,0,0,0,0,0,0,0,0,
0,0,0,0,0,0,0,0,0,0,0,0,0,0,0,0,0,0,0,0,0,0,0,0,0,0,0,0,0,0,0,0,7960,0,0,0,0,0,0,0,0,0,0,0,0,0,0,0,0,0,0,0,0,0,0,0,0,0,0,0,0,0,0,0,0,0,8111,8112,0,0,0,0,0,8111,8112,0,0,8251,8252,0,0,0,0,0,0,0,0,0,0,0,0,0,
0,0,0,0,0,0,0,0,0,0,0,0,0,0,0,0,0,0,0,0,0,0,0,0,0,0,0,0,0,0,0,0,8100,0,0,0,0,0,0,0,0,0,0,0,0,0,0,0,0,0,0,0,0,0,0,0,0,0,0,0,0,0,0,0,0,0,8251,8252,0,0,0,0,0,8251,8252,0,0,0,0,0,0,0,0,0,0,0,0,0,0,0,0,0,
0,0,0,0,0,0,0,0,0,0,0,0,0,0,0,0,0,0,0,0,0,0,1283,1284,1285,0,0,0,0,0,0,0,8240,0,0,0,0,0,0,0,0,0,0,0,0,0,0,0,0,0,0,0,0,0,0,0,0,0,0,0,0,0,0,0,0,0,0,0,0,0,0,0,0,0,0,0,0,0,0,0,0,0,0,0,0,0,0,0,0,0,0,0,
0,0,0,0,0,0,0,0,0,0,0,0,0,0,0,0,0,0,0,0,0,0,0,0,0,0,0,0,0,0,0,0,8380,8381,0,0,0,0,0,0,8388,0,0,0,0,0,0,0,0,0,0,0,0,0,0,0,0,0,0,0,0,0,0,0,0,0,0,0,0,0,0,0,0,0,0,0,0,0,0,0,0,0,0,0,0,0,0,0,0,0,0,0,
0,0,0,0,0,0,0,0,0,0,0,0,0,0,0,0,8811,8812,0,0,0,0,0,0,0,0,0,0,0,0,0,0,0,0,0,0,0,0,0,0,0,0,0,0,0,0,0,0,0,0,0,0,0,0,0,0,0,0,0,0,0,0,0,0,0,0,0,0,0,0,0,0,0,2834,2835,0,0,0,0,0,0,0,0,0,0,0,0,0,0,0,0,0,
0,0,0,0,0,0,0,0,0,0,0,0,0,0,0,0,8951,8952,0,0,0,0,0,0,0,0,0,0,0,0,0,0,0,0,0,0,0,0,0,0,0,0,0,0,0,0,0,0,0,0,0,0,0,0,0,0,0,0,0,0,0,0,0,0,0,0,0,0,0,0,0,0,0,0,0,0,2834,2835,0,0,0,0,0,0,0,0,0,0,0,0,0,0,
0,0,0,0,0,0,0,0,0,0,0,0,0,0,0,0,0,0,0,0,0,0,0,0,0,0,0,0,0,0,0,0,0,0,0,0,0,0,0,0,0,0,0,0,0,0,0,0,0,0,0,0,0,0,0,0,0,0,0,0,0,0,0,0,0,0,0,0,0,0,0,0,0,0,2834,2835,0,0,2834,2835,0,0,0,0,0,0,0,0,0,0,0,0,
0,0,0,0,0,0,0,0,0,0,0,0,0,0,0,0,0,0,0,0,0,0,0,0,0,0,0,0,0,0,0,0,0,0,0,0,0,0,0,0,0,0,0,0,0,0,0,0,0,0,0,0,0,0,0,0,0,0,0,0,0,0,0,0,0,0,0,0,0,0,0,0,0,0,0,0,2834,2835,0,0,0,0,0,0,0,0,0,0,0,0,0,0,
0,0,0,0,0,0,0,0,0,0,0,0,0,0,0,0,0,0,0,8811,8812,0,0,0,0,0,0,0,0,0,0,0,0,0,0,0,0,0,0,0,0,0,0,0,0,0,0,0,0,0,0,0,0,0,0,0,0,0,0,0,0,0,0,2834,2835,0,0,0,0,0,0,0,0,0,0,0,0,2834,2835,0,0,0,0,0,0,0,0,0,0,0,0,0,
0,0,0,0,0,0,0,0,0,0,0,0,0,0,0,0,0,0,0,8951,8952,0,0,0,0,0,0,0,0,0,0,0,0,0,0,0,0,0,0,0,0,0,0,0,0,0,0,0,0,0,0,0,0,0,0,0,0,0,0,0,0,0,0,0,0,0,0,0,0,0,0,0,0,0,0,2834,2835,0,0,0,0,0,0,0,0,0,0,0,0,29833,0,0,
0,0,0,0,0,0,0,0,0,0,0,0,0,0,0,0,0,0,0,0,0,0,0,0,0,0,0,0,0,0,0,0,0,0,0,0,0,0,0,0,0,0,0,0,0,0,0,0,0,0,0,0,0,0,8111,8112,0,0,0,0,2834,2835,0,0,0,0,0,0,0,0,0,0,0,0,0,0,0,0,0,0,0,0,0,0,0,0,0,0,0,0,0,0,
0,0,0,0,0,0,0,0,0,0,0,0,0,0,0,0,0,0,0,0,0,0,0,0,0,0,0,0,0,0,0,0,0,0,0,0,0,0,0,0,0,0,0,0,0,0,0,0,0,0,0,0,0,0,8251,8252,0,0,0,0,0,0,2834,2835,0,0,0,0,0,0,0,0,0,0,0,0,0,0,0,0,0,0,0,0,0,0,0,0,0,0,0,0,
0,0,0,0,0,0,0,0,0,0,0,0,0,0,0,0,0,0,0,0,0,0,0,0,0,0,0,0,0,0,0,0,0,0,0,0,0,0,0,0,0,0,0,0,0,0,0,0,0,0,0,0,0,0,0,0,0,0,0,0,0,2834,2835,0,0,0,0,0,0,0,0,0,0,0,0,0,0,0,8639,8640,0,0,0,0,0,0,0,0,0,0,0,0,
0,0,0,0,0,0,0,0,0,0,0,0,0,0,0,0,0,0,0,0,0,0,0,0,0,0,0,0,0,0,0,0,0,0,0,0,0,0,0,0,0,0,0,0,0,0,0,0,0,0,0,0,0,0,0,0,0,0,0,0,0,0,0,0,2834,2835,0,0,0,0,0,0,0,0,0,0,0,0,8779,8780,0,0,0,0,0,0,0,0,0,0,0,5769,
0,0,0,0,0,0,0,0,0,0,0,0,0,0,0,0,0,0,0,0,0,0,0,0,0,0,0,0,0,0,0,0,0,0,0,0,0,0,0,0,0,0,0,0,0,0,0,0,0,0,0,0,0,0,0,0,0,0,0,0,0,0,0,0,0,0,0,0,0,0,0,0,2834,2835,0,0,0,0,8919,8920,0,0,0,0,0,0,0,0,0,0,0,5909,
0,0,0,0,0,0,0,0,0,0,0,0,0,0,0,0,0,0,0,0,0,0,0,0,0,0,0,0,0,0,0,0,0,0,0,0,0,0,0,0,0,0,0,0,0,0,0,0,0,0,0,0,0,0,0,0,0,0,0,0,0,0,0,0,0,0,0,0,0,2834,2835,0,0,0,0,0,0,0,0,0,0,1302,1303,1304,0,0,0,0,0,5769,5770,0,
0,0,0,0,0,0,0,0,0,0,0,0,0,0,0,0,0,0,0,0,0,0,0,0,0,0,0,0,0,9059,9060,0,0,0,0,0,0,0,0,0,0,0,0,0,0,0,0,0,0,0,0,0,0,0,0,0,0,0,0,0,0,0,0,0,0,0,0,0,0,0,0,0,0,0,0,0,0,0,0,0,0,0,0,0,0,0,0,0,0,5909,5910,0,
0,0,0,0,0,0,0,0,0,0,0,0,0,0,0,0,0,0,0,0,0,0,0,0,0,0,0,0,0,9199,9200,0,0,0,0,0,0,0,0,0,0,0,0,0,0,0,0,0,0,0,0,0,0,0,0,0,0,0,0,0,0,0,0,0,0,0,0,0,0,0,0,0,0,0,0,0,0,0,0,0,11,12,13,0,0,0,0,0,0,0,0,0,
0,0,0,0,0,0,0,0,0,0,0,0,0,0,0,0,0,0,0,0,0,0,0,0,0,0,0,0,0,9339,9340,0,0,0,0,0,0,0,0,0,0,0,0,0,0,0,0,0,0,0,0,0,0,0,0,0,0,0,0,0,0,0,0,0,0,0,0,0,0,0,0,0,0,0,0,0,0,0,0,1302,1303,1304,0,3085,0,0,0,0,0,0,0,0,
0,0,0,0,0,0,0,0,0,0,0,0,0,0,0,0,0,0,0,0,0,0,0,0,0,0,0,0,0,0,0,1302,1303,1304,0,0,0,0,0,0,0,0,0,0,0,0,0,0,0,0,0,0,0,0,0,0,0,0,0,0,0,0,0,0,0,0,0,0,0,0,0,0,0,0,0,0,0,0,0,0,1286,1287,1288,0,0,0,0,0,0,0,0,0,
0,0,0,0,0,0,0,0,0,0,0,0,0,0,0,0,0,0,0,0,0,0,0,0,0,0,0,0,0,1283,1284,1285,0,0,0,0,0,0,0,0,0,0,0,0,0,0,0,0,0,0,0,0,9059,9060,0,0,0,0,0,0,0,0,0,0,0,0,0,0,0,0,0,0,0,0,0,0,0,0,0,11,12,13,0,0,0,0,0,0,0,0,0,0,
0,0,0,0,0,0,0,0,0,0,0,0,0,0,0,0,0,0,0,0,0,0,0,0,0,0,0,5,6,7,0,11,12,13,0,0,0,0,0,0,0,0,0,0,0,0,0,0,0,0,0,0,9199,9200,0,0,0,0,0,0,0,0,0,0,0,0,0,0,0,0,0,0,0,0,0,0,0,0,0,0,1302,1303,1304,0,0,0,0,0,0,0,0,0,
0,0,0,0,0,0,0,0,0,0,0,0,0,0,0,0,0,0,0,0,0,0,0,0,0,0,0,0,0,1302,1303,1304,0,0,0,0,0,0,0,0,0,0,0,0,0,0,0,0,0,0,0,0,9339,9340,0,0,0,0,0,0,0,0,0,0,0,0,0,0,0,0,0,0,0,0,0,0,0,0,1286,1287,1288,0,0,0,0,0,0,0,0,0,0,0,
0,0,0,0,0,0,0,0,0,0,0,0,0,0,0,0,0,0,0,0,0,0,0,0,0,0,0,1283,1284,1285,0,1286,1287,1288,0,0,0,0,0,0,0,0,0,0,0,0,0,0,0,0,0,0,0,0,0,0,5,6,7,0,0,0,0,0,0,0,0,0,0,0,0,0,0,0,0,0,5,6,7,1283,1284,1285,0,0,0,0,0,0,0,0,0,0,
0,0,0,0,0,0,0,0,0,0,0,0,0,0,0,0,0,0,0,0,0,0,0,0,0,5,6,7,0,11,12,13,0,0,0,0,0,0,0,0,0,0,0,0,0,0,0,0,0,0,0,0,0,0,11,12,13,0,1283,1284,1285,0,0,0,1302,1303,1304,0,5,6,7,3085,0,0,0,0,0,0,1302,1303,1304,0,0,0,0,0,0,0,0,0,0,0,
0,0,0,0,0,0,0,0,0,0,0,0,0,0,0,0,0,0,0,0,0,0,0,0,0,0,0,1286,1287,1288,0,1283,1284,1285,0,0,0,0,0,0,0,0,0,0,0,0,0,0,0,0,0,0,0,0,0,0,1302,1303,1304,0,0,0,0,0,0,0,11,12,13,0,0,0,0,0,0,0,11,12,13,5,6,7,0,0,0,0,0,0,0,0,5763,5764,
0,0,0,0,0,0,0,0,0,0,0,0,0,0,0,0,0,0,0,0,0,1286,1287,1288,0,1302,1303,1304,0,5,6,7,0,0,0,0,0,0,0,0,0,0,0,0,0,0,0,0,0,0,0,0,0,0,1286,1287,1288,0,11,12,13,0,0,0,5,6,7,0,1302,1303,1304,0,0,0,0,0,0,0,5,6,7,0,0,0,0,0,0,0,0,0,5903,5904,
0,0,0,0,0,0,0,0,0,0,0,0,0,0,0,0,0,0,0,0,0,0,0,1283,1284,1285,0,1302,1303,1304,0,5,6,7,0,0,0,0,0,0,0,0,0,0,0,0,0,0,0,0,0,0,0,0,0,0,0,0,0,0,0,0,0,0,0,0,1286,1287,1288,0,0,0,0,0,0,0,1302,1303,1304,1286,1287,1288,0,0,0,0,0,0,0,0,0,0,
0,0,0,0,0,0,0,0,0,0,0,0,0,0,0,0,0,0,0,0,0,5,6,7,0,5,6,7,0,5,6,7,0,0,0,0,0,0,0,0,10765,10766,10767,10768,10769,10770,10771,10772,0,0,0,0,0,0,0,0,0,0,0,0,0,0,0,0,0,0,0,0,0,0,0,0,0,0,0,0,0,0,1283,1284,1285,0,0,0,0,0,0,0,0,0,0,0,
0,0,0,0,0,0,0,0,0,0,0,0,0,0,0,0,0,0,0,0,0,0,0,11,12,13,0,1283,1284,1285,0,11,12,13,0,0,0,0,0,0,10905,10906,10907,10908,10909,10910,10911,10912,0,0,0,0,0,0,0,0,0,0,0,0,0,0,0,0,0,0,0,0,0,0,0,0,0,0,0,0,5,6,7,0,0,0,0,0,0,0,0,5187,5188,5189,7271,0,
0,0,0,0,0,0,0,0,0,0,0,0,0,0,0,21116,21117,21118,0,0,0,1302,1303,1304,0,1283,1284,1285,0,11,12,13,0,0,0,0,0,0,0,0,11045,11046,11047,11048,11049,11050,11051,11052,0,0,5,6,7,0,5,6,7,0,0,0,0,0,0,0,0,0,0,0,0,0,0,0,0,0,0,0,0,0,11,12,13,0,0,0,0,0,0,5327,5328,5329,7411,0,
0,0,0,0,0,0,0,0,0,0,0,0,0,0,0,0,0,0,0,0,0,0,0,5,6,7,0,1302,1303,1304,0,1286,1287,1288,0,0,0,0,0,0,11185,11186,11187,11188,11189,11190,11191,11192,5,6,7,0,1283,1284,1285,0,0,0,0,0,0,0,0,0,0,0,0,0,1302,1303,1304,0,0,0,0,0,0,0,0,0,0,0,0,0,0,7272,0,5467,5468,5469,0,0,
0,0,0,0,0,0,0,0,0,0,0,0,0,1286,1287,1288,0,0,0,0,0,0,0,0,0,5,6,7,0,5,6,7,0,0,0,0,0,0,0,0,11325,11326,11327,11328,11329,11330,11331,11332,0,0,1302,1303,1304,0,11,12,13,0,0,0,0,0,0,0,0,0,0,0,0,0,1283,1284,1285,0,0,0,0,0,0,0,0,0,0,0,0,0,0,0,0,0,0,0,
0,0,0,0,0,0,0,0,0,0,0,5,6,7,0,1302,1303,1304,0,0,0,0,30104,30105,30106,0,0,1286,1287,1288,0,1283,1284,1285,0,0,0,0,0,0,11465,11466,11467,11468,11469,11470,11471,11472,0,0,0,0,0,0,0,0,0,0,0,0,0,0,0,0,0,0,0,0,5,6,7,0,1286,1287,1288,0,0,0,0,0,0,0,0,0,0,0,0,0,0,0,0,0,
0,0,0,0,0,0,0,0,0,1283,1284,1285,0,11,12,13,0,0,0,0,0,0,30112,30113,30114,1302,1303,1304,0,1286,1287,1288,0,0,0,0,0,0,0,0,11605,11606,11607,11608,11609,11610,11611,11612,0,0,0,0,0,0,0,0,0,0,0,0,0,0,0,0,0,0,0,0,0,0,1283,1284,1285,0,1302,1303,1304,0,0,0,0,0,0,0,0,0,0,0,0,0,0,0,
0,0,0,0,0,0,0,0,0,0,0,1302,1303,1304,0,5,6,7,0,0,0,0,0,30121,0,0,0,1283,1284,1285,0,11,12,13,0,0,0,0,0,0,11745,11746,11747,11748,11749,11750,11751,11752,0,0,0,0,0,0,0,0,0,0,0,0,0,0,0,0,0,0,0,0,11,12,13,0,5,6,7,0,0,0,0,0,0,0,0,0,0,0,0,0,0,0,0,0,
0,0,0,0,0,0,0,0,0,1286,1287,1288,0,1283,1284,1285,0,1286,1287,1288,0,1286,1287,1288,0,5,6,7,0,11,12,13,0,0,0,0,0,0,0,0,11885,11886,11887,11888,11889,11890,11891,11892,0,0,5,6,7,0,1302,1303,1304,0,5,6,7,0,1302,1303,1304,0,1283,1284,1285,0,1302,1303,1304,0,0,0,0,0,0,0,0,0,0,0,0,0,0,0,0,0,0,0,
0,0,0,0,0,0,0,1283,1284,1285,0,11,12,13,0,11,12,13,0,1302,1303,1304,0,11,12,13,0,1286,1287,1288,0,1302,1303,1304,0,0,0,0,0,0,12025,21012,12027,12028,12029,12030,12031,12032,11,12,13,0,1283,1284,1285,0,11,12,13,0,5,6,7,0,11,12,13,0,0,0,0,0,0,0,0,5203,0,0,0,0,0,0,0,0,0,0,0,0,0,0,0,0,
0,0,0,0,0,0,0,0,0,5,6,7,0,1286,1287,1288,0,1283,1284,1285,0,1283,1284,1285,0,11,12,13,0,1302,1303,1304,0,0,0,0,0,0,0,0,12165,12166,5,6,7,12170,1302,1303,1304,0,1302,1303,1304,0,1286,1287,1288,0,1302,1303,1304,0,5,6,7,0,0,0,0,0,0,0,0,0,0,0,0,0,0,0,0,0,0,0,0,0,0,0,0,0,0,0,
0,0,0,0,0,0,11,12,13,0,0,1302,1303,1304,0,11,12,13,0,5,6,7,0,1286,1287,1288,0,1286,1287,1288,0,5,6,7,0,0,0,0,0,0,0,0,0,0,11,12,13,0,1283,1284,1285,0,11,12,13,0,5,6,7,0,5,6,7,0,1286,1287,1288,0,0,0,0,0,0,0,0,0,0,0,0,0,0,0,0,0,0,0,0,0,0,0,7272,0
</data>
 </layer>
 <layer name="Best layer" width="92" height="96">
  <data encoding="csv">
0,0,0,0,0,0,0,0,0,0,0,0,0,0,0,0,0,0,0,0,0,0,0,0,0,0,0,0,0,0,0,0,0,0,0,0,0,0,0,0,0,0,0,0,0,0,0,0,0,0,0,0,0,0,0,0,0,0,0,0,0,0,0,0,0,0,0,0,0,0,0,0,0,0,0,0,0,0,0,0,0,0,0,0,0,0,0,0,0,0,0,0,
0,0,0,0,0,0,0,0,0,0,0,0,0,0,0,0,0,0,0,0,0,0,0,0,0,0,0,0,0,0,0,0,0,0,0,0,0,0,0,0,0,0,0,0,0,0,0,0,0,0,0,0,0,0,0,0,0,0,0,0,0,0,0,0,0,0,0,0,0,0,0,0,0,0,0,0,0,0,0,0,0,0,0,0,0,0,0,0,0,0,0,0,
0,0,0,0,0,0,0,0,0,0,0,0,0,0,0,0,0,0,0,0,0,0,0,0,0,0,0,0,0,0,0,0,0,0,0,0,0,0,0,0,0,0,0,0,0,0,0,0,0,0,0,0,0,0,0,0,0,0,0,0,0,0,0,0,0,0,0,0,0,0,0,0,0,0,0,0,0,0,0,0,0,0,0,0,0,0,0,0,0,0,0,0,
0,0,0,0,0,0,0,0,0,0,0,0,0,0,0,0,0,0,0,0,0,0,0,0,0,0,0,0,0,0,0,0,0,0,0,0,0,0,0,0,0,0,0,0,0,0,0,0,0,0,0,0,0,0,0,0,0,0,0,0,0,0,0,0,0,0,0,0,0,0,0,0,0,0,0,0,0,0,0,0,0,0,0,0,0,0,0,0,0,0,0,0,
0,0,0,0,0,0,0,0,0,0,0,0,0,0,0,0,0,0,0,0,0,0,0,0,0,0,0,0,0,0,0,0,0,0,0,0,0,0,0,0,0,0,0,0,0,0,0,0,0,0,0,0,0,0,0,0,0,0,0,0,0,0,0,0,0,0,0,0,0,0,0,0,0,0,0,0,0,0,0,0,0,0,0,0,0,0,0,0,0,0,0,0,
0,0,0,0,0,0,0,0,0,0,0,0,0,0,0,0,0,0,0,0,0,0,0,0,0,0,0,0,0,0,0,0,0,0,0,0,0,0,0,0,0,0,0,0,0,0,0,0,0,0,0,0,0,0,0,0,0,0,0,0,0,0,0,0,0,0,0,0,0,0,0,0,0,0,0,0,0,0,0,0,0,0,0,0,0,0,0,0,0,0,0,0,
0,0,0,0,0,0,0,0,0,0,0,0,0,0,0,0,0,0,0,0,0,0,0,0,0,0,0,0,0,0,0,0,0,0,0,0,0,0,0,0,0,0,0,0,0,0,0,0,0,0,0,0,0,0,0,0,0,0,0,0,0,0,0,0,0,0,0,0,0,0,0,0,0,0,0,0,0,0,0,0,0,0,0,0,0,0,0,0,0,0,0,0,
0,0,0,0,0,0,0,0,0,0,0,0,0,0,0,0,0,0,0,0,0,0,0,0,0,0,0,0,0,0,0,0,0,0,0,0,0,0,0,0,0,0,0,0,0,0,0,0,0,0,0,0,0,0,0,0,0,0,0,0,0,0,0,0,0,0,0,0,0,0,0,0,0,0,0,0,0,0,0,0,0,0,0,0,0,0,0,0,0,0,0,0,
0,0,0,0,0,0,0,0,0,0,0,0,0,0,0,0,0,0,0,0,0,0,0,0,0,0,0,0,0,0,0,0,0,0,0,0,0,0,0,0,0,0,0,0,0,0,0,0,0,0,0,0,0,0,0,0,0,0,0,0,0,0,0,0,0,0,0,0,0,0,0,0,0,0,0,0,0,0,0,0,0,0,0,0,0,0,0,0,0,0,0,0,
0,0,0,0,0,0,0,0,0,0,0,0,0,0,0,0,0,0,0,0,0,0,0,0,0,0,0,0,0,0,0,0,0,0,0,0,0,0,0,0,0,0,0,0,0,0,0,0,0,0,0,0,0,0,0,0,0,0,0,0,0,0,0,0,0,0,0,0,0,0,0,0,0,0,0,0,0,0,0,0,0,0,0,0,0,0,0,0,0,0,0,0,
0,0,0,0,0,0,0,0,0,0,0,0,0,0,0,0,0,0,0,0,0,0,0,0,0,0,0,0,0,0,0,0,0,0,0,0,0,0,0,0,0,0,0,0,0,0,0,0,0,0,0,0,0,0,0,0,0,0,0,0,0,0,0,0,0,0,0,0,0,0,0,0,0,0,0,0,0,0,0,0,0,0,0,0,0,0,0,0,0,0,0,0,
0,0,0,0,0,0,0,0,0,0,0,0,0,0,0,0,0,0,0,0,0,0,0,0,0,0,0,0,0,0,0,0,0,0,0,0,0,0,0,0,0,0,0,0,0,0,0,0,0,0,0,0,0,0,0,0,0,0,0,0,0,0,0,0,0,0,0,0,0,0,0,0,0,0,0,0,0,0,0,0,0,0,0,0,0,0,0,0,0,0,0,0,
0,0,0,0,0,0,0,0,0,0,0,0,0,0,0,0,0,0,0,0,0,0,0,0,0,0,0,0,0,0,0,0,0,0,0,0,0,0,0,0,0,0,0,0,0,0,0,0,0,0,0,0,0,0,0,0,0,0,0,0,0,0,0,0,0,0,0,0,0,0,0,0,0,0,0,0,0,0,0,0,0,0,0,0,0,0,0,0,0,0,0,0,
0,0,0,0,0,0,0,0,0,0,0,0,0,0,0,0,0,0,0,0,0,0,0,0,0,0,0,0,0,0,0,0,0,0,0,0,0,0,0,0,0,0,0,0,0,0,0,0,0,0,0,0,0,0,0,0,0,0,0,0,0,0,0,0,0,0,0,0,0,0,0,0,0,0,0,0,0,0,0,0,0,0,0,0,0,0,0,0,0,0,0,0,
0,0,0,0,0,0,0,0,0,0,0,0,0,0,0,0,0,0,0,0,0,0,0,0,0,0,0,0,0,0,0,0,0,0,0,0,0,0,0,0,0,0,0,0,0,0,0,0,0,0,0,0,0,0,0,0,0,0,0,0,0,0,0,0,0,0,0,0,0,0,0,0,0,0,0,0,0,0,0,0,0,0,0,0,0,0,0,0,0,0,0,0,
0,0,0,0,0,0,0,0,0,0,0,0,0,0,0,0,0,0,0,0,0,0,0,0,0,0,0,0,0,0,0,0,0,0,0,0,0,0,0,0,0,0,0,0,0,0,0,0,0,0,0,0,0,0,0,0,0,0,0,0,0,0,0,0,0,0,0,0,0,0,0,0,0,0,0,0,0,0,0,0,0,0,0,0,0,0,0,0,0,0,0,0,
0,0,0,0,0,0,0,0,0,0,0,0,0,0,0,0,0,0,0,0,0,0,0,0,0,0,0,0,0,0,0,33823,0,0,0,0,0,0,33823,33823,0,0,0,0,0,0,0,0,0,0,0,0,0,0,0,0,0,0,0,0,0,0,0,0,0,0,0,0,0,0,0,0,0,0,0,0,0,0,0,0,0,0,0,0,0,0,0,0,0,0,0,0,
0,0,0,0,0,0,0,0,0,0,0,0,0,0,0,0,0,0,0,0,0,0,0,0,0,0,0,0,0,0,0,33823,0,0,0,0,0,0,33823,33823,0,0,0,0,0,0,0,0,0,0,0,0,0,0,0,0,0,0,0,0,0,0,0,0,0,0,0,0,0,0,0,0,0,0,0,0,0,0,0,0,0,0,0,0,0,0,33823,33823,0,0,0,0,
0,0,0,0,0,0,0,0,0,0,0,0,0,0,0,0,0,0,0,0,0,0,0,0,0,0,0,0,0,0,0,33823,33823,0,0,0,0,0,33823,33823,0,0,0,0,0,0,0,0,0,0,0,0,0,0,0,0,0,0,0,0,0,0,0,0,0,0,0,0,0,0,0,0,0,0,0,0,0,0,0,0,0,33823,33823,0,0,0,33823,33823,0,0,0,0,
0,0,0,0,0,0,0,0,0,0,0,0,0,0,0,0,0,0,0,0,0,0,0,0,0,0,0,0,0,0,0,0,0,0,0,0,0,0,0,0,0,0,0,0,0,0,0,0,0,0,0,0,0,0,0,0,0,0,0,0,0,0,0,0,0,0,0,0,0,0,0,0,0,0,0,0,0,0,0,0,0,33823,33823,0,0,33823,33823,33823,0,0,0,0,
0,0,0,0,0,0,0,0,0,0,0,0,0,0,0,0,0,0,0,0,0,0,0,0,0,0,0,0,0,0,0,0,0,0,0,0,0,0,0,0,0,0,0,0,0,0,0,0,0,0,0,0,0,0,0,0,0,0,0,0,0,0,0,0,0,0,0,0,0,0,0,0,0,0,0,0,0,0,0,33823,33823,0,0,0,0,33823,33823,0,0,0,0,0,
0,0,0,0,0,0,0,0,0,0,0,0,0,0,0,0,0,0,0,0,0,0,0,0,0,0,0,0,0,0,0,33823,0,0,0,0,0,0,0,0,0,0,0,0,0,0,0,0,0,0,0,0,0,0,0,0,0,0,0,0,0,0,0,0,0,0,0,0,0,0,0,0,0,0,0,0,0,0,0,33823,33823,0,33823,33823,0,0,0,0,0,0,0,0,
0,0,0,0,0,0,0,0,0,0,0,0,0,0,0,0,0,0,0,0,0,0,0,0,0,0,0,0,0,0,0,33823,33823,33823,0,0,0,0,33823,33823,0,0,0,0,0,0,0,0,0,0,0,0,0,0,0,0,0,0,0,0,0,0,0,0,0,0,0,0,0,0,0,0,0,0,0,0,0,0,0,0,0,0,33823,33823,0,0,0,0,0,0,0,0,
0,0,0,0,0,0,0,0,0,0,0,0,0,0,0,0,0,0,0,0,0,0,0,0,0,0,0,0,0,0,0,33823,33823,33823,0,0,0,0,33823,33823,0,0,0,0,0,0,0,0,0,0,0,0,0,0,0,0,0,0,0,0,0,0,0,0,0,0,0,0,0,0,0,0,33823,33823,0,0,0,0,0,0,0,0,0,0,0,0,0,0,0,33823,33823,0,
0,0,0,0,0,0,0,0,0,0,0,0,0,0,0,0,0,0,0,0,0,0,0,0,0,0,0,0,0,0,0,0,0,0,0,0,0,0,0,0,0,0,0,0,0,0,0,0,0,0,0,0,0,0,0,0,0,0,0,0,0,0,0,0,0,0,0,0,0,0,0,0,33823,33823,0,0,33823,33823,0,0,0,0,0,0,0,0,0,0,0,33823,33823,0,
0,0,0,0,0,0,0,0,0,0,0,0,0,0,0,0,0,0,0,0,0,0,0,0,0,0,0,0,0,0,0,0,0,0,0,0,0,0,0,0,0,0,0,0,0,0,0,0,0,0,0,0,0,0,0,0,0,0,0,0,0,0,0,0,0,0,0,0,0,0,0,0,33823,33823,0,0,33823,33823,0,0,0,0,0,0,0,0,0,0,0,0,0,0,
0,0,0,0,0,0,0,0,0,0,0,0,0,0,0,0,0,0,0,0,0,0,0,0,0,0,0,0,0,0,0,0,0,0,0,0,0,0,0,0,0,0,0,0,0,0,0,0,0,0,0,0,0,0,0,0,0,0,0,0,0,0,0,0,0,0,0,0,0,0,0,0,0,0,0,0,0,0,0,0,0,0,0,0,0,0,0,0,0,0,0,0,
0,0,0,0,0,0,0,0,0,0,0,0,0,0,0,0,0,0,0,0,0,0,0,0,0,0,0,0,0,0,0,0,0,0,0,0,0,0,0,0,0,0,0,0,0,0,0,0,0,0,0,0,0,0,0,0,0,0,0,0,0,0,0,0,0,0,0,0,0,0,0,0,0,0,0,0,0,0,0,0,0,0,0,0,0,0,0,0,0,0,0,0,
0,0,0,0,0,0,0,0,0,0,0,0,0,0,0,0,0,0,0,0,0,0,0,0,0,0,0,0,0,0,0,0,0,0,0,0,0,0,0,0,0,0,0,0,0,0,0,0,0,0,0,0,0,0,0,0,0,0,0,0,0,0,0,0,0,0,0,0,0,0,33823,33823,0,0,0,0,0,0,0,0,0,0,0,0,0,0,0,0,0,0,0,0,
0,0,0,0,0,0,0,0,0,0,0,0,0,0,0,0,0,0,0,0,0,0,0,0,0,0,0,0,0,0,0,0,0,0,0,0,0,0,0,0,0,0,0,0,0,0,0,0,0,0,0,0,0,0,0,0,0,0,0,0,0,0,0,0,0,0,0,0,0,0,33823,33823,0,0,0,0,0,0,0,0,0,0,0,0,0,0,0,0,0,0,0,0,
0,0,0,0,0,0,0,0,0,0,0,0,0,0,0,0,0,0,0,0,0,0,0,0,0,0,0,0,0,0,0,0,0,0,0,0,0,0,0,0,0,0,0,0,0,0,0,0,0,0,0,0,0,0,0,0,0,0,0,0,0,0,0,0,0,0,0,0,0,0,0,0,0,0,0,0,0,0,0,0,0,0,0,0,0,0,0,0,0,0,0,0,
0,0,0,0,0,0,0,0,0,0,0,0,0,0,0,0,0,0,0,0,0,0,0,0,0,0,0,0,0,0,0,0,0,0,0,0,0,0,0,0,0,0,0,0,0,0,0,0,0,0,0,0,0,0,0,0,0,0,0,0,0,0,0,0,0,0,0,0,0,0,0,0,0,0,0,0,0,0,0,0,0,0,0,0,0,0,0,0,0,0,0,0,
0,0,0,0,0,0,0,0,0,0,0,0,0,0,0,0,0,0,0,0,0,0,0,0,0,0,0,0,0,0,0,0,0,0,0,0,0,0,0,0,0,0,0,0,0,0,0,0,0,0,0,0,0,0,0,0,0,0,0,0,0,0,0,0,0,0,0,0,0,0,0,0,0,0,0,0,0,0,0,0,0,0,0,0,0,0,0,0,0,0,0,0,
0,0,0,0,0,0,0,0,0,0,0,0,0,0,0,0,0,0,0,0,0,0,0,0,0,0,0,0,0,0,0,0,0,0,0,0,0,0,0,0,0,0,0,0,0,0,0,0,0,0,0,0,0,0,0,0,0,0,0,0,0,0,0,0,0,0,0,0,0,0,0,0,0,0,0,0,0,0,0,0,0,0,0,0,0,0,0,0,0,0,0,0,
0,0,0,0,0,0,0,0,0,0,0,0,0,0,0,0,0,0,0,0,0,0,0,0,0,0,0,0,0,0,0,0,0,0,0,0,0,0,0,0,0,0,0,0,0,0,0,0,0,0,0,0,0,0,0,0,0,0,0,0,0,0,0,0,0,0,0,0,0,0,0,0,0,0,0,0,0,0,0,0,0,0,0,0,0,0,0,0,0,0,0,0,
0,0,0,0,0,0,0,0,0,0,0,0,0,0,0,0,0,0,0,0,0,0,0,0,0,0,0,0,0,0,0,0,0,0,0,0,0,0,0,0,0,0,0,0,0,0,0,0,0,0,0,0,0,0,0,0,0,0,0,0,0,0,0,0,0,0,0,0,0,0,0,0,0,0,0,0,0,0,0,0,0,0,0,0,0,0,0,0,0,0,0,0,
0,0,0,0,0,0,0,0,0,0,0,0,0,0,0,0,0,0,0,0,0,0,0,0,0,0,0,0,0,0,0,0,0,0,0,0,0,0,0,0,0,0,0,0,0,0,0,0,0,0,0,0,0,0,0,0,0,0,0,0,0,0,0,0,0,0,0,0,0,0,0,0,0,0,0,0,0,0,0,0,0,0,0,0,0,0,33823,33823,33823,0,0,0,
0,0,0,0,0,0,0,0,0,0,0,0,0,0,0,0,0,0,0,0,0,0,0,0,0,0,0,0,0,0,0,0,0,0,0,0,0,0,0,0,0,0,0,0,0,0,0,0,0,0,0,0,0,0,0,0,0,0,0,0,0,0,0,0,0,0,0,0,0,0,0,0,0,0,0,0,0,0,0,0,0,0,0,0,0,0,33823,33823,33823,0,0,0,
0,0,0,0,0,0,0,0,0,0,0,0,0,0,0,0,0,0,0,0,0,0,0,0,0,0,0,0,0,0,0,0,0,0,0,0,0,0,0,0,0,0,0,0,0,0,0,0,0,0,0,0,0,0,0,0,0,0,0,0,0,0,0,0,0,0,0,0,0,0,0,0,0,0,0,0,0,0,0,0,0,0,0,0,0,0,0,0,0,0,0,0,
0,0,0,0,0,0,0,0,0,0,0,0,0,0,0,0,0,0,0,0,0,0,0,0,0,0,0,0,0,0,0,0,0,0,0,0,0,0,0,0,0,0,0,0,0,0,0,0,0,0,0,0,0,0,0,0,0,0,0,0,0,0,0,0,0,0,0,0,0,0,0,0,0,0,0,0,0,0,0,0,0,0,0,0,0,0,0,0,0,0,0,0,
0,0,0,0,0,0,0,0,0,0,0,0,0,0,0,0,0,0,0,0,0,0,0,0,0,0,0,0,0,0,0,0,0,0,0,0,0,0,0,0,0,0,0,0,0,0,0,0,0,0,0,0,0,0,0,0,0,0,0,0,0,0,0,0,0,0,0,0,0,0,0,0,0,0,0,0,0,0,0,0,0,0,0,0,0,0,0,0,0,0,0,0,
0,0,0,0,0,0,0,0,0,0,0,0,0,0,0,0,0,0,0,0,0,0,0,0,0,0,0,0,0,0,0,0,0,0,0,0,0,0,0,0,0,0,0,0,0,0,0,0,0,0,0,0,0,0,0,0,0,0,0,0,0,0,0,0,0,0,0,0,0,0,0,0,0,0,0,0,0,0,0,0,0,0,0,0,0,0,0,0,0,0,0,0,
0,0,0,0,0,0,0,0,0,0,0,0,0,0,0,0,0,0,0,0,0,0,0,0,0,0,0,0,0,0,0,0,0,0,0,0,0,0,0,0,0,0,0,0,0,0,0,0,0,0,0,0,0,0,0,0,0,0,0,0,0,0,0,0,0,0,0,0,0,0,0,0,0,0,0,0,0,0,0,0,0,0,0,0,0,0,0,0,0,0,0,0,
0,0,0,0,0,0,0,0,0,0,0,0,0,0,0,0,0,0,0,0,0,0,0,0,0,0,0,0,0,0,0,0,0,0,0,0,0,0,0,0,0,0,0,0,0,0,0,0,0,0,0,0,0,0,0,0,0,0,0,0,0,0,0,0,0,0,0,0,0,0,0,0,0,0,0,0,0,0,0,0,0,0,0,0,0,0,0,0,0,0,0,0,
0,0,0,0,0,0,0,0,0,0,0,0,0,0,0,0,0,0,0,0,0,0,0,0,0,0,0,0,0,0,0,0,0,0,0,0,0,0,0,0,0,0,0,0,0,0,0,0,0,0,0,0,0,0,0,0,0,0,0,0,0,0,0,0,0,0,0,0,0,0,0,0,0,0,0,0,0,0,0,0,0,0,0,0,0,0,0,0,0,0,0,0,
0,0,0,0,0,0,0,0,0,0,0,0,0,0,0,0,0,0,0,0,0,0,0,0,0,0,0,0,0,0,0,0,0,0,0,0,0,0,0,0,0,0,0,0,0,0,0,0,0,0,0,0,0,0,0,0,0,0,0,0,0,0,0,0,0,0,0,0,0,0,0,0,0,0,0,0,0,0,0,0,0,0,0,0,0,0,0,0,0,0,0,0,
0,0,0,0,0,0,0,0,0,0,0,0,0,0,0,0,0,0,0,0,0,0,0,0,0,0,0,0,0,0,0,0,0,0,0,0,0,0,0,0,0,0,0,0,0,0,0,0,0,0,0,0,0,0,0,0,0,0,0,0,0,0,0,0,0,0,0,0,0,0,0,0,0,0,0,0,0,0,0,0,0,0,0,0,0,0,0,0,0,0,0,0,
0,0,0,0,0,0,0,0,0,0,0,0,0,0,0,0,0,0,0,0,0,0,0,0,0,0,0,0,0,0,0,0,0,0,0,0,0,0,0,0,0,0,0,0,0,0,0,0,0,0,0,0,0,0,0,0,0,0,0,0,0,0,0,0,0,0,0,0,0,0,0,0,0,0,0,0,0,0,0,0,0,0,0,0,0,0,0,0,0,0,0,0,
0,0,0,0,0,0,0,0,0,0,0,0,0,0,0,0,0,0,0,0,0,0,0,0,0,0,0,0,0,0,0,0,0,0,0,0,0,0,0,0,0,0,0,0,0,0,0,0,0,0,0,0,0,0,0,0,0,0,0,0,0,0,0,0,0,0,0,0,0,0,0,0,0,0,0,0,0,0,0,0,0,0,0,0,0,0,0,0,0,0,0,0,
0,0,0,0,0,0,0,0,0,0,0,0,0,0,0,0,0,0,0,0,0,0,0,0,0,0,0,0,0,0,0,0,0,0,0,0,0,0,0,0,0,0,0,0,0,0,0,0,0,0,0,0,0,0,0,0,0,0,0,0,0,0,0,0,0,0,0,0,0,0,0,0,0,0,0,0,0,0,0,0,0,0,0,0,0,0,0,0,0,0,0,0,
0,0,0,0,0,0,0,0,0,0,0,0,0,0,0,0,0,0,0,0,0,0,0,0,0,0,0,0,0,0,0,0,0,0,0,0,0,0,0,0,0,0,0,0,0,0,0,0,0,0,0,0,0,0,0,0,0,0,0,0,0,0,0,0,0,0,0,0,0,0,0,0,0,0,0,0,0,0,0,0,0,0,0,0,0,0,0,0,0,0,0,0,
0,0,0,0,0,0,0,0,0,0,0,0,0,0,0,0,0,0,0,0,0,0,0,0,0,0,0,0,0,0,0,0,0,0,0,0,0,0,0,0,0,0,0,0,0,0,0,0,0,0,0,0,0,0,0,0,0,0,0,0,0,0,0,0,0,0,0,0,0,0,0,0,0,0,0,0,0,0,0,0,0,0,0,0,0,0,0,0,0,0,0,0,
0,0,0,0,0,0,0,0,0,0,0,0,0,0,0,0,0,0,0,0,0,0,0,0,0,0,0,0,0,0,0,0,0,0,0,0,0,0,0,0,0,0,0,0,0,0,0,0,0,0,0,0,0,0,0,0,0,0,0,0,0,0,0,0,0,0,0,0,0,0,0,0,0,0,0,0,0,0,0,0,0,0,0,0,0,0,0,0,0,0,0,0,
0,0,0,0,0,0,0,0,0,0,0,0,0,0,0,0,0,0,0,0,0,0,0,0,0,0,0,0,0,0,0,0,0,0,0,0,0,0,0,0,0,0,0,0,0,0,0,0,0,0,0,0,0,0,0,0,0,0,0,0,0,0,0,0,0,0,0,0,0,0,0,0,0,0,0,0,0,0,0,0,0,0,0,0,0,0,0,0,0,0,0,0,
0,0,0,0,0,0,0,0,0,0,0,0,0,0,0,0,0,0,0,0,0,0,0,0,0,0,0,0,0,0,0,0,0,0,0,0,0,0,0,0,0,0,0,0,0,0,0,0,0,0,0,0,0,0,0,0,0,0,0,0,0,0,0,0,0,0,0,0,0,0,0,0,0,0,0,0,0,0,0,0,0,0,0,0,0,0,0,0,0,0,0,0,
0,0,0,0,0,0,0,0,0,0,0,0,0,0,0,0,0,0,0,0,0,0,0,0,0,0,0,0,0,0,0,0,0,0,0,0,0,0,0,0,0,0,0,0,0,0,0,0,0,0,0,0,0,0,0,0,0,0,0,0,0,0,0,0,0,0,0,0,0,0,0,0,0,0,0,0,0,0,0,0,0,0,0,0,0,0,0,0,0,0,0,0,
0,0,0,0,0,0,0,0,0,0,0,0,0,0,0,0,0,0,0,0,0,0,0,0,0,0,0,0,0,0,0,0,0,0,0,0,0,0,0,0,0,0,0,0,0,0,0,0,0,0,0,0,0,0,0,0,0,0,0,0,0,0,0,0,0,0,0,0,0,0,0,0,0,0,0,0,0,0,0,0,0,0,0,0,0,0,0,0,0,0,0,0,
0,0,0,0,0,0,0,0,0,0,0,0,0,0,0,0,0,0,0,0,0,0,0,0,0,0,0,0,0,0,0,0,0,0,0,0,0,0,0,0,0,0,0,0,0,0,0,0,0,0,0,0,0,0,0,0,0,0,0,0,0,0,0,0,0,0,0,0,0,0,0,0,0,0,0,0,0,0,0,0,0,0,0,0,0,0,0,0,0,0,0,0,
0,0,0,0,0,0,0,0,0,0,0,0,0,0,0,0,0,0,0,0,0,0,0,0,0,0,0,0,0,0,0,0,0,0,0,0,0,0,0,0,0,0,0,0,0,0,0,0,0,0,0,0,0,0,0,0,0,0,0,0,0,0,0,0,0,0,0,0,0,0,0,0,0,0,0,0,0,0,0,0,0,0,0,0,0,0,0,0,0,0,0,0,
0,0,0,0,0,0,0,0,0,0,0,0,0,0,0,0,0,0,0,0,0,0,0,0,0,0,0,0,0,0,0,0,0,0,0,0,0,0,0,0,0,0,0,0,0,0,0,0,0,0,0,0,0,0,0,0,0,0,0,0,0,0,0,0,0,0,0,0,0,0,0,0,0,0,0,0,0,0,0,0,0,0,0,0,0,0,0,0,0,0,0,0,
0,0,0,0,0,0,0,0,0,0,0,0,0,0,0,0,0,0,0,0,0,0,0,0,0,0,0,0,0,0,0,0,0,0,0,0,0,0,0,0,0,0,0,0,0,0,0,0,0,0,0,0,0,0,0,0,0,0,0,0,0,0,0,0,0,0,0,0,0,0,0,0,0,33823,33823,0,0,0,0,0,0,0,0,0,0,0,0,0,0,0,0,0,
0,0,0,0,0,0,0,0,0,0,0,0,0,0,0,0,0,0,0,0,0,0,0,0,0,0,0,0,0,0,0,0,0,0,0,0,0,0,0,0,0,0,0,0,0,0,0,0,0,0,0,0,0,0,0,0,0,0,0,0,0,0,0,0,0,0,0,0,0,0,0,0,0,33823,33823,0,33823,33823,0,0,0,0,0,0,0,0,0,0,0,0,0,0,
0,0,0,0,0,0,0,0,0,0,0,0,0,0,0,0,0,0,0,0,0,0,0,0,0,0,0,0,0,0,0,0,0,0,0,0,0,0,0,0,0,0,0,0,0,0,0,0,0,0,0,0,0,0,0,0,0,0,0,0,0,0,0,0,0,0,0,0,0,0,0,0,0,0,33823,33823,33823,33823,33823,33823,0,0,0,0,0,0,0,0,0,0,0,0,
0,0,0,0,0,0,0,0,0,0,0,0,0,0,0,0,0,0,0,0,0,0,0,0,0,0,0,0,0,0,0,0,0,0,0,0,0,0,0,0,0,0,0,0,0,0,0,0,0,0,0,0,0,0,0,0,0,0,0,0,0,0,0,0,0,0,0,0,0,0,0,0,0,0,33823,33823,33823,33823,33823,33823,0,0,0,0,0,0,0,0,0,0,0,0,
0,0,0,0,0,0,0,0,0,0,0,0,0,0,0,0,0,0,0,0,0,0,0,0,0,0,0,0,0,0,0,0,0,0,0,0,0,0,0,0,0,0,0,0,0,0,0,0,0,0,0,0,0,0,0,0,0,0,0,0,0,0,0,33823,33823,0,0,0,0,0,0,0,0,0,0,0,33823,33823,33823,0,0,0,0,0,0,0,0,0,0,0,0,0,
0,0,0,0,0,0,0,0,0,0,0,0,0,0,0,0,0,0,0,0,0,0,0,0,0,0,0,0,0,0,0,0,0,0,0,0,0,0,0,0,0,0,0,0,0,0,0,0,0,0,0,0,0,0,0,0,0,0,0,0,0,0,0,33823,33823,0,0,0,0,0,0,0,0,0,0,33823,33823,33823,33823,0,0,0,0,0,0,0,0,0,0,0,0,0,
0,0,0,0,0,0,0,0,0,0,0,0,0,0,0,0,0,0,0,0,0,0,0,0,0,0,0,0,0,0,0,0,0,0,0,0,0,0,0,0,0,0,0,0,0,0,0,0,0,0,0,0,0,0,0,0,0,0,0,0,33823,33823,0,0,0,0,0,0,0,0,0,0,0,0,0,33823,33823,0,0,0,0,0,0,0,0,0,0,0,0,0,0,0,
0,0,0,0,0,0,0,0,0,0,0,0,0,0,0,0,0,0,0,0,0,0,0,0,0,0,0,0,0,0,0,0,0,0,0,0,0,0,0,0,0,0,0,0,0,0,0,0,0,0,0,0,0,0,0,0,0,0,0,0,33823,33823,33823,33823,0,0,0,0,0,0,0,0,0,0,0,0,0,0,0,0,0,0,0,0,0,0,0,0,0,0,0,0,
0,0,0,0,0,0,0,0,0,0,0,0,0,0,0,0,0,0,0,0,0,0,0,0,0,0,0,0,0,0,0,0,0,0,0,0,0,0,0,0,0,0,0,0,0,0,0,0,0,0,0,0,0,0,0,0,0,0,0,0,0,33823,33823,33823,0,0,0,0,0,0,0,0,0,0,0,0,0,0,0,0,0,0,0,0,0,0,0,0,0,0,0,0,
0,0,0,0,0,0,0,0,0,0,0,0,0,0,0,0,0,0,0,0,0,0,0,0,0,0,0,0,0,0,0,0,0,0,0,0,0,0,0,0,0,0,0,0,0,0,0,0,0,0,0,0,0,0,0,0,0,0,0,0,0,33823,33823,0,33823,33823,0,0,0,0,0,0,0,0,0,0,0,0,0,0,0,0,0,0,0,0,0,0,0,0,0,0,
0,0,0,0,0,0,0,0,0,0,0,0,0,0,0,0,0,0,0,0,0,0,0,0,0,0,0,0,0,0,0,0,0,0,0,0,0,0,0,0,0,0,0,0,0,0,0,0,0,0,0,0,0,0,0,0,0,0,0,0,0,0,0,0,33823,33823,0,0,0,0,0,0,33823,33823,0,0,0,0,0,0,0,0,0,0,0,0,0,0,0,0,0,0,
0,0,0,0,0,0,0,0,0,0,0,0,0,0,0,0,0,0,0,0,0,0,0,0,0,0,0,0,0,0,0,0,0,0,0,0,0,0,0,0,0,0,0,0,0,0,0,0,0,0,0,0,0,0,0,0,0,0,0,0,0,0,0,0,0,0,0,0,0,33823,33823,0,33823,33823,0,0,0,0,0,0,0,0,0,0,0,0,0,0,0,0,0,0,
0,0,0,0,0,0,0,0,0,0,0,0,0,0,0,0,0,0,0,0,0,0,0,0,0,0,0,0,0,0,0,0,0,0,0,0,0,0,0,0,0,0,0,0,0,0,0,0,0,0,0,0,0,0,0,0,0,0,0,0,0,0,0,0,0,0,0,0,0,33823,33823,0,0,0,0,0,0,0,0,0,0,0,0,0,0,0,0,0,0,0,0,0,
0,0,0,0,0,0,0,0,0,0,0,0,0,0,0,0,0,0,0,0,0,0,0,0,0,0,0,0,0,0,0,0,0,0,0,0,0,0,0,0,0,0,0,0,0,0,0,0,0,0,0,0,0,0,0,0,0,0,0,0,0,0,0,0,0,0,0,0,0,0,0,0,0,0,0,0,0,0,0,0,0,0,0,0,0,0,0,0,0,0,0,0,
0,0,0,0,0,0,0,0,0,0,0,0,0,0,0,0,0,0,0,0,0,0,0,0,0,0,0,0,0,0,0,0,0,0,0,0,0,0,0,0,0,0,0,0,0,0,0,0,0,0,0,0,0,0,0,0,0,0,0,0,0,0,0,0,0,0,0,0,0,0,0,0,0,0,0,0,0,0,0,0,0,0,0,0,0,0,0,0,0,0,0,0,
0,0,0,0,0,0,0,0,0,0,0,0,0,0,0,0,0,0,0,0,0,0,0,0,0,0,0,0,0,0,0,0,0,0,0,0,0,0,0,0,0,0,0,0,0,0,0,0,0,0,0,0,0,0,0,0,0,0,0,0,0,0,0,0,0,0,0,0,0,0,0,0,0,0,0,0,0,0,0,0,0,0,0,0,0,0,0,0,0,0,0,0,
0,0,0,0,0,0,0,0,0,0,0,0,0,0,0,0,0,0,0,0,0,0,0,0,0,0,0,0,0,0,0,0,0,0,0,0,0,0,0,0,0,0,0,0,0,0,0,0,0,0,0,0,0,0,0,0,0,0,0,0,0,0,0,0,0,0,0,0,0,0,0,0,0,0,0,0,0,0,0,0,0,0,0,0,0,0,0,0,0,0,0,0,
0,0,0,0,0,0,0,0,0,0,0,0,0,0,0,0,0,0,0,0,0,0,0,0,0,0,0,0,0,0,0,0,0,0,0,0,0,0,0,0,0,0,0,0,0,0,0,0,0,0,0,0,0,0,0,0,0,0,0,0,0,0,0,0,0,0,0,0,0,0,0,0,0,0,0,0,0,0,0,0,0,0,0,0,0,0,0,0,0,0,0,0,
0,0,0,0,0,0,0,0,0,0,0,0,0,0,0,0,0,0,0,0,0,0,0,0,0,0,0,0,0,0,0,0,0,0,0,0,0,0,0,0,0,0,0,0,0,0,0,0,0,0,0,0,0,0,0,0,0,0,0,0,0,0,0,0,0,0,0,0,0,0,0,0,0,0,0,0,0,0,0,0,0,0,0,0,0,0,0,0,0,0,0,0,
0,0,0,0,0,0,0,0,0,0,0,0,0,0,0,0,0,0,0,0,0,0,0,0,0,0,0,0,0,0,0,0,0,0,0,0,0,0,0,0,0,0,0,0,0,0,0,0,0,0,0,0,0,0,0,0,0,0,0,0,0,0,0,0,0,0,0,0,0,0,0,0,0,0,0,0,0,0,0,0,0,0,0,0,0,0,0,0,0,0,0,0,
0,0,0,0,0,0,0,0,0,0,0,0,0,0,0,0,0,0,0,0,0,0,0,0,0,0,0,0,0,0,0,0,0,0,0,0,0,0,0,0,0,0,0,0,0,0,0,0,0,0,0,0,0,0,0,0,0,0,0,0,0,0,0,0,0,0,0,0,0,0,0,0,0,0,0,0,0,0,0,0,0,0,0,0,0,0,0,0,0,0,0,0,
0,0,0,0,0,0,0,0,0,0,0,0,0,0,0,0,0,0,0,0,0,0,0,0,0,0,0,0,0,0,0,0,0,0,0,0,0,0,0,0,0,0,0,0,0,0,0,0,0,0,0,0,0,0,0,0,0,0,0,0,0,0,0,0,0,0,0,0,0,0,0,0,0,0,0,0,0,0,0,0,0,0,0,0,0,0,0,0,0,0,0,0,
0,0,0,0,0,0,0,0,0,0,0,0,0,0,0,0,0,0,0,0,0,0,0,0,0,0,0,0,0,0,0,0,0,0,0,0,0,0,0,0,0,0,0,0,0,0,0,0,0,0,0,0,0,0,0,0,0,0,0,0,0,0,0,0,0,0,0,0,0,0,0,0,0,0,0,0,0,0,0,0,0,0,0,0,0,0,0,0,0,0,0,0,
0,0,0,0,0,0,0,0,0,0,0,0,0,0,0,0,0,0,0,0,0,0,0,0,0,0,0,0,0,0,0,0,0,0,0,0,0,0,0,0,0,0,0,0,0,0,0,0,0,0,0,0,0,0,0,0,0,0,0,0,0,0,0,0,0,0,0,0,0,0,0,0,0,0,0,0,0,0,0,0,0,0,0,0,0,0,0,0,0,0,0,0,
0,0,0,0,0,0,0,0,0,0,0,0,0,0,0,0,0,0,0,0,0,0,0,0,0,0,0,0,0,0,0,0,0,0,0,0,0,0,0,0,0,0,0,0,0,0,0,0,0,0,0,0,0,0,0,0,0,0,0,0,0,0,0,0,0,0,0,0,0,0,0,0,0,0,0,0,0,0,0,0,0,0,0,0,0,0,0,0,0,0,0,0,
0,0,0,0,0,0,0,0,0,0,0,0,0,0,0,0,0,0,0,0,0,0,0,0,0,0,0,0,0,0,0,0,0,0,0,0,0,0,0,0,0,0,0,0,0,0,0,0,0,0,0,0,0,0,0,0,0,0,0,0,0,0,0,0,0,0,0,0,0,0,0,0,0,0,0,0,0,0,0,0,0,0,0,0,0,0,0,0,0,0,0,0,
0,0,0,0,0,0,0,0,0,0,0,0,0,0,0,0,0,0,0,0,0,0,0,0,0,0,0,0,0,0,0,0,0,0,0,0,0,0,0,0,0,0,0,0,0,0,0,0,0,0,0,0,0,0,0,0,0,0,0,0,0,0,0,0,0,0,0,0,0,0,0,0,0,0,0,0,0,0,0,0,0,0,0,0,0,0,0,0,0,0,0,0,
0,0,0,0,0,0,0,0,0,0,0,0,0,0,0,0,0,0,0,0,0,0,0,0,0,0,0,0,0,0,0,0,0,0,0,0,0,0,0,0,0,0,0,0,0,0,0,0,0,0,0,0,0,0,0,0,0,0,0,0,0,0,0,0,0,0,0,0,0,0,0,0,0,0,0,0,0,0,0,0,0,0,0,0,0,0,0,0,0,0,0,0,
0,0,0,0,0,0,0,0,0,0,0,0,0,0,0,0,0,0,0,0,0,0,0,0,0,0,0,0,0,0,0,0,0,0,0,0,0,0,0,0,0,0,0,0,0,0,0,0,0,0,0,0,0,0,0,0,0,0,0,0,0,0,0,0,0,0,0,0,0,0,0,0,0,0,0,0,0,0,0,0,0,0,0,0,0,0,0,0,0,0,0,0,
0,0,0,0,0,0,0,0,0,0,0,0,0,0,0,0,0,0,0,0,0,0,0,0,0,0,0,0,0,0,0,0,0,0,0,0,0,0,0,0,0,0,0,0,0,0,0,0,0,0,0,0,0,0,0,0,0,0,0,0,0,0,0,0,0,0,0,0,0,0,0,0,0,0,0,0,0,0,0,0,0,0,0,0,0,0,0,0,0,0,0,0,
0,0,0,0,0,0,0,0,0,0,0,0,0,0,0,0,0,0,0,0,0,0,0,0,0,0,0,0,0,0,0,0,0,0,0,0,0,0,0,0,0,0,0,0,0,0,0,0,0,0,0,0,0,0,0,0,0,0,0,0,0,0,0,0,0,0,0,0,0,0,0,0,0,0,0,0,0,0,0,0,0,0,0,0,0,0,0,0,0,0,0,0,
0,0,0,0,0,0,0,0,0,0,0,0,0,0,0,0,0,0,0,0,0,0,0,0,0,0,0,0,0,0,0,0,0,0,0,0,0,0,0,0,0,0,0,0,0,0,0,0,0,0,0,0,0,0,0,0,0,0,0,0,0,0,0,0,0,0,0,0,0,0,0,0,0,0,0,0,0,0,0,0,0,0,0,0,0,0,0,0,0,0,0,0,
0,0,0,0,0,0,0,0,0,0,0,0,0,0,0,0,0,0,0,0,0,0,0,0,0,0,0,0,0,0,0,0,0,0,0,0,0,0,0,0,0,0,0,0,0,0,0,0,0,0,0,0,0,0,0,0,0,0,0,0,0,0,0,0,0,0,0,0,0,0,0,0,0,0,0,0,0,0,0,0,0,0,0,0,0,0,0,0,0,0,0,0,
0,0,0,0,0,0,0,0,0,0,0,0,0,0,0,0,0,0,0,0,0,0,0,0,0,0,0,0,0,0,0,0,0,0,0,0,0,0,0,0,0,0,0,0,0,0,0,0,0,0,0,0,0,0,0,0,0,0,0,0,0,0,0,0,0,0,0,0,0,0,0,0,0,0,0,0,0,0,0,0,0,0,0,0,0,0,0,0,0,0,0,0,
0,0,0,0,0,0,0,0,0,0,0,0,0,0,0,0,0,0,0,0,0,0,0,0,0,0,0,0,0,0,0,0,0,0,0,0,0,0,0,0,0,0,0,0,0,0,0,0,0,0,0,0,0,0,0,0,0,0,0,0,0,0,0,0,0,0,0,0,0,0,0,0,0,0,0,0,0,0,0,0,0,0,0,0,0,0,0,0,0,0,0,0,
0,0,0,0,0,0,0,0,0,0,0,0,0,0,0,0,0,0,0,0,0,0,0,0,0,0,0,0,0,0,0,0,0,0,0,0,0,0,0,0,0,0,0,0,0,0,0,0,0,0,0,0,0,0,0,0,0,0,0,0,0,0,0,0,0,0,0,0,0,0,0,0,0,0,0,0,0,0,0,0,0,0,0,0,0,0,0,0,0,0,0,0
</data>
 </layer>
</map>
