<?xml version="1.0" encoding="UTF-8"?>
<map version="1.10" tiledversion="1.11.2" orientation="orthogonal" renderorder="right-down" width="36" height="25" tilewidth="32" tileheight="32" infinite="0" nextlayerid="5" nextobjectid="1">
 <tileset firstgid="1" name="Pro all tiles" tilewidth="32" tileheight="32" tilecount="1024" columns="32">
  <image source="Tiles/Pro all tiles.png" width="1024" height="1024"/>
 </tileset>
 <tileset firstgid="1025" name="tile group" tilewidth="32" tileheight="32" tilecount="21000" columns="140">
  <image source="Tiles/tile group.png" width="4480" height="4800"/>
 </tileset>
 <tileset firstgid="22025" name="hgss2" tilewidth="32" tileheight="32" tilecount="1170" columns="26">
  <image source="Tiles/Hoen pokémon overworld 2.0.png" width="832" height="1450"/>
 </tileset>
 <tileset firstgid="23195" name="sinnohtiles" tilewidth="32" tileheight="32" tilecount="1554" columns="37">
  <image source="Tiles/sinnohtiles.png" width="1214" height="1356"/>
 </tileset>
 <tileset firstgid="24749" name="Sinoh Pokémon overworld" tilewidth="32" tileheight="32" tilecount="0" columns="22">
  <image source="../../Tiles/Sinoh Pokémon overworld.png" width="704" height="1728"/>
 </tileset>
 <tileset firstgid="25441" name="6931" tilewidth="32" tileheight="32" tilecount="0" columns="65">
  <image source="../../Tiles/6931.png" width="2108" height="2304"/>
 </tileset>
 <layer id="1" name="Layer 1" width="36" height="25">
  <data encoding="csv">
552,552,552,552,552,552,552,552,552,552,80,552,552,552,552,552,552,3267,642,642,552,552,552,552,552,552,552,552,552,552,552,552,552,552,552,552,
552,552,552,552,552,552,552,552,552,80,80,552,552,552,552,552,609,517,642,3268,552,552,552,552,552,552,552,552,552,552,552,552,552,552,552,552,
552,552,552,80,552,552,552,552,552,80,552,552,552,552,552,609,517,642,642,642,552,552,552,552,552,552,552,552,552,552,552,552,552,552,552,552,
552,552,80,80,552,552,552,552,552,552,552,552,552,552,609,517,642,484,675,552,552,552,552,552,552,552,552,552,552,552,359,552,552,552,552,552,
552,552,80,552,552,552,552,552,552,552,552,552,552,552,517,642,642,643,903,552,552,552,552,552,552,552,552,552,552,359,359,552,552,552,552,552,
552,552,552,552,552,552,552,552,552,552,552,552,552,642,642,642,484,675,903,552,552,552,552,552,903,552,552,552,552,552,552,552,552,552,552,552,
552,552,552,552,552,552,552,552,552,552,552,641,642,642,484,674,675,903,903,552,552,552,552,903,903,552,552,552,552,552,552,359,359,552,552,552,
552,552,552,552,552,552,552,552,552,552,552,641,642,484,675,903,903,903,552,552,552,552,552,552,552,552,552,552,552,552,552,552,552,552,552,552,
552,552,552,552,552,552,552,552,552,552,552,641,484,675,903,903,903,903,552,552,552,552,552,552,552,552,552,552,552,552,552,552,359,552,552,552,
552,552,552,552,552,552,903,903,903,552,552,641,643,903,903,903,552,552,552,552,552,552,552,552,552,552,903,903,552,552,552,552,552,552,552,552,
552,552,552,552,552,903,903,903,903,903,552,641,643,903,903,903,552,552,552,359,552,552,552,552,552,359,903,903,903,903,552,552,552,359,552,552,
552,552,552,552,552,903,903,903,903,903,903,641,643,552,552,552,552,552,552,552,552,552,552,552,552,552,903,903,903,903,552,552,359,359,552,552,
552,552,552,552,552,552,903,903,903,903,903,641,643,80,552,552,552,552,552,552,552,552,552,552,552,903,903,903,552,552,552,552,552,552,552,80,
552,552,552,552,552,552,903,903,903,903,903,641,643,80,552,552,552,552,552,552,552,552,552,903,903,903,903,903,552,552,552,552,552,552,552,80,
552,552,552,552,552,552,552,903,903,903,903,641,643,552,552,552,552,552,359,552,552,641,643,903,903,903,23377,23377,903,552,552,552,552,552,552,80,
552,552,552,552,552,552,552,552,903,903,903,641,643,552,552,552,552,552,552,552,552,641,643,903,903,903,903,903,903,552,552,552,552,552,552,552,
552,552,552,552,552,552,552,552,552,903,903,641,643,552,609,610,610,610,610,610,610,517,643,903,903,903,903,552,80,552,552,552,552,552,552,552,
552,552,552,552,552,552,641,552,552,552,552,641,516,610,484,674,674,674,674,674,674,674,675,552,903,552,552,80,80,552,552,552,552,552,552,552,
552,552,552,552,552,552,641,642,643,552,552,641,642,484,675,903,903,903,903,552,552,552,552,80,80,80,552,80,552,552,552,552,552,552,552,552,
552,552,552,552,552,552,673,674,485,610,610,517,484,675,903,903,903,903,552,552,552,80,80,80,552,552,552,552,552,552,552,552,552,552,552,552,
552,552,552,552,552,552,80,80,673,674,674,674,675,552,903,903,903,552,552,552,552,80,552,552,552,552,552,552,552,552,552,552,552,552,552,552,
552,552,552,359,552,552,80,80,552,552,552,552,552,552,552,552,552,552,552,552,552,552,552,552,552,552,552,552,552,552,552,552,552,552,552,552,
552,552,552,359,552,552,80,552,552,552,359,359,552,552,552,552,552,552,552,552,552,552,552,552,552,552,552,552,552,552,552,552,552,552,552,552,
552,552,359,552,552,552,552,552,552,552,552,359,552,552,552,552,552,552,552,552,552,552,552,552,552,552,552,552,552,552,552,552,552,552,552,552,
552,552,359,552,552,552,552,552,552,552,552,552,552,552,552,552,552,552,552,552,552,552,552,552,552,552,552,552,552,552,552,552,552,552,552,552
</data>
 </layer>
 <layer id="2" name="Layer 2" width="36" height="25">
  <data encoding="csv">
0,0,0,1315,1316,1317,0,0,1315,1316,1317,0,0,0,0,0,0,0,0,0,0,0,76,77,78,0,0,0,0,172,173,174,0,752,169,170,
0,1309,1310,1311,0,1309,1310,1311,0,0,0,1309,1310,1311,0,1309,1310,1311,0,1309,1310,1311,0,1309,1310,1311,1309,1310,1311,0,0,1312,1313,1314,0,0,
1313,1314,176,1312,1313,1314,1309,1310,1311,0,0,0,0,1312,1313,1314,0,0,0,0,0,1309,1310,1311,7307,7308,7309,0,1309,1310,1311,169,170,171,76,77,
1309,1310,1311,0,1309,1310,1311,0,1309,1310,1311,0,0,0,1315,1316,1317,0,0,0,0,0,0,0,0,0,1309,1310,1311,1315,1316,1317,76,77,78,0,
1313,1314,0,1309,1310,1311,0,1312,1313,1314,0,0,0,0,0,9,9,9,710,7304,7305,7306,0,1312,23339,23341,0,1309,1310,1311,1312,1313,1314,0,76,77,
1312,1313,1314,0,0,1309,1310,1311,0,4109,0,0,0,0,9,9,9,0,742,0,176,1309,1310,23339,648,23415,1313,1314,0,0,1309,1310,1311,169,170,171,
1314,7304,7305,7306,1312,1313,1314,1312,1313,1314,0,0,0,0,9,9,0,615,774,0,7307,7308,7309,772,774,176,7304,7305,7306,1312,1313,1314,1312,1313,1314,172,
1313,1314,1312,1313,1314,0,7304,7305,7306,24085,24049,0,0,9,9,0,0,742,0,0,0,0,0,0,0,3829,176,0,1309,1310,1311,0,0,1309,1310,1311,
0,1309,1310,1311,7304,7305,7306,0,24048,752,0,9,9,9,0,615,773,774,0,0,0,0,113,114,114,115,1315,1316,1317,1309,1310,1311,1309,1310,1311,0,
1313,1314,0,1312,1313,23339,709,709,710,176,0,9,9,0,0,742,0,113,114,114,0,0,120,0,0,119,709,709,23340,23341,1311,1312,1313,1314,1315,1316,
0,1309,1310,1311,0,740,1309,1310,1311,710,0,9,9,773,773,774,113,120,3854,0,0,0,181,182,0,0,147,0,0,742,4109,0,0,1309,1310,1311,
1310,1311,1315,1316,1317,772,616,0,0,647,709,9,0,0,994,0,145,0,0,0,0,0,0,0,0,0,147,0,615,774,1309,1310,1311,0,0,0,
0,7307,7308,7309,1309,1310,1311,0,0,0,0,9,0,0,0,0,177,88,24047,0,0,0,0,0,0,87,179,0,23378,0,0,0,0,1309,1310,1311,
1309,1310,1311,1309,1310,1311,0,0,0,0,0,9,0,0,0,0,181,177,178,178,178,178,178,178,24233,0,0,0,23378,1310,1311,7307,7308,7309,0,0,
1313,1314,1315,1316,1317,0,0,0,0,0,0,9,0,0,0,0,0,0,0,0,0,0,9,648,0,0,0,0,742,1312,1313,1314,0,1309,1310,1311,
0,1309,1310,1311,0,0,0,0,0,0,0,9,0,0,0,0,0,0,0,3854,0,0,9,0,0,0,615,773,774,0,1309,1310,1311,0,0,0,
1310,1311,7307,7308,7309,0,0,0,0,773,773,9,0,0,0,0,9,9,9,0,0,0,9,0,615,773,774,0,0,0,0,1312,1313,1314,1309,1310,
1309,1310,1311,0,0,0,0,0,0,0,176,0,9,9,648,23340,23340,23340,23341,0,0,0,9,23785,774,0,0,0,0,1309,1310,1311,1315,1316,1317,1315,
1313,1314,1309,1310,1311,0,0,0,0,0,24048,0,9,0,0,0,0,615,774,0,0,0,0,23785,0,0,0,0,0,0,0,752,1309,1310,1311,1312,
1309,1310,1311,0,1309,1310,1311,0,647,0,0,0,9,9,616,0,615,774,0,0,0,0,0,0,0,7304,7305,7306,1315,1316,1317,1312,1313,1314,1315,1316,
0,1312,1313,1314,0,0,0,0,0,0,0,0,0,0,772,773,774,0,0,1309,1310,1311,0,1312,1313,1314,1315,1316,1317,1315,1316,752,0,1315,1316,1317,
1316,1317,0,1309,1310,1311,0,0,0,7307,7308,7309,3854,0,0,0,0,0,7307,7308,7309,0,1309,1310,1311,1309,1310,1311,3854,3854,1310,1311,0,0,0,1312,
1309,1310,1311,0,1312,1313,1314,1309,1310,1311,0,0,1309,1310,1311,0,1309,1310,1311,0,1309,1310,1311,0,1309,1310,1311,0,1312,1313,1314,0,1309,1310,1311,1313,
1313,1314,0,1309,1310,1311,0,0,7307,7308,7309,0,0,1312,1313,1314,0,0,1309,1310,1311,0,7307,7308,7309,1309,1310,1311,0,0,0,1312,1313,1314,1312,1313,
0,0,1309,1310,1311,1309,1310,1311,0,1309,1310,1311,1312,1313,1314,1309,1310,1311,752,3854,1309,1310,1311,1309,1310,1311,1312,1313,1314,1309,1310,1311,1315,1316,1317,1312
</data>
 </layer>
 <layer id="3" name="Layer 3" width="36" height="25">
  <data encoding="csv">
0,1169,1170,1171,0,1169,1170,1171,0,0,0,1169,1170,1171,0,1169,1170,1171,0,1169,1170,1171,0,1169,1170,1171,1169,1170,1171,0,0,1172,1173,1174,0,0,
1173,1174,0,1172,1173,1174,1169,1170,1171,0,0,0,0,1172,1173,1174,0,0,0,1445,0,1169,1170,1171,7167,7168,7169,0,1169,1170,1171,137,138,139,44,45,
1169,1170,1171,0,1169,1170,1171,0,1169,1170,1171,1169,1170,1171,1175,1176,1177,0,0,675,0,0,0,1169,1170,1171,1169,1170,1171,1175,1176,1177,44,45,46,0,
1173,1174,0,1169,1170,1171,0,1172,1173,1174,0,0,0,0,0,0,0,0,0,7164,7165,7166,0,1172,1173,1174,0,1169,1170,1171,1172,1173,1174,0,44,45,
1172,1173,1174,0,0,1169,1170,1171,0,0,0,0,0,0,0,0,0,23339,0,304,0,1169,1170,1171,170,171,1173,1174,0,0,1169,1170,1171,137,138,139,
1174,7164,7165,7166,1172,1173,1174,1172,1173,1174,0,0,0,0,0,0,23339,23302,0,336,7167,7168,7169,78,615,169,7164,7165,7166,1172,1173,1174,1172,1173,1174,140,
1173,1174,1172,1173,1174,0,7164,7165,7166,0,0,0,0,0,23339,23340,23302,0,0,4218,0,0,0,0,0,0,0,0,1169,1170,1171,0,0,1169,1170,1171,
0,1169,1170,1171,7164,7165,7166,0,0,0,0,0,0,23339,23302,0,0,182,4218,182,182,182,0,0,0,0,1175,1176,1177,1169,1170,1171,1169,1170,1171,0,
1173,1174,0,1172,1173,1174,0,0,0,0,0,0,23339,23302,0,0,0,182,182,182,182,182,182,0,0,0,0,0,1169,1170,1171,1172,1173,1174,1175,1176,
0,1169,1170,1171,0,1314,1169,1170,1171,0,4218,0,23376,0,0,0,0,182,182,182,182,182,182,0,0,0,115,0,76,77,1169,1170,1171,1169,1170,1171,
1170,1171,1175,1176,1177,0,0,0,0,0,0,0,23413,0,0,0,0,9095,182,182,182,182,0,0,0,0,0,0,0,0,1169,1170,1171,0,0,0,
0,7167,7168,7169,1169,1170,1171,0,0,0,0,23341,0,0,0,0,0,9235,182,182,182,182,0,0,0,0,0,0,0,0,0,0,0,1169,1170,1171,
1169,1170,1171,1169,1170,1171,0,0,0,0,0,23378,0,0,0,0,0,182,182,182,182,182,0,0,0,0,0,0,1169,1170,1171,7167,7168,7169,0,0,
1173,1174,1175,1176,1177,0,0,0,0,0,0,23378,0,0,0,0,0,0,0,279,432,508,510,0,0,0,0,0,76,1172,1173,1174,0,1169,1170,1171,
0,1169,1170,1171,0,0,0,0,0,0,0,23301,23340,23341,23334,0,0,0,0,311,464,0,23339,0,28776,28777,0,0,0,0,1169,1170,1171,0,0,0,
1170,1171,7167,7168,7169,0,0,0,0,0,0,23377,23264,23415,23371,0,0,0,0,0,4218,0,23376,0,0,0,0,0,0,0,0,1172,1173,1174,1169,1170,
1169,1170,1171,0,0,0,1314,1314,0,0,0,23414,23415,0,0,0,0,0,0,0,0,0,23376,0,0,0,0,0,0,1169,1170,1171,1175,1176,1177,1175,
1173,1174,1169,1170,1171,24222,24223,0,0,0,0,0,0,0,23339,0,0,0,0,0,0,0,23413,23414,0,0,0,0,1169,1170,1171,0,1169,1170,1171,1172,
1169,1170,1171,0,1169,1170,1171,0,0,0,0,0,0,23339,23302,0,0,0,0,0,0,0,0,9,0,7164,7165,7166,1175,1176,1177,1172,1173,1174,1175,1176,
0,1172,1173,1174,0,0,0,0,0,0,0,0,0,23413,0,0,0,0,0,1169,1170,1171,0,1172,1173,1174,1175,1176,1177,1175,1176,1177,0,1175,1176,1177,
1176,1177,0,1169,1170,1171,0,0,0,7167,7168,7169,0,0,0,0,0,0,7167,7168,7169,0,1169,1170,1171,1169,1170,1171,0,1169,1170,1171,1172,1173,1174,1172,
1169,1170,1171,0,1172,1173,1174,1169,1170,1171,0,0,1169,1170,1171,0,1169,1170,1171,0,1169,1170,1171,0,1169,1170,1171,464,1172,1173,1174,0,1169,1170,1171,0,
1173,1174,0,1169,1170,1171,0,0,7167,7168,7169,0,0,1172,1173,1174,0,0,1169,1170,1171,0,7167,7168,7169,1169,1170,1171,0,0,0,1172,1173,1174,1172,1173,
0,0,1169,1170,1171,1169,1170,1171,0,1169,1170,1171,1172,1173,1174,1169,1170,1171,0,0,1169,1170,1171,1169,1170,1171,1172,1173,1174,1169,1170,1171,1175,1176,1177,1172,
1170,1171,0,0,1172,1173,1174,1172,1173,1174,0,0,0,1169,1170,1171,1169,1170,1171,0,0,1169,1170,1171,0,1169,1170,1171,1175,1176,1177,0,0,1172,1173,1174
</data>
 </layer>
 <layer id="4" name="Top layer" width="36" height="25">
  <data encoding="csv">
1033,1034,0,1032,1033,1034,1029,1030,1031,0,0,0,0,1032,1033,1034,0,0,0,0,0,1029,1030,1031,7027,7028,7029,0,1029,1030,1031,105,106,107,12,13,
1029,1030,1031,0,1029,1030,1031,0,1029,1030,1031,1029,1030,1031,1035,1036,1037,0,0,0,0,0,0,1029,1030,1031,1029,1030,1031,1035,1036,1037,12,13,14,0,
1033,1034,0,1029,1030,1031,0,1032,1033,1034,23223,23224,23225,23226,0,0,0,0,0,7024,7025,7026,0,1032,1033,1034,0,1029,1030,1031,1032,1033,1034,0,12,13,
1032,1033,1034,0,0,1029,1030,1031,0,0,23260,23261,23262,23263,0,0,0,0,0,0,0,1029,1030,1031,0,1032,1033,1034,0,0,1029,1030,1031,105,106,107,
1034,7024,7025,7026,1032,1033,1034,1032,1033,1034,23297,23298,23299,23300,0,0,0,0,0,0,7027,7028,7029,0,0,137,7024,7025,7026,1032,1033,1034,1032,1033,1034,108,
1033,1034,1032,1033,1034,0,7024,7025,7026,0,23334,23335,23336,23337,0,0,0,0,0,432,0,0,0,0,0,0,0,0,1029,1030,1031,0,0,1029,1030,1031,
0,1029,1030,1031,7024,7025,7026,0,0,0,23371,23372,23373,23374,0,0,0,0,432,464,24037,24038,24039,24040,24041,0,1035,1036,1037,1029,1030,1031,1029,1030,1031,0,
1033,1034,0,1032,1033,1034,0,0,0,0,0,0,0,0,0,0,0,0,464,0,24074,24075,24076,24077,24078,0,0,0,1029,1030,1031,1032,1033,1034,1035,1036,
0,1029,1030,1031,0,0,1029,1030,1031,0,432,0,0,0,0,0,0,0,0,0,24111,24112,24113,24114,24115,0,0,0,0,0,1029,1030,1031,1029,1030,1031,
1030,1031,1035,1036,1037,0,0,0,0,0,464,0,0,0,0,0,0,0,0,0,24148,24149,24150,24151,24152,0,0,0,0,0,1029,1030,1031,0,0,0,
0,7027,7028,7029,1029,1030,1031,0,0,0,0,0,0,0,0,0,0,0,0,0,24185,24186,24187,24188,24189,0,0,0,0,0,0,0,0,1029,1030,1031,
1029,1030,1031,1029,1030,1031,0,0,0,0,0,0,0,0,23223,23224,23225,23226,0,0,24222,24223,24224,24225,24226,0,0,0,1029,1030,1031,7027,7028,7029,0,0,
1033,1034,1035,1036,1037,24037,24038,24039,24040,24041,0,0,0,0,23260,23261,23262,23263,0,0,0,0,0,0,0,0,0,0,0,1032,1033,1034,0,1029,1030,1031,
0,1029,1030,1031,0,24074,24075,24076,24077,24078,0,0,0,0,23297,23298,23299,23300,0,0,0,0,0,0,178,179,0,0,0,0,1029,1030,1031,0,0,0,
1030,1031,7027,7028,7029,24111,24112,24113,24114,24115,0,0,105,106,107,23335,23336,23337,0,0,432,0,0,0,23377,23377,0,0,0,0,0,1032,1033,1034,1029,1030,
1029,1030,1031,0,0,24148,24149,24150,24151,24152,0,0,137,138,139,23372,23373,23374,0,0,464,0,0,0,0,0,0,0,0,1029,1030,1031,1035,1036,1037,1035,
1033,1034,1029,1030,1031,24185,24186,24187,24188,24189,0,0,169,170,171,0,0,0,0,0,0,0,0,0,0,0,0,0,1029,1030,1031,0,1029,1030,1031,1032,
1029,1030,1031,0,1029,1030,1031,24224,24225,24226,0,0,0,0,0,0,0,0,0,0,0,0,0,0,0,7024,7025,7026,1035,1036,1037,1032,1033,1034,1035,1036,
0,1032,1033,1034,0,0,0,0,0,0,0,0,0,0,0,0,0,0,0,1029,1030,1031,0,1032,1033,1034,1035,1036,1037,1035,1036,1037,0,1035,1036,1037,
1036,1037,0,1029,1030,1031,0,0,0,7024,7025,7026,0,0,0,0,0,0,7027,7028,7029,0,1029,1030,1031,1029,1030,1031,0,1029,1030,1031,1032,1033,1034,1032,
1029,1030,1031,0,1032,1033,1034,1029,1030,1031,0,0,1029,1030,1031,0,1029,1030,1031,0,1029,1030,1031,0,1029,1030,1031,432,1032,1033,1034,0,1029,1030,1031,0,
1033,1034,0,1029,1030,1031,0,0,7027,7028,7029,0,0,1032,1033,1034,0,0,1029,1030,1031,0,7027,7028,7029,1029,1030,1031,0,0,0,1032,1033,1034,1032,1033,
0,0,1029,1030,1031,1029,1030,1031,0,1029,1030,1031,1032,1033,1034,1029,1030,1031,0,0,1029,1030,1031,1029,1030,1031,1032,1033,1034,1029,1030,1031,1035,1036,1037,1032,
1030,1031,0,0,1032,1033,1034,1032,1033,1034,0,0,0,1029,1030,1031,1029,1030,1031,0,0,1029,1030,1031,0,1029,1030,1031,1035,1036,1037,0,0,1032,1033,1034,
0,0,1029,1030,1031,0,1029,1030,1031,0,1029,1030,1031,0,0,1035,1036,1037,0,1032,1033,1034,0,0,0,0,0,0,0,0,0,0,0,0,0,0
</data>
 </layer>
</map>
