<?xml version="1.0" encoding="UTF-8"?>
<map version="1.0" orientation="orthogonal" renderorder="right-down" width="60" height="55" tilewidth="32" tileheight="32" nextobjectid="1">
 <tileset firstgid="1" name="tile group" tilewidth="32" tileheight="32" tilecount="21000" columns="140">
  <image source="Tiles/tile group.png" width="4480" height="4800"/>
 </tileset>
 <tileset firstgid="21001" name="Pro all tiles" tilewidth="32" tileheight="32" tilecount="1024" columns="32">
  <image source="Tiles/Pro all tiles.png" width="1024" height="1024"/>
 </tileset>
 <tileset firstgid="22025" name="hgss2" tilewidth="32" tileheight="32" tilecount="210" columns="15">
  <image source="Tiles/hgss2.png" width="480" height="448"/>
 </tileset>
 <tileset firstgid="22235" name="Jotho pokémon sprite overworld" tilewidth="32" tileheight="32" tilecount="1232" columns="22">
  <image source="Tiles/Jotho pokémon sprite overworld.png" width="704" height="1792"/>
 </tileset>
 <tileset firstgid="23467" name="Hoen pokémon overworld 2.0" tilewidth="32" tileheight="32" tilecount="1170" columns="26">
  <image source="Tiles/Hoen pokémon overworld 2.0.png" width="832" height="1450"/>
 </tileset>
 <tileset firstgid="24637" name="4 - Copie" tilewidth="32" tileheight="32" tilecount="256" columns="8">
  <image source="Tiles/4 - Copie.png" width="256" height="1024"/>
 </tileset>
 <layer name="Layer 1" width="60" height="55">
  <data encoding="csv">
21253,21253,21254,21250,21250,21250,21250,21250,21250,21250,21250,21050,21050,21050,21050,21050,21050,21050,21050,21858,21858,21858,21858,21858,2280,7020,7020,2278,2279,2279,2279,2279,2279,2279,2279,2280,4659,4659,4659,4659,2278,2279,2280,4677,4677,4677,4677,4677,4677,4677,4677,4677,4677,4677,4677,4677,4677,4677,4677,4677,
21253,21410,21286,21250,21250,21250,21250,21250,21250,21250,21250,21050,21050,21050,21050,21050,21050,21050,21050,21858,21858,21858,21858,21858,2140,7020,7020,2278,2279,2279,2279,2279,2279,2279,2279,2698,2139,2139,2139,2139,2699,2279,2280,4677,4677,4677,4677,4677,4677,4677,4677,4677,4677,4677,4677,4677,4677,4677,4677,4677,
21410,21286,21250,21250,21250,21250,21250,21250,21250,21250,21050,21050,21050,21050,21050,21050,21050,21050,21858,21858,21858,21858,21858,21858,2280,7020,7020,2418,2559,2279,2279,2279,0,2279,2279,2279,2279,2279,2279,2279,2279,2279,2280,4677,4677,4677,4677,4677,4677,4677,4677,4677,4677,4677,4677,4677,4677,4677,4677,4677,
21286,21250,21250,21250,21250,21250,21250,21250,21250,21050,21050,21050,21050,21050,21050,21050,21050,21858,21858,21858,21858,21858,21858,21858,2280,7020,7020,7020,2278,2279,2558,2419,2419,2419,2419,2419,2419,2419,2419,2559,2279,2279,2280,4677,4677,4677,4677,4677,4677,4677,4677,4677,4677,4677,4677,4677,4677,4677,4677,4677,
21250,21250,21250,21250,21250,21250,21250,21250,21250,21050,21050,21050,21050,21050,21050,21050,21050,21858,21858,21858,21858,21858,21858,21858,2280,7020,7020,7020,2278,2279,2280,7020,7020,7020,7020,7020,7020,7020,7020,2278,2279,2279,2280,4677,4677,4677,4677,4677,4677,4677,4677,4677,4677,4677,4677,4677,4677,4677,4677,4677,
21250,21250,21250,21250,21250,21250,21250,21250,21050,21050,21050,21050,21050,21050,21050,21050,21050,21858,21858,21858,21858,21858,21858,21858,2280,7020,7020,7020,2278,2279,2280,7020,7020,7020,7020,7020,7020,7020,7020,2278,2279,2279,2280,4677,4677,4677,4677,4677,4677,4677,4677,4677,4677,4677,4677,4677,4677,4677,4677,4677,
21250,21250,21250,21250,21250,21250,21250,21050,21050,21050,21050,21050,21050,21050,21050,21050,21050,21858,21858,21858,21858,21858,21858,21858,2698,2140,7020,7020,2278,2279,2698,2139,2140,7020,7020,2138,2279,2279,2279,2278,2279,2279,2280,4677,4677,4677,4677,4677,4677,4677,4677,4677,4677,4677,4677,4677,4677,4677,4677,4677,
21250,21250,21250,21250,21250,21250,21250,21050,21050,21050,21050,21050,21050,21050,21050,21050,21858,21858,21858,21858,21858,21858,21858,21858,0,2280,7020,7020,2418,2559,2279,2279,2280,7020,7020,2279,2279,2279,2279,2278,2279,2279,2698,2139,2139,2139,2140,4677,4677,4677,4677,4677,4677,4677,4677,4677,4677,4677,4677,4677,
21250,21250,21250,21250,21250,21250,21250,21050,21050,21050,21050,21050,21050,21050,21050,21050,21858,21858,21858,21858,21858,21858,21858,21858,21858,2280,7020,7020,7020,2278,2279,2279,2280,7020,7020,2279,2279,2279,2279,2279,2279,2279,2279,2279,2279,2279,2280,4677,4677,4677,4677,4677,4677,4677,4677,4677,4677,4677,4677,4677,
21250,21250,21250,21250,21250,21250,21050,21050,21050,21050,21050,21050,21050,21050,21050,21050,21858,21858,21858,21858,21858,21858,21858,21858,21858,2280,7020,7020,7020,2278,2279,2279,2280,7020,7020,2279,2279,2279,2279,2279,2279,2279,2279,2279,2279,2279,2280,4677,4677,4677,4677,4677,4677,4677,4677,4677,4677,4677,4677,4677,
21250,21250,21250,21250,21250,21250,21050,21050,21050,21050,21050,21050,21050,21050,21050,21050,21858,21858,21858,21858,21858,21858,21858,21858,21858,2280,7020,7020,7020,2278,2279,2279,2280,7020,7020,2418,2419,2419,2419,2419,2419,2419,2419,2419,2419,2559,2280,4677,4677,4677,4677,4677,4677,4677,4677,4677,4677,4677,4677,4677,
21250,21250,21250,21250,21250,21250,21250,21050,21050,21050,21050,21050,21050,21050,21050,21050,21858,21858,21858,21858,21858,21858,21858,21858,21858,2698,2140,7020,7020,2418,2559,2558,2420,7020,7020,7020,7020,7020,7020,7020,7020,7020,7020,7020,7020,2278,2280,4677,4677,4677,4677,4677,4677,4677,4677,4677,4677,4677,4677,4677,
21250,21250,21250,21250,21250,21250,21250,21050,21050,21050,21050,21050,21050,21050,21050,21050,21858,21858,21858,21858,21858,21858,21858,21858,21858,0,2280,7020,7020,7020,2418,2420,7020,7020,7020,7020,7020,7020,7020,7020,7020,7020,7020,7020,7020,2278,2280,4677,4677,4677,4677,4677,4677,4677,4677,4677,4677,4677,4677,4677,
21222,21250,21250,21250,21250,21250,21250,21050,21050,21050,21050,21050,21050,21050,21050,21050,21858,21858,21858,21858,21858,21858,21858,21858,21858,21858,2280,7020,7020,7020,7020,7020,7020,7020,2138,2139,2139,2139,2139,2139,2139,2139,2139,2139,2139,2699,2280,4677,4677,4677,4677,4677,4677,4677,4677,4677,4677,4677,4677,4677,
21254,21250,21250,21250,21250,21250,21250,21050,21050,21050,21050,21050,21050,21050,21050,21050,21858,21858,21858,21858,21858,21858,21858,21858,21858,21858,2698,2140,7020,7020,7020,7020,7020,7020,2278,2279,2279,2279,2558,2419,2419,2559,2279,2279,2279,2279,2280,4677,4677,4677,4677,4677,4677,4677,4677,4677,4677,4677,4677,4677,
21254,21250,21250,21250,21250,21250,21250,21250,21050,21050,21050,21050,21050,21050,21050,21050,21858,21858,21858,21858,21858,21858,21858,21858,21858,21858,0,2280,7020,7020,7020,7020,2138,2139,2699,2558,2419,2419,2420,4659,4659,2418,2419,2419,2419,2559,2280,2279,2279,2279,2279,2279,2279,2279,2279,2279,2279,2279,2140,4677,
21254,21250,21250,21250,21250,21250,21250,21250,21050,21050,21050,21050,21050,21050,21050,21050,21858,21858,21858,21858,21858,21858,21858,21858,21858,21858,21858,2280,7020,7020,7020,7020,2278,2279,2558,2420,4659,4659,4659,4659,4659,4659,4659,4659,4659,2278,2280,2279,2279,2279,2279,2279,2279,2279,2279,2279,2279,2279,2280,4677,
21378,21222,21250,21250,21250,21250,21250,21250,21050,21050,21050,21050,21050,21050,21050,21050,21050,21858,21858,21858,21858,21858,21858,21858,21858,21858,21858,2698,2140,7020,7020,7020,2418,2559,2280,4659,4659,4659,4659,4659,4659,4659,2138,2139,2139,2699,2279,2279,2279,2279,2279,2279,2279,2279,2279,2279,2279,2279,2698,2140,
21253,21254,21250,21250,21250,21250,21250,21250,21050,21050,21050,21050,21050,21050,21050,21050,21050,21858,21858,21858,21858,21858,21858,21858,21858,21858,21858,0,2280,7020,7020,7020,7020,2278,2698,2140,4659,4659,4659,4659,4659,2138,2699,2279,2558,2419,2419,2419,2419,2419,2419,2419,2419,2419,2419,2419,2419,2419,2559,2698,
21253,21254,21250,21250,21250,21250,21250,21250,21050,21050,21050,21050,21050,21050,21050,21050,21050,21858,21858,21858,21858,21858,21858,21858,21858,21858,21858,21858,2280,7020,7020,7020,7020,2418,2559,2698,2139,2140,4659,4659,2138,2699,2279,2558,2420,7020,7020,7020,7020,7020,7020,7020,7020,7020,7020,7020,7020,7020,2278,2279,
21253,21254,21250,21250,21250,21250,21250,21050,21050,21050,21050,21050,21050,21050,21050,21050,21050,21858,21858,21858,21858,21858,21858,21858,21858,21858,21858,21858,2698,2140,7020,7020,7020,7020,2418,2419,2559,2698,2139,2139,2699,2558,2419,2420,7020,7020,7020,7020,7020,7020,7020,7020,7020,7020,7020,7020,7020,7020,2278,2279,
21253,21254,21250,21250,21250,21250,21250,21050,21050,21050,21050,21050,21050,21050,21050,21050,21050,21050,21858,21858,21858,21858,21858,21858,21858,21858,21858,21858,0,2698,2139,2140,7020,7020,7020,7020,2418,2419,2419,2559,2558,2420,7020,7020,7020,7020,2138,2139,2139,2139,2139,2139,2139,2139,2139,2139,2139,2139,2699,2279,
21253,21254,21250,21250,21250,21250,21050,21050,21050,21050,21050,21050,21050,21050,21050,21050,21050,21050,21858,21858,21858,21858,21858,21858,21858,21858,21858,21858,21858,0,0,2280,7020,7020,7020,7020,7020,7020,7020,2418,2420,7020,7020,7020,7020,7020,2278,2279,2279,2279,2279,2279,2279,2279,2279,2279,2279,2279,2279,2279,
21253,21254,21250,21250,21250,21250,21050,21050,21050,21050,21050,21050,21050,21050,21050,21050,21050,21050,21050,21858,21858,21858,21858,21858,21858,21858,21858,21858,21858,21858,21858,2280,7020,7020,7020,7020,7020,7020,7020,7020,7020,7020,7020,7020,7020,2138,2699,2279,2279,2279,2279,2279,2279,2279,2279,2279,2279,2558,2419,2419,
21410,21286,21250,21250,21250,21050,21050,21050,21050,21050,21050,21050,21050,21050,21050,21050,21050,21050,21050,21858,21858,21858,21858,21858,21858,21858,21858,21858,21858,21858,21858,2698,2139,2139,2139,2139,2140,7020,7020,7020,7020,7020,7020,2138,2139,2279,2279,2279,2279,2279,2279,2279,2279,2279,2279,2279,2279,2280,4677,4677,
21254,21250,21250,21250,21250,21050,21050,21050,21050,21050,21050,21050,21050,21050,21050,21050,21050,21050,21050,21858,21858,21858,21858,21858,21858,21858,21858,21858,21858,21858,21858,0,0,0,0,0,2698,2140,7020,7020,7020,7020,2138,2699,2279,2279,2279,7332,7332,2279,2279,2279,2279,2279,2279,2279,2279,2280,4677,4677,
21378,21222,21250,21250,21250,21250,21050,21050,21050,21050,21050,21050,21050,21050,21050,21050,21050,21050,21050,21050,21858,21858,21858,21858,21858,21858,21858,21858,21858,21858,21858,21858,21858,21858,21858,21858,21858,2280,7020,7020,7020,2138,2699,2279,2279,2279,7332,2279,2279,2279,2279,2279,2279,2279,2279,2279,2279,2280,4677,4677,
21253,21254,21250,21250,21250,21250,21050,21050,21050,21050,21050,21050,21050,21050,21050,21050,21050,21050,21050,21050,21858,21858,21858,21858,21858,21858,21858,21858,21858,21858,21858,21858,21858,21858,21858,21858,21858,2280,7020,7020,7020,2418,2559,2279,2279,2279,7332,2279,2279,2279,2279,2279,2279,2279,2279,2279,2279,2280,4677,4677,
21253,21254,21250,21250,21250,21250,21250,21050,21050,21050,21050,21050,21050,21050,21050,21050,21050,21050,21050,21050,21050,21858,21858,21858,21858,21858,21858,21858,21858,21858,21858,21858,21858,21858,21858,21858,21858,2698,2140,7020,7020,7020,2418,2559,2279,7332,7332,2279,2279,2558,2419,2419,2419,2419,2279,2279,2279,2280,4677,4677,
21253,21378,21222,21250,21250,21250,21250,21050,21050,21050,21050,21050,21050,21050,21050,21050,21050,21050,21050,21050,21050,21858,21858,21858,21858,21858,21858,21858,21858,21858,21858,21858,21858,21858,21858,21858,21858,0,2280,7020,7020,7020,7020,2278,2279,2279,2279,2279,2279,2280,7020,7020,7020,2278,2279,2279,2279,2280,4677,4677,
21253,21253,21254,21250,21250,21250,21250,21250,21250,21050,21050,21050,21050,21050,21050,21050,21050,21050,21050,21050,21050,21858,21858,21858,21858,21858,21858,21858,21858,21858,21858,21858,21858,21858,21858,21858,21858,21858,2280,7020,7020,7020,7020,2418,2559,2279,2279,2279,2558,2420,7020,7020,7020,2278,2279,2279,2558,2420,4677,4677,
21253,21253,21378,21222,21250,21250,21250,21250,21250,21050,21050,21050,21050,21050,21050,21050,21050,21050,21050,21050,21050,21858,21858,21858,21858,21858,21858,21858,21858,21858,21858,21858,21858,21858,21858,21858,21858,21858,2698,2140,7020,7020,7020,7020,2418,2419,2559,2279,2280,7020,7020,7020,2138,2699,2279,2558,2420,4677,4677,4677,
21253,21253,21253,21254,21250,21250,21250,21250,21250,21250,21050,21050,21050,21050,21050,21050,21050,21050,21050,21050,21050,21050,21858,21858,21858,21645,21645,21645,21858,21858,21858,21858,21858,21858,21858,21858,21858,21858,0,2280,7020,7020,7020,7020,7020,7020,2418,2419,2420,7020,7020,7020,2278,2279,2279,2280,4677,4677,4677,4677,
21253,21253,21253,21378,21222,21250,21250,21250,21250,21250,21050,21050,21050,21250,21050,21050,21050,21050,21050,21050,21050,21050,21858,21858,21858,21645,21645,21645,21645,21645,21858,21858,21858,21858,21858,21858,21858,21858,21858,2698,2139,2140,7020,7020,7020,7020,7020,7020,7020,7020,7020,7020,2278,2279,2279,2698,2140,4677,4677,4677,
21253,21253,21253,21253,21378,21222,21250,21250,21250,21250,21050,21050,21050,21050,21250,21050,21050,21050,21050,21050,21050,21050,21858,21858,21858,21645,21645,21645,21645,21645,21645,21858,21858,21858,21858,21858,21858,21858,21858,0,0,2280,7020,7020,7020,7020,7020,7020,7020,7020,7020,7020,2418,2559,2279,2279,2698,2139,2139,2139,
21409,21253,21253,21253,21253,21254,21250,21250,21250,21250,21050,21050,21050,21050,21250,21250,21050,21050,21050,21050,21050,21050,21050,21858,21645,21645,21645,21645,21645,21645,21645,21858,21858,21858,21858,21858,21858,21858,21858,21858,21858,2698,2139,2139,2139,2139,2140,7020,7020,7020,7020,7020,7020,2418,2419,2559,2279,2279,2279,2279,
21284,21409,21253,21253,21253,21378,21222,21250,21250,21250,21050,21050,21050,21050,21250,21050,21050,21050,21050,21050,21050,21050,21050,21050,21645,21645,21645,21645,21645,21645,21645,21858,21858,21858,21858,21858,21858,21858,21858,21858,21858,0,0,0,0,0,2280,7020,7020,7020,7020,7020,7020,7020,7020,2418,2419,2419,2559,2279,
21250,21284,21409,21253,21253,21253,21254,21250,21250,21250,21050,21050,21050,21050,21050,21050,21050,21050,21050,21050,21050,21050,21050,21050,21050,21858,21858,21858,21858,21858,21858,21858,21858,21858,21858,21858,21858,21858,21858,21858,21858,21858,21858,21858,21858,21858,2280,7020,7020,7020,7020,7020,7020,7020,7020,7020,7020,7020,2418,2419,
21250,21250,21252,21253,21253,21253,21254,21250,21250,21250,21050,21050,21050,21050,21050,21050,21050,21050,21050,21050,21050,21050,21050,21050,21050,21050,21050,21858,21858,21858,21858,21858,21858,21858,21858,21858,21858,21858,21858,21858,21858,21858,21858,21858,21858,21858,2698,2139,2139,2139,2139,2140,7020,7020,7020,7020,7020,7020,7020,7020,
21250,21250,21252,21253,21253,21253,21254,21250,21250,21250,21250,21050,21050,21050,21050,21050,21050,21050,21050,21050,21050,21050,21050,21050,21050,21050,21050,21050,21050,21858,21858,21858,21858,21858,21858,21858,21858,21858,21858,21858,21858,21858,21858,21858,21858,21858,0,0,0,0,0,2280,7020,7020,7020,7020,7020,7020,7020,7020,
21250,21220,21377,21253,21253,21253,21254,21250,21250,21250,21250,21250,21050,21050,21050,21050,21050,21050,21050,21050,21050,21050,21050,21050,21050,21050,21050,21050,21050,21050,21050,21050,21858,21858,21858,21858,21858,21858,21858,21858,21858,21858,21858,21858,21858,21858,21858,21858,21858,21858,21858,2698,2139,2139,2139,2139,2139,2139,2139,2139,
21250,21252,21253,21253,21253,21253,21254,21250,21250,21250,21250,21250,21050,21050,21050,21050,21050,21050,21050,21050,21050,21050,21050,21050,21050,21050,21050,21050,21050,21050,21050,21050,21050,21050,21050,21858,21858,21858,21858,21858,21858,21858,21858,21858,21858,21858,21858,21858,21858,21858,21858,0,0,0,0,0,0,0,0,0,
21220,21377,21253,21253,21253,21253,21254,21250,21250,21250,21250,21250,21250,21250,21250,21250,21250,21250,21250,21050,21050,21050,21050,21050,21050,21050,21050,21050,21050,21050,21050,21050,21050,21050,21050,21050,21050,21050,21050,21050,21858,21858,21858,21858,21858,21858,21858,21858,21858,21858,21858,21858,21858,21858,21858,21858,21858,21858,21858,0,
21377,21253,21253,21253,21253,21253,21254,21250,21250,21250,21250,21250,21250,21250,21250,21250,21250,21250,21250,21250,21250,21250,21050,21050,21050,21050,21050,21050,21050,21050,21050,21050,21050,21050,21050,21050,21050,21050,21050,21050,21050,21050,21050,21050,21858,21858,21858,21858,21858,21858,21858,21858,21858,21858,21858,21858,21858,21858,21858,21858,
21253,21253,21253,21253,21253,21253,21254,21250,21250,21250,21250,21250,21250,21250,21250,21250,21250,21250,21250,21250,21250,21250,21250,21250,21050,21050,21050,21050,21050,21050,21050,21050,21050,21050,21050,21050,21050,21050,21050,21050,21050,21050,21050,21050,21050,21050,21858,21858,21858,21858,21858,21858,21858,21858,21858,21858,21858,21858,21858,21858,
21253,21253,21253,21253,21253,21410,21286,21250,21250,21250,21250,21250,21250,21250,21250,21250,21250,21250,21250,21250,21250,21250,21250,21250,21250,21250,21250,21050,21050,21050,21050,21050,21050,21050,21050,21050,21050,21050,21050,21050,21050,21050,21050,21050,21050,21050,21050,21050,21050,21858,21858,21858,21858,21858,21858,21858,21858,21858,21858,21858,
21253,21253,21253,21253,21253,21254,21250,21250,21250,21250,21250,21250,21250,21250,21250,21250,21250,21250,21250,21250,21250,21250,21250,21250,21250,21250,21250,21050,21050,21050,21050,21050,21050,21050,21050,21050,21050,21050,21050,21050,21050,21050,21050,21050,21050,21050,21050,21050,21050,21050,21050,21050,21858,21858,21858,21858,21858,21858,21858,21858,
21253,21253,21253,21253,21253,21378,21221,21222,21250,21250,21250,21250,21250,21250,21250,21250,21250,21250,21250,21250,21250,21250,21250,21250,21250,21250,21250,21050,21050,21050,21050,21050,21050,21050,21050,21050,21050,21050,21050,21050,21050,21050,21050,21050,21050,21050,21050,21050,21050,21050,21050,21050,21050,21050,21050,21858,21858,21858,21858,21858,
21253,21253,21253,21253,21253,21253,21253,21378,21221,21221,21222,21250,21250,21250,21250,21250,21250,21250,21250,21250,21250,21250,21250,21250,21250,21250,21250,21250,21050,21050,21050,21050,21050,21250,21250,21250,21250,21250,21250,21250,21250,21050,21050,21050,21050,21050,21050,21050,21050,21050,21050,21050,21050,21050,21050,21050,21050,21050,21050,21050,
21253,21253,21253,21253,21253,21253,21253,21253,21253,21253,21378,21221,21221,21221,21221,21221,21221,21221,21221,21222,21250,21250,21250,21250,21250,21250,21250,21250,21250,21250,21250,21250,21250,21250,21250,21250,21250,21250,21250,21250,21250,21250,21250,21050,21050,21050,21050,21050,21050,21050,21050,21050,21050,21050,21050,21050,21050,21050,21050,21050,
21253,21253,21253,21253,21253,21253,21253,21253,21253,21253,21253,21253,21253,21253,21253,21253,21253,21253,21253,21378,21221,21222,21250,21250,21250,21250,21250,21250,21250,21250,21250,21250,21250,21250,21250,21250,21250,21250,21250,21250,21250,21250,21250,21250,21050,21050,21050,21050,21050,21050,21050,21050,21050,21050,21050,21050,21050,21050,21050,21050,
21253,21253,21253,21253,21253,21253,21253,21253,21253,21253,21253,21253,21253,21253,21253,21253,21253,21253,21253,21253,21253,21378,21221,21222,21250,21250,21250,21250,21250,21250,21250,21250,21250,21250,21250,21250,21250,21250,21250,21250,21250,21250,21250,21250,21250,21050,21050,21050,21050,21050,21050,21050,21250,21250,21250,21050,21050,21050,21050,21050,
21253,21253,21253,21253,21253,21253,21253,21253,21253,21253,21253,21253,21253,21253,21253,21253,21253,21253,21253,21253,21253,21253,21253,21254,21250,21250,21250,21250,21250,21250,21250,21250,21250,21250,21250,21250,21250,21250,21250,21250,21250,21250,21250,21250,21250,21250,21050,21050,21050,21050,21050,21250,21250,21250,21250,21250,21250,21250,21250,21250,
21253,21253,21253,21253,21253,21253,21253,21253,21253,21253,21253,21253,21253,21253,21253,21253,21253,21253,21253,21253,21253,21253,21253,21378,21222,21250,21250,21250,21250,21250,21250,21250,21250,21220,21221,21221,21221,21221,21221,21221,21222,21250,21250,21250,21250,21250,21250,21250,21250,21250,21250,21250,21250,21250,21250,21250,21250,21250,21250,21250,
21253,21253,21253,21253,21253,21253,21253,21253,21253,21253,21253,21253,21253,21253,21253,21253,21253,21253,21253,21253,21253,21253,21253,21253,21378,21221,21221,21221,21221,21221,21221,21221,21221,21377,21253,21253,21253,21253,21253,21253,21378,21221,21221,21222,21250,21250,21250,21250,21250,21250,21250,21250,21250,21250,21250,21250,21250,21250,21250,21250
</data>
 </layer>
 <layer name="Calque 5" width="60" height="55" opacity="0.35">
  <data encoding="csv">
0,0,0,0,0,0,0,0,0,0,0,0,0,0,0,0,0,0,0,0,0,0,0,0,0,0,0,0,0,0,0,0,0,0,0,0,0,0,0,0,0,0,0,0,0,0,0,0,0,0,0,0,0,0,0,0,0,0,0,0,
0,0,0,0,0,0,0,0,0,0,0,0,0,0,0,0,0,0,0,0,0,0,0,0,0,0,0,0,0,0,0,0,0,0,0,0,0,0,0,0,0,0,0,0,0,0,0,0,0,0,0,0,0,0,0,0,0,0,0,0,
0,0,0,0,0,0,0,0,0,0,0,0,0,0,0,0,0,0,0,0,0,0,0,0,0,0,0,0,0,0,0,0,0,0,0,0,0,0,0,0,0,0,0,0,0,0,0,0,0,0,0,0,0,0,0,0,0,0,0,0,
0,0,0,0,0,0,0,0,0,0,0,0,0,0,0,0,0,0,0,0,0,0,0,0,0,0,0,0,0,0,0,0,0,0,0,0,0,0,0,0,0,0,0,0,0,0,0,0,0,0,0,0,0,0,0,0,0,0,0,0,
0,0,0,0,0,0,0,0,0,0,0,0,0,0,0,0,0,0,0,0,0,0,0,0,0,0,0,0,0,0,0,0,0,0,0,0,0,0,0,0,0,0,0,0,0,0,0,0,0,0,0,0,0,0,0,0,0,0,0,0,
0,0,0,0,0,0,0,0,0,0,0,0,0,0,0,0,0,0,0,0,0,0,0,0,0,0,0,0,0,0,0,0,0,0,0,0,0,0,0,0,0,0,0,0,0,0,0,0,0,0,0,0,0,0,0,0,0,0,0,0,
0,0,0,0,0,0,0,0,0,0,0,0,0,0,0,0,0,0,0,0,0,0,0,0,0,0,0,0,0,0,0,0,0,0,0,0,0,0,0,0,0,0,0,0,0,0,0,0,0,0,0,0,0,0,0,0,0,0,0,0,
0,0,0,0,0,0,0,0,0,0,0,0,0,0,0,0,0,0,0,0,0,0,0,0,0,0,0,0,0,0,0,0,0,0,0,0,0,0,0,0,0,0,0,0,0,0,0,0,0,0,0,0,0,0,0,0,0,0,0,0,
0,0,0,0,0,0,0,0,0,0,0,0,0,0,0,0,0,0,0,0,0,0,0,0,0,0,0,0,0,0,0,0,0,0,0,0,0,0,0,0,0,0,0,0,0,0,0,0,0,0,0,0,0,0,0,0,0,0,0,0,
0,0,0,0,0,0,0,0,0,0,0,0,0,0,0,0,0,0,0,0,0,0,0,0,0,0,0,0,0,0,0,0,0,0,0,0,0,0,0,0,0,0,0,0,0,0,0,0,0,0,0,0,0,0,0,0,0,0,0,0,
0,0,0,0,0,0,0,0,0,0,0,0,0,0,0,0,0,0,0,0,0,0,0,0,0,0,0,0,0,0,0,0,0,0,0,0,0,0,0,0,0,0,0,0,0,0,0,0,0,0,0,0,0,0,0,0,0,0,0,0,
0,0,0,0,0,0,0,0,0,0,0,0,0,0,0,0,0,0,0,0,0,0,0,0,0,0,0,0,0,0,0,0,0,0,0,0,0,0,0,0,0,0,0,0,0,0,0,0,0,0,0,0,0,0,0,0,0,0,0,0,
0,0,0,0,0,0,0,0,0,0,0,0,0,0,0,0,0,0,0,0,0,0,0,0,0,0,0,0,0,0,0,0,0,0,0,0,0,0,0,0,0,0,0,0,0,0,0,0,0,0,0,0,0,0,0,0,0,0,0,0,
0,0,0,0,0,0,0,0,0,0,0,0,0,0,0,0,0,0,0,0,0,0,0,0,0,0,0,0,0,0,0,0,0,0,0,0,0,0,0,0,0,0,0,0,0,0,0,0,0,0,0,0,0,0,0,0,0,0,0,0,
0,0,0,0,0,0,0,0,0,0,0,0,0,0,0,0,0,0,0,0,0,0,0,0,0,0,0,0,0,0,0,0,0,0,0,0,0,0,0,0,0,0,0,0,0,0,0,0,0,0,0,0,0,0,0,0,0,0,0,0,
0,0,0,0,0,0,0,0,0,0,0,0,0,0,0,0,0,0,0,0,0,0,0,0,0,0,0,0,0,0,0,0,0,0,0,0,0,0,0,0,0,0,0,0,0,0,0,0,0,0,0,0,0,0,0,0,0,0,0,0,
0,0,0,0,0,0,0,0,0,0,0,0,0,0,0,0,0,0,0,0,0,0,0,0,0,0,0,0,0,0,0,0,0,0,0,0,0,0,0,0,0,0,0,0,0,0,0,0,0,0,0,0,0,0,0,0,0,0,0,0,
0,0,0,0,0,0,0,0,0,0,0,0,0,0,0,0,0,0,0,0,0,0,0,0,0,0,0,0,0,0,0,0,0,0,0,0,0,0,0,0,0,0,0,0,0,0,0,0,0,0,0,0,0,0,0,0,0,0,0,0,
0,0,0,0,0,0,0,0,0,0,0,0,0,0,0,0,0,0,0,0,0,0,0,0,0,0,0,0,0,0,0,0,0,0,0,0,0,0,0,0,0,0,0,0,0,0,0,0,0,0,0,0,0,0,0,0,0,0,0,0,
0,0,0,0,0,0,0,0,0,0,0,0,0,0,0,0,0,0,0,0,0,0,0,0,0,0,0,0,0,0,0,0,0,0,0,0,0,0,0,0,0,0,0,0,0,0,0,0,0,0,0,0,0,0,0,0,0,0,0,0,
0,0,0,0,0,0,0,0,0,0,0,0,0,0,0,0,0,0,0,0,0,0,0,0,0,0,0,0,0,0,0,0,0,0,0,0,0,0,0,0,0,0,0,0,0,0,0,0,0,0,0,0,0,0,0,0,0,0,0,0,
0,0,0,0,0,0,0,0,0,0,0,0,0,0,0,0,0,0,0,0,0,0,0,0,0,0,0,0,0,0,0,0,0,0,0,0,0,0,0,0,0,0,0,0,0,0,0,0,0,0,0,0,0,0,0,0,0,0,0,0,
0,0,0,0,0,0,0,0,0,0,0,0,0,0,0,0,0,0,0,0,0,0,0,0,0,0,0,0,0,0,0,0,0,0,0,0,0,0,0,0,0,0,0,0,0,0,0,0,0,0,0,0,0,0,0,0,0,0,0,0,
0,0,0,0,0,0,0,0,0,0,0,0,0,0,0,0,0,0,0,0,0,0,0,0,0,0,0,0,0,0,0,0,0,0,0,0,0,0,0,0,0,0,0,0,0,0,0,0,0,0,0,0,0,0,0,0,0,0,0,0,
0,0,0,0,0,0,0,0,0,0,0,0,0,0,0,0,0,0,0,0,0,0,0,0,0,0,0,0,0,0,0,0,0,0,0,0,0,0,0,0,0,0,0,0,0,0,0,0,0,0,0,0,0,0,0,0,0,0,0,0,
0,0,0,0,0,0,0,0,0,0,0,0,0,0,0,0,0,0,0,0,0,0,0,0,0,0,0,0,0,0,0,0,0,0,0,0,0,0,0,0,0,0,0,0,0,0,0,0,0,0,0,0,0,0,0,0,0,0,0,0,
0,0,0,0,0,0,0,0,0,0,0,0,0,0,0,0,0,0,0,0,0,0,0,0,0,0,0,0,0,0,0,0,0,0,0,0,0,0,0,0,0,0,0,0,0,0,0,0,0,0,0,0,0,0,0,0,0,0,0,0,
0,0,0,0,0,0,0,0,0,0,0,0,0,0,0,0,0,0,0,0,0,0,0,0,0,0,0,0,0,0,0,0,0,0,0,0,0,0,0,0,0,0,0,0,0,0,0,0,0,0,0,0,0,0,0,0,0,0,0,0,
0,0,0,0,0,0,0,0,0,0,0,0,0,0,0,0,0,0,0,0,0,0,0,0,0,0,0,0,0,0,0,0,0,0,0,0,0,0,0,0,0,0,0,0,0,0,0,0,0,0,0,0,0,0,0,0,0,0,0,0,
0,0,0,0,0,0,0,0,0,0,0,0,0,0,0,0,0,0,0,0,0,0,0,0,0,0,0,0,0,0,0,0,0,0,0,0,0,0,0,0,0,0,0,0,0,0,0,0,0,0,0,0,0,0,0,0,0,0,0,0,
0,0,0,0,0,0,0,0,0,0,0,0,0,0,0,0,0,0,0,0,0,0,0,0,0,0,0,0,0,0,0,0,0,0,0,0,0,0,0,0,0,0,0,0,0,0,0,0,0,0,0,0,0,0,0,0,0,0,0,0,
0,0,0,0,0,0,0,0,0,0,0,0,0,0,0,0,0,0,0,0,0,0,0,0,0,0,0,0,0,0,0,0,0,0,0,0,0,0,0,0,0,0,0,0,0,0,0,0,0,0,0,0,0,0,0,0,0,0,0,0,
0,0,0,0,0,0,0,0,0,0,0,0,0,0,0,0,0,0,0,0,0,0,0,0,0,24756,24756,24756,0,0,0,0,0,0,0,0,0,0,0,0,0,0,0,0,0,0,0,0,0,0,0,0,0,0,0,0,0,0,0,0,
0,0,0,0,0,0,0,0,0,0,0,0,0,0,0,0,0,0,0,0,0,0,0,0,0,24756,24756,24756,24756,24756,0,0,0,0,0,0,0,0,0,0,0,0,0,0,0,0,0,0,0,0,0,0,0,0,0,0,0,0,0,0,
0,0,0,0,0,0,0,0,0,0,0,0,0,0,0,0,0,0,0,0,0,0,0,0,0,24756,24756,24756,24756,24756,24756,0,0,0,0,0,0,0,0,0,0,0,0,0,0,0,0,0,0,0,0,0,0,0,0,0,0,0,0,0,
0,0,0,0,0,0,0,0,0,0,0,0,0,0,0,0,0,0,0,0,0,0,0,0,24756,24756,24756,24756,24756,24756,24756,0,0,0,0,0,0,0,0,0,0,0,0,0,0,0,0,0,0,0,0,0,0,0,0,0,0,0,0,0,
0,0,0,0,0,0,0,0,0,0,0,0,0,0,0,0,0,0,0,0,0,0,0,0,24756,24756,24756,24756,24756,24756,24756,0,0,0,0,0,0,0,0,0,0,0,0,0,0,0,0,0,0,0,0,0,0,0,0,0,0,0,0,0,
0,0,0,0,0,0,0,0,0,0,0,0,0,0,0,0,0,0,0,0,0,0,0,0,0,0,0,0,0,0,0,0,0,0,0,0,0,0,0,0,0,0,0,0,0,0,0,0,0,0,0,0,0,0,0,0,0,0,0,0,
0,0,0,0,0,0,0,0,0,0,0,0,0,0,0,0,0,0,0,0,0,0,0,0,0,0,0,0,0,0,0,0,0,0,0,0,0,0,0,0,0,0,0,0,0,0,0,0,0,0,0,0,0,0,0,0,0,0,0,0,
0,0,0,0,0,0,0,0,0,0,0,0,0,0,0,0,0,0,0,0,0,0,0,0,0,0,0,0,0,0,0,0,0,0,0,0,0,0,0,0,0,0,0,0,0,0,0,0,0,0,0,0,0,0,0,0,0,0,0,0,
0,0,0,0,0,0,0,0,0,0,0,0,0,0,0,0,0,0,0,0,0,0,0,0,0,0,0,0,0,0,0,0,0,0,0,0,0,0,0,0,0,0,0,0,0,0,0,0,0,0,0,0,0,0,0,0,0,0,0,0,
0,0,0,0,0,0,0,0,0,0,0,0,0,0,0,0,0,0,0,0,0,0,0,0,0,0,0,0,0,0,0,0,0,0,0,0,0,0,0,0,0,0,0,0,0,0,0,0,0,0,0,0,0,0,0,0,0,0,0,0,
0,0,0,0,0,0,0,0,0,0,0,0,0,0,0,0,0,0,0,0,0,0,0,0,0,0,0,0,0,0,0,0,0,0,0,0,0,0,0,0,0,0,0,0,0,0,0,0,0,0,0,0,0,0,0,0,0,0,0,0,
0,0,0,0,0,0,0,0,0,0,0,0,0,0,0,0,0,0,0,0,0,0,0,0,0,0,0,0,0,0,0,0,0,0,0,0,0,0,0,0,0,0,0,0,0,0,0,0,0,0,0,0,0,0,0,0,0,0,0,0,
0,0,0,0,0,0,0,0,0,0,0,0,0,0,0,0,0,0,0,0,0,0,0,0,0,0,0,0,0,0,0,0,0,0,0,0,0,0,0,0,0,0,0,0,0,0,0,0,0,0,0,0,0,0,0,0,0,0,0,0,
0,0,0,0,0,0,0,0,0,0,0,0,0,0,0,0,0,0,0,0,0,0,0,0,0,0,0,0,0,0,0,0,0,0,0,0,0,0,0,0,0,0,0,0,0,0,0,0,0,0,0,0,0,0,0,0,0,0,0,0,
0,0,0,0,0,0,0,0,0,0,0,0,0,0,0,0,0,0,0,0,0,0,0,0,0,0,0,0,0,0,0,0,0,0,0,0,0,0,0,0,0,0,0,0,0,0,0,0,0,0,0,0,0,0,0,0,0,0,0,0,
0,0,0,0,0,0,0,0,0,0,0,0,0,0,0,0,0,0,0,0,0,0,0,0,0,0,0,0,0,0,0,0,0,0,0,0,0,0,0,0,0,0,0,0,0,0,0,0,0,0,0,0,0,0,0,0,0,0,0,0,
0,0,0,0,0,0,0,0,0,0,0,0,0,0,0,0,0,0,0,0,0,0,0,0,0,0,0,0,0,0,0,0,0,0,0,0,0,0,0,0,0,0,0,0,0,0,0,0,0,0,0,0,0,0,0,0,0,0,0,0,
0,0,0,0,0,0,0,0,0,0,0,0,0,0,0,0,0,0,0,0,0,0,0,0,0,0,0,0,0,0,0,0,0,0,0,0,0,0,0,0,0,0,0,0,0,0,0,0,0,0,0,0,0,0,0,0,0,0,0,0,
0,0,0,0,0,0,0,0,0,0,0,0,0,0,0,0,0,0,0,0,0,0,0,0,0,0,0,0,0,0,0,0,0,0,0,0,0,0,0,0,0,0,0,0,0,0,0,0,0,0,0,0,0,0,0,0,0,0,0,0,
0,0,0,0,0,0,0,0,0,0,0,0,0,0,0,0,0,0,0,0,0,0,0,0,0,0,0,0,0,0,0,0,0,0,0,0,0,0,0,0,0,0,0,0,0,0,0,0,0,0,0,0,0,0,0,0,0,0,0,0,
0,0,0,0,0,0,0,0,0,0,0,0,0,0,0,0,0,0,0,0,0,0,0,0,0,0,0,0,0,0,0,0,0,0,0,0,0,0,0,0,0,0,0,0,0,0,0,0,0,0,0,0,0,0,0,0,0,0,0,0,
0,0,0,0,0,0,0,0,0,0,0,0,0,0,0,0,0,0,0,0,0,0,0,0,0,0,0,0,0,0,0,0,0,0,0,0,0,0,0,0,0,0,0,0,0,0,0,0,0,0,0,0,0,0,0,0,0,0,0,0,
0,0,0,0,0,0,0,0,0,0,0,0,0,0,0,0,0,0,0,0,0,0,0,0,0,0,0,0,0,0,0,0,0,0,0,0,0,0,0,0,0,0,0,0,0,0,0,0,0,0,0,0,0,0,0,0,0,0,0,0
</data>
 </layer>
 <layer name="Layer 2" width="60" height="55">
  <data encoding="csv">
0,0,0,0,0,0,0,0,0,0,0,21251,0,0,0,0,0,0,21053,0,0,0,0,0,6361,0,0,0,0,0,0,0,0,0,0,0,4771,4772,4772,4773,0,0,0,21976,0,0,4771,4912,21176,0,4771,4912,21752,2819,2959,4771,4912,21143,0,0,
0,0,5487,5488,0,0,0,0,0,3251,0,21251,0,0,0,0,0,21053,21053,0,0,0,0,0,6361,0,0,0,0,0,0,0,0,0,0,0,0,0,0,0,0,0,0,0,0,0,0,4631,21176,0,0,4631,0,0,0,21976,4771,4772,4772,4912,
0,0,5627,5628,0,0,0,0,0,0,21346,21283,0,0,2830,0,21053,21053,0,0,2946,0,2809,0,6361,0,0,0,0,0,0,0,0,0,0,0,0,0,0,0,0,0,0,0,0,21112,0,4771,4772,4912,21752,4771,4772,4772,4912,0,0,2819,0,4771,
0,0,0,0,0,5486,0,0,0,21346,21283,0,0,2831,2832,0,21053,0,0,0,2946,2946,0,2946,6361,0,0,0,0,0,0,0,0,0,0,0,0,0,0,0,0,0,0,21015,21015,0,0,0,0,4631,0,0,0,0,4771,4772,4772,4912,21176,21143,
0,0,0,3251,5486,5486,0,0,0,21251,0,0,0,0,0,0,21053,0,0,0,0,2946,0,0,6361,0,0,0,0,0,0,0,0,0,0,0,0,0,0,0,0,0,0,0,21015,21047,0,21015,21015,4771,4772,4772,4772,4772,4912,0,0,4771,4912,21995,
0,0,0,0,0,0,0,0,21346,21283,0,0,0,0,0,0,21053,0,0,0,0,0,0,0,6361,0,0,0,0,0,0,0,0,0,0,0,0,0,0,0,0,0,0,0,21015,21048,21998,0,21047,0,21112,0,0,21752,4771,4912,2959,0,4631,0,
0,0,0,0,0,0,0,21346,21283,0,0,0,0,0,0,21053,21053,0,0,0,0,0,0,0,6501,6364,0,0,0,0,0,0,0,0,0,0,0,0,0,0,0,0,0,0,21015,21015,0,21015,21015,21015,0,0,21112,0,0,4631,0,0,4771,4912,
2973,0,0,0,3249,0,0,21251,0,0,0,0,0,0,0,21053,0,0,0,0,2809,2819,0,0,6641,6361,0,0,0,0,0,0,0,0,0,0,0,0,0,0,0,0,0,0,0,0,0,0,21048,21048,21976,0,0,21143,0,4631,0,0,0,4631,
3113,0,0,0,0,0,0,21251,0,0,0,0,0,0,0,21053,0,0,0,0,0,1687,0,2946,6781,6361,0,0,0,0,0,0,0,0,0,0,0,0,0,0,0,0,0,0,0,0,0,0,21015,21015,21047,21015,21015,0,0,4771,4772,4772,4912,4771,
0,0,0,0,0,0,21346,21283,0,0,0,0,0,0,0,21053,0,0,0,0,0,0,0,0,0,6361,0,0,0,0,0,0,0,0,0,0,0,0,0,0,0,0,0,0,0,0,0,21048,0,21015,0,21015,21048,21976,0,0,0,0,4631,0,
0,0,3249,22000,0,0,21314,21219,0,0,0,0,0,0,0,21053,0,0,0,0,0,0,0,0,2946,6361,0,0,0,0,0,0,0,0,0,0,0,0,0,0,0,0,0,0,0,0,0,0,21048,0,21015,21048,21015,21015,21112,0,21176,21176,4631,21752,
0,0,0,22000,0,0,0,21251,0,0,0,0,0,0,0,21053,0,0,0,0,0,0,0,0,0,6501,6364,0,0,0,0,0,0,0,0,0,0,0,0,0,0,0,0,0,0,0,0,0,0,21015,21048,21048,21976,21047,0,0,0,0,4771,4772,
0,0,0,22000,0,3251,0,21251,0,0,0,7438,7438,7438,7438,21053,0,0,0,0,0,0,0,0,0,6641,6361,0,0,0,0,0,0,0,0,0,0,0,0,0,0,0,0,0,0,0,0,0,21015,21048,21047,0,21015,21015,21015,21015,0,21998,0,0,
0,0,0,0,22000,0,0,21251,0,0,0,7438,7438,7438,7438,21053,0,0,0,0,0,0,0,0,0,6781,6361,0,0,0,0,0,0,0,0,0,0,0,0,0,0,0,0,0,0,0,0,0,0,0,21015,21015,0,0,0,21015,21015,0,21976,0,
0,0,3251,0,22000,0,22000,21314,21219,0,0,7578,0,7578,0,21053,0,0,0,0,0,0,0,2946,0,2819,6501,6364,0,0,0,0,0,0,0,0,0,0,0,0,0,0,0,0,0,0,0,0,0,0,0,0,0,0,0,0,0,0,0,21015,
0,0,0,0,0,2834,2835,22000,21251,0,0,0,0,0,0,21053,0,0,0,0,0,0,0,0,0,1687,6641,6361,0,0,0,0,0,0,0,0,0,0,0,0,0,0,0,0,0,0,0,0,0,0,0,0,0,0,0,0,0,0,0,21015,
0,0,5487,5488,3249,2974,2975,0,21251,0,0,21217,21218,21219,0,21053,0,0,0,0,0,0,0,0,0,0,6781,6361,0,0,0,0,0,0,0,0,3087,0,0,0,2952,2951,3087,22187,3087,0,0,0,0,0,0,0,0,0,0,0,0,0,0,0,
0,0,5627,5628,0,3114,3115,0,21251,0,0,21249,21250,21251,0,21053,21053,0,0,0,0,0,0,0,0,2946,0,6501,6364,0,0,0,0,0,0,3087,2951,2952,0,0,0,2952,0,0,0,0,0,0,0,0,0,0,0,0,0,0,0,0,0,0,
0,0,0,0,0,0,0,0,21251,0,0,21281,21282,21283,0,0,21053,0,0,0,0,0,0,0,0,0,22234,6641,6361,0,0,0,0,0,0,0,0,2952,22186,3087,2951,0,0,0,0,0,0,0,0,0,0,0,0,0,0,0,0,0,0,0,
0,0,0,0,0,0,0,0,21251,0,0,0,0,0,0,0,21053,0,0,0,0,0,2807,2808,22234,0,22217,6781,6361,0,0,0,0,0,0,0,0,0,2952,0,0,0,0,0,0,0,0,0,0,0,0,0,0,0,0,0,0,0,0,0,
5486,0,5769,5770,2969,2970,0,21346,21283,0,0,0,23185,0,0,0,21053,0,0,0,0,0,2947,2948,0,22202,22217,0,6501,6364,0,0,0,0,0,0,0,0,0,0,0,0,0,0,0,0,0,0,0,0,0,0,0,0,0,0,0,0,0,0,
0,0,5909,5910,3109,3110,0,21251,0,0,0,0,2830,0,0,0,21053,21053,0,0,0,0,0,0,0,22187,0,22218,6641,6501,6502,6364,0,0,0,0,0,0,0,0,0,0,0,0,0,0,0,0,0,0,0,0,0,0,0,0,0,0,0,0,
0,0,0,0,0,0,21346,21283,0,0,0,0,0,0,0,0,0,21053,0,0,0,0,0,0,0,22218,22201,22234,6781,6641,6642,6361,0,0,0,0,0,0,0,0,0,0,0,0,0,0,0,0,0,0,0,0,0,0,0,0,0,0,0,0,
0,0,2969,2970,0,0,21251,0,2831,2832,0,0,0,0,0,0,0,21053,21053,0,0,21223,21224,0,0,0,22201,0,0,6781,6782,6361,0,0,0,0,0,0,0,0,0,0,0,0,0,0,0,0,0,0,0,0,0,0,0,0,0,0,0,0,
0,0,3109,3110,0,21346,21283,0,0,0,0,0,0,0,0,3251,0,0,21053,0,0,21255,21256,0,0,0,2946,0,0,0,2819,6501,6502,6226,6227,6228,6364,0,0,0,0,0,0,0,0,0,7471,7472,7472,7475,0,0,0,0,0,0,0,0,22187,3240,
0,0,0,0,0,21314,21219,0,0,0,0,0,0,0,0,0,0,0,21053,0,0,0,0,0,0,0,0,2946,0,2819,0,6641,6642,6366,6367,6368,6501,6364,0,0,0,0,0,0,0,7471,7473,0,0,7334,0,0,0,0,0,0,0,0,0,0,
0,0,0,3088,0,0,21251,0,0,0,0,0,0,0,0,0,0,0,21053,21053,0,0,0,0,0,0,0,0,0,1687,0,6781,6782,6506,6507,6508,6641,6361,0,0,0,0,0,0,0,7333,0,7614,7612,7615,0,0,0,0,0,0,0,0,0,21976,
0,0,0,3088,3088,0,21314,21219,0,0,0,0,0,0,0,0,0,0,0,21053,0,0,0,0,0,0,0,0,0,2946,0,0,2819,0,0,0,6781,6361,0,0,0,0,0,0,7471,7473,0,7334,0,0,0,0,0,0,0,0,0,0,2811,21976,
0,2969,2970,0,0,3249,3249,21251,0,0,0,0,0,0,0,0,2830,0,0,21053,21053,0,0,0,21223,21224,0,0,0,0,0,2946,0,0,0,0,0,6501,6364,0,0,0,0,0,7333,0,0,7334,0,0,0,0,0,0,0,0,0,0,1826,1827,
0,3109,3110,0,3088,0,0,21314,21218,21219,0,0,0,0,0,0,0,0,0,0,21053,0,0,0,21255,21256,0,0,0,0,0,0,0,0,0,0,0,6641,6361,0,0,0,0,0,7611,7612,7612,7615,0,0,0,0,0,0,0,0,0,0,1966,1967,
0,0,0,0,0,0,0,0,0,21251,0,0,2969,2970,0,0,0,0,0,0,21053,0,0,0,0,0,0,0,21223,21224,0,0,0,0,0,0,2946,6781,6361,0,0,0,0,0,0,0,0,0,0,0,0,0,0,0,0,0,0,0,0,22187,
0,0,0,0,5625,5626,0,22000,0,21314,21219,0,3109,3110,0,0,0,0,0,0,21053,0,0,0,0,0,0,0,21255,21256,0,0,0,0,0,0,2946,2946,6501,6364,0,0,0,0,0,0,0,0,0,0,0,0,0,0,0,0,0,0,21976,22186,
0,0,2834,2835,0,0,0,22000,0,0,21251,0,21217,21218,21219,23089,3252,0,0,0,21053,21053,0,0,0,0,0,0,0,0,0,0,0,0,0,1687,0,2946,6641,6361,0,0,0,0,0,0,0,0,0,0,0,0,0,0,0,0,2959,0,21976,2805,
0,3100,2974,2975,0,2969,2970,0,0,23172,21251,0,21249,3111,21314,21219,0,3251,0,0,0,21053,0,0,0,0,0,0,0,0,0,0,0,0,0,0,0,0,6781,6501,6502,6364,0,0,0,0,0,0,0,0,0,0,0,0,0,0,0,2811,0,2959,
0,0,3114,3115,0,3109,3110,0,0,0,21251,0,21281,21345,3251,21314,21219,0,0,0,0,21053,0,0,0,0,0,0,0,0,0,0,0,0,0,0,0,0,0,6641,6642,6361,0,0,0,0,0,0,0,0,0,0,0,0,0,0,0,0,0,0,
0,22000,0,0,0,0,0,0,3249,0,21251,0,23090,21249,5485,3111,21251,0,0,3251,0,21053,21053,0,0,0,0,0,0,0,0,0,2807,2808,0,0,0,2819,2946,6781,6782,6501,6502,6502,6502,6502,6364,0,0,0,0,0,0,0,0,0,0,0,0,0,
0,0,22000,0,0,0,0,0,0,0,21251,0,0,21249,0,21346,21283,2972,2973,0,0,0,21053,21053,0,0,0,0,0,0,0,0,2947,2948,0,0,0,0,0,0,0,6641,6642,6642,6642,6642,6361,0,0,0,0,0,0,0,0,0,0,0,0,0,
0,0,0,0,0,0,0,0,0,0,21251,0,0,21281,21282,21283,3252,3112,3113,0,0,0,0,21053,21053,0,0,0,0,0,0,0,0,0,0,0,0,0,2946,0,0,6781,6782,6782,6782,6782,6361,0,0,0,0,0,0,0,0,0,0,0,0,0,
23089,0,0,0,22000,22000,0,0,0,0,21314,21219,0,0,0,0,0,0,0,0,2826,0,0,0,21053,21053,21053,0,0,0,0,0,0,0,0,0,0,0,0,0,2946,0,0,0,0,2819,6501,6502,6502,6502,6502,6364,0,0,0,0,0,0,0,0,
0,0,0,3100,0,22000,0,0,0,0,0,21314,21219,0,0,0,0,0,0,0,2966,2826,0,0,0,0,21053,21053,21053,0,0,0,0,0,0,0,0,0,0,0,0,0,0,2946,2946,0,6641,6642,6642,6642,6642,6361,0,0,0,0,0,0,0,0,
0,0,0,0,0,0,0,0,0,0,0,0,21251,0,0,0,0,0,0,0,0,2966,0,0,0,0,0,0,21053,21053,21053,21053,0,0,0,0,0,0,0,0,0,0,0,0,0,2946,6781,6782,6782,6782,6782,6501,6502,6502,6502,6502,6502,6502,6502,6502,
0,0,0,0,5486,0,0,0,0,0,0,0,21314,21218,21218,21218,21218,21218,21218,21219,0,0,0,0,0,3251,0,0,0,0,0,21053,21053,21053,21053,0,0,0,0,0,0,0,0,0,0,2946,2946,0,2819,0,0,6641,6642,6642,6642,6642,6642,6642,6642,6642,
0,0,0,0,0,0,0,0,0,0,0,0,0,0,0,0,0,0,0,21314,21218,21218,21219,0,0,0,0,0,0,0,0,0,0,0,21053,21053,21053,21053,21053,21053,0,0,0,0,0,0,0,0,2946,0,0,6781,6782,6782,6782,6782,6782,6782,6782,6782,
0,3100,0,0,0,0,0,0,2969,2970,0,3249,0,0,0,0,0,0,0,0,0,0,21314,21218,21219,0,0,0,0,0,0,0,0,0,0,0,0,0,21949,21053,21053,21053,21053,21053,0,0,2809,0,0,2946,0,0,0,0,0,0,2819,0,0,2819,
0,0,0,0,0,0,0,0,3109,3110,0,0,0,0,0,0,0,0,0,0,0,0,0,0,21314,21218,21218,21219,0,0,0,0,3251,0,0,0,0,0,23163,0,0,0,0,21053,21053,21053,0,0,0,0,0,0,0,0,0,2946,0,1687,2946,2946,
2832,0,0,5486,0,0,0,0,0,0,5487,5488,0,0,3088,3088,3088,0,0,0,0,0,3251,0,0,0,0,21251,0,0,0,23141,0,0,0,0,0,0,0,23185,0,0,0,0,0,21053,21053,21053,21053,0,0,0,0,2946,0,0,0,0,0,0,
0,0,0,5486,0,0,0,0,0,0,5627,5628,0,0,0,0,3088,0,5625,5626,0,0,0,0,3088,3088,0,21251,0,0,0,0,0,0,0,0,2830,0,0,0,0,0,0,2830,0,0,0,0,21053,21053,21053,21053,0,0,0,0,0,0,0,2946,
0,0,0,23113,0,0,0,0,0,0,0,0,0,0,0,0,0,3088,0,0,0,0,3250,0,0,3088,0,21314,21219,0,0,0,21217,21218,21218,21218,21218,21218,21218,21218,21218,21219,0,0,0,0,0,0,0,0,0,21053,21053,21053,21053,0,0,0,0,0,
0,5487,5488,0,0,0,0,0,0,0,0,0,0,0,0,0,0,0,0,0,0,3249,0,5769,5770,0,2969,2970,21314,21218,21218,21218,21313,0,0,0,0,0,0,0,0,21314,21218,21219,0,0,0,3251,0,0,0,0,0,0,21053,21053,21053,21053,21053,21053,
0,5627,5628,0,0,0,0,0,0,0,0,0,0,0,0,0,0,0,0,0,0,0,0,5909,5910,0,3109,3110,0,3249,0,5769,5770,0,5769,5770,0,0,3088,0,0,21828,0,21314,21219,0,0,0,0,0,0,0,0,0,0,0,0,0,21947,21947,
0,0,0,0,0,0,0,0,0,0,0,0,0,0,3249,0,0,0,0,0,0,0,0,0,0,0,0,0,22000,5769,5770,5909,5910,0,5909,5910,0,3088,3088,0,0,0,5487,5488,21314,21219,0,0,0,0,0,21217,21218,21218,21218,21219,0,0,0,0,
0,0,0,0,0,0,0,5486,0,23113,0,0,2831,2832,0,5485,3100,0,0,22000,0,0,0,0,0,3088,3088,3088,0,5909,5910,0,0,3088,3088,0,21828,0,0,5485,0,0,5627,5628,0,21314,21219,0,0,0,21217,21313,2831,2832,0,21314,21218,21218,21218,21218,
0,0,0,0,0,0,0,0,5486,0,0,0,0,0,5487,5488,0,0,0,0,0,0,0,0,0,0,0,0,3088,0,3088,3088,3088,0,0,0,0,0,0,0,0,0,0,0,0,0,21314,21218,21218,21218,21313,0,0,5487,5488,0,2972,2973,0,0,
0,0,0,0,0,0,0,0,0,0,23113,0,0,0,5627,5628,0,0,0,0,0,0,0,0,0,0,0,0,0,0,0,0,0,0,0,0,0,0,0,0,0,0,0,0,0,0,0,21828,0,0,0,0,0,5627,5628,0,3112,3113,0,0,
0,0,0,0,0,0,0,0,0,0,0,0,0,0,0,0,0,0,0,5769,5770,0,0,0,0,0,0,0,0,0,0,0,0,0,0,0,0,0,0,0,0,0,0,0,0,0,0,0,0,3249,0,0,21828,21828,0,0,0,2972,2973,0
</data>
 </layer>
 <layer name="Layer 3" width="60" height="55">
  <data encoding="csv">
21053,21053,21053,21053,21053,21053,21053,21053,21053,21053,21053,21053,21053,21053,21053,21053,21053,21053,21857,0,0,0,0,0,0,0,0,8438,0,0,0,11095,11096,11097,11098,11099,11100,0,0,0,0,0,8072,0,890,891,892,893,0,1429,1430,0,0,0,0,0,0,1286,1287,1288,
21053,21053,21053,21053,21053,21053,21053,21053,21053,21053,21053,21053,21053,21053,21053,21053,21053,21825,21860,0,0,0,0,0,0,0,0,8578,0,0,0,11235,11236,11237,11238,11239,11240,0,0,0,0,0,8212,0,1030,1031,1032,1033,0,1569,1570,0,74,75,76,0,0,1426,1427,1428,
21053,21053,21053,21053,21053,21053,21053,21053,21053,21053,21053,21053,21053,21053,21053,21053,21825,21860,0,0,0,0,0,0,0,0,0,8718,0,0,0,11375,11376,11377,11378,11379,11380,0,0,0,0,0,0,0,1170,1171,1172,1173,0,0,0,21432,214,215,216,1289,1290,1566,1567,1568,
21053,21053,21053,21053,21053,21053,21053,21053,21053,21053,21053,21053,21053,21053,21053,21053,21857,0,0,0,0,0,0,0,0,0,0,0,0,0,0,11515,11516,11517,11518,11519,11520,0,0,0,0,0,8072,0,0,0,0,0,0,0,0,21464,354,355,356,1429,1430,0,0,0,
21053,21053,21053,21053,21053,21053,21053,21053,21053,21053,21053,21053,21053,21053,21053,21053,21857,0,0,0,0,0,0,0,0,0,0,0,0,0,0,11655,11656,11657,11658,11659,11660,0,0,0,0,0,8212,0,0,0,0,0,0,0,1286,1287,494,495,496,1569,1570,21432,0,0,
21053,21053,21053,21053,21053,21053,21053,21053,21053,21053,21053,21053,21053,21053,21053,21053,21857,0,0,0,0,1302,1303,1304,0,0,0,0,8438,0,0,11795,11796,11797,11798,11799,11800,9603,9604,9605,9606,0,0,0,0,0,0,0,0,0,1426,1427,1428,0,21432,0,0,21464,0,0,
21053,21053,21053,21053,21053,21053,21053,21053,21053,21053,21053,21053,21053,21053,21053,21825,21860,0,0,0,0,1442,1443,1444,0,0,0,0,8578,0,0,0,0,0,0,9741,9742,9743,9744,9745,9746,0,8072,0,0,0,0,0,0,0,1566,1567,1568,0,21464,610,611,612,613,0,
21053,21053,21053,21053,21053,21053,21053,21053,21053,21053,21053,21053,21053,21053,21053,21857,0,0,0,0,0,1582,1583,1584,0,0,0,0,8718,0,0,0,0,0,0,9881,9882,9883,9884,9885,9886,9887,8212,9889,9890,9891,0,0,0,0,0,0,0,0,0,750,751,752,753,0,
21053,21053,21053,21053,21053,21053,21053,21053,21053,21053,21053,21053,21053,21053,21053,21857,0,0,0,0,0,1722,1723,1724,0,0,0,0,0,0,0,0,0,0,0,10021,10022,10023,10024,10025,10026,10027,10028,10029,10030,10031,0,0,0,0,0,0,0,0,0,890,891,892,893,21559,
21053,21053,21053,21053,21053,21053,21053,21053,21053,21053,21053,21053,21053,21053,21053,21857,0,0,0,0,0,0,0,0,0,0,0,0,0,8438,0,0,0,0,0,10161,10162,10163,10164,10165,10166,10167,10168,10169,10170,10171,0,0,0,0,0,0,0,0,0,1030,1031,1032,1033,21591,
21053,21053,21053,21053,21053,21053,21053,21053,21053,21053,21053,21053,21053,21053,21053,21857,0,0,0,0,0,0,0,0,0,0,0,0,0,8578,0,0,0,0,0,10301,10302,10303,10304,10305,10306,10307,10308,10309,10310,10311,0,0,0,0,0,0,0,0,0,1170,1171,1172,1173,0,
21053,21053,21053,21053,21053,21053,21053,21053,21053,21053,21053,21053,21053,21053,21053,21857,0,0,0,0,0,0,0,0,0,0,0,0,0,8718,0,0,0,0,0,10441,10442,10443,10444,10445,10446,10447,10448,10449,10450,10451,0,0,0,0,0,0,0,0,0,0,0,0,21559,21432,
21053,21053,21053,21053,21053,21053,21053,21053,21053,21053,21053,21053,21053,21053,21053,21857,0,0,0,0,0,0,0,1286,1287,1288,0,21831,0,0,0,0,0,0,0,10581,10582,10583,10584,10585,10586,10587,10588,10589,10590,10591,0,0,0,0,0,0,0,0,0,0,0,0,21591,21464,
21053,21053,21053,21053,21053,21053,21053,21053,21053,21053,21053,21053,21053,21053,21053,21857,0,0,0,0,0,0,0,1426,1427,1428,0,21863,0,0,0,0,8438,0,0,10721,10722,7056,7057,7058,7059,7060,0,0,0,0,10858,10859,10860,10861,10863,10864,10865,10866,10863,10864,10865,10866,10867,0,
21053,21053,21053,21053,21053,21053,21053,21053,21053,21053,21053,21053,21053,21053,21053,21857,0,0,0,0,0,0,0,1566,1567,1568,0,0,0,0,0,0,8578,0,0,0,0,7196,7197,7198,7199,7200,0,0,0,0,10998,10999,11000,11001,11003,11004,11005,11006,11003,11004,11005,11006,11007,0,
21053,21053,21053,21053,21053,21053,21053,21053,21053,21053,21053,21053,21053,21053,21053,21857,0,0,0,0,0,0,0,0,0,0,0,0,0,0,0,0,8718,0,0,0,0,7336,7337,7338,7339,7340,0,0,0,0,11138,11139,11140,11141,11143,11144,11145,11146,11143,11144,11145,11146,11147,0,
21053,21053,21053,21053,21053,21053,2834,2835,21053,21053,21053,21053,21053,21053,21053,21857,0,0,0,3194,0,0,0,0,0,0,0,0,0,0,0,0,0,0,0,0,0,7476,7477,7478,7479,7480,0,0,0,0,11278,11279,11280,11281,11283,11284,11285,11286,11283,11284,11285,11286,11287,0,
21053,21053,21053,21053,21053,21053,2974,2975,21053,21053,21053,21053,21053,21053,21053,21889,21892,0,3194,0,0,0,3194,0,0,0,0,0,0,0,0,0,0,0,8438,0,0,7616,7617,7618,7619,7620,0,0,0,0,11418,11419,11420,11421,11423,11424,11425,11426,11423,11424,11425,11426,11427,0,
21053,21053,21053,21053,21053,21053,3114,3115,21053,21053,21053,21053,21053,21053,21053,21053,21857,0,0,0,0,0,0,3194,0,0,0,0,0,0,0,0,0,0,8578,0,0,0,0,0,0,0,0,0,0,0,11558,11559,11560,11561,11563,11564,11565,11566,11563,11564,11565,11566,11567,0,
21053,21053,21053,21053,21053,21053,21053,21053,21053,21053,21053,21053,21053,21053,21053,21053,21857,0,0,0,3194,0,0,0,0,0,0,0,0,0,0,0,0,0,8718,0,0,0,0,0,0,0,0,0,0,0,11698,11699,11700,11701,11703,11704,11705,11706,11703,11704,11705,11706,11707,0,
21053,21053,21053,21053,21053,21053,21053,21053,21053,21053,21053,21053,21053,21053,21053,21053,21857,0,0,0,0,0,0,0,0,0,0,0,0,0,0,0,0,0,0,0,0,0,0,8438,0,0,0,0,0,0,11838,11839,11840,11841,11843,11844,11845,11846,11843,11844,11845,11846,11847,0,
21053,21053,21053,21053,21053,21053,21053,21053,21053,21053,21053,21053,21053,21053,21053,21053,21889,21892,3194,0,3194,0,21127,21128,0,0,0,0,0,0,0,0,0,0,0,0,0,0,0,8578,0,0,0,0,0,0,0,0,0,0,0,0,0,0,0,0,0,0,0,0,
21053,21053,21053,21053,21053,21053,21053,21053,21053,21053,21053,21053,21053,21053,21053,21053,21053,21857,0,0,0,0,21159,21160,0,0,1305,1306,1307,1308,1309,0,21830,0,0,0,0,0,0,8718,0,0,0,0,0,0,0,0,0,0,0,0,0,0,0,0,0,0,0,0,
21053,21053,21053,21053,21053,21053,21053,21053,21053,21053,21053,21053,21053,21053,21053,21053,21053,21889,21892,0,0,0,21191,21192,0,0,1445,1446,1447,1448,1449,0,21862,0,0,0,0,0,0,0,0,0,0,0,0,0,0,0,0,0,0,0,0,0,0,0,0,0,0,0,
21053,21053,21053,21053,21053,21053,21053,21053,21053,21053,21053,21053,21053,21053,21053,21053,21053,21053,21857,0,0,0,0,0,0,0,1585,1586,1587,1588,1589,0,0,0,0,0,0,0,0,0,0,0,0,0,0,0,0,0,0,0,10961,10962,10963,10964,10965,10966,10967,0,0,0,
21053,21053,21053,21053,21053,21053,21053,21053,21053,21053,21053,21053,21053,21053,21053,21053,21053,21053,21857,0,0,0,0,0,0,0,1725,1726,1727,1728,1286,1287,1288,0,0,0,0,0,0,0,0,8438,0,0,0,0,0,0,3924,0,11101,11102,11103,11104,11105,11106,11107,0,21752,0,
21053,21053,21053,21053,21053,21053,21053,21053,21053,21053,21053,21053,21053,21053,21053,21053,21053,21053,21889,21892,0,0,0,21031,21032,0,1865,1866,1867,1868,1426,1427,1428,0,0,0,0,0,0,0,0,8578,8071,0,0,0,4269,0,0,0,11241,11242,11243,11244,11245,11246,11247,0,0,0,
21053,21053,21053,21053,21053,21053,21053,21053,21053,21053,21053,21053,21053,21053,21053,21053,21053,21053,21053,21857,0,0,0,21063,21064,0,0,0,0,0,1566,1567,1568,0,0,0,0,0,0,0,0,8718,8211,0,0,0,4268,0,0,0,11381,11382,11383,11384,11385,11386,11387,0,0,0,
21053,21053,21053,21053,21053,21053,21053,21053,21053,21053,21053,21053,21053,21053,21053,21053,21053,21053,21053,21889,21892,0,0,21095,21096,0,0,0,21127,21128,0,0,0,0,0,0,0,0,0,0,0,0,0,0,0,3924,0,0,0,0,11521,11522,11523,11524,11525,11526,11527,0,0,0,
21053,21053,21053,21053,21053,21053,21053,21053,21053,21053,21053,21053,21053,21053,21053,21053,21053,21053,21053,21053,21857,0,0,0,0,0,0,0,21159,21160,0,0,0,0,0,0,0,0,0,0,0,0,0,0,8438,0,0,0,0,0,11661,11662,11663,11664,11665,11666,11667,0,0,0,
21053,21053,21053,21053,21053,21053,21053,21053,21053,21053,21053,21053,21053,21053,21053,21053,21053,21053,21053,21053,21857,0,0,0,0,0,0,0,21191,21192,0,0,0,0,0,0,0,0,0,0,0,0,0,0,8578,0,0,0,8438,0,11801,11802,11803,11804,11805,11806,11807,0,0,0,
21053,21053,21053,21053,21053,21053,21053,21053,21053,21053,21053,21053,21053,21053,21053,21053,21053,21053,21053,21053,21857,0,0,0,0,0,0,0,0,0,0,0,0,0,0,0,0,0,0,0,0,0,0,0,8718,0,0,0,8578,0,0,0,0,0,0,0,0,0,0,0,
21053,21053,21053,21053,21053,21053,21053,21053,21053,21053,21053,21053,21053,21053,21053,21053,21053,21053,21053,21053,21889,21892,0,0,0,21893,21890,21892,0,0,0,0,0,0,0,0,0,0,0,0,0,0,0,0,0,0,0,0,8718,0,0,0,8438,0,0,0,0,0,0,0,
21053,21053,21053,21053,21053,21053,21053,21053,21053,21053,21053,21053,21053,21053,21053,21053,21053,21053,21053,21053,21053,21857,0,0,0,21859,0,21889,21890,21892,0,0,0,0,0,0,0,0,0,0,0,0,21702,21703,21704,0,0,0,0,0,0,0,8578,0,0,0,0,1195,1196,0,
21053,21053,21053,2834,2835,21053,21053,21053,21053,21053,21053,21053,21053,21053,21053,21053,21053,21053,21053,21053,21053,21857,0,0,0,21859,0,0,0,21889,21892,0,0,0,0,0,0,0,1302,1303,1304,0,21734,21735,21736,0,0,0,0,0,0,0,8718,0,0,8438,0,0,0,0,
21053,21053,21053,2974,2975,21053,21053,21053,21053,21053,21053,21053,21053,21053,21053,21053,21053,21053,21053,21053,21053,21889,21892,0,21893,21891,0,0,0,0,21857,0,0,0,0,0,0,0,1442,1443,1444,0,0,0,0,0,0,0,0,0,0,0,0,0,0,8578,0,0,8438,0,
21053,21053,21053,3114,3115,21053,21053,21053,21053,21053,21053,21053,21053,21053,2972,2973,21053,21053,21053,21053,21053,21053,21889,21892,21861,21826,21826,21826,21826,21826,21860,0,0,0,0,0,0,0,1582,1583,1584,0,0,0,0,0,0,21766,21767,21768,0,0,0,0,0,8718,0,0,8578,0,
21053,21053,21053,21053,21053,21053,21053,21053,21053,21053,21053,21053,21053,21053,3112,3113,21053,21053,21053,21053,21053,21053,21053,21889,21892,0,0,0,0,0,0,0,0,0,0,0,0,0,1722,1723,1724,0,0,0,0,0,0,21798,21799,21800,0,0,0,0,0,0,0,0,8718,0,
21053,21053,21053,21053,21053,21053,21053,21053,21053,21053,21053,21053,21053,21053,21053,21053,21053,21053,21053,21053,21053,21053,21053,21053,21889,21890,21892,0,0,0,0,0,0,0,0,0,0,0,0,0,0,0,0,0,0,0,0,0,0,0,0,0,21702,21703,21704,0,0,0,0,0,
21053,21053,21053,21053,21053,21053,21053,21053,21053,21053,5769,5770,21053,21053,21053,21053,21053,21053,21053,21053,21053,21053,21053,21053,21053,21053,21889,21890,21892,0,0,0,0,0,0,0,0,0,0,0,0,0,0,0,0,0,0,0,0,0,0,0,21734,21735,21736,0,0,0,0,0,
23299,23300,21053,21053,21053,21053,21053,21053,21053,21053,5909,5910,21053,21053,21053,21053,21053,21053,21053,21053,21053,21053,21053,21053,21053,21053,21053,21053,21889,21890,21890,21892,0,0,0,0,0,0,0,0,0,0,0,0,0,0,0,0,1302,1303,1304,0,0,0,0,0,0,0,0,0,
23321,23322,21053,21053,21053,21053,21053,21053,21053,21053,21053,21053,21053,21053,21053,21053,21053,21053,21053,21053,21053,21053,21053,21053,21053,21053,21053,21053,21053,21053,21053,21889,21890,21890,21892,0,0,0,0,0,0,0,0,0,0,0,0,0,1442,1443,1444,0,0,0,0,0,0,1302,1303,1304,
21053,21053,21053,21053,21053,21053,21053,21053,21053,21053,21053,21053,21053,21053,21053,21053,21053,21053,21053,21053,21053,21053,21053,21053,21053,21053,21053,21053,21053,21053,21053,21053,21053,21053,21889,21890,21890,21890,21890,21892,0,0,0,0,0,0,0,0,1582,1583,1584,0,0,1286,1287,1288,0,1442,1443,1444,
21053,21053,21053,21053,21053,21053,21053,21053,21053,21053,21053,21053,21053,21053,21053,21053,21053,21053,21053,21053,21053,21053,21053,21053,21053,21053,21053,21053,21053,21053,21053,21053,21053,21053,21053,21053,21053,21053,21053,21889,21890,21890,21890,21892,0,0,0,0,1722,1723,1724,0,0,1426,1427,1428,0,1582,1583,1584,
21053,21053,21053,21053,21053,21053,21053,21053,21053,21053,21053,21053,21053,21053,21053,21053,21053,21053,21053,21053,21053,21053,21053,21053,21053,21053,21053,21053,21053,21053,21053,21053,21053,21053,21053,21053,21053,21053,21053,21053,21053,21053,21053,21889,21890,21892,0,0,0,0,0,0,0,1566,1567,1568,0,1722,1723,1724,
21053,21053,21053,21053,21053,21053,21053,21053,21053,21053,21053,21053,21053,21053,21053,21053,21053,21053,21053,21053,21053,21053,21053,21053,21053,21053,21053,21053,21053,21053,21053,21053,21053,21053,21053,21053,21053,21053,21053,21053,21053,21053,21053,21053,21053,21889,21890,21890,21892,0,0,0,0,0,0,0,0,0,0,0,
21053,21053,21053,21053,21053,21053,21053,21053,21053,21053,21053,21053,21053,21053,21053,21053,21053,21053,21053,21053,21053,21053,21053,21053,21053,21053,21053,21053,21053,21053,21053,21053,21053,21053,21053,21053,21053,21053,21053,21053,21053,21053,21053,21053,21053,21053,21053,21053,21889,21890,21890,21892,0,0,0,0,0,0,0,0,
21053,21053,21053,21053,21053,21053,21053,21053,21053,21053,21053,21053,21053,21053,21053,21053,21053,21053,21053,21053,21053,21053,21053,21053,21053,21053,21053,21053,21053,21053,21053,21053,21053,21053,21053,21053,21053,21053,21053,21053,21053,21053,21053,21053,21053,21053,21053,21053,21053,21053,21053,21889,21890,21890,21892,0,0,0,0,0,
21053,21053,21053,21053,21053,21053,21053,21053,21053,21053,21053,21053,21053,21053,21053,21053,21053,21053,21053,21053,21053,21053,21053,21053,21053,21053,21053,21053,21053,21053,21053,21053,21053,21053,21053,21053,21053,21053,21053,21053,21053,21053,21053,21053,21053,21053,21053,21053,21053,21053,21053,21053,21053,21053,21889,21890,21890,21890,21890,21890,
21053,21053,21053,21053,21053,21053,21053,21053,21053,21053,21053,21053,21053,21053,21053,21053,21053,21053,21053,21053,21053,21053,21053,21053,21053,21053,21053,21053,21053,21053,21053,21053,21053,21053,21053,21053,21053,21053,21053,21053,21053,21053,21053,21053,21053,21053,21053,21053,21053,21053,21053,21053,21053,21053,21053,21053,21053,21053,21053,21053,
21053,21053,21053,21053,21053,21053,21053,21053,21053,21053,21053,21053,21053,21053,21053,21053,21053,21053,21053,21053,21053,21053,21053,21053,21053,21053,21053,21053,21053,21053,21053,21053,21053,21053,21053,21053,21053,21053,21053,21053,21053,21053,21053,21053,21053,21053,21053,21053,21053,21053,21053,21053,21053,21053,21053,21053,21053,21053,21053,21053,
21053,21053,21053,21053,21053,21053,21053,21053,21053,21053,21053,21053,21053,21053,21053,21053,21053,21053,21053,21053,21053,21053,21053,21053,21053,21053,21053,21053,21053,21053,21053,21053,21053,21053,21053,21053,21053,21053,21053,21053,21053,21053,21053,21053,21053,21053,21053,21053,21053,21053,21053,21053,21053,21053,21053,21053,21053,21053,21053,21053,
21053,21053,21053,21053,21053,21053,21053,21053,21053,21053,21053,21053,21053,21053,21053,21053,21053,21053,21053,21053,21053,21053,21053,21053,21053,21053,21053,21053,21053,21053,21053,21053,21053,21053,21053,21053,21053,21053,21053,21053,21053,21053,21053,21053,21053,21053,21053,21053,21053,21053,21053,21053,21053,21053,21053,21053,21053,21053,21053,21053,
21053,21053,21053,21053,21053,21053,21053,21053,21053,21053,21053,21053,21053,21053,21053,21053,21053,21053,21053,21053,21053,21053,21053,21053,21053,21053,21053,21053,21053,21053,21053,21053,21053,21053,21053,21053,21053,21053,21053,21053,21053,21053,21053,21053,21053,21053,21053,21053,21053,21053,21053,21053,21053,21053,21053,21053,21053,21053,21053,21053,
21053,21053,21053,21053,21053,21053,21053,21053,21053,21053,21053,21053,21053,21053,21053,21053,21053,21053,21053,21053,21053,21053,21053,21053,21053,21053,21053,21053,21053,21053,21053,21053,21053,21053,21053,21053,21053,21053,21053,21053,21053,21053,21053,21053,21053,21053,21053,21053,21053,21053,21053,21053,21053,21053,21053,21053,21053,21053,21053,21053
</data>
 </layer>
 <layer name="Layer 4" width="60" height="55">
  <data encoding="csv">
0,0,0,0,0,0,0,0,0,0,0,0,0,0,0,0,0,0,0,0,0,0,0,0,0,0,0,0,0,0,0,0,0,0,0,0,0,0,0,0,0,0,0,2,3,4,0,0,0,0,0,0,0,0,0,0,0,0,0,0,
0,0,0,0,0,0,0,0,0,0,0,0,0,0,0,0,0,0,0,0,0,0,0,0,0,0,0,0,0,0,0,0,0,0,0,0,0,0,0,0,0,0,0,142,143,144,38,39,40,0,0,0,0,0,0,0,0,0,0,0,
0,0,0,0,0,0,0,0,0,0,0,0,0,0,0,0,0,0,0,0,0,0,0,0,0,0,0,0,0,0,0,0,0,0,0,0,0,0,0,0,0,0,0,282,283,284,178,179,180,0,0,0,0,0,0,0,0,0,0,0,
0,0,0,0,0,0,0,0,0,0,0,0,0,0,0,0,0,0,0,0,0,0,0,0,0,0,0,0,0,0,0,0,0,0,0,0,0,0,0,0,0,0,0,0,0,0,318,319,320,0,0,0,0,0,0,0,0,0,0,0,
0,0,0,0,0,0,0,0,0,0,0,0,0,0,0,0,0,0,0,0,0,0,0,0,0,0,0,0,0,0,0,0,0,0,0,0,0,0,0,0,0,0,0,0,0,0,458,459,460,0,0,0,1288,0,0,0,0,0,0,0,
0,0,0,0,0,0,0,0,0,0,0,0,0,0,0,0,0,0,0,0,0,0,0,0,0,0,0,0,0,0,0,0,0,0,0,0,0,0,0,0,0,0,8768,0,0,0,0,0,0,0,0,0,0,0,0,0,0,0,0,0,
0,0,0,0,0,0,0,0,0,0,0,0,0,0,0,0,0,0,0,0,0,0,0,0,0,0,0,0,0,0,0,0,0,0,0,0,0,0,23646,0,0,0,0,0,0,0,0,0,0,0,0,0,0,0,0,0,0,0,0,0,
0,0,0,0,0,0,0,0,0,0,0,0,0,0,0,0,0,0,0,0,0,0,0,0,0,0,0,0,0,0,0,0,0,0,0,0,23620,0,0,0,0,0,9888,0,0,0,0,0,0,0,0,0,0,0,2959,0,0,0,0,0,
0,0,0,0,0,0,0,0,7533,7534,7535,7536,7537,7538,7539,0,0,0,0,0,0,0,0,0,0,0,0,0,0,0,0,0,0,0,0,0,0,0,0,0,0,0,0,0,23646,0,0,0,0,0,0,0,0,0,41,42,43,0,0,0,
0,0,0,0,0,0,0,0,7673,7674,7675,7676,7677,7678,7679,0,0,0,8851,0,0,0,0,0,0,0,0,0,0,0,0,0,0,0,0,0,0,0,0,0,0,0,0,0,0,0,0,0,0,0,0,0,0,0,181,182,183,0,0,0,
0,0,0,0,0,0,0,0,7813,7814,7815,7816,7817,7818,7819,0,8851,7087,7088,0,0,0,0,0,0,0,0,0,0,0,0,0,0,0,0,0,0,0,0,0,0,0,0,0,0,0,0,0,0,0,0,0,0,0,321,322,323,0,0,0,
0,0,0,0,0,0,0,0,7953,7954,7955,7956,7957,7958,7959,0,8851,7227,7228,0,0,0,0,0,0,0,0,0,0,0,0,0,0,0,0,0,0,0,0,0,0,0,0,0,0,0,0,0,0,0,0,0,0,0,461,462,463,0,0,0,
0,0,0,0,0,0,0,0,0,0,0,7876,7877,7878,7876,7877,7878,0,0,0,0,0,0,0,0,0,0,0,0,0,0,0,0,0,6526,0,0,0,0,0,0,0,0,0,0,0,0,0,0,0,0,0,0,0,0,0,0,0,0,0,
0,0,0,0,0,0,0,0,0,0,0,8156,8157,8158,8156,8157,8158,0,23673,0,0,0,0,0,0,0,0,0,0,0,0,0,0,0,6666,0,0,10723,10724,10725,10726,0,0,0,0,0,0,0,0,0,0,0,0,0,0,0,0,0,0,0,
0,0,0,0,0,0,0,0,0,0,0,0,0,0,0,0,0,23647,0,0,0,23647,0,0,0,0,0,0,0,0,0,0,0,0,0,0,0,0,0,0,0,0,0,0,0,0,0,0,23620,0,0,0,0,0,0,0,0,0,0,0,
0,0,0,0,0,0,0,0,0,0,0,0,0,0,0,0,0,0,0,0,0,0,23673,0,0,0,0,0,0,0,0,0,0,0,0,0,0,0,0,0,0,0,0,0,0,0,0,0,0,0,0,0,23645,0,0,0,0,0,0,0,
0,0,0,0,0,0,21053,21053,0,0,0,0,0,0,0,0,0,0,0,23647,0,0,0,0,0,0,0,0,0,0,0,0,0,0,0,0,0,0,0,0,0,0,0,0,0,0,0,0,0,0,0,0,0,0,0,0,0,0,0,0,
0,0,0,0,0,0,21053,21053,0,0,0,0,0,0,0,0,0,0,0,0,0,0,0,0,0,0,0,0,0,0,0,0,0,0,0,0,0,0,0,0,0,0,0,0,0,0,0,0,0,0,0,0,0,0,0,0,0,0,0,0,
0,0,0,0,0,0,21053,21053,0,0,0,0,0,0,0,0,0,23673,0,23647,0,0,0,0,0,0,0,0,0,0,0,0,0,0,0,0,0,0,0,0,0,0,0,0,0,7929,0,0,0,0,0,0,0,0,0,0,0,0,0,0,
0,0,0,0,0,0,0,0,0,0,0,0,0,0,0,0,0,0,0,0,0,0,0,0,0,0,0,0,0,0,0,0,0,0,7785,7786,0,0,0,0,0,21440,21440,21440,0,0,0,0,0,0,0,0,0,0,0,0,0,0,0,0,
0,0,0,0,0,0,0,0,0,0,0,0,0,0,0,0,0,0,0,0,0,0,0,0,0,0,0,0,0,0,0,0,0,0,7925,7926,0,0,0,0,0,21440,21440,21440,0,0,0,0,0,0,0,0,0,0,0,0,0,0,0,0,
0,0,0,0,0,0,0,0,0,0,0,0,0,0,0,0,0,0,0,0,0,0,0,0,0,0,0,0,0,0,0,0,0,0,0,0,0,0,0,0,0,0,0,0,0,0,0,0,0,0,0,0,0,0,0,0,0,0,0,0,
0,0,0,0,0,0,0,0,0,0,0,0,0,0,0,0,0,0,0,0,0,0,0,0,0,0,0,0,0,0,0,0,0,0,0,0,0,0,0,0,0,0,0,0,0,0,0,0,0,0,0,0,0,0,0,0,0,0,0,0,
0,0,0,0,0,0,0,0,0,0,0,0,0,0,0,0,0,0,0,0,0,0,0,0,0,0,0,0,0,0,0,0,0,0,0,0,0,0,0,0,0,0,0,0,0,0,0,0,0,0,0,0,0,0,0,0,0,0,0,0,
0,0,0,0,0,0,0,0,0,0,0,0,0,0,0,0,0,0,0,0,0,0,0,0,0,0,0,0,0,0,0,0,0,0,0,0,0,0,0,0,0,0,0,0,0,0,0,0,0,0,0,0,0,0,0,0,0,0,0,0,
0,0,0,0,0,0,0,0,0,0,0,0,0,0,0,0,0,0,0,0,0,0,0,0,0,0,0,0,0,0,0,0,0,0,0,0,0,0,0,0,0,0,0,0,0,0,0,0,0,0,0,0,23645,0,0,0,0,0,0,0,
0,0,0,0,0,0,0,0,0,0,0,0,0,0,0,0,0,0,0,0,0,0,0,0,0,0,0,0,0,0,0,0,0,0,0,0,0,0,0,0,0,0,0,0,0,0,0,0,0,0,0,0,0,0,0,0,0,0,0,0,
0,0,0,0,0,0,0,0,0,0,0,0,0,0,0,0,0,0,0,0,0,0,0,0,0,0,0,0,0,0,0,0,0,0,0,0,0,0,0,0,0,0,0,0,0,0,0,0,0,6526,0,0,0,0,0,0,0,0,0,0,
0,0,0,0,0,0,0,0,0,0,0,0,0,0,0,0,0,0,0,0,0,0,0,0,0,0,0,0,0,0,0,0,0,0,0,0,0,0,0,0,0,0,0,0,0,0,0,0,0,6666,0,0,0,0,0,0,0,0,0,0,
0,0,0,0,0,0,0,0,0,0,0,0,0,0,0,0,0,0,0,0,0,0,0,0,0,0,0,0,0,0,0,0,0,0,0,0,0,0,0,0,0,0,0,0,0,0,0,0,0,0,0,0,0,0,0,0,634,635,636,637,
0,0,0,0,0,0,0,0,0,0,0,0,0,0,0,0,0,0,0,0,0,0,0,0,0,0,0,0,0,0,0,0,0,0,0,0,0,0,0,0,0,0,0,0,0,0,0,0,0,0,0,0,0,0,0,0,774,775,776,777,
0,0,0,0,0,0,0,0,0,0,0,0,0,0,0,0,0,0,0,0,0,0,0,0,0,0,0,0,0,0,0,0,0,0,0,0,0,0,0,0,0,0,0,0,0,0,0,0,0,0,0,0,0,0,0,0,914,915,916,917,
0,0,0,0,0,0,0,0,0,0,0,0,0,0,0,0,0,0,0,0,0,0,0,0,0,0,0,0,0,0,0,0,0,0,0,0,0,0,0,0,0,0,0,0,0,0,0,0,0,0,0,0,0,0,0,0,1054,1055,1056,1057,
0,0,0,0,0,0,0,0,0,0,0,0,0,0,0,0,0,0,0,0,0,0,0,0,0,0,0,0,0,0,0,0,0,0,0,0,0,0,0,0,0,0,0,0,0,0,0,0,0,0,0,0,0,0,0,0,1194,21542,21543,21544,
0,0,0,21053,21053,0,0,0,0,0,0,0,0,0,0,0,0,0,0,0,0,0,0,0,0,0,0,0,0,0,0,0,0,0,0,0,0,0,0,0,0,0,0,0,0,0,0,0,0,0,0,0,0,0,0,0,0,21574,21575,21576,
0,0,0,21053,21053,0,0,0,0,0,0,0,0,0,0,0,0,0,0,0,0,0,0,0,0,0,0,0,0,0,0,0,0,0,0,0,0,0,0,0,0,0,0,0,0,0,0,0,0,0,0,0,0,0,0,0,0,0,0,0,
0,0,0,21053,21053,0,0,0,0,0,0,0,0,0,21053,21053,0,0,0,0,0,0,0,0,0,0,0,0,0,0,0,0,0,0,0,0,0,0,0,0,0,0,0,0,0,0,0,0,0,0,0,0,0,0,0,0,0,0,0,0,
0,0,0,0,0,0,0,0,0,0,0,0,0,0,21053,21053,0,0,0,0,0,0,0,0,0,0,0,0,0,0,0,0,0,0,0,0,0,0,0,0,0,0,0,0,0,0,0,0,0,0,0,0,0,0,0,0,0,0,0,0,
0,0,0,0,0,0,0,0,0,0,0,0,0,0,0,0,0,0,0,0,0,0,0,0,0,0,0,0,0,0,0,0,0,0,0,0,0,0,0,0,0,0,0,0,0,0,0,0,0,0,0,0,0,0,0,0,0,0,0,0,
0,0,0,0,0,0,0,0,0,0,21053,21053,0,0,0,0,0,0,0,0,0,0,0,0,0,0,0,0,0,0,0,0,0,0,0,0,0,0,0,0,0,0,0,0,0,0,0,0,0,0,0,0,0,0,0,0,0,0,0,0,
21053,21053,0,0,0,0,0,0,0,0,21053,21053,0,0,0,0,0,0,0,0,0,0,0,0,0,0,0,0,0,0,0,0,0,0,0,0,0,0,0,0,0,0,0,0,0,0,0,0,0,0,0,0,0,0,0,0,0,0,0,0,
21053,21053,0,0,0,0,0,0,0,0,0,0,0,0,0,0,0,0,0,0,0,0,0,0,0,0,0,0,0,0,0,0,0,0,0,0,0,0,0,0,0,0,0,0,0,0,0,0,0,0,0,0,0,0,0,0,0,0,0,0,
0,0,0,0,0,0,0,0,0,0,0,0,0,0,0,0,0,0,0,0,0,0,0,0,0,0,0,0,0,0,0,0,0,0,0,0,0,0,0,0,0,0,0,0,0,0,0,0,0,0,0,0,0,0,0,0,0,0,0,0,
0,0,0,0,0,0,0,0,0,0,0,0,0,0,0,0,0,0,0,0,0,0,0,0,0,0,0,0,0,0,0,0,0,0,0,0,0,0,0,0,0,0,0,0,0,0,0,0,0,0,0,0,0,0,0,0,0,0,0,0,
0,0,0,0,0,0,0,0,0,0,0,0,0,0,0,0,0,0,0,0,0,0,0,0,0,0,0,0,0,0,0,0,0,0,0,0,0,0,0,0,0,0,0,0,0,0,0,0,0,0,0,0,0,0,0,0,0,0,0,0,
0,0,0,0,0,0,0,0,0,0,0,0,0,0,0,0,0,0,0,0,0,0,0,0,0,0,0,0,0,0,0,0,0,0,0,0,0,0,0,0,0,0,0,0,0,0,0,0,0,0,0,0,0,0,0,0,0,0,0,0,
0,0,0,0,0,0,0,0,0,0,0,0,0,0,0,0,0,0,0,0,0,0,0,0,0,0,0,0,0,0,0,0,0,0,0,0,0,0,0,0,0,0,0,0,0,0,0,0,0,0,0,0,0,0,0,0,0,0,0,0,
0,0,0,0,0,0,0,0,0,0,0,0,0,0,0,0,0,0,0,0,0,0,0,0,0,0,0,0,0,0,0,0,0,0,0,0,0,0,0,0,0,0,0,0,0,0,0,0,0,0,0,0,0,0,0,0,0,0,0,0,
0,0,0,0,0,0,0,0,0,0,0,0,0,0,0,0,0,0,0,0,0,0,0,0,0,0,0,0,0,0,0,0,0,0,0,0,0,0,0,0,0,0,0,0,0,0,0,0,0,0,0,0,0,0,0,0,0,0,0,0,
0,0,0,0,0,0,0,0,0,0,0,0,0,0,0,0,0,0,0,0,0,0,0,0,0,0,0,0,0,0,0,0,0,0,0,0,0,0,0,0,0,0,0,0,0,0,0,0,0,0,0,0,0,0,0,0,0,0,0,0,
0,0,0,0,0,0,0,0,0,0,0,0,0,0,0,0,0,0,0,0,0,0,0,0,0,0,0,0,0,0,0,0,0,0,0,0,0,0,0,0,0,0,0,0,0,0,0,0,0,0,0,0,0,0,0,0,0,0,0,0,
0,0,0,0,0,0,0,0,0,0,0,0,0,0,0,0,0,0,0,0,0,0,0,0,0,0,0,0,0,0,0,0,0,0,0,0,0,0,0,0,0,0,0,0,0,0,0,0,0,0,0,0,0,0,0,0,0,0,0,0,
0,0,0,0,0,0,0,0,0,0,0,0,0,0,0,0,0,0,0,0,0,0,0,0,0,0,0,0,0,0,0,0,0,0,0,0,0,0,0,0,0,0,0,0,0,0,0,0,0,0,0,0,0,0,0,0,0,0,0,0,
0,0,0,0,0,0,0,0,0,0,0,0,0,0,0,0,0,0,0,0,0,0,0,0,0,0,0,0,0,0,0,0,0,0,0,0,0,0,0,0,0,0,0,0,0,0,0,0,0,0,0,0,0,0,0,0,0,0,0,0,
0,0,0,0,0,0,0,0,0,0,0,0,0,0,0,0,0,0,0,0,0,0,0,0,0,0,0,0,0,0,0,0,0,0,0,0,0,0,0,0,0,0,0,0,0,0,0,0,0,0,0,0,0,0,0,0,0,0,0,0
</data>
 </layer>
</map>
