<?xml version="1.0" encoding="UTF-8"?>
<map version="1.0" orientation="orthogonal" renderorder="right-down" width="100" height="73" tilewidth="32" tileheight="32" nextobjectid="1">
 <tileset firstgid="1" name="hgss2" tilewidth="32" tileheight="32" tilecount="210" columns="15">
  <image source="Tiles/hgss2.png" width="480" height="448"/>
 </tileset>
 <tileset firstgid="211" name="Pro all tiles" tilewidth="32" tileheight="32" tilecount="1024" columns="32">
  <image source="Tiles/Pro all tiles.png" width="1024" height="1024"/>
 </tileset>
 <tileset firstgid="1235" name="tile group" tilewidth="32" tileheight="32" tilecount="21000" columns="140">
  <image source="Tiles/tile group.png" width="4480" height="4800"/>
 </tileset>
 <layer name="Layer 1" width="100" height="73">
  <data encoding="csv">
463,463,463,463,463,463,464,460,460,260,260,260,1068,1068,1068,1068,4040,4040,4040,4036,4458,4036,4036,3512,3514,4472,4036,4036,4036,4036,4036,4036,4036,4036,4036,4036,4472,3512,3513,3513,3514,4472,4036,4036,4036,4036,4036,4036,4036,4036,4036,4036,4472,3512,3514,4458,4036,4036,4036,4036,4036,4036,4458,4036,4036,4036,3512,3514,4472,4472,4472,4472,4472,4472,4472,4472,4472,3512,3514,4472,4472,4472,4472,3512,3514,4036,4036,4036,4458,4036,4036,4036,4036,4036,4036,4036,4036,4036,4036,4036,
463,463,463,463,463,463,464,460,460,260,260,260,1068,1068,1068,1068,4040,4040,4040,4458,4036,4036,4036,3512,3514,4472,4036,4036,4036,4036,4036,4036,4036,4036,4036,4036,4472,3512,3513,3513,3514,4472,4036,4036,4036,4036,4036,4036,4036,4036,4036,4036,4472,3512,3514,4036,4036,4036,4036,4036,4036,4036,4458,4458,4036,4036,3512,3514,4472,4472,4472,4472,4472,4472,4472,4472,4472,3512,3514,4472,4472,4472,4472,3512,3514,4036,4036,4036,4458,4036,4036,4036,4036,4036,4036,4036,4036,4036,4036,4036,
463,463,463,463,463,463,464,460,460,260,260,260,1068,1068,1068,1068,1068,4040,4040,4036,4036,4036,4036,3512,3514,4472,4472,4472,4472,4472,4472,4472,4472,4472,4472,4472,4472,3512,3513,3513,3514,4472,4472,4472,4472,4472,4472,4472,4472,4472,4472,4472,4472,3512,3514,4036,4036,4036,4036,4036,4036,4036,4036,4036,4036,4036,3512,3514,4472,4472,4472,4472,4472,4472,4472,4472,4472,3512,3514,4472,4472,4472,4472,3512,3514,4036,4036,4036,4036,4036,4036,4036,4036,4036,4036,4036,4036,4036,4036,4036,
463,463,463,463,463,620,496,460,460,260,260,260,260,1068,1068,1068,1068,4040,4040,1068,4036,4036,4036,3512,3932,3373,3373,3373,3373,3373,3373,3373,3373,3373,3373,3373,3373,3933,3513,3513,3932,3373,3373,3373,3373,3373,3373,3373,3373,3373,3373,3373,3373,3933,3514,4036,4036,4036,4036,4458,4036,4036,4036,4036,4036,4036,3512,3514,4472,4472,4472,4472,4472,4472,4472,4472,4472,3512,3514,4472,4472,4472,4472,3512,3514,4036,4458,4458,4036,4036,4036,4036,4036,4036,4036,4036,4036,4036,4036,4036,
463,463,463,463,620,496,460,460,460,260,260,260,260,1068,1068,1068,1068,4040,4040,1068,4458,4036,4036,3652,3653,3653,3653,3653,3653,3653,3653,3653,3653,3653,3653,3653,3653,3793,3513,3513,3792,3653,3653,3653,3653,3653,3653,3653,3653,3653,3653,3653,3653,3793,3514,4036,4036,4036,4036,4036,4036,4036,4036,4036,4458,4036,3512,3514,4472,4472,4472,4472,4472,4472,4472,4472,4472,3512,3514,4472,4472,4472,4472,3512,3514,4458,4036,4036,4036,4036,4036,4036,4036,4036,4036,4036,4036,4036,4036,4946,
495,495,495,495,496,460,460,460,460,460,260,260,260,260,1068,1068,1068,1068,4040,4040,4036,4036,4036,4472,4472,4472,4472,4472,4472,4472,4472,4472,4472,4472,4472,4472,4472,3512,3513,3513,3514,4472,4472,4472,4472,4472,4472,4472,4472,4472,4472,4472,4472,3512,3514,4036,4036,4036,4036,4036,4036,4036,4036,4036,4036,4458,3512,3514,4472,4472,4472,4472,4472,4472,4472,4472,4472,3512,3514,4472,4472,4472,4472,3512,3514,4036,4036,4036,4036,4036,4036,4036,4036,4036,4036,4036,4036,4946,4946,4946,
460,460,460,460,460,460,460,460,460,460,260,260,260,260,1068,1068,1068,1068,4040,4040,1068,4458,4036,4472,4472,4472,4472,4472,4036,4036,4036,4036,4036,4036,4036,4036,4472,3512,3513,3513,3514,4472,4036,4036,4036,4036,4036,4472,4472,4472,4036,4036,4472,3512,3932,3373,3373,3373,3373,3374,4036,4036,4036,4036,4036,4036,3512,3932,3373,3373,3373,3373,3374,4472,4472,4472,4472,3512,3514,4472,4472,4472,4472,3512,3514,4036,4036,4036,4458,4036,4036,4036,4036,4036,4036,4036,4036,4946,4946,4946,
460,460,460,460,460,460,460,460,460,460,460,260,260,260,260,1068,1068,1068,4040,4040,4040,4036,4036,4472,4472,4472,4472,4472,4472,4472,4472,4472,4472,4472,4472,4472,4472,3512,3513,3513,3514,4472,4036,4036,4036,4036,4036,4472,4472,4472,4472,4036,4472,3512,3792,3653,3653,3653,3793,3932,3373,3373,3373,3373,3373,3373,3933,3792,3653,3653,3653,3793,3514,4472,4472,4472,4472,3512,3514,4472,4472,4472,4472,3512,3514,4036,4036,4036,4036,4036,4036,4036,4036,4036,4036,4036,4946,4946,4946,4946,
260,260,260,260,260,260,260,260,460,460,460,260,260,260,260,1068,1068,1068,1068,4040,4040,1068,4036,3372,3373,3373,3373,3373,3373,3373,3373,3373,3373,3373,3373,3373,3373,3933,3513,3513,3514,4472,4036,4036,4036,4036,4036,4036,4472,4472,4472,4036,4472,3512,3514,4036,4036,4036,3652,3653,3653,3653,3653,3653,3653,3653,3653,3654,4036,4036,4036,3512,3514,4472,4472,4472,4472,3512,3514,4472,4472,4472,4472,3512,3514,4036,4036,4036,4036,4036,4036,4036,4036,4036,4036,4036,4946,4946,4946,4946,
260,260,260,260,260,260,260,260,260,260,460,460,260,260,260,1068,1068,1068,1068,4040,4040,4040,4036,3652,3653,3653,3653,3653,3653,3653,3653,3653,3793,3792,3653,3653,3653,3793,3513,3513,3514,4472,4472,4472,4472,4472,4472,4472,4472,4472,4472,4472,4472,3512,3514,4036,4036,4036,4036,4036,3351,3352,3352,3352,3352,3352,3353,4036,4036,4036,4036,3512,3514,4472,4472,4472,4472,3512,3514,4472,4472,4472,4472,3512,3514,4036,4458,4036,4036,4036,4036,4036,4036,4036,4036,4946,4946,4946,4946,4946,
1068,1068,1068,260,260,260,260,260,260,260,260,460,260,260,260,1068,1068,1068,1068,4040,4040,4040,1068,4036,4036,4036,4472,4472,4472,4472,4472,4472,3512,3514,4036,4036,4036,3512,3513,3513,3932,3373,3373,3373,3373,3373,3373,3373,3373,3373,3373,3373,3373,3933,3514,4036,4036,4036,4036,4036,3631,3632,3632,3632,3632,3632,3633,4036,4036,4036,4036,3512,3514,4472,4472,4472,4472,3512,3514,4472,4472,4472,4472,3512,3514,4036,4036,4036,4036,4036,4036,4036,4036,4036,4946,4946,4946,4946,4946,4036,
1068,1068,1068,1068,1068,1068,260,260,260,260,260,460,260,260,260,260,1068,1068,1068,1068,4040,4040,4040,1068,4458,4036,4472,4036,4036,4036,4036,4472,3512,3514,4036,4036,4036,3652,3653,3653,3653,3653,3653,3653,3653,3653,3653,3653,3653,3653,3653,3653,3653,3793,3514,4036,4036,4036,4036,4036,4036,4036,4036,4458,4036,4036,4036,4036,4036,4036,4036,3512,3932,3373,3373,3373,3373,3933,3932,3373,3373,3373,3373,3933,3514,4036,4036,4036,4036,4036,4036,4036,4036,4036,4946,4946,4946,4036,4036,4036,
1068,1068,1068,1068,1068,1068,1068,1068,260,260,260,260,260,260,260,260,1068,1068,1068,1068,4040,4040,4040,4040,4036,4036,4472,4472,4472,4472,4472,4472,3652,3654,1068,1068,1068,1068,1068,4036,4036,4036,4036,4036,4036,4036,4036,4036,4036,4036,4036,4036,4036,3512,3514,4036,4036,4036,4036,4036,4036,4036,4036,4036,4036,4036,4036,4036,4036,4036,4036,3652,3653,3653,3653,3653,3653,3653,3653,3653,3653,3653,3653,3653,3654,4036,4458,4036,4036,4458,4036,4036,4036,4036,4036,4946,4036,4036,4036,4036,
4036,4036,569,1068,1068,1068,1068,1068,260,260,260,260,460,260,260,260,1068,1068,1068,1068,1068,4040,4040,4040,4040,4036,4036,4036,4036,4036,4036,4036,1068,1068,1068,4040,4040,4040,4040,1068,1068,4036,4036,4036,4036,4036,4036,4036,4036,4036,4036,4036,4036,3512,3514,4036,4036,4036,4036,4036,4036,4036,4036,4036,4036,4036,4036,4036,4036,4036,4036,4036,4036,4036,4036,4036,4036,4036,4036,4036,4036,4036,4036,3476,3478,4036,4036,4036,4458,4036,4036,4036,4036,4036,4036,4036,4036,4036,4036,4036,
4036,4036,4036,4036,1068,1068,1068,1068,1068,260,260,260,460,260,260,260,260,1068,1068,1068,1068,1068,4040,4040,4040,1068,1068,1068,4036,4036,1068,1068,4040,4040,4040,4040,4040,4040,4040,4040,4040,1068,4036,4036,4036,4036,4036,4036,4036,4036,4036,4036,4036,3512,4036,4036,4036,4036,4036,4036,4036,4036,4036,4036,4036,4036,4036,4036,4036,4036,4036,4036,4036,4036,4036,4036,4036,4036,4036,4036,4036,4036,4036,3476,3478,4036,4036,4036,4036,4036,4036,4036,4036,4036,4036,4036,4036,4036,4036,4036,
820,820,820,821,4036,1068,1068,1068,1068,260,260,260,460,260,260,260,260,1068,1068,1068,1068,1068,4040,4040,4040,4040,4040,1068,1068,1068,4040,4040,4040,4040,4040,4040,4040,4040,4040,4040,4040,4040,1068,4036,4036,4036,4036,4036,4036,4036,4036,4036,4036,3512,4036,4036,4036,4036,4036,4036,4036,4036,4036,4036,4036,4036,4036,4036,4036,4036,4036,4036,4036,4036,4036,4036,4036,4036,4036,4036,4036,4036,4036,3476,3478,4036,4036,4036,4036,4036,4036,4036,4036,4036,4036,4036,4036,4036,4036,4036,
852,852,852,853,4036,1068,1068,1068,1068,260,260,260,460,460,260,260,260,260,1068,1068,1068,1068,1068,1068,4040,4040,4040,4040,4040,4040,4040,4040,4040,4040,4040,4040,4040,4040,4040,4040,4040,4040,4040,1068,4036,4036,4036,4036,4036,4036,4036,4036,4036,3512,4036,4036,4036,4036,4036,4036,4036,4036,4036,4036,4036,4036,4036,4036,4036,4036,4036,4036,4036,4036,4036,4036,4036,4036,4036,4458,4036,4036,4036,3476,3478,4036,4036,4036,4036,4036,4036,5869,5869,4036,4036,4036,4036,4036,4036,4036,
884,884,884,885,4036,1068,1068,1068,1068,260,260,260,460,460,260,260,260,260,1068,1068,1068,1068,1068,1068,1068,4040,4040,4040,4040,4040,4040,4040,4040,4040,4040,4040,4040,4040,4040,4040,4040,4040,4040,4040,4036,4036,4036,4036,4036,4036,4036,4036,4036,3512,4036,4036,4036,4036,4036,4036,4036,4036,4036,4036,4036,4036,4036,4036,4036,4036,4036,4036,4036,4036,4036,4036,4036,4036,4036,4036,4036,4036,4036,3476,3478,4036,4036,4458,4036,4036,4036,5869,5869,4946,4946,4946,4946,4036,4036,4036,
4036,569,4036,4036,1068,1068,1068,1068,1068,260,260,260,460,460,460,260,260,260,260,1068,1068,1068,1068,1068,1068,1068,1068,4040,4040,4040,4040,4040,4040,4040,4040,4040,4040,4040,4040,4040,4040,4040,4040,4040,4036,4036,4036,4036,4036,4036,4036,4036,4036,4036,4036,4036,4036,4036,4036,4036,4036,4036,4036,4036,4036,4036,4036,4036,4036,4036,4036,4036,4036,4036,4036,4036,4036,4036,4036,4036,4036,4036,4036,3476,3478,4036,4036,4036,4036,4036,4036,5869,4946,4946,4946,4946,4946,4036,4036,4036,
569,4036,4036,4036,1068,1068,1068,1068,260,260,260,260,460,460,460,260,260,260,260,1068,1068,1068,1068,1068,1068,1068,1068,1068,1068,4040,4040,4040,4040,4040,4040,4040,4040,4040,4040,4040,4040,4040,4040,4040,4036,4036,4036,4036,4036,4036,4036,4036,4036,4036,4036,4036,4036,4036,4036,4036,4036,4036,4036,4036,4036,4036,4036,4036,4036,4036,4036,4036,4036,4036,4036,4036,4036,4036,4036,4036,4036,4036,4036,3476,3478,4036,4036,4036,4036,4036,4036,5869,5869,4946,4946,4946,4946,4036,4036,4036,
4036,4036,1068,1068,1068,1068,1068,1068,260,260,260,260,460,460,460,460,260,260,260,260,1068,1068,1068,1068,1068,1068,1068,1068,1068,1068,1068,4040,4040,4040,4040,4040,4040,4040,4040,4040,4040,4040,4040,4040,4036,4036,4036,4036,4036,4036,4036,4036,4036,4036,4036,4036,4036,4036,4036,4036,4036,4036,4036,4036,4036,4036,4036,4036,4036,4036,4036,4036,4036,4036,4036,4036,4036,4036,4036,4036,4036,4036,4036,3476,3896,3338,4036,4036,4036,4036,4036,4036,5869,5869,4946,4946,5869,4036,4036,4036,
1068,1068,1068,1068,1068,1068,1068,1068,260,260,260,460,460,460,460,460,260,260,260,260,260,1068,1068,1068,1068,1068,1068,1068,1068,1068,1068,1068,1068,4040,4040,4040,4040,4040,4040,4040,4040,4040,4040,4040,4036,4036,4036,4036,4036,3513,3513,3513,3513,3513,3932,3373,3373,3373,3373,3373,3373,3373,3373,3373,3373,3373,3373,3374,3337,3337,3337,3337,3337,3337,3337,3337,3338,4036,4036,4036,4036,4036,4458,3616,3757,3478,4036,4036,4036,4036,4036,4036,4036,5869,4946,5869,5869,4036,4036,4036,
1068,1068,1068,1068,1068,1068,1068,260,260,260,260,460,460,460,460,460,460,260,260,260,260,260,1068,1068,1068,1068,1068,1068,1068,1068,1068,1068,1068,1068,1068,4040,4040,4040,4040,4040,4040,4040,4040,3653,3653,3653,3653,3653,3653,3653,3653,3653,4036,3793,3792,3653,3653,3653,3653,3653,3653,3653,3653,3653,3653,3653,3653,3654,3617,3617,3617,3617,3617,3617,3617,3757,3896,3338,4036,4036,4036,4036,4458,4036,3476,3478,4036,4036,4036,4036,4036,4036,4036,5869,4946,5869,4036,4036,4036,4036,
1068,1068,1068,1068,1068,1068,260,260,260,260,260,460,460,460,460,460,460,460,260,260,260,260,260,1068,1068,1068,1068,1068,1068,1068,1068,1068,1068,1068,1068,1068,4040,4040,4040,4040,4040,4040,4040,4040,4036,4036,4036,4036,4036,4036,4036,4036,4036,3512,3514,4036,4036,4036,4036,4036,4036,4036,4036,4036,4036,4036,4036,4036,4036,4036,4036,4036,4036,4036,4036,3616,3757,3478,4036,4036,4036,4036,4036,4036,3476,3478,4458,4036,4458,4036,4036,4036,4036,5869,5869,5869,4036,4036,4036,4036,
1068,1068,1068,1068,1068,260,260,260,260,260,460,460,460,460,460,460,460,460,460,260,260,260,260,260,1068,1068,1068,1068,1068,1068,1068,1068,1068,1068,1068,1068,1068,4040,4040,4040,4040,4040,4040,4040,4036,4036,4036,4036,4036,4036,4036,4036,4036,3512,3514,4036,4036,4036,4036,4036,4036,4036,4036,4036,4036,4458,4036,4036,4036,4036,4036,4036,4036,4036,4036,4036,3476,3896,3337,3337,3337,3337,3337,3337,3897,3896,3337,3337,3337,3337,3337,3337,3337,4946,820,820,820,820,820,820,
260,1068,1068,1068,1068,260,260,260,260,460,460,460,460,460,460,460,460,460,460,460,260,260,260,260,260,1068,1068,1068,1068,1068,1068,1068,1068,1068,1068,1068,1068,1068,4040,4040,4040,4040,4040,4040,4036,4036,4036,4036,4036,3372,3373,3373,3373,3933,3514,4036,4036,4036,4036,4036,4036,4036,4036,4036,4036,4036,4036,4036,4036,4036,4036,4036,4036,4036,4036,4036,3616,3617,3617,3617,3617,3617,3617,3617,3757,3756,3617,3617,3617,3617,3617,3617,4036,4946,884,884,884,695,694,884,
260,260,260,260,260,260,260,260,460,460,460,460,460,460,460,460,460,460,460,460,460,260,260,260,260,260,260,1068,1068,1068,1068,1068,1068,1068,1068,1068,1068,1068,1068,4040,4040,4040,4040,4040,4040,4036,4036,4036,4036,3512,3513,3513,3513,3513,3514,4036,4036,4036,4036,4036,4036,4036,4036,4036,4036,4036,4036,4036,4036,4036,4036,4036,4036,4036,4036,4036,4036,4036,4036,4036,4458,4036,4036,4036,3476,3478,4036,4036,4458,4036,4036,5869,5869,4946,5869,4036,4036,883,885,4036,
260,260,260,260,260,260,260,260,460,460,460,460,460,460,460,460,460,460,460,460,460,460,260,260,260,260,260,260,260,1068,1068,1068,1068,1068,1068,1068,1068,1068,1068,1068,4040,4040,4040,4040,4040,4036,4036,4036,4036,3512,3513,3513,3513,3513,3932,3373,3373,3373,3373,3373,3373,3374,4036,4036,4036,4036,4036,4036,4036,4036,4036,4036,4458,4036,4036,4036,4036,4036,4036,4036,4036,4036,4036,4036,3476,3478,4036,4458,4036,4036,4036,5869,4946,5869,5869,4036,4036,4036,290,4036,
260,260,260,260,260,260,260,460,460,460,460,460,460,460,460,460,460,460,460,460,460,460,460,260,260,260,260,260,260,260,260,1068,1068,1068,1068,1068,1068,1068,1068,1068,4040,4040,4040,4040,4040,4036,4036,4036,4036,3512,3792,3653,3653,3653,3653,3653,3653,3653,3653,3653,3653,3654,4036,4458,4036,4036,4036,4036,4036,4036,4036,4036,4036,4036,4036,4036,4036,4036,4036,4036,4036,4036,4036,4036,3476,3478,4036,4036,4036,4036,5869,5869,5869,5869,4036,4036,4036,4036,4036,4036,
460,460,460,460,460,460,460,460,260,260,260,260,260,260,260,260,260,260,260,460,460,460,460,460,460,260,260,260,260,260,260,260,1068,1068,1068,1068,1068,1068,1068,1068,1068,4040,4040,4040,4040,4040,3372,3373,3373,3933,3514,4036,4036,4036,4036,4036,4036,4036,4036,4036,4036,4036,4036,4036,4036,4036,4036,4036,4036,4036,4036,4036,4036,4036,4036,4036,4036,4036,4036,4036,4036,4036,4036,5869,3476,3896,3338,4036,4036,5869,5869,4946,5869,4036,4036,4036,4036,4036,4036,4036,
460,460,460,460,460,260,260,260,260,260,260,260,260,260,260,260,260,260,260,260,260,460,460,460,460,460,460,260,260,260,260,260,260,260,1068,1068,1068,1068,1068,1068,1068,1068,4040,4040,4040,4040,3652,3653,3653,3653,3654,4036,4036,4036,4036,4036,4036,4036,4036,4036,4036,4036,4036,4036,4036,4036,4036,4036,4036,4036,4036,4036,4036,4036,4036,4036,4036,3336,3337,3337,3337,3337,3337,3337,3897,3477,3478,4036,5869,5869,4946,5869,4036,4036,4036,4036,4036,4036,4036,4036,
460,460,460,460,260,260,260,260,260,260,260,260,260,260,260,260,260,260,260,260,260,260,460,460,460,460,460,460,460,260,260,260,260,260,260,1068,1068,1068,1068,1068,1068,1068,1068,4040,4040,4040,4040,4458,4036,4036,4036,4036,4036,4036,4036,4036,4036,4036,4036,4036,4458,4036,4036,4036,4036,4036,4036,4036,4036,4036,4036,4036,4036,4036,4036,3336,3337,3897,3756,3617,3617,3617,3617,3757,3477,3477,3478,4036,5869,4946,4946,5869,4036,4036,4036,4036,4036,4036,4036,4036,
460,460,460,260,260,260,260,260,260,260,1068,1068,1068,1068,1068,1068,1068,260,260,260,260,260,260,460,460,460,460,460,460,460,260,260,260,260,260,260,1068,1068,1068,1068,1068,1068,1068,1068,4040,4040,4040,1068,4036,4458,4036,4036,4036,4036,4036,4036,4036,4036,4036,4036,4036,4036,4036,4036,4036,4036,4036,4036,4036,4036,4036,4036,4036,4036,3336,3897,3756,3617,3618,4036,4036,4036,4036,3476,3477,3477,3478,4036,5869,4946,4946,5869,4036,4036,4036,4036,4036,4036,4036,4036,
460,460,460,260,260,260,260,1068,1068,1068,1068,1068,5869,5869,5869,1068,1068,1068,1068,260,260,260,260,460,460,460,460,460,460,460,460,460,260,260,260,260,260,260,1068,1068,1068,1068,1068,1068,1068,4040,4040,4040,4036,4036,4036,4036,4036,290,4036,4036,290,4036,4036,4036,290,290,290,4036,4036,4036,4036,4036,4036,4036,4036,4036,3336,3337,3897,3756,3618,4036,4036,4036,4946,4946,4946,4946,4946,4946,4946,4946,4946,4946,4946,4946,4946,4036,4036,4036,4036,4036,4036,4036,
460,460,260,260,260,260,1068,1068,1068,5869,5869,5869,5869,5869,5869,5869,5869,1068,1068,1068,260,260,260,260,460,460,460,460,460,460,460,460,460,260,260,260,260,260,260,1068,1068,1068,1068,1068,1068,4040,4040,4040,4040,4036,4036,4036,4036,4036,4036,290,4036,290,290,290,290,4036,290,290,4036,4036,4036,4036,4036,4036,3336,3337,3897,3756,3617,3618,4036,4036,4946,4946,4946,4946,4946,4946,4946,4946,4946,4946,4946,4946,4946,4946,4946,4946,4946,4946,4946,4036,4036,4036,
460,460,260,260,260,1068,1068,1068,5869,5869,5869,5869,5869,5869,5869,5869,5869,5869,1068,1068,260,260,260,260,460,460,460,460,460,460,460,460,460,460,260,260,260,260,260,260,1068,1068,1068,1068,1068,1068,4040,4040,4040,1068,4036,4036,4036,290,4036,290,4036,4036,4036,4036,4036,290,4036,4036,4036,4036,4036,4036,4036,3336,3897,3756,3617,3618,4036,4036,4036,4946,4946,4946,4946,4946,4036,4036,4036,4036,4036,4036,4036,4946,4946,4946,4946,4946,4946,4946,4946,4946,4946,4036,
460,260,260,260,260,1068,1068,5869,5869,5869,5869,5869,5869,5869,5869,5869,5869,5869,1068,1068,1068,260,260,260,460,460,460,430,431,431,431,432,460,460,460,460,260,260,260,260,260,1068,1068,1068,1068,1068,4040,4040,4040,4040,4036,4036,4036,4036,4036,290,4036,290,290,290,4036,4036,4036,4036,4036,4036,4036,4036,3336,3897,3756,3618,4036,4036,4036,4946,4946,4946,4946,4946,4036,4036,1014,1015,1015,1015,1015,1016,4036,4036,4036,4036,4036,4036,4036,4946,4946,3492,3492,4946,
460,260,260,260,1068,1068,1068,5869,5869,5869,5869,5869,5869,5869,5869,5869,5869,5869,1068,1068,1068,260,260,260,460,460,460,462,463,463,463,588,432,460,460,460,460,260,260,260,260,260,1068,1068,1068,1068,1068,4040,4040,4040,1068,4458,4036,4036,290,4036,4036,4036,4036,4036,4036,4036,290,4036,4036,4036,4036,3336,3897,3756,3618,4036,4036,4946,4946,4946,4946,4946,4946,4036,1014,1015,986,953,1079,1079,954,985,1016,4036,4036,4036,4036,4036,4036,4036,4036,3492,3492,4946,
460,260,260,260,1068,1068,1068,5869,5869,5869,5869,5869,5869,5869,5869,5869,5869,5869,1068,1068,1068,260,260,260,460,460,460,462,463,463,463,463,464,460,460,460,460,460,260,260,260,260,260,1068,1068,1068,1068,1068,4040,4040,4040,1068,4036,4036,4036,290,4036,4036,4036,290,290,290,290,4036,4036,4036,3336,3897,3756,3618,4036,4036,4946,4946,4946,4946,4946,4946,4036,1014,986,953,1079,1080,4036,4036,1078,954,1048,4458,4036,4036,4036,4036,4036,4036,4036,4036,4036,4946,
460,260,260,260,1068,1068,1068,5869,5869,5869,5869,5869,5869,5869,5869,5869,5869,1068,1068,1068,1068,260,260,260,460,460,460,494,619,463,463,463,588,432,460,460,460,460,460,260,260,260,260,1068,1068,1068,1068,1068,4040,4040,4040,1068,4036,4036,4036,4036,4036,4036,4036,4036,4036,4036,4036,4036,4036,3336,3897,3756,3618,4036,4036,4946,4946,4946,4946,4036,4036,4036,4036,1046,953,1080,4036,4036,4036,4036,4036,1046,1048,4458,4036,4036,4036,4036,4036,4036,4036,4036,4036,4036,
460,260,260,260,260,1068,1068,5869,5869,5869,5869,5869,5869,5869,5869,5869,1068,1068,1068,260,260,260,260,260,460,460,460,460,462,463,463,463,463,588,432,460,460,460,460,460,260,260,260,260,1068,1068,1068,1068,1068,1068,4040,4040,1068,4036,4036,4036,4036,4036,4036,4036,3336,3337,3337,3337,3337,3897,3477,3478,4036,4036,4946,4946,4946,4946,4036,4036,4036,4036,4036,1046,1048,4036,4036,4036,4036,4036,1014,986,985,1015,1016,4036,4036,4036,4036,4458,4036,4036,4036,4036,
460,260,260,260,260,1068,1068,1068,5869,5869,5869,5869,5869,1068,1068,1068,1068,1068,1068,260,260,260,260,260,260,460,460,460,494,619,463,463,463,463,588,432,460,460,460,460,260,260,260,260,1068,1068,1068,1068,1068,1068,4040,4040,4040,4036,4036,4036,4036,4036,4036,4036,3616,3617,3617,3617,3757,3477,3756,3618,4036,4946,4946,4946,4946,4036,4036,4036,4036,4036,4036,1046,985,1016,4036,4036,4036,1014,986,4942,1047,1047,985,1015,1015,1015,1015,1015,1015,1016,4036,4036,
460,460,260,260,260,1068,1068,1068,1068,1068,1068,1068,1068,1068,1068,1068,1068,1068,1068,260,260,260,260,260,260,260,260,460,460,494,619,463,463,463,463,588,431,432,460,460,460,260,260,260,260,1068,1068,1068,1068,1068,1068,4040,4040,1068,4036,4036,4036,4036,4036,4036,4036,4036,4036,290,3616,3757,3478,4036,4036,4946,4946,4946,4036,4036,4036,4036,4036,4036,4036,1078,954,1048,4036,4036,1014,986,4942,953,1079,1079,1079,1079,1079,1079,1079,954,1047,1048,4036,4036,
460,460,260,260,260,260,1068,1068,1068,1068,1068,1068,1068,1068,1068,1068,1068,1068,1068,1068,1068,260,260,260,260,260,260,260,260,460,462,463,463,463,463,463,463,464,460,460,460,260,260,260,260,260,1068,1068,1068,1068,1068,4040,4040,4040,1068,4036,4036,4036,4036,4036,4036,4036,4036,4036,4036,3616,3618,4036,4946,4946,4946,4036,4036,4036,4036,4036,4036,4036,4036,3351,3912,985,1015,1015,986,4942,4942,1048,290,4036,4036,4036,4036,290,4036,1078,954,1048,4036,4036,
460,460,260,260,260,260,260,260,260,1068,1068,1068,1068,1068,1068,1068,1068,1068,1068,1068,1068,1068,1068,260,260,260,260,260,260,460,494,619,463,463,463,463,463,464,460,460,460,460,260,260,260,260,1068,1068,1068,1068,1068,1068,4040,4040,1068,4036,4036,4036,290,4036,4036,4036,4036,4036,4036,4037,4036,4036,4946,4946,4946,4036,4036,4036,4036,4036,4036,4036,4036,3491,3771,3771,1079,1079,1079,954,953,1080,4036,4036,4036,4036,4036,4036,4036,290,1046,1048,4036,4036,
460,460,460,260,260,260,260,260,260,260,260,1068,1068,1068,1068,1068,1068,1068,1068,1068,1068,1068,1068,1068,1068,260,260,260,260,260,460,494,619,463,463,463,463,464,460,460,460,460,460,260,260,260,260,1068,1068,1068,1068,1068,4040,4040,4040,1068,4036,4036,4036,4036,4036,4036,4036,4036,4036,4036,4036,4946,4946,4946,4036,4036,4458,4458,4036,4036,4036,4036,3351,3912,3493,4036,1525,4036,4036,1046,1048,290,4036,4036,4036,4036,4036,4036,4036,1014,986,1048,4036,4036,
460,460,460,460,260,260,260,260,260,260,260,260,1068,1068,1068,1068,1068,1068,1068,4040,4040,4040,1068,1068,1068,1068,1068,260,260,260,260,460,494,619,463,463,620,496,460,460,460,460,460,260,260,260,260,1068,1068,1068,1068,1068,1068,4040,4040,4040,290,4036,4036,4036,4036,4036,4036,4036,4037,4036,4946,4946,4946,4946,4036,4458,4036,4036,4036,4036,4036,4036,3491,3492,3493,4036,4036,4036,4036,1046,1048,4036,4036,4036,4036,4036,4036,4036,4036,1078,954,1048,4036,4036,
460,460,460,460,460,460,460,260,260,260,260,260,260,1068,1068,1068,1068,1068,4040,4040,4040,4040,4040,4040,1068,1068,1068,260,260,260,260,460,460,494,495,495,496,460,460,460,460,460,460,460,260,260,260,1068,1068,1068,1068,1068,1068,1068,4040,4040,1068,4037,4036,4036,4036,4036,4036,290,4036,4036,4946,4946,4946,4036,4036,4036,4036,4036,4036,4036,4036,4036,3491,3492,3493,4036,4036,4036,4036,1046,1048,4036,4036,4036,4036,4036,4036,4036,4036,4036,1046,1048,4036,4036,
460,460,460,460,460,460,460,460,460,260,260,260,260,1068,1068,1068,1068,4040,4040,4040,4040,4040,4040,4040,4040,1068,1068,1068,260,260,260,460,460,460,460,460,460,460,460,460,460,460,460,460,260,260,260,260,1068,1068,1068,1068,1068,1068,1068,4040,4040,4036,4036,4036,4036,4036,4036,4036,4036,4036,4946,4946,4036,4036,4036,4036,4036,4036,4036,4036,4036,4036,3491,3492,3493,4036,4036,4036,4036,1046,985,1016,290,4036,4036,4036,4036,4036,4036,4036,1046,1048,4036,4036,
460,460,460,460,460,460,460,460,460,460,260,260,260,260,1068,1068,1068,4040,4040,4040,4040,4040,4040,4040,1068,1068,1068,1068,260,260,260,460,460,460,460,460,460,460,460,460,460,460,460,460,260,260,260,260,1068,1068,1068,1068,1068,1068,1068,4040,4040,290,4036,4036,4036,4036,4036,4036,4036,4946,4946,4946,4036,4458,4036,4037,4036,4036,4036,4036,4036,4036,3491,3492,3911,3353,4458,4036,4036,1078,954,985,1016,4036,1014,1015,1016,4036,4036,290,1046,1048,4036,4036,
460,460,460,460,460,460,460,460,460,460,260,260,260,260,260,1068,1068,1068,4040,4040,4040,4040,4040,4040,1068,1068,1068,1068,260,260,260,460,460,460,460,460,460,460,460,460,460,460,460,460,460,260,260,260,1068,1068,1068,1068,1068,1068,1068,4040,4040,4036,4036,4036,4036,4036,4036,4946,4946,4946,4946,4946,4036,4036,4458,4036,4036,4036,4036,4036,4036,4036,3631,3632,3772,3911,3353,4036,4036,4036,1078,954,985,1015,986,1047,1047,1015,1015,1015,986,1048,4458,4036,
460,460,460,460,460,460,460,460,460,460,460,260,260,260,260,1068,1068,1068,1068,1068,4040,4040,4040,1068,1068,1068,1068,1068,260,260,260,460,460,460,460,460,460,460,460,460,460,460,460,460,460,260,260,260,1068,1068,1068,1068,1068,1068,1068,4040,4040,4040,4036,4036,4036,4036,4036,4946,4946,4946,4946,4036,4036,4036,4036,4037,4036,4036,4036,4036,4036,4036,4036,4036,3631,3772,3911,3353,4036,4036,4036,1078,1079,1079,1079,1079,1079,1079,1079,1079,1079,1080,4458,4036,
431,431,432,460,460,460,460,460,460,460,460,460,260,260,260,260,1068,1068,1068,1068,1068,1068,1068,1068,1068,1068,1068,260,260,260,260,460,460,460,460,460,460,460,460,460,460,460,460,460,460,260,260,260,1068,1068,1068,1068,1068,1068,1068,4040,4040,4040,4036,4036,4036,4036,4946,4946,4946,4036,4036,4036,4037,4036,4458,4036,4036,4036,4036,4036,4036,4036,4036,4036,4036,3631,3772,3911,3353,4036,4036,4036,4036,4036,4036,4036,4036,4036,4036,4036,4036,4036,4036,4036,
463,463,588,432,460,460,460,460,460,460,460,460,260,260,260,260,260,1068,1068,1068,1068,1068,1068,1068,1068,1068,1068,260,260,260,260,460,460,460,460,460,430,431,431,431,431,431,432,460,460,260,260,260,1068,1068,1068,1068,1068,1068,1068,4040,4040,1068,4036,4036,4036,4036,4946,4946,4946,4036,4037,4036,4036,4036,4036,4036,4036,4036,4036,4036,4036,4036,4036,4036,4036,4036,3631,3772,3911,3353,4036,4036,4036,4036,4036,4036,4036,4036,4036,4036,4036,4036,4036,4458,
463,463,463,588,432,460,460,460,460,460,460,460,460,260,260,260,260,260,260,1068,1068,1068,1068,1068,1068,1068,260,260,260,260,460,460,460,430,431,431,587,463,463,463,463,463,464,460,460,260,260,260,1068,1068,1068,1068,1068,1068,1068,4040,4040,4040,4036,4036,4036,4036,4946,4946,4036,4036,4037,4036,4036,4036,4036,4036,4036,4036,4036,4036,4036,4036,4036,4036,4036,4036,4036,3631,3772,3911,3352,3352,3352,3352,3352,3352,3352,3352,3352,3352,3352,3352,3352,3352,
463,463,463,463,588,432,460,460,460,460,460,460,460,460,260,260,260,260,260,260,260,260,260,260,260,260,260,260,260,260,460,460,430,587,463,463,463,463,463,463,463,463,464,460,460,260,260,260,260,1068,1068,1068,1068,1068,1068,1068,4040,4040,4040,4040,4877,4877,4877,4877,4877,948,4036,4037,4036,4036,4036,4036,4036,4036,4036,4036,4036,4036,4036,4036,4036,4036,4036,4036,3631,3772,3492,3492,3492,3492,3492,3492,3492,3492,3492,3492,3492,3492,3492,3492,
463,463,463,463,463,588,431,432,460,460,460,460,460,460,460,260,260,260,260,260,260,260,260,260,260,260,260,260,260,460,460,460,462,463,463,463,463,463,463,463,463,463,588,432,460,260,260,260,260,260,1068,1068,1068,1068,1068,1068,1068,4040,4040,4040,260,260,260,260,260,855,4040,4040,4040,4040,4040,4040,4040,1068,4036,4036,4036,4036,4036,4036,4036,4036,4036,4036,4036,3631,3632,3632,3632,3632,3632,3632,3632,3632,3632,3632,3632,3632,3632,3632,
463,463,463,463,463,463,463,588,432,460,460,460,460,460,460,460,460,260,260,260,260,260,260,260,260,260,260,260,460,460,460,430,587,463,463,463,463,463,463,463,463,463,463,588,432,460,260,260,260,260,260,1068,1068,1068,1068,1068,1068,1068,1068,1068,260,260,260,260,260,4040,4040,4040,4040,4040,1068,4040,4040,4040,4040,4040,4040,4040,4040,4040,4040,4040,4040,4040,4040,4040,4040,4040,4040,4040,4040,4040,4458,4036,4036,4040,4040,4040,4040,4040,
463,463,463,463,463,463,463,463,588,431,432,460,460,460,460,460,460,460,460,460,460,460,460,460,460,460,460,460,460,460,430,587,463,463,463,463,463,463,463,463,463,463,463,463,588,432,460,260,260,260,260,260,1068,1068,1068,1068,1068,1068,1068,260,260,260,460,260,260,1068,1068,4040,4040,4040,4040,4040,4040,4040,4040,4040,4040,4040,4040,4040,4040,4040,4040,4040,4040,4040,4040,4040,4040,4040,4040,4040,4040,4040,4040,4040,4040,4040,4040,4040,
463,463,463,463,463,463,463,463,463,463,588,432,460,460,460,460,460,460,460,460,460,460,460,460,460,460,460,460,460,460,462,463,463,463,463,463,463,463,463,463,463,463,463,463,463,588,432,460,260,260,260,260,260,260,1068,1068,1068,1068,1068,260,260,260,460,260,260,1068,1068,1068,1068,1068,1068,1068,1068,1068,1068,1068,1068,1068,4040,1068,4040,4040,4040,4040,4040,4040,1068,1068,1068,1068,4040,4040,4040,4040,4040,4040,4040,1068,1068,1068,
463,463,463,463,463,463,463,463,463,463,463,588,431,432,460,460,460,460,460,460,460,460,460,460,460,460,460,460,460,430,587,463,463,463,463,463,463,463,463,463,463,463,463,463,463,463,588,432,460,260,260,260,260,260,260,260,1068,1068,260,260,260,260,460,260,260,260,1068,1068,1068,1068,1068,1068,1068,1068,1068,1068,1068,1068,1068,1068,1068,1068,1068,1068,1068,1068,1068,1068,1068,1068,1068,1068,1068,1068,1068,1068,1068,1068,1068,1068,
463,463,463,463,463,463,463,463,463,463,463,463,463,588,431,431,432,460,460,460,460,460,460,460,460,460,460,460,430,587,463,463,463,463,463,463,463,463,463,463,463,463,463,463,463,463,463,588,432,460,260,260,260,260,260,260,260,260,260,260,260,260,460,260,260,260,1068,1068,1068,1068,1068,1068,1068,1068,1068,1068,1068,1068,1068,1068,1068,1068,1068,1068,1068,1068,1068,1068,1068,1068,1068,1068,1068,1068,1068,1068,1068,1068,1068,1068,
463,463,463,463,463,463,463,463,463,463,463,463,463,463,463,463,588,431,431,432,460,460,460,460,460,460,430,431,587,463,463,463,463,463,463,463,463,463,463,463,463,463,463,463,463,463,463,463,588,432,460,460,260,260,260,260,260,260,260,260,260,460,460,460,260,260,1068,1068,1068,1068,1068,1068,260,260,260,260,260,260,260,260,260,260,260,1068,1068,1068,260,260,260,260,260,260,260,1068,1068,1068,1068,1068,1068,1068,
463,463,463,463,463,463,463,463,463,463,463,463,463,463,463,463,463,463,463,588,431,431,431,432,430,431,587,463,463,463,463,463,463,463,463,463,463,463,463,463,463,463,463,463,463,463,463,463,463,588,432,460,460,460,260,260,260,260,260,260,260,460,460,460,260,260,260,260,260,260,260,260,260,260,260,260,260,260,260,260,260,260,260,260,260,260,260,260,260,260,260,260,260,260,260,260,260,260,260,260,
463,463,463,463,463,463,463,463,463,463,463,463,463,463,463,463,463,463,463,463,463,463,463,588,587,463,463,463,463,463,463,463,463,463,463,463,463,620,496,495,495,495,494,619,463,463,463,463,463,463,588,431,431,432,460,460,460,460,460,430,431,431,432,460,260,260,260,260,260,260,260,260,260,260,260,260,260,260,260,260,260,260,260,260,260,260,260,260,260,260,260,260,260,260,260,260,260,260,260,260,
463,463,463,463,463,463,463,463,463,463,463,463,463,463,463,463,463,463,463,463,463,463,463,463,463,463,463,463,463,463,463,463,463,463,463,620,496,496,460,460,460,460,460,494,495,494,619,463,463,463,463,463,463,588,431,431,432,430,431,587,463,463,464,460,260,260,260,260,260,260,260,260,260,260,460,460,460,460,460,460,460,260,260,260,260,260,260,260,460,460,460,260,260,260,260,260,260,260,260,260,
463,463,463,463,463,463,463,463,463,463,463,463,463,463,463,463,463,463,463,463,463,463,463,463,463,463,463,463,463,463,463,463,620,495,495,496,460,460,460,260,260,260,460,460,460,460,462,463,463,463,463,463,463,463,463,463,588,587,463,463,463,463,588,432,460,460,460,460,460,460,460,460,460,430,431,431,431,431,431,431,432,460,460,460,460,460,460,460,460,460,460,460,460,460,460,460,460,460,460,460,
463,463,463,463,463,463,463,463,463,463,463,463,463,463,463,463,463,463,463,463,463,463,463,463,463,463,463,463,463,463,463,620,496,460,460,460,460,460,260,260,260,260,460,460,460,460,462,463,463,463,463,463,463,463,463,463,463,463,463,463,463,463,463,588,431,431,431,431,431,431,432,430,431,587,463,463,463,463,463,463,588,431,431,431,431,431,431,431,431,431,431,431,431,431,431,431,431,431,431,431,
463,463,463,463,463,463,463,463,463,463,463,463,463,463,463,463,463,463,463,463,463,463,463,463,463,463,463,463,463,463,463,464,460,460,460,460,460,460,260,260,260,260,460,460,460,430,587,463,463,463,463,463,463,463,463,463,463,463,463,463,463,463,463,463,463,463,463,463,463,463,588,587,463,463,463,463,463,463,463,463,463,463,463,463,463,463,463,463,463,463,463,463,463,463,463,463,463,463,463,463,
3370,3370,3370,463,3370,3370,3370,3370,3371,463,463,463,463,463,463,463,463,463,463,463,463,463,463,463,463,463,463,463,463,463,463,588,432,460,460,460,460,460,460,460,460,460,460,460,430,587,463,463,463,463,463,463,463,463,463,463,463,463,463,463,463,463,463,463,463,463,463,463,463,463,463,463,463,463,463,463,463,463,463,463,463,463,463,463,463,463,463,463,463,463,463,463,463,463,463,463,463,463,463,463,
463,463,463,463,463,463,463,463,3511,463,463,463,463,463,463,463,463,463,463,463,463,463,463,463,463,463,463,463,463,463,463,463,588,431,431,431,431,431,432,460,460,460,460,430,587,463,463,463,463,463,463,463,463,463,463,463,463,463,463,463,463,463,463,463,463,463,463,463,463,463,463,463,463,463,463,463,463,463,463,463,463,463,463,463,463,463,463,463,463,463,463,463,463,463,463,463,463,463,463,463,
463,463,463,463,463,463,3510,463,3511,463,463,463,463,463,463,463,463,463,463,463,463,463,463,463,463,463,463,463,463,463,463,463,463,463,463,463,463,463,588,431,431,431,431,587,463,463,463,463,463,463,463,463,463,463,463,463,463,463,463,463,463,463,463,463,463,463,463,463,463,463,463,463,463,463,463,463,463,463,463,463,463,463,463,463,463,463,463,463,463,463,463,463,463,463,463,463,463,463,463,463,
463,463,463,463,463,3510,463,463,3511,463,463,463,463,463,463,463,463,463,463,463,463,463,463,463,463,463,463,463,463,463,463,463,463,463,463,463,463,463,463,463,463,463,463,463,463,463,463,463,463,463,463,463,463,463,463,463,463,463,463,463,463,463,463,463,463,463,463,463,463,463,463,463,463,463,463,463,463,463,463,463,463,463,463,463,463,463,463,463,463,463,463,463,463,463,463,463,463,463,463,463
</data>
 </layer>
 <layer name="Layer 2" width="100" height="73">
  <data encoding="csv">
0,0,0,0,0,0,0,0,0,461,0,263,0,0,0,0,0,0,5868,0,0,1412,1413,0,0,4328,4329,4329,4329,4329,4329,4329,4329,4329,4329,4329,4329,0,0,0,0,4328,4329,4329,4329,4329,4329,4329,4329,4329,4329,4329,4330,0,0,0,0,1385,1386,1387,1385,1386,1387,0,0,0,0,0,4328,4329,4329,4329,4329,4329,4329,4329,4330,0,0,4328,4329,4329,4330,0,0,0,0,0,5303,0,0,5868,6008,6149,5868,6148,6009,6009,6009,6009,
4206,4207,0,0,0,0,0,0,0,461,0,263,0,4462,0,4053,0,0,5868,0,4319,1552,1553,0,0,4328,4329,4329,4329,4329,4329,4329,4329,4329,4329,4329,4329,0,0,0,0,4328,4329,4329,4329,4329,4329,4329,4329,4329,4329,4329,4330,0,0,0,0,1525,1385,1386,1387,1526,1527,0,1526,1527,1247,2374,4328,4329,4329,4329,4329,4329,4329,4329,4330,0,0,4328,4329,4329,4330,0,0,0,0,0,5303,0,0,6008,6149,5868,6008,6010,6148,6009,6009,6009,
4346,4347,0,4203,4204,0,0,6720,0,461,0,263,0,0,4462,0,0,4180,5868,0,0,1692,1693,0,0,4468,4469,4469,4469,4469,4469,4469,4469,4469,4469,4469,4470,0,0,0,0,4468,4469,4469,4469,4469,4469,4469,4469,4469,4469,4469,4470,0,0,0,0,0,1525,1526,1527,0,0,0,1385,1386,1387,2374,4328,4329,4329,4329,4329,4329,4329,4329,4330,0,0,4328,4329,4329,4330,0,0,4319,0,0,0,0,0,0,5868,5868,6148,6009,6010,6148,6009,6009,
0,0,0,4343,4344,0,0,0,0,461,0,263,263,0,0,0,0,0,6008,6149,4045,0,0,0,0,0,0,0,0,0,0,0,0,0,0,0,0,0,0,0,0,0,0,0,0,0,0,0,0,0,0,0,0,0,0,0,0,0,0,0,0,0,0,0,4053,1526,1527,2374,4328,4329,4329,4329,4329,4329,4329,4329,4330,0,0,4328,4329,4329,4330,2374,0,4319,0,0,0,0,0,0,5868,5868,5870,6148,6009,6010,4805,4806,
0,0,0,4486,0,0,0,0,0,524,429,0,263,0,0,0,0,0,0,5868,0,4045,4319,0,0,0,0,0,0,0,0,0,0,0,0,0,0,0,0,0,0,0,0,0,0,0,0,0,0,0,0,0,0,0,0,0,0,0,0,4053,0,0,0,0,0,2374,2374,2374,4328,4329,4329,4329,4329,4329,4329,4329,4330,0,0,4328,4329,4329,4330,2374,0,0,4186,0,0,0,0,0,5868,5868,5870,5870,4805,4806,5366,0,
0,0,0,0,0,0,0,0,4206,4207,461,0,263,263,0,0,0,0,0,5868,4045,0,0,4188,4189,4189,4189,4189,4189,4189,4189,4189,4189,4189,4189,4189,4190,0,0,0,0,4188,4189,4189,4189,4189,4189,4189,4189,4189,4189,4189,4190,0,0,0,0,0,0,0,0,0,0,0,0,2374,2374,2374,4468,4469,4469,4469,4469,4329,4329,4329,4330,0,0,4328,4329,4329,4330,2374,0,0,0,4319,0,0,0,0,5868,6008,6010,5870,4945,0,0,0,
0,0,0,0,0,6720,0,0,4346,4347,524,429,0,263,0,0,0,4053,0,6008,6149,0,4186,4328,4329,4329,4329,4329,4329,4329,4329,4329,4329,4329,4329,4329,4330,0,0,0,0,4328,4329,4329,4329,4329,4329,4329,4469,4329,4329,4329,4330,0,0,12937,12938,12939,12940,12941,0,0,0,0,4039,2374,2374,2374,2374,2374,0,0,0,4328,4329,4329,4330,0,0,4328,4329,4329,4330,2374,0,0,0,0,0,0,0,0,6008,6149,6148,6010,4945,0,5503,0,
0,0,0,0,0,0,0,0,0,0,0,461,0,263,263,0,4040,4040,0,0,5868,4045,0,4468,4469,4469,4469,4469,4469,4469,4469,4469,4469,4469,4469,4469,4470,0,0,0,0,4328,4329,4329,4329,4329,4329,4330,2921,4328,4329,4329,4330,0,0,13077,13078,13079,13080,13081,0,0,0,0,0,2374,2374,8675,2374,2374,0,0,0,4328,4329,4329,4330,0,0,4328,4329,4329,4330,2374,0,0,0,4319,4045,0,0,0,0,6008,6010,4805,5366,5363,5502,0,
492,492,492,492,491,492,492,555,0,0,0,524,429,0,263,0,4040,4040,4040,0,6008,6149,4045,0,0,0,0,0,0,0,0,0,0,0,0,0,0,0,0,0,0,4328,4329,4329,4329,4329,4329,4329,4189,4329,4329,4329,4330,0,0,0,0,0,0,0,0,7478,0,7478,0,7477,2374,8815,2374,2374,0,0,0,4328,4329,4329,4330,0,0,4328,4329,4329,4330,2374,0,0,0,192,0,0,0,0,0,0,4805,5366,0,0,5223,0,
263,263,263,263,0,0,0,491,492,555,0,0,461,0,263,0,0,4040,4040,0,0,5868,0,0,0,0,0,0,0,0,0,0,0,0,0,0,0,0,0,0,0,4468,4469,4469,4469,4469,4469,4469,4469,4469,4469,4469,4470,0,0,0,0,0,0,0,0,7618,0,7618,7477,7617,0,0,0,0,192,0,0,4328,4329,4329,4330,0,0,4328,4329,4329,4330,2374,0,4045,0,0,0,0,0,0,0,4805,5366,0,0,5501,0,5225,
0,0,0,263,263,263,263,0,0,491,555,0,461,0,263,0,0,0,4040,0,0,6008,6149,4186,4319,4045,4188,4189,4189,4189,4189,4190,0,0,0,0,0,0,0,0,0,0,0,0,0,0,0,0,2374,2374,0,0,0,0,0,0,0,0,0,0,0,0,0,0,7617,2374,0,192,0,0,2374,2374,0,4468,4469,4469,4470,0,0,4468,4469,4469,4470,0,0,0,0,0,0,0,0,0,0,4945,0,0,0,0,5225,5087,
0,4180,0,0,0,0,263,263,263,0,459,0,461,0,263,263,0,0,0,0,0,0,6008,6149,0,4319,4328,4329,4329,4329,4329,4330,0,0,0,0,0,0,0,0,0,0,0,0,0,0,0,0,2374,2374,2374,0,0,0,0,0,0,0,0,8189,0,0,0,0,2374,2374,0,2374,2374,162,2374,2374,0,0,0,0,211,212,213,0,0,0,2374,0,0,0,4319,4319,0,0,0,0,0,4945,0,0,0,5225,5087,5728,
5729,5729,5729,5730,4462,0,0,4180,263,0,491,555,524,429,0,263,0,0,665,0,0,0,0,5868,0,0,4468,4469,4469,4469,4469,4470,0,0,6148,6009,6009,6009,6149,225,225,257,225,225,225,225,225,225,0,2374,2374,2374,2374,2374,2374,0,0,0,0,0,2374,2374,0,2374,2374,2374,2374,0,0,2374,0,0,0,0,0,0,243,244,245,0,315,316,317,0,0,0,0,4045,4186,0,0,0,0,5085,5226,0,5225,5087,0,6008,
2801,2802,0,6288,5730,0,0,0,263,263,0,459,0,461,0,263,0,0,0,0,0,4053,0,6008,6149,0,0,0,0,4186,0,4186,6148,6009,6010,0,0,4053,6008,6009,6149,225,289,225,257,289,257,257,2374,2374,2374,2374,2374,2374,2374,0,0,0,0,0,2374,2374,2374,2374,0,2374,0,0,2374,0,0,0,0,0,0,2374,275,276,277,0,347,348,9952,0,0,0,4186,177,0,4045,0,0,0,6009,6009,6009,6009,6009,0,0,
0,4045,0,0,6288,5730,0,0,0,263,0,459,0,461,0,263,263,0,0,0,0,4462,0,4462,6008,6009,6009,6149,4186,4045,6148,6009,6010,0,4462,4185,0,4180,0,289,6008,6149,225,225,225,225,225,225,2374,2374,2374,2374,2374,2374,2374,2374,2374,2374,2374,2374,2374,2374,2374,2374,2374,2374,2374,2374,225,225,2374,2374,2374,2374,2374,225,307,308,309,0,379,380,381,0,0,4186,0,0,0,0,0,0,0,6009,6009,6009,6009,6009,0,0,
0,0,0,0,0,5870,0,0,0,263,0,459,0,524,429,0,263,0,0,0,0,0,0,0,2676,2677,0,6008,6009,6009,6010,0,0,0,4180,0,0,0,0,0,0,6008,6149,225,257,225,258,225,2374,2374,2374,2374,2374,2374,2374,2374,2374,162,0,2374,0,4045,2374,0,0,0,2374,2374,2374,225,225,2374,225,2374,2374,2374,225,225,0,0,0,0,2374,0,0,0,0,0,0,0,0,0,0,6009,6009,6009,6009,6009,0,0,
0,0,0,0,0,5870,0,0,0,263,0,459,0,0,461,0,263,263,0,0,4040,4040,0,0,2816,2817,0,4180,0,4180,0,0,0,0,0,0,0,0,0,0,0,0,6008,6149,225,258,257,225,289,2374,2374,2374,4053,2374,2374,2374,0,0,0,2374,2374,2374,2374,2374,2374,2374,0,0,2374,2374,2374,225,257,2374,225,225,2374,257,225,2374,2374,2374,2374,7980,7980,0,0,0,0,0,0,4053,4805,4806,4806,4806,4806,4807,0,0,
0,0,0,0,4045,5870,0,0,0,263,0,459,0,0,524,429,0,263,0,0,0,4040,4040,4462,2956,2957,0,0,0,0,0,10102,0,0,0,0,0,4040,0,0,4462,0,4462,5868,225,225,225,225,225,225,2374,2374,2374,2374,0,0,0,0,2374,2374,2374,2374,2374,0,0,0,0,2374,2374,2374,225,225,225,225,225,225,2374,225,2374,2374,2374,2374,2374,2374,2374,2374,2374,2374,2374,4186,2374,5240,4945,0,5363,0,0,4947,0,0,
0,0,0,0,6148,6010,0,0,0,263,0,459,0,0,0,461,0,263,263,0,0,0,4040,4040,0,4462,10525,0,10102,10243,0,10242,0,0,0,0,0,0,0,0,4462,0,0,5868,225,258,225,225,257,225,258,225,289,2374,2374,2374,2374,2374,2374,2374,0,0,2374,0,0,0,2374,2374,225,225,258,225,257,225,225,225,2374,258,0,0,0,2374,2374,2374,2374,2374,2374,2374,2374,177,0,4805,5366,0,5501,5502,0,4947,0,0,
0,0,0,0,5870,0,0,0,263,263,0,459,0,0,0,524,429,0,263,0,0,0,0,0,0,0,0,0,10242,10383,0,0,2536,2537,2538,0,2536,2537,2538,0,0,0,289,5868,289,225,225,257,258,225,225,225,225,0,2374,0,0,2374,2374,2374,2374,2374,2374,2374,2374,2374,2374,2374,9021,9022,225,225,257,225,257,225,225,225,225,0,0,2374,2374,2374,2374,2374,2374,2374,2374,2374,0,5085,5226,0,0,5503,0,4947,0,0,
4045,0,6148,6009,6010,4180,0,0,263,0,427,523,0,6720,0,0,461,0,263,263,0,0,0,0,0,0,10387,0,0,0,0,0,3092,3093,3094,3095,3096,3097,3098,0,0,0,0,5868,0,0,0,0,0,0,0,0,0,0,0,0,0,2374,2374,2374,2374,2374,2374,2374,2374,2374,2374,0,9161,9162,225,225,225,225,225,225,225,257,225,0,0,2374,2374,2374,0,2374,2374,2374,2374,2374,2374,2374,5085,5226,0,0,5225,5087,289,367,
6009,6009,6010,0,0,0,0,0,263,0,459,0,0,0,0,0,524,429,0,263,263,0,0,0,0,0,0,0,0,0,0,0,3232,3233,3234,3235,3236,3237,3238,0,0,0,0,5868,0,0,0,0,0,0,0,0,0,0,0,0,0,0,2374,2374,2374,2374,2374,2374,2374,2374,2374,2374,2374,2374,2374,2374,2374,2374,2374,0,0,225,225,0,0,2374,2374,0,2374,2374,4065,4066,2374,2374,0,2374,0,4945,0,5225,5087,257,225,365,
4180,0,0,0,0,0,0,263,263,0,459,0,0,4068,4069,0,0,524,429,0,263,263,0,0,0,0,4040,4040,4040,0,0,0,2956,2957,2958,0,2956,2957,2958,0,0,0,0,5868,0,0,0,0,0,0,0,0,0,0,2260,2928,2929,0,2374,2374,2374,2374,2374,2374,2374,2374,2374,2374,2374,2374,0,2374,2374,0,0,0,0,0,225,9585,9586,2374,2374,2374,2374,2374,2374,4186,2374,2374,9019,9020,0,4945,0,4947,257,225,258,365,
0,4462,0,4462,0,0,263,263,0,427,523,0,0,4208,4209,0,0,0,524,429,0,263,263,0,0,0,0,0,4040,4040,0,0,0,0,0,0,0,0,0,0,0,0,0,5868,0,1378,0,0,0,0,0,0,0,0,0,3068,3069,0,2374,2374,2374,2374,2374,2374,2374,2374,2374,0,225,0,2374,2374,0,225,225,2374,2374,2374,2374,9725,9726,4186,2374,4053,0,2374,0,0,0,0,9159,9160,4805,5366,5225,5087,225,225,1223,399,
0,0,0,4462,0,263,263,0,427,523,0,0,0,4348,4349,0,0,0,0,524,429,0,263,263,0,0,0,0,0,0,0,0,665,0,0,0,0,0,0,0,0,0,0,5868,0,1518,0,0,0,0,0,0,0,0,0,3208,3209,2374,2374,2374,2374,2374,2374,2374,2374,2374,225,225,225,225,258,2374,258,225,2374,2374,0,0,0,0,0,2374,2374,0,0,0,0,0,0,0,0,0,4945,5652,4947,0,0,0,0,0,
263,4462,0,0,0,263,0,427,523,0,0,0,601,0,0,0,0,0,4044,0,524,429,0,263,263,0,0,0,0,0,0,0,0,0,0,0,0,0,0,0,0,0,0,5868,0,0,0,0,0,0,0,0,0,0,0,0,2374,2374,2374,2374,2374,2374,2374,2374,2374,2374,2374,225,257,225,225,225,225,257,225,0,0,0,0,0,2374,0,2374,2374,2374,0,0,0,0,0,0,0,4945,5652,4947,0,0,0,0,0,
263,263,263,263,263,263,0,459,0,0,0,0,0,0,0,0,0,0,0,0,0,524,429,0,263,263,263,0,0,0,0,0,0,0,0,0,4040,0,0,0,0,0,0,6008,6149,0,0,0,0,0,0,0,0,0,0,0,0,8190,2374,2374,2374,2374,2374,2374,0,0,225,225,0,225,2374,225,0,0,225,225,0,0,0,2374,2374,0,2374,4045,0,0,4186,0,0,0,0,4805,5366,5652,4947,225,225,0,0,367,
0,0,0,0,0,0,427,523,0,0,0,0,0,0,0,0,0,0,0,0,0,0,524,429,0,0,263,263,263,0,0,0,0,0,0,4040,4040,4040,0,0,4053,2820,2821,2822,5868,0,0,0,0,0,0,0,0,0,0,0,0,0,0,0,0,2374,2374,2374,0,0,2374,257,225,0,0,0,0,0,0,225,225,0,0,2374,2374,1242,4186,6771,0,0,0,0,0,0,0,4945,0,5225,5087,225,225,225,0,365,
428,428,428,428,428,428,523,0,0,0,0,0,0,0,0,0,0,0,0,0,0,0,0,524,428,429,0,0,263,263,263,0,0,0,0,0,4040,4040,0,0,0,2960,2961,2962,5868,0,0,0,0,0,0,0,0,0,0,0,0,0,0,0,0,0,2374,2374,4474,2374,2374,0,0,0,0,0,0,0,0,2520,0,0,2374,2374,2374,1382,2374,2374,0,0,0,4186,0,0,4805,5366,5225,5087,225,225,258,225,225,365,
0,0,0,601,0,0,0,0,556,492,492,492,492,492,492,492,492,492,555,0,0,0,0,0,0,524,428,429,0,0,263,263,0,0,0,0,0,0,4040,0,0,3100,3101,3102,6008,6149,0,0,0,0,0,0,1236,1237,2921,1243,1244,1237,1238,1237,1242,1243,1244,1237,1238,2374,2374,2374,2374,2374,2374,2374,177,2374,2374,2660,2374,2374,177,2374,2374,1522,2374,2374,0,0,0,0,0,4805,5366,0,4947,225,225,225,257,225,225,365,
0,4206,4207,0,0,556,492,492,493,0,0,0,0,0,0,0,0,0,491,492,555,0,0,0,0,0,0,524,428,429,0,263,263,263,0,0,0,0,0,4462,0,0,0,0,0,5868,0,0,0,0,0,0,1376,1377,1382,1383,1384,1377,1378,1377,1382,1383,1384,1377,1378,0,0,2374,2374,2374,2374,192,2374,2374,2374,2800,2374,2374,2374,2374,2374,2374,2374,2374,0,0,0,0,4805,5366,0,5225,5087,257,225,289,225,225,322,365,
0,4346,4347,0,556,493,0,0,0,263,263,263,263,263,263,263,263,263,0,0,491,555,0,4206,4207,0,0,0,0,524,429,0,0,263,263,0,0,0,0,0,4462,4462,0,0,4053,6008,6149,0,3060,3061,0,0,4053,1517,1522,1523,1524,1517,1518,1517,1522,1523,1524,1517,1518,2374,2374,2374,2374,177,0,0,2522,0,0,0,0,0,2374,2374,2374,2374,2374,2374,0,0,0,177,4945,0,0,4947,225,225,225,257,225,225,225,365,
0,0,0,556,493,0,263,263,263,263,289,5728,5729,5729,5729,5730,0,263,263,263,0,491,555,4346,4347,0,0,0,0,0,524,428,429,0,263,263,0,0,0,0,0,0,4462,0,0,0,6008,6149,3200,3201,0,0,10409,10690,10690,10690,10690,10690,10690,10690,10690,10690,10690,10690,2374,2374,0,0,0,0,2660,0,2662,192,0,0,0,0,0,4805,4806,4806,4806,4806,4806,4806,4806,4806,5366,5790,5790,5365,4806,4807,225,225,225,225,225,365,
0,0,0,461,0,263,263,0,5728,5729,5729,6289,5306,5306,386,6288,5729,5730,601,263,263,0,459,0,0,0,0,0,0,0,0,0,524,429,0,263,263,263,0,0,0,0,4040,0,4180,0,0,5868,0,0,0,0,10549,0,0,0,0,2374,386,2374,2374,2374,2374,225,2374,2374,2374,2374,2374,2374,2800,2374,2374,2374,0,0,0,4805,4806,5366,5363,0,0,2374,0,0,0,0,0,5501,0,0,0,5365,4806,4806,4806,4807,225,365,
0,0,556,493,263,263,4462,5728,6289,386,225,225,225,225,225,289,5306,6288,5730,0,263,0,491,555,0,0,0,0,0,0,0,0,0,524,429,0,0,263,263,0,0,0,0,0,0,0,0,6008,6149,0,0,0,10549,2684354817,386,0,225,2374,2374,2374,2374,2374,2374,2374,0,0,0,0,0,2374,2374,2374,0,2374,0,0,4805,5366,0,0,5502,5501,0,0,0,0,0,0,0,0,5502,0,0,0,0,0,0,5365,4806,4807,
0,0,461,0,263,0,5728,6289,5306,225,225,225,225,225,225,258,225,386,5870,0,263,263,0,459,0,0,0,0,0,0,0,0,0,0,524,428,429,0,263,263,0,0,0,0,4180,0,4053,0,6008,6149,0,0,10549,0,0,0,386,2374,2374,386,2374,2374,386,2374,10553,0,0,0,2374,2374,2374,2374,2374,2374,4805,4806,5366,0,0,5223,0,5225,5086,5086,5086,5086,5086,5086,5226,0,0,0,0,0,0,0,0,0,0,5365,
0,556,493,263,263,0,5868,5306,225,257,225,258,4464,4464,225,225,225,5306,5870,0,0,263,0,459,0,0,0,0,0,0,0,0,0,0,0,0,524,429,0,263,263,0,0,0,0,0,2660,2661,2662,5868,0,0,10549,386,0,0,0,2374,2374,2374,2374,386,0,257,10551,0,0,0,2374,0,2374,2374,4805,4806,5366,2374,0,0,0,5225,5086,5087,0,0,0,0,0,1242,5085,5086,5086,5086,5086,5086,5226,0,0,5225,5226,0,
0,461,0,263,0,0,5868,5306,225,257,225,225,4464,4464,322,225,289,5306,5870,0,4462,263,0,459,0,0,0,0,0,0,4483,0,0,0,0,0,0,524,429,0,263,263,0,0,4040,0,2800,2801,2802,6008,6149,0,10549,257,0,0,0,386,2374,2374,225,2374,0,386,10551,192,0,0,2374,0,2374,4805,5366,2374,2374,2374,0,0,5225,5087,0,0,0,0,0,0,0,1382,1383,1384,1984,1985,1986,1987,5085,5086,5226,5365,5366,0,
0,461,0,263,0,0,5868,5306,225,225,225,225,225,225,225,225,5306,5306,5870,0,0,263,0,459,0,0,0,0,0,0,0,0,0,0,0,0,0,0,524,429,0,263,263,0,0,0,4462,0,0,0,6008,6149,10549,386,0,0,0,0,225,2374,0,0,0,2374,10551,2374,2374,2374,2374,2374,4805,5366,2374,2374,2374,2374,0,0,4947,0,0,0,0,0,225,225,0,1522,1523,1524,2124,2125,2126,2127,7477,1336,5085,5086,5086,5226,
0,461,0,263,0,4053,5868,5306,225,289,225,258,257,225,225,5306,5306,6148,6010,0,0,263,0,459,0,0,4044,0,0,0,0,0,0,0,0,0,0,0,0,524,429,0,263,0,0,0,0,0,0,4462,0,5868,10689,10690,10690,10690,10690,10690,10690,10690,10690,10690,10690,10690,10691,0,0,0,2374,4805,5366,2374,2374,2374,5225,5086,5086,5086,5087,0,0,0,225,225,225,289,225,4801,4803,1382,2264,2265,2931,2932,7617,1476,1477,1478,1479,5085,
0,461,0,263,263,4053,5868,386,225,225,225,225,5306,5306,5306,5306,6148,6010,0,263,263,263,0,459,0,0,0,0,0,0,0,0,0,0,0,0,0,0,0,0,461,0,263,263,0,0,0,0,0,4462,0,6008,6149,0,0,0,0,0,0,0,0,0,0,0,0,0,0,0,4805,5366,2374,5501,5502,2374,2374,0,4188,4189,4190,0,0,225,225,289,225,225,0,5362,4943,1522,2404,2405,3071,3072,3073,1616,1617,1618,1619,1620,
0,524,429,0,263,0,6008,6149,5306,5306,5306,5306,5306,6148,718,720,6010,0,0,263,0,0,0,491,555,0,0,0,0,0,0,0,0,0,0,0,0,0,0,0,524,429,0,263,0,0,0,0,4040,0,0,0,5868,0,225,225,0,225,0,0,0,0,0,0,0,0,0,0,4945,0,2374,2374,2374,5225,5087,0,4328,4329,4330,0,0,0,225,289,225,0,5362,0,5361,4803,0,0,3211,3212,3213,1756,1757,1758,1759,1760,
0,0,461,0,263,0,0,6008,6009,6009,718,719,720,6010,289,0,0,0,0,263,263,263,0,0,491,492,555,0,0,0,0,0,0,0,0,0,0,0,0,0,0,461,0,263,263,0,0,0,4040,4043,4462,0,6008,6149,0,225,505,506,0,225,225,225,225,0,0,0,0,4805,5366,0,0,0,5225,5087,4319,4188,4329,4329,4330,0,0,0,225,225,0,5362,0,5221,5082,5083,0,0,0,0,0,0,0,0,1591,1592,
0,0,461,0,263,263,0,0,0,4053,289,0,0,0,0,0,0,0,0,4462,0,263,263,263,0,0,491,492,555,0,0,0,0,0,4485,0,0,0,0,0,0,524,429,0,263,263,0,0,0,0,4462,2957,2958,6008,6149,225,537,538,225,225,0,225,225,225,225,0,0,4945,0,0,0,5225,5087,0,0,4328,4329,4329,4330,0,0,0,1245,1246,4941,8190,0,4943,0,0,0,0,0,0,225,0,0,0,0,0,
0,0,524,429,0,263,263,263,263,0,0,4041,4042,0,0,0,0,0,12092,12093,12094,12095,12096,263,263,263,0,0,459,0,0,0,0,0,4483,0,0,0,0,0,0,0,524,429,0,263,0,0,4040,4040,0,0,0,0,5868,225,225,258,0,225,225,257,225,225,225,0,4805,5366,5363,0,0,4947,0,0,0,4328,4329,4329,4470,0,3771,0,1385,1386,5081,5222,5221,0,225,225,0,0,0,225,257,0,0,0,1589,1590,
0,0,0,524,429,0,0,0,263,263,263,4181,4182,0,0,0,601,1068,12232,12233,12234,12235,12236,0,0,263,263,263,491,555,0,0,0,0,0,0,0,0,0,0,0,0,0,461,0,263,263,0,0,0,0,4462,0,4462,6008,6149,225,257,225,225,225,225,257,225,0,4805,5366,5503,5501,5502,5225,5087,0,0,0,4328,4329,4330,0,0,1376,1377,1378,1526,1527,4941,4943,0,225,257,225,225,225,225,225,0,0,0,0,0,
0,0,0,0,524,428,428,429,0,0,263,263,0,0,0,1068,1068,0,12372,12373,12374,12375,12376,0,0,4053,0,263,0,491,555,0,0,0,0,0,0,0,0,0,0,0,0,524,429,0,263,0,0,0,0,4462,4462,2958,0,5868,0,0,225,258,258,225,258,225,0,4945,0,0,5363,5225,5087,0,0,4188,4189,4329,4329,4330,0,0,1516,1517,1518,1385,1386,4941,4943,225,570,258,225,0,225,258,7766,0,0,0,1594,1595,
0,0,0,0,0,0,0,524,428,429,0,263,263,0,0,1068,0,0,12512,12513,12514,12515,12516,1068,1068,0,0,263,263,0,459,0,0,0,0,0,0,0,0,0,0,0,0,0,461,0,263,0,0,0,0,0,0,0,2677,6008,6149,0,225,257,257,225,225,0,2921,4945,0,0,0,4947,3965,1448,0,4328,4329,4329,4329,4330,0,0,0,0,0,1525,1526,5081,5083,225,0,225,225,225,257,225,0,225,0,0,0,0,
0,0,0,0,0,0,0,601,0,524,429,0,263,0,0,1068,1068,0,12652,12653,12654,12655,12656,0,1068,1068,0,0,263,0,459,0,0,0,0,0,0,0,0,0,0,0,0,0,461,0,263,263,0,0,0,0,0,4462,2817,0,5868,0,257,257,225,0,4053,4335,4805,5366,0,0,5225,5087,0,1588,0,4328,4329,4329,4469,4470,1238,0,0,0,0,8186,8326,1238,0,0,0,0,258,225,225,225,258,225,0,0,1589,1590,
0,0,0,0,0,0,0,0,0,0,461,0,263,263,0,0,1068,0,12792,12793,12794,12795,12796,0,0,1068,0,0,263,0,459,0,0,0,0,0,0,0,0,0,0,0,0,0,524,429,0,263,0,0,0,0,0,4462,2957,0,5868,0,225,225,225,0,4805,4806,5366,0,0,0,4947,0,0,1728,0,4328,4329,4330,4319,1377,1378,0,0,0,0,8326,1377,1378,0,0,0,258,0,0,0,225,0,0,0,0,0,1449,
0,0,0,0,0,0,0,0,0,0,524,429,0,263,263,0,1068,1068,12932,12933,12934,12935,12936,0,0,1068,0,0,263,0,459,0,0,0,0,0,0,0,0,0,0,0,0,0,0,461,0,263,0,0,0,0,0,0,0,4462,5868,225,225,257,225,225,4945,0,0,5503,5363,0,4947,0,0,0,0,4328,4329,4330,1516,1517,1518,1244,0,0,0,1516,1517,1518,0,0,2520,2521,2522,0,0,0,2520,2521,2522,0,0,1589,
0,0,0,0,0,0,0,0,0,0,6720,524,429,0,263,0,0,1068,13072,13073,13074,13075,13076,0,0,1068,0,0,263,0,459,0,0,0,0,0,0,0,4203,4204,0,0,0,0,0,461,0,263,0,0,0,0,0,0,0,0,6008,6149,225,225,225,4805,5366,0,5363,0,0,5225,5087,0,0,0,0,4328,4329,4329,4190,1382,1383,1384,1246,1247,0,0,0,0,2520,2521,2660,2661,2662,1238,1984,0,2660,2661,2662,0,2522,1729,
0,0,0,0,0,0,0,0,0,4206,4207,0,461,0,263,263,0,0,1068,1068,1068,0,1068,1068,1068,1068,0,263,263,0,459,0,4044,0,0,0,4068,4069,4343,4344,4068,4069,0,0,0,461,0,263,0,0,0,0,0,0,0,0,0,5868,258,225,4053,4945,0,5501,5502,5225,5086,5087,0,0,0,0,0,4328,4329,4329,4330,1522,1523,1524,1386,1387,0,0,0,0,2660,2661,2800,2801,2802,1378,2124,0,2800,2801,2802,0,0,0,
0,4068,4069,0,0,0,0,0,0,4346,4347,0,524,429,0,263,263,0,0,0,1068,1068,1068,0,0,4462,0,263,0,427,523,0,0,0,4068,4069,4208,4209,4068,4069,4208,4209,0,0,0,461,0,263,0,0,0,0,0,0,0,0,0,5868,225,257,4805,5366,0,0,0,4947,0,0,4188,4189,4189,4189,4189,4329,4329,4329,4330,2921,4319,1525,1526,1527,1852,1853,1854,1855,0,0,2921,0,0,1518,2264,0,0,377,378,0,0,0,
0,4208,4209,0,0,0,0,0,0,0,0,0,0,524,429,0,263,263,263,0,0,0,0,0,0,0,263,263,0,459,0,0,0,0,4208,4209,4348,4349,4208,4209,4348,4349,0,0,0,461,0,263,0,0,0,0,0,0,0,0,0,5868,225,225,5085,5226,0,5225,5086,5087,0,0,4328,4329,4329,4329,4329,4329,4329,4329,4329,4190,1382,1383,1384,2521,2522,1993,1994,1995,0,0,0,0,0,0,0,0,0,0,0,0,0,0,
0,4348,4349,0,0,0,0,0,0,0,0,0,0,0,524,429,0,0,263,263,263,263,263,263,263,263,263,0,427,523,0,0,0,0,4348,4349,0,0,4348,4349,0,0,0,0,0,461,0,263,263,0,0,0,0,0,4462,4462,0,6008,6009,6009,6009,6009,388,388,388,298,0,4467,4468,4469,4469,4469,4469,4469,4329,4329,4329,4330,1522,1523,1524,2661,2662,2133,2134,2135,0,0,0,0,0,0,0,0,0,0,0,0,0,0,
0,0,0,0,0,0,0,0,0,0,0,0,0,0,0,524,428,429,0,0,0,0,0,0,0,0,0,427,523,0,0,0,0,0,0,0,0,0,0,0,0,0,0,0,0,524,429,0,263,263,0,0,0,0,0,4462,0,0,0,4387,263,263,263,263,263,387,6009,2662,6009,6009,6009,6009,6009,6149,4468,4469,4469,4470,0,0,2800,2801,2802,2273,2274,2275,0,0,0,0,0,0,0,0,0,0,0,0,0,0,
0,0,0,0,0,0,665,0,0,0,0,4044,0,0,0,0,0,524,428,428,428,428,428,428,428,428,428,523,0,0,0,0,0,0,6720,0,0,0,0,0,0,0,0,0,0,0,524,429,0,263,263,0,0,0,0,0,0,0,0,0,263,427,428,429,263,4462,0,2802,0,0,4180,0,0,6008,6009,6009,6009,6009,6009,6009,6009,6009,6009,6009,6009,6009,6009,6009,6009,6009,6009,6149,0,0,0,6148,6009,6009,6009,6009,
0,0,0,0,0,0,0,0,0,0,0,0,0,0,0,0,0,0,0,0,0,0,0,0,0,0,0,0,0,0,0,0,0,0,6720,0,0,0,0,0,0,0,0,0,0,0,0,524,429,0,263,263,0,0,0,0,0,0,0,263,263,459,0,461,263,0,4462,4462,0,4462,0,0,0,0,4462,0,0,4462,0,0,0,0,0,4180,0,4180,0,0,0,0,0,6008,6009,6009,6009,6010,0,0,0,0,
0,0,0,0,0,0,0,0,0,0,0,0,0,0,0,0,0,0,0,0,0,1815,1815,0,0,0,0,4044,0,0,0,0,4068,4069,0,0,0,0,0,4064,0,0,0,0,4063,0,0,0,524,429,0,263,263,263,0,0,0,0,0,263,0,459,0,461,263,0,0,0,0,0,0,0,0,4180,0,0,0,0,0,4180,4462,0,0,0,0,0,4462,0,4180,0,0,4462,4193,4462,0,4180,0,0,0,0,
0,0,0,0,0,0,0,0,0,0,0,0,0,0,0,0,0,0,0,0,0,0,0,0,0,0,0,0,0,0,0,0,4208,4209,0,0,0,0,0,0,0,0,0,0,4063,4063,0,0,0,524,429,0,0,263,263,263,0,0,263,263,0,459,0,461,263,263,0,0,0,0,0,0,0,0,0,0,0,0,0,0,0,0,0,665,0,0,0,0,4040,0,0,0,4462,0,0,0,0,0,0,0,
0,0,0,0,0,0,0,0,0,0,0,0,0,0,0,0,0,0,0,0,0,0,0,0,0,0,0,0,0,0,0,0,4348,4349,0,0,0,0,0,0,0,0,4485,0,0,4063,4063,0,0,0,524,428,429,0,0,263,263,263,263,0,427,523,0,524,429,263,0,4040,4040,4040,4040,4040,0,0,0,0,0,0,0,0,0,0,0,0,0,0,0,0,0,0,0,0,0,0,0,0,0,0,0,0,
0,0,0,0,0,4203,4204,0,0,0,0,0,6720,0,0,0,0,0,0,0,0,0,0,0,0,0,0,0,0,0,0,0,0,0,0,0,0,0,0,0,0,0,0,0,0,0,0,0,0,0,0,0,524,428,429,0,0,0,1815,1815,459,1815,962,1815,461,263,0,0,0,0,0,0,263,263,263,263,263,263,263,263,263,263,263,0,0,0,263,263,263,263,263,263,263,0,0,0,0,0,0,0,
0,0,0,0,0,4343,4344,0,0,0,0,0,0,0,0,0,0,0,0,0,0,0,0,0,0,0,0,0,0,0,0,0,0,0,0,0,0,0,0,0,0,0,0,0,0,0,0,0,0,0,0,0,0,0,524,428,428,428,428,428,523,0,0,1815,461,263,263,263,263,263,263,263,263,0,0,0,0,0,0,0,0,0,263,263,263,263,263,0,0,0,0,0,263,263,263,263,263,263,263,263,
0,0,0,0,0,0,0,0,0,0,0,0,0,0,0,0,6720,0,0,0,0,0,0,0,0,0,4203,4204,0,0,0,0,0,0,0,0,0,0,0,0,0,0,0,0,0,0,0,0,0,0,0,0,0,0,0,0,0,0,0,0,0,0,0,0,461,0,0,0,0,0,0,0,0,427,428,428,428,428,428,428,428,429,0,0,0,0,0,427,428,428,428,429,0,0,0,0,0,0,0,0,
0,0,0,0,0,0,0,0,0,0,0,0,0,0,0,0,0,0,0,0,0,0,0,0,0,0,4343,4344,0,0,0,0,0,0,0,0,0,0,0,0,0,0,0,0,0,0,0,0,0,0,0,0,0,0,0,0,0,0,0,0,4206,4207,0,0,524,428,428,428,428,428,428,428,428,523,0,0,0,601,0,0,0,524,428,428,428,428,428,523,0,0,0,524,428,428,428,428,428,428,428,428,
0,0,0,0,0,0,0,0,0,0,0,0,0,0,0,0,0,0,0,0,0,0,0,0,0,0,0,0,0,0,0,0,0,0,0,0,0,0,0,556,492,555,0,0,0,0,0,0,0,0,0,0,0,0,0,0,0,0,0,0,4346,4347,0,0,0,0,0,0,0,0,0,0,4068,4069,0,0,0,0,0,0,0,0,0,0,0,0,0,0,0,0,0,0,0,0,0,0,0,0,0,0,
4322,9132,9133,9133,9134,4322,0,0,0,0,10387,4064,0,0,0,0,0,0,0,0,0,0,0,0,0,0,0,0,0,0,0,0,0,0,0,0,6629,0,556,0,0,459,0,0,0,0,0,0,0,0,0,0,0,0,0,0,0,0,4203,4204,0,0,0,0,0,0,0,0,0,0,0,0,4208,4209,0,0,0,0,4485,4485,0,0,0,0,0,0,0,0,0,0,0,0,4060,4060,4060,0,0,0,0,0,
0,9272,9273,9273,9274,9692,9693,0,10111,0,0,0,9694,9695,0,0,0,0,0,0,0,0,0,0,0,0,0,0,0,0,0,0,0,0,0,0,0,0,524,428,428,523,0,6629,0,0,0,0,0,0,0,4206,4207,665,0,0,0,0,4343,4344,0,0,6720,0,0,0,0,0,0,0,0,0,4348,4349,0,0,0,0,0,0,0,0,0,0,0,0,0,0,4345,0,0,0,4200,4200,4200,4060,4060,0,0,0,
0,9412,9413,4322,0,9832,9833,0,9135,9136,9137,0,9834,9835,0,0,0,0,0,0,0,0,0,0,4206,4207,0,0,0,0,0,0,0,0,0,0,0,0,0,0,0,0,0,0,0,0,0,0,0,0,0,4346,4347,0,0,0,0,0,0,0,4484,0,0,0,0,0,0,0,0,0,0,0,0,0,0,0,0,0,0,0,0,0,0,0,0,0,0,4206,4207,0,0,4203,4204,0,0,4200,4200,0,0,0,
0,9552,9553,4322,0,9972,9973,0,9275,9276,9277,0,9974,9975,0,4322,0,4051,0,0,0,0,0,0,4346,4347,0,0,0,0,0,0,0,0,0,0,0,0,0,0,0,0,0,0,0,0,0,0,0,0,0,0,0,0,0,6721,6722,0,0,0,0,0,0,0,6721,6722,0,0,0,0,0,0,0,0,0,0,0,0,0,0,962,0,0,0,0,0,0,4346,4347,0,0,4343,4344,0,0,0,4038,0,0,4038,
4322,0,0,4322,10111,0,0,4322,9415,9416,9417,6443,6444,4051,0,4051,4322,4191,0,0,0,0,0,0,0,0,0,0,0,0,0,0,0,0,0,0,0,0,0,0,0,0,0,0,0,0,0,0,0,6720,0,0,0,6721,6722,6861,6862,0,6721,6722,0,6721,6722,0,6861,6862,0,0,0,0,0,0,0,0,0,0,0,0,0,0,0,0,0,0,0,0,0,0,0,0,0,0,0,4038,4038,4038,0,0,0,0,
4322,0,10387,0,4322,0,4322,4322,9555,9556,9557,6583,6584,4191,4322,4191,4322,4322,0,0,0,0,0,0,0,0,0,0,0,0,0,0,0,0,0,0,0,0,0,0,0,0,0,0,0,0,0,0,0,0,0,0,0,6861,6862,0,0,0,6861,6862,0,6861,6862,0,0,0,0,0,0,0,0,0,0,0,0,0,0,0,0,0,0,0,0,0,0,0,0,0,0,0,0,0,0,0,4038,0,4038,0,0,0
</data>
 </layer>
 <layer name="Layer 3" width="100" height="73">
  <data encoding="csv">
263,263,263,263,263,263,263,263,263,263,263,1067,0,2676,2677,2678,0,4323,0,0,0,1412,1413,1414,0,0,0,0,0,0,0,0,0,0,0,0,0,0,0,0,0,0,0,0,0,0,0,0,0,0,0,0,0,0,0,12097,4039,12099,1245,1246,1247,11948,11949,1385,1386,1387,0,0,0,0,0,0,0,0,0,0,0,0,0,0,0,0,0,0,0,6008,6009,6149,5303,5868,5868,0,0,0,0,0,0,0,0,0,
263,263,263,263,263,263,263,263,263,263,263,1067,0,2816,2817,2818,0,4463,0,0,1272,1273,1274,1554,0,0,0,0,0,0,0,0,0,0,0,0,0,0,0,0,0,0,0,0,0,0,0,0,0,0,0,0,0,0,0,12237,12238,12239,12240,12241,12087,12088,12089,1525,1245,1246,0,0,0,0,0,0,0,0,0,0,0,0,0,0,0,0,0,0,0,0,0,5868,5303,5868,5868,0,0,0,0,0,0,0,0,0,
263,263,263,263,263,263,263,263,263,263,263,1067,0,2956,2957,2958,0,0,0,0,1412,1413,1414,1694,0,0,0,0,0,0,0,0,0,0,0,0,0,0,0,0,0,0,0,0,0,0,0,0,0,0,0,0,0,0,0,12377,12378,12379,12380,12381,12227,12228,12229,12230,12231,0,0,0,0,0,0,0,0,0,0,0,0,0,0,0,0,0,0,0,0,0,0,6008,6149,5868,6008,6149,0,0,0,0,0,0,0,0,
263,263,263,263,263,263,263,263,263,263,263,1099,1102,0,0,0,0,2536,2537,2538,1552,1553,1554,0,0,0,0,0,0,0,0,0,0,0,0,0,0,0,0,0,0,0,0,0,0,0,0,0,0,0,0,0,0,0,0,12517,12518,12519,12520,12521,12367,12368,12369,12370,1525,0,0,0,0,0,0,0,0,0,0,0,0,0,0,0,0,0,0,0,0,0,0,1733,5868,6008,6149,5868,0,0,0,0,0,0,0,0,
263,263,263,263,263,263,263,263,263,263,263,263,1067,0,0,0,0,2676,2677,2678,1692,1693,1694,0,0,0,0,0,0,0,0,0,0,0,0,0,0,0,0,0,0,0,0,0,0,0,0,0,0,0,0,0,0,0,0,12657,12658,12659,12660,12661,12507,12508,12509,12510,12511,0,0,0,0,0,0,0,0,0,0,0,0,0,0,0,0,0,0,0,0,0,0,0,6008,6149,5868,5868,0,0,0,0,0,0,0,0,
263,263,263,263,263,263,263,263,263,263,263,263,1099,1102,0,0,0,2816,2817,2818,0,0,0,0,0,0,0,0,0,0,0,0,0,0,0,0,0,0,0,0,0,0,0,0,0,0,0,0,0,0,0,0,0,0,0,12797,12798,12799,12800,12801,12647,12648,12649,12650,12651,2374,2374,0,1868,1869,1870,1871,0,0,0,0,0,0,0,0,0,0,0,0,0,4039,0,1594,0,5868,5868,5868,0,0,0,0,0,0,0,0,
263,263,263,263,263,263,263,263,263,263,263,263,263,1067,0,0,0,2956,2520,2521,2522,0,0,0,0,0,0,0,0,0,0,0,0,0,0,0,0,0,0,0,0,0,0,0,0,0,0,0,0,0,0,0,0,0,12106,12106,12106,12106,12106,12106,12787,12788,12789,12790,12791,2374,2374,0,2008,2009,2010,2011,0,0,0,0,0,0,0,0,0,0,0,0,0,0,0,1734,0,5868,5868,5868,0,0,0,0,0,0,0,0,
263,263,263,263,263,263,263,263,263,263,263,263,263,1099,1102,0,0,0,2660,2661,2662,0,0,0,0,0,0,0,0,0,0,0,0,0,0,0,0,0,0,0,0,0,0,0,0,0,0,0,0,0,0,0,0,0,12106,12106,12106,12106,12106,12106,12927,12928,12929,12930,12931,2374,2374,0,2148,2149,2150,2151,0,0,0,0,0,0,0,0,0,2374,2374,0,0,0,0,0,0,5868,5868,6008,6149,0,0,0,0,0,0,0,
263,263,263,263,263,263,263,263,263,263,263,263,263,263,1067,0,0,2536,2800,2801,2802,0,0,0,0,0,0,0,0,0,0,0,0,0,0,0,0,0,0,0,0,0,0,0,0,0,0,0,0,0,0,0,0,0,13602,13603,13604,13605,13606,13607,13067,13068,13069,13070,13071,2374,2374,0,2288,2289,2290,2291,0,0,0,0,0,0,2374,2374,2374,2374,2374,0,0,0,0,1868,0,5868,6008,6149,5868,0,0,0,0,0,0,0,
1036,1036,1036,1037,263,263,263,263,263,263,263,263,263,263,1067,0,0,2676,2677,2678,0,0,0,0,0,0,0,0,0,0,0,0,0,0,7757,7758,7759,0,0,0,0,0,0,0,0,0,0,0,0,0,0,0,0,0,13742,13743,13744,13745,13746,13747,0,0,0,0,0,2374,2374,0,4053,2429,2430,2431,0,0,0,0,2374,2374,2374,0,0,0,0,0,0,0,0,2008,0,6008,6149,5868,5868,0,0,0,0,0,0,0,
0,0,0,1071,1036,1036,1037,263,263,263,263,263,263,263,1067,0,0,2816,2817,2818,0,0,0,0,0,0,0,0,0,0,0,0,0,0,7897,7898,7899,2542,0,0,0,0,0,0,0,0,0,11931,11931,11931,11931,11931,11931,11931,13882,13883,13884,13885,13886,13887,0,0,0,0,0,2374,641,0,0,0,0,0,2374,2374,2374,2374,0,0,0,0,0,0,0,0,0,0,0,0,0,0,5868,5868,5868,0,0,0,0,0,0,0,
2521,2522,0,0,0,0,1071,1036,1037,263,263,263,263,263,1099,1102,0,2956,2957,2958,0,2536,2537,2538,0,0,0,0,0,0,0,0,0,0,2679,2680,2681,2682,2683,0,0,0,0,0,0,0,0,11931,11931,11931,11931,11931,11931,11931,14022,14023,14024,14025,14026,14027,0,0,0,0,0,2374,673,0,0,0,2374,2374,2374,0,0,0,0,0,0,0,0,0,0,0,0,0,0,0,0,0,5868,5868,5868,0,0,0,0,0,0,0,
2661,2662,0,0,0,0,0,0,1069,263,263,263,263,263,263,1067,0,0,0,0,0,2676,2677,2678,0,0,0,0,0,0,0,0,0,0,2819,2820,2821,2822,2823,0,0,0,0,0,0,0,0,13608,13609,13610,13611,13612,13613,13614,14162,14163,14164,14165,14166,14167,0,0,0,0,0,2374,2374,0,0,2374,2374,705,706,8037,7758,7759,0,0,342,343,344,0,0,0,0,0,0,0,0,0,5868,5868,5868,0,4105,4105,4105,0,0,0,
9019,9020,0,4053,0,0,0,0,1071,1037,263,263,263,263,263,1067,0,0,0,0,0,2816,2817,2818,0,0,0,0,0,0,0,0,0,4323,2959,2960,2961,2962,2963,0,0,0,0,0,0,0,0,13748,13749,13750,13751,13752,13753,13754,14302,14303,14304,14305,14306,14307,0,0,0,0,0,2374,2374,2374,2374,2374,0,737,738,8177,7898,7899,0,0,374,375,376,0,349,0,0,0,0,184,185,0,5868,5868,6008,0,4948,4949,4950,0,6009,6009,
9159,9160,0,0,0,0,0,0,0,1069,263,263,263,263,263,1099,1102,0,0,0,0,2956,2957,2958,2536,2537,2538,0,0,0,0,0,0,4463,0,3100,3101,3102,0,0,0,0,0,0,0,0,0,13888,13889,13890,13891,13892,13893,13894,3514,9952,0,0,0,0,0,0,0,0,2374,2374,0,2374,2374,2374,2374,2374,0,0,0,0,0,0,406,407,408,0,0,0,0,0,0,199,200,0,5868,6008,6009,0,5088,5089,5090,0,6009,6149,
0,0,0,0,0,846,0,0,0,1069,263,263,263,263,263,263,1067,0,0,0,0,0,0,2536,2537,2538,2678,0,0,0,0,0,0,0,0,0,0,0,0,0,2520,2521,2522,0,0,0,0,14028,14029,14030,14031,14032,14033,14034,3514,0,0,0,0,0,12092,12093,12094,12095,12097,12098,12099,12100,12101,0,0,0,0,0,0,0,0,0,438,439,440,0,0,0,0,0,0,0,0,0,6008,6009,6009,0,5228,5229,5230,0,6149,5868,
0,0,0,0,0,878,0,0,0,1069,263,263,263,263,263,263,1099,1102,0,0,0,0,0,2676,2677,2678,2818,9666,9667,9668,9669,0,0,0,0,0,0,0,0,0,2660,2661,2662,0,0,0,0,14168,14169,14170,14171,14172,14173,14174,3514,10953,10954,10955,10956,10957,12232,12233,12234,12235,12237,12238,12239,12240,12241,0,0,0,0,0,0,0,0,0,0,0,0,0,0,0,0,0,0,0,0,0,0,0,0,0,5368,5369,5370,0,5868,5868,
0,0,0,0,0,910,0,0,0,1069,263,263,263,263,263,263,263,1067,0,0,0,0,0,2816,2817,2818,9672,9806,9807,9808,9809,0,0,0,0,0,0,0,0,0,2800,2801,2802,0,0,0,0,14308,14309,14310,14311,14312,14313,14314,3514,11093,11094,11095,11096,11097,12372,12373,12374,12375,12377,12378,12379,12380,12381,0,0,0,0,0,0,0,0,0,0,0,0,0,0,0,0,0,0,0,0,0,0,0,0,0,0,0,0,0,5868,6008,
0,0,0,0,0,942,0,0,0,1069,263,263,263,263,263,263,263,1099,1102,0,0,0,0,2956,2957,2958,9812,9946,9947,9948,9949,0,0,0,0,0,0,0,0,0,0,0,0,0,0,0,0,0,0,0,0,0,0,3512,3514,11233,11234,11235,11236,11237,12512,12513,12514,12515,12517,12518,12519,12520,12521,0,0,0,0,0,0,0,0,0,0,0,0,0,0,0,0,0,0,0,0,0,0,0,0,0,0,0,0,0,5868,0,
0,0,0,0,0,0,0,0,1103,1101,263,263,263,263,263,263,263,263,1067,0,0,0,0,0,0,0,9952,10086,10087,10088,10089,0,0,0,0,0,0,0,0,0,0,0,0,0,0,0,0,0,0,0,0,0,0,3512,3514,11373,11374,11375,11376,11377,12652,12653,12654,12655,12657,12658,12659,12660,12661,0,0,0,0,0,0,0,0,0,0,0,0,0,9952,0,0,0,0,0,0,0,0,0,0,0,0,0,0,0,6008,6009,
0,0,0,0,0,0,0,0,1069,263,263,263,263,263,263,263,263,263,1099,1102,0,0,0,0,0,0,0,0,0,0,0,0,0,0,0,0,0,0,0,0,0,0,0,847,3373,3373,3373,3373,3373,3373,3373,3373,3373,3933,3514,11513,11514,11515,11516,11517,12792,12793,12794,12795,12797,12798,12799,12800,12801,0,0,0,0,0,0,0,0,0,0,705,706,0,0,0,0,0,0,0,0,0,0,0,0,0,0,0,0,0,0,0,
0,2540,2541,2542,2543,0,0,0,1069,263,263,263,263,263,263,263,263,263,263,1099,1102,0,0,0,0,0,0,0,0,0,0,0,0,0,0,0,0,0,0,0,0,0,0,879,3513,3513,3513,3513,3513,3513,4354,4354,4354,4354,4354,11653,11654,11655,11656,11657,12932,12933,12934,12935,12937,12938,12939,12940,12941,0,0,0,0,0,0,0,0,0,0,737,738,0,0,6630,0,0,6631,0,0,0,0,0,0,0,0,0,0,0,0,0,
2679,2680,2681,2682,2683,0,0,1103,1101,263,263,263,263,263,263,263,263,263,263,263,1099,1102,0,0,0,0,0,0,0,0,0,0,0,0,0,0,0,0,0,0,0,0,0,911,3653,11947,11948,11949,11950,11951,3653,3653,3653,2260,2260,2260,11794,11795,11796,11797,13072,13073,13074,13075,13077,13078,13079,13080,13081,0,0,0,0,0,0,0,0,0,0,0,0,0,6631,6770,0,0,6771,6631,0,0,0,0,0,0,0,0,0,0,0,0,
2819,2820,2821,2822,2823,0,1103,1101,263,263,263,263,263,263,263,263,263,263,263,263,263,1099,1102,0,0,0,0,0,0,0,0,0,0,0,0,0,0,0,0,0,0,0,0,943,1377,12087,12088,12089,9952,12091,0,0,0,0,0,0,0,0,0,0,0,0,0,2374,0,0,0,0,0,0,9952,0,0,0,0,0,0,0,0,0,0,0,6771,0,0,0,0,6771,0,0,0,0,0,0,0,0,0,0,0,0,
2959,2960,2961,2962,2963,1103,1101,263,263,263,263,263,263,263,263,263,263,263,263,263,263,263,1099,1102,0,0,0,0,0,0,0,0,0,0,0,0,0,0,0,0,0,0,0,1516,1517,12227,12228,12229,12230,12231,0,0,0,0,0,7757,7758,7759,0,0,0,0,0,2374,0,0,0,0,0,0,0,0,0,0,0,0,0,0,0,0,0,0,0,0,0,0,0,0,0,0,0,0,0,0,0,0,0,0,0,0,
1102,3100,3101,3102,3103,1069,263,263,263,263,263,263,263,263,263,263,263,263,263,263,263,263,263,1099,1102,0,0,0,0,0,0,0,0,0,0,0,0,0,0,0,2539,2540,2541,2542,2543,12367,12368,12369,12370,12371,0,0,0,0,0,7897,7898,7899,0,0,0,0,0,2374,0,0,0,0,0,0,0,0,0,0,0,0,0,0,0,0,0,0,6630,0,0,0,0,6630,0,0,0,0,0,0,0,0,0,0,0,0,
1099,1100,1100,1100,1100,1101,263,263,263,263,263,263,263,263,263,263,263,263,263,263,263,263,263,263,1099,1100,1102,0,0,0,0,0,0,0,0,0,0,0,0,0,2679,2680,2681,2682,2683,12507,12508,12509,12510,12511,0,0,0,0,0,0,0,0,0,0,0,0,0,2374,0,0,0,0,0,0,0,0,0,0,0,0,0,0,1848,1849,1850,1851,6770,6631,0,0,6630,6770,0,0,9952,0,0,0,0,0,0,0,0,0,
263,263,263,263,263,263,263,263,263,263,263,263,263,263,263,263,263,263,263,263,263,263,263,263,263,263,1099,1100,1102,0,0,0,0,0,0,0,0,0,0,2539,2540,2541,2542,2543,2823,12647,12648,12649,12650,12651,0,0,0,0,0,0,0,0,0,0,0,0,0,2374,0,0,0,0,0,0,0,0,0,0,0,0,0,0,1988,1989,1990,1991,1243,1244,0,0,6770,0,4064,0,0,0,0,0,0,0,0,0,0,0,
263,263,263,263,263,263,263,263,263,263,263,263,263,263,263,263,263,263,263,263,263,263,263,263,263,263,263,263,1099,1100,1102,0,0,0,0,0,0,0,0,2679,2680,2681,2682,2683,2963,12787,12788,12789,12790,12791,0,0,0,0,0,0,0,0,0,0,0,0,0,2374,0,0,0,0,0,0,0,0,1844,1845,1846,1847,2521,2522,2128,2129,2130,2131,1383,1384,0,0,0,0,0,0,0,0,0,0,0,0,0,0,0,0,
263,263,263,263,263,263,263,263,263,263,263,263,263,263,263,263,263,263,263,263,263,263,263,263,263,263,263,263,263,263,1099,1102,0,0,0,0,0,0,0,2819,2820,2821,2536,2537,2538,12927,12928,12929,12930,12931,0,0,0,0,1242,0,1236,0,1236,0,1238,0,1236,2374,0,0,0,0,0,0,0,0,1984,1985,1986,1987,2661,2662,2268,2269,2270,2271,1523,1524,0,0,0,0,9952,0,0,0,0,0,0,0,0,0,0,0,
263,263,263,263,263,263,263,263,263,263,263,263,263,263,263,263,263,263,263,263,263,263,263,263,263,263,263,263,263,263,263,1099,1100,1102,0,0,0,0,0,2959,2960,2961,2676,2677,2678,13067,13068,13069,13070,13071,0,0,0,0,1378,0,1376,0,1376,0,1378,0,1376,2374,0,0,0,0,0,0,0,0,2124,2125,2126,2127,2801,2802,2408,2409,2410,2411,0,0,0,0,0,0,0,0,0,0,0,0,0,0,0,0,0,0,
263,263,263,263,263,263,263,263,263,1035,1036,1036,1036,1036,1036,1036,1036,1037,263,263,263,263,263,263,263,263,263,263,263,263,263,263,263,1099,1102,0,0,0,0,3099,3100,3101,2816,2817,2818,0,0,0,0,0,0,0,1516,0,1518,0,1516,0,1516,0,1518,0,1516,2374,0,0,0,0,0,0,2520,2521,2264,2265,2266,2267,0,0,0,0,0,0,0,0,0,0,0,0,0,0,0,0,0,0,0,0,0,0,0,0,
263,263,263,263,263,263,1035,1036,1036,1070,0,0,0,0,0,0,0,1071,1036,1037,263,263,263,263,263,263,263,263,263,263,263,263,263,263,1099,1102,0,0,0,0,0,0,2956,2957,2958,0,0,0,0,0,0,0,0,0,0,0,0,0,0,642,0,0,2374,2374,2374,2374,0,0,1308,1309,1310,2661,2404,2405,2406,2407,0,0,0,0,0,0,0,0,0,0,0,0,0,0,0,0,0,0,0,0,0,0,0,0,
263,263,263,263,263,1035,1070,0,0,0,0,0,0,0,0,0,0,0,0,1071,1037,263,263,263,263,263,263,263,263,263,263,263,263,263,263,1099,1100,1102,0,0,0,0,0,0,0,0,0,0,0,0,0,0,0,0,0,0,0,0,0,674,2374,2374,0,2374,2374,0,0,0,1448,1449,1450,2801,2802,0,0,0,0,0,0,0,0,0,0,0,0,0,0,0,0,0,0,0,0,0,0,0,0,0,0,0,
263,263,263,263,1035,1070,0,0,0,0,0,1880,1881,1882,1883,0,0,0,0,0,1069,263,263,263,263,263,263,263,263,263,263,263,263,263,263,263,263,1099,1102,0,0,0,0,0,0,0,0,0,0,0,0,0,0,0,0,0,0,0,0,0,0,2374,2374,0,0,0,0,0,1588,1589,1590,0,0,0,0,0,0,0,0,0,0,0,0,0,0,0,0,0,0,0,0,0,0,0,0,0,0,0,0,0,
263,263,263,263,1067,0,0,0,0,0,0,2020,2021,2022,2023,0,0,0,0,0,1071,1037,263,263,263,263,263,263,263,263,263,263,263,263,263,263,263,263,1099,1102,0,0,0,0,0,0,2520,2521,2522,0,0,0,0,0,0,0,0,0,353,0,0,0,0,0,0,0,0,0,1728,1729,1730,0,0,0,0,0,0,0,0,0,0,0,0,0,0,0,0,0,0,0,0,0,0,0,0,0,0,0,0,0,
263,263,263,1035,1070,0,0,0,0,0,0,2160,2161,2162,2163,0,0,0,0,0,0,1069,263,263,263,263,263,263,263,263,263,263,263,263,263,263,263,263,263,1099,1102,0,0,0,2520,2521,2522,2661,2662,0,4039,0,0,0,0,0,0,0,0,0,0,0,353,0,0,0,0,0,0,0,0,0,0,0,0,0,0,0,0,0,0,0,0,0,0,0,0,0,1243,0,0,0,0,0,0,0,0,0,0,0,
263,263,263,1067,0,0,0,0,0,0,4464,2300,2301,2302,2303,0,0,0,0,0,0,1069,263,263,263,263,263,263,263,263,263,263,263,263,263,263,263,263,263,263,1099,1102,0,0,2660,2661,2662,2520,2521,2522,0,0,0,0,0,0,0,0,0,0,0,0,0,0,0,0,0,0,0,0,0,0,0,0,0,0,0,0,0,0,0,0,0,0,0,0,0,0,0,0,0,0,0,0,0,0,0,0,0,0,
263,263,263,1067,2800,2801,0,0,0,0,4464,2440,2441,2442,2443,0,0,0,0,0,0,1069,263,263,263,263,263,263,263,263,263,263,263,263,263,263,263,263,263,263,263,1099,1102,0,2800,2801,2802,2660,2661,2662,0,0,0,0,0,0,0,0,0,0,0,0,0,0,0,0,0,0,0,0,0,0,0,0,0,0,0,0,0,0,0,0,0,0,0,0,0,0,0,1242,1243,1244,0,0,0,0,0,0,0,0,
263,263,263,1067,0,0,0,0,0,0,4464,4464,4464,0,0,0,0,0,0,0,0,1069,263,263,263,263,263,263,263,263,263,263,263,263,263,263,263,263,263,263,263,263,1067,0,0,0,0,2800,2801,2802,0,0,0,0,0,0,0,0,0,0,0,0,0,0,0,0,0,0,0,0,0,0,0,0,2520,2521,2522,0,0,0,0,0,0,0,0,0,0,0,0,0,1383,1384,2266,2267,2933,0,0,0,0,0,
263,263,263,1099,1102,0,0,0,0,0,0,0,0,0,0,0,0,0,0,1103,1100,1101,263,263,263,263,263,263,263,263,263,263,263,263,263,263,263,263,263,263,263,263,1099,1102,0,0,0,0,0,0,2536,2537,2538,0,0,0,0,0,0,0,0,0,0,0,0,0,0,0,0,0,0,0,0,0,2660,2661,2662,0,0,0,0,0,0,0,0,0,4801,0,0,2566,1523,1524,2406,2407,2571,0,0,0,1311,1312,
263,263,263,263,1067,0,0,0,0,0,0,0,0,0,0,0,0,0,0,1069,263,263,263,263,263,263,263,263,263,263,263,263,263,263,263,263,263,263,263,263,263,263,263,1067,0,0,0,0,0,0,2676,2677,2678,0,0,0,0,0,0,0,0,0,0,0,0,0,0,0,0,0,0,0,0,0,2800,2801,2802,0,0,0,0,0,0,0,0,4801,0,0,0,2706,2707,2708,2709,2710,2711,0,0,0,1451,1452,
263,263,263,263,1067,0,0,0,0,0,0,0,0,0,0,0,0,0,0,1071,1036,1037,263,263,263,263,263,263,263,263,263,263,263,263,263,263,263,263,263,263,263,263,263,1099,1102,0,0,0,0,0,2816,2817,2818,0,0,0,0,0,0,0,0,0,0,0,0,0,0,0,0,0,0,0,0,0,0,0,0,0,0,0,0,0,0,0,4801,0,0,0,0,2846,2847,2848,2849,2850,2851,0,0,1308,1309,1310,
263,263,263,263,1099,1102,0,0,0,0,0,0,0,0,0,0,0,0,0,0,0,1071,1036,1037,263,263,263,263,263,263,263,263,263,263,263,263,263,263,263,263,263,263,263,263,1099,1102,0,0,0,0,2956,2536,2537,2538,0,0,0,0,0,0,0,0,0,2536,2537,2538,0,0,0,0,0,0,0,1308,1309,1310,0,0,0,0,0,0,0,0,1247,0,0,0,0,2986,2987,2988,2989,2990,2991,0,0,1448,1449,1450,
263,263,263,263,263,1099,1100,1100,1102,0,0,0,0,0,0,0,0,0,0,0,0,0,0,1071,1036,1037,263,263,263,263,263,263,263,263,263,263,263,263,263,263,263,263,263,263,263,1067,0,0,0,0,0,2676,2677,2678,0,0,0,0,0,0,0,0,0,2676,2677,2678,0,0,0,0,0,0,0,1448,1449,1450,0,0,0,0,1236,1237,1238,0,1387,0,0,5083,0,3126,3127,3128,3129,3130,3131,0,0,1588,1314,1315,
263,263,263,263,263,263,263,263,1099,1100,1102,0,0,0,0,0,0,0,0,0,0,0,0,0,0,1071,1036,1037,263,263,263,263,263,263,263,263,263,263,263,263,263,263,263,263,263,1099,1102,0,0,0,0,2816,2817,2818,0,0,0,0,0,0,0,0,0,2816,2817,2818,0,0,0,0,0,0,0,1588,1589,1590,0,0,0,0,1856,1857,1858,1245,1246,1247,4524,0,0,3266,3267,3268,3269,3270,3271,0,0,1728,1454,1455,
263,263,263,263,263,263,263,263,263,263,1099,1102,0,0,0,0,0,0,0,0,0,0,0,0,0,0,0,1069,263,263,263,263,263,263,263,263,263,263,263,263,263,263,263,263,263,263,1067,0,0,0,0,2956,2957,2536,2537,2538,0,0,0,0,2536,2537,2538,2956,2957,2958,0,0,0,0,0,1308,1309,1728,1729,1730,0,0,0,0,1996,1997,1998,1999,8046,1387,0,0,0,3406,3407,3408,3409,3410,4683,0,0,1308,1309,1310,
263,263,263,263,263,263,263,263,263,263,263,1099,1102,0,0,0,0,0,0,0,0,0,0,0,0,0,0,1071,1037,263,263,263,263,263,263,263,263,263,263,263,263,263,263,263,263,263,1067,0,0,0,0,0,0,2676,2536,2678,2538,0,0,0,2676,2677,2678,0,0,0,0,0,0,2520,2521,2522,1449,1450,0,0,0,0,0,0,2136,2137,2138,8046,8186,1527,0,0,0,3546,3547,3548,3549,3550,7906,0,0,1448,1449,1450,
263,263,263,263,263,263,263,263,263,263,263,263,1067,0,0,0,0,0,0,0,0,0,0,0,0,0,0,0,1069,263,263,263,263,263,263,263,263,263,263,263,263,263,263,263,263,263,1099,1102,0,0,0,0,0,2816,2676,2677,2678,0,0,0,2816,2817,2818,0,0,0,0,0,0,2660,2661,2662,1589,1590,0,0,1236,1237,0,0,2276,2277,2278,1236,1237,1853,1854,1855,0,3686,3687,3688,3689,3690,3691,0,0,1588,1311,1312,
263,263,263,263,263,263,263,263,263,263,263,263,1099,1102,0,0,0,0,0,0,0,0,0,0,0,0,4043,0,1069,263,263,263,263,263,263,263,263,263,263,263,263,263,263,263,263,263,263,1067,0,0,0,0,0,2956,2816,2817,2818,0,0,0,2956,2957,2958,0,0,0,0,0,0,2800,2801,2802,1729,1730,0,0,1376,0,0,0,2416,2417,2418,1376,1992,1993,1994,1995,0,0,0,0,0,0,0,0,0,1728,1451,1452,
263,263,263,263,263,263,263,263,263,263,263,263,263,1099,1102,0,0,0,0,0,0,0,0,0,0,0,0,0,1069,263,263,263,263,263,263,263,263,263,263,263,263,263,263,263,263,263,263,1067,0,0,0,0,0,0,2956,2957,2958,0,0,0,0,0,0,0,0,0,0,0,1308,1309,1310,1989,1990,1991,0,0,0,1242,1243,0,0,0,0,0,2132,2133,2134,2135,0,0,0,0,1844,1845,1846,1847,0,4039,1591,8046,
263,263,263,263,263,263,263,263,263,263,263,263,263,263,1067,0,0,0,0,0,0,0,0,0,0,0,0,0,1069,263,263,263,263,263,263,263,263,263,263,263,263,263,263,263,263,263,263,1067,0,0,0,0,0,0,0,0,4323,0,0,0,0,0,0,0,0,0,0,0,1448,1449,1450,2129,2130,2131,0,0,0,1382,0,1245,0,0,0,0,2272,2273,2274,2275,2522,1236,1237,2523,2524,1985,1986,1987,2520,2521,1731,8186,
263,263,263,263,263,263,263,263,263,263,263,263,263,263,1099,1102,0,0,0,0,0,0,0,0,0,0,0,1103,1101,263,263,263,263,263,263,263,263,263,263,263,263,263,263,263,263,263,263,1067,0,0,0,0,0,0,0,0,4463,0,0,0,0,0,0,0,0,0,1236,1237,1588,1589,1590,2269,2270,2271,0,0,0,0,0,1385,0,0,0,0,2412,2413,2414,2415,2662,1376,1377,2663,2664,2125,2126,2127,2660,2661,2662,8326,
263,263,263,263,263,263,263,263,263,263,263,263,263,263,263,1099,1102,0,0,0,0,0,0,0,0,0,0,1069,263,263,263,263,263,263,263,263,263,263,263,263,263,263,263,263,263,263,263,1067,0,0,0,0,0,0,0,0,0,0,0,0,0,0,0,0,0,0,1376,1377,1728,1729,1730,2409,2410,2411,0,0,0,0,1242,1243,1244,0,0,0,0,0,2800,2801,2802,1516,1517,2803,2804,2265,2266,2267,2800,2801,2802,0,
263,263,263,263,263,263,263,263,263,263,263,263,263,263,263,263,1099,1100,1102,0,0,0,0,0,0,0,1103,1101,263,263,263,263,263,263,263,263,263,263,263,263,263,263,263,263,263,263,263,1067,0,0,0,0,0,0,0,2520,2521,2522,0,2539,4387,4387,4387,4387,0,0,1516,1517,1518,0,0,0,0,0,0,0,0,0,0,0,2520,0,1992,0,0,0,0,0,0,0,0,0,2404,2405,2406,2407,0,0,0,0,
263,263,263,263,263,263,263,263,263,263,263,263,263,263,263,263,263,263,1099,1100,1100,1100,1100,1100,1100,1100,1101,263,263,263,263,263,263,263,263,263,263,263,263,263,263,263,263,263,263,263,263,1099,1102,0,0,0,0,0,0,2660,2661,2662,0,4387,4387,5228,5229,5230,0,2520,2521,2522,0,0,0,0,0,0,0,0,0,0,0,0,2660,0,2132,0,0,0,0,0,0,0,0,0,2536,2537,2538,0,0,0,0,0,
263,263,263,263,263,263,263,263,263,263,263,263,263,263,263,263,263,263,263,263,263,263,263,263,263,263,263,263,263,263,263,263,263,263,263,263,263,263,263,263,263,263,263,263,263,263,263,263,1099,1102,0,0,0,0,0,2800,2801,2802,0,4387,1069,1101,5369,1099,1102,2660,2661,2520,2521,2522,0,4323,0,0,2520,2521,2522,0,2536,2537,2538,0,2272,0,0,0,0,2536,2537,2538,0,0,2676,2677,2678,0,0,0,0,0,
263,263,263,263,263,263,263,263,263,263,263,263,263,263,263,263,263,263,263,263,263,263,263,263,263,263,263,263,263,263,263,263,263,263,263,263,263,263,263,263,263,263,263,263,263,263,263,263,263,1099,1102,0,0,0,0,0,0,0,0,4387,1069,263,263,263,1067,2800,2801,2660,2661,2662,0,4463,2537,2538,2660,2661,2662,0,2676,2677,2678,2537,2538,2413,2414,2415,2536,2676,2677,2678,4323,0,2816,2817,2818,0,0,2536,2537,2538,
263,263,263,263,263,263,263,263,263,263,263,263,263,263,263,263,263,263,263,263,263,263,263,263,263,263,263,263,263,263,263,263,263,263,263,263,263,263,263,263,263,263,263,263,263,263,263,263,263,263,1099,1102,0,0,0,0,0,0,0,1103,1101,263,263,263,1067,0,0,2800,2801,2802,0,2676,2677,2678,2800,2801,2802,0,2816,2817,2818,2677,2678,0,0,0,2676,2816,2817,2818,4463,0,2956,2957,2958,0,0,2676,2677,2678,
263,263,263,263,263,263,263,263,263,263,263,263,263,263,263,263,263,263,263,263,263,263,263,263,263,263,263,263,263,263,263,263,263,263,263,263,263,263,263,263,263,263,263,263,263,263,263,263,263,263,263,1099,1100,1102,0,0,0,0,0,1069,263,263,263,263,1067,0,0,0,0,0,0,2816,2817,2818,0,0,0,0,2956,2957,2958,2817,2818,0,0,0,2816,2956,2957,2958,0,0,0,0,0,0,0,2816,2817,2818,
263,263,263,263,263,263,263,263,263,263,263,263,263,263,263,263,263,263,263,263,263,263,263,263,263,263,263,263,263,263,263,263,263,263,263,263,263,263,263,263,263,263,263,263,263,263,263,263,263,263,263,263,263,1099,1100,1102,0,0,1103,1101,263,263,263,263,1099,1102,0,0,0,0,0,2956,2957,2958,0,0,0,0,0,0,2956,2957,2958,0,0,0,2956,2957,2958,0,0,0,0,0,0,0,0,2956,2957,2958,
263,263,263,263,263,263,263,263,263,263,263,263,263,263,263,263,263,263,263,263,263,263,263,263,263,263,263,263,263,263,263,263,263,263,263,263,263,263,263,263,263,263,263,263,263,263,263,263,263,263,263,263,263,263,263,1099,1100,1100,1101,263,263,263,263,263,263,1067,0,0,0,0,0,0,0,0,0,0,0,0,0,0,0,0,0,0,0,0,0,0,0,0,0,0,0,0,0,0,0,0,0,0,
263,263,263,263,263,263,263,263,263,263,263,263,263,263,263,263,263,263,263,263,263,263,263,263,263,263,263,263,263,263,263,263,263,263,263,263,263,263,263,263,263,263,263,263,263,263,263,263,263,263,263,263,263,263,263,263,263,263,263,263,263,263,263,263,263,1067,0,0,0,0,0,0,1103,1100,1100,1100,1100,1100,1100,1100,1100,1100,1102,0,0,0,1103,1100,1100,1100,1100,1100,1102,0,0,0,0,0,0,0,
263,263,263,263,263,263,263,263,263,263,263,263,263,263,263,263,263,263,263,263,263,263,263,263,263,263,263,263,263,263,263,263,263,263,263,263,263,263,263,263,263,263,263,263,263,263,263,263,263,263,263,263,263,263,263,263,263,263,263,263,263,263,263,263,263,1099,1100,1100,1100,1100,1100,1100,1101,263,263,263,263,263,263,263,263,263,1099,1100,1100,1100,1101,263,263,263,263,263,1099,1100,1100,1100,1100,1100,1100,1100,
263,263,263,263,263,263,263,263,263,263,263,263,263,263,263,263,263,263,263,263,263,263,263,263,263,263,263,263,263,263,263,263,263,263,263,263,263,263,263,263,263,263,263,263,263,263,263,263,263,263,263,263,263,263,263,263,263,263,263,263,263,263,263,263,263,263,263,263,263,263,263,263,263,263,263,263,263,263,263,263,263,263,263,263,263,263,263,263,263,263,263,263,263,263,263,263,263,263,263,263,
263,263,263,263,263,263,263,263,263,263,263,263,263,263,263,263,263,263,263,263,263,263,263,263,263,263,263,263,263,263,263,263,263,263,263,263,263,263,263,263,263,263,263,263,263,263,263,263,263,263,263,263,263,263,263,263,263,263,263,263,263,263,263,263,263,263,263,263,263,263,263,263,263,263,263,263,263,263,263,263,263,263,263,263,263,263,263,263,263,263,263,263,263,263,263,263,263,263,263,263,
263,263,263,263,263,263,263,263,263,263,263,263,263,263,263,263,263,263,263,263,263,263,263,263,263,263,263,263,263,263,263,263,263,263,263,263,263,263,263,263,263,263,263,263,263,263,263,263,263,263,263,263,263,263,263,263,263,263,263,263,263,263,263,263,263,263,263,263,263,263,263,263,263,263,263,263,263,263,263,263,263,263,263,263,263,263,263,263,263,263,263,263,263,263,263,263,263,263,263,263,
263,263,263,263,263,263,263,263,263,263,263,263,263,263,263,263,263,263,263,263,263,263,263,263,263,263,263,263,263,263,263,263,263,263,263,263,263,263,263,263,263,263,263,263,263,263,263,263,263,263,263,263,263,263,263,263,263,263,263,263,263,263,263,263,263,263,263,263,263,263,263,263,263,263,263,263,263,263,263,263,263,263,263,263,263,263,263,263,263,263,263,263,263,263,263,263,263,263,263,263,
263,263,263,263,263,263,263,263,263,263,263,263,263,263,263,263,263,263,263,263,263,263,263,263,263,263,263,263,263,263,263,263,263,263,263,263,263,263,263,263,263,263,263,263,263,263,263,263,263,263,263,263,263,263,263,263,263,263,263,263,263,263,263,263,263,263,263,263,263,263,263,263,263,263,263,263,263,263,263,263,263,263,263,263,263,263,263,263,263,263,263,263,263,263,263,263,263,263,263,263,
263,263,263,263,263,263,263,263,263,263,263,263,263,263,263,263,263,263,263,263,263,263,263,263,263,263,263,263,263,263,263,263,263,263,263,263,263,263,263,263,263,263,263,263,263,263,263,263,263,263,263,263,263,263,263,263,263,263,263,263,263,263,263,263,263,263,263,263,263,263,263,263,263,263,263,263,263,263,263,263,263,263,263,263,263,263,263,263,263,263,263,263,263,263,263,263,263,263,263,263,
263,263,263,263,263,263,263,263,263,263,263,263,263,263,263,263,263,263,263,263,263,263,263,263,263,263,263,263,263,263,263,263,263,263,263,263,263,263,263,263,263,263,263,263,263,263,263,263,263,263,263,263,263,263,263,263,263,263,263,263,263,263,263,263,263,263,263,263,263,263,263,263,263,263,263,263,263,263,263,263,263,263,263,263,263,263,263,263,263,263,263,263,263,263,263,263,263,263,263,263,
263,263,263,263,263,263,263,263,263,263,263,263,263,263,263,263,263,263,263,263,263,263,263,263,263,263,263,263,263,263,263,263,263,263,263,263,263,263,263,263,263,263,263,263,263,263,263,263,263,263,263,263,263,263,263,263,263,263,263,263,263,263,263,263,263,263,263,263,263,263,263,263,263,263,263,263,263,263,263,263,263,263,263,263,263,263,263,263,263,263,263,263,263,263,263,263,263,263,263,263,
263,263,263,263,263,263,263,263,263,263,263,263,263,263,263,263,263,263,263,263,263,263,263,263,263,263,263,263,263,263,263,263,263,263,263,263,263,263,263,263,263,263,263,263,263,263,263,263,263,263,263,263,263,263,263,263,263,263,263,263,263,263,263,263,263,263,263,263,263,263,263,263,263,263,263,263,263,263,263,263,263,263,263,263,263,263,263,263,263,263,263,263,263,263,263,263,263,263,263,263
</data>
 </layer>
 <layer name="Top layer " width="100" height="73">
  <data encoding="csv">
0,0,0,0,0,0,0,0,0,0,0,0,0,0,0,0,0,0,0,0,0,0,0,0,0,0,0,0,0,0,0,0,0,0,0,0,0,0,0,0,0,0,0,0,0,0,0,0,0,0,0,0,0,0,0,0,12098,0,12095,0,11947,0,0,0,0,14898,2374,2374,2374,2374,14903,0,2374,0,0,0,0,0,0,0,0,0,0,0,0,1308,1309,1310,0,0,0,0,0,0,0,0,0,0,0,0,
0,0,0,0,0,0,0,0,0,0,0,0,0,0,0,0,0,0,0,0,0,0,0,0,0,0,0,0,0,0,0,0,0,0,0,0,0,0,0,0,0,0,0,0,0,0,0,0,0,0,0,0,0,0,0,0,0,0,0,0,0,0,0,0,0,2374,2374,2374,2374,2374,2374,2374,2374,2374,0,0,0,0,0,2374,2374,2374,2374,2374,0,1448,1449,1450,0,0,0,0,0,0,0,0,0,0,0,0,
0,0,0,0,0,0,0,0,0,0,0,0,0,0,0,0,0,0,0,0,0,0,0,0,0,0,0,0,0,0,0,0,0,0,0,0,0,0,0,0,0,0,0,0,0,0,0,0,0,0,0,0,0,0,0,0,0,0,0,0,0,0,2374,2374,2374,2374,2374,2374,2374,2374,2374,0,0,0,0,0,2374,2374,2374,2374,2374,2374,2374,2374,0,1588,1589,1590,0,0,0,0,0,0,0,0,0,0,0,0,
0,0,0,0,0,0,0,0,0,0,0,0,0,0,0,0,0,0,0,0,0,0,0,0,0,0,0,0,0,0,0,0,0,0,0,0,0,0,0,0,0,0,0,0,0,0,0,0,0,0,0,0,0,0,0,0,0,0,0,0,0,0,2374,2374,2374,2374,2374,2374,2374,2374,2374,2374,2374,2374,2374,2374,2374,2374,2374,2374,2374,2374,2374,2374,0,1728,1729,1314,1315,1316,0,0,0,0,0,0,0,0,0,0,
0,0,0,0,0,0,0,0,0,0,0,0,0,0,0,0,0,0,0,0,0,0,0,0,0,0,0,0,0,0,0,0,0,0,0,0,0,0,0,0,0,0,0,0,0,0,0,0,0,0,0,0,0,0,0,0,0,0,0,0,0,0,0,0,2374,2374,2374,2374,2374,2374,2374,0,0,0,0,0,0,2374,2374,2374,2374,2374,2374,2374,2374,2374,0,1454,1455,1456,0,0,0,0,0,0,0,0,0,0,
0,0,0,0,0,0,0,0,0,0,0,0,0,0,0,0,0,0,0,0,0,0,0,0,0,0,0,0,0,0,0,0,0,0,0,0,0,0,0,0,0,0,0,0,0,0,0,0,0,0,0,0,0,0,0,0,0,0,0,0,0,0,0,2374,2374,2374,2374,2374,2374,2374,2374,0,0,0,0,0,0,0,0,2374,2374,2374,2374,2374,1844,1845,1846,1847,1595,1596,0,0,0,0,0,0,0,0,0,0,
0,0,0,0,0,0,0,0,0,0,0,0,0,0,0,0,0,0,2957,0,0,0,0,0,0,0,0,0,0,0,0,0,0,0,0,0,0,0,0,0,0,0,0,0,0,0,0,0,0,0,0,0,0,0,13322,13323,13324,13325,13326,13327,0,0,0,0,2374,2374,0,0,0,0,0,0,0,0,0,0,0,0,0,2374,2374,2374,2374,2374,1984,1985,1986,1987,1735,1736,0,0,0,0,0,0,0,0,0,0,
0,0,0,0,0,0,0,0,0,0,0,0,0,0,0,0,0,0,0,0,0,0,0,0,0,0,0,0,0,0,0,0,0,0,0,0,0,0,0,0,0,0,0,0,0,0,0,0,0,0,0,0,0,0,13462,13463,13464,13465,13466,13467,0,0,0,0,0,2374,0,0,0,0,0,0,0,0,0,0,0,0,0,0,0,2374,2374,2374,2124,2125,2126,2127,0,0,0,0,0,0,0,0,0,0,0,0,
0,0,0,0,0,0,0,0,0,0,0,0,0,0,0,0,0,0,2537,2538,0,0,0,0,0,0,0,0,0,0,0,0,0,0,0,0,0,0,0,0,0,0,0,0,0,0,0,0,0,0,0,0,0,0,0,0,0,0,0,0,0,0,0,0,0,2374,0,0,0,0,0,0,0,0,0,0,0,0,0,0,0,0,0,2374,2264,2265,2266,2267,1869,1870,1871,0,0,0,0,0,0,0,0,0,
0,0,0,0,0,0,0,0,0,0,0,0,0,0,0,0,0,0,0,0,0,0,0,0,0,0,0,0,0,0,0,0,0,0,0,0,0,0,0,0,0,0,0,0,0,0,0,0,0,0,0,0,0,0,0,0,0,0,0,0,0,0,0,0,0,2374,0,0,0,0,0,0,0,0,0,0,0,0,0,0,0,0,0,0,2404,2405,2406,2407,2009,2010,2011,0,0,0,0,0,0,0,0,0,
0,0,0,0,0,0,0,0,0,0,0,0,0,0,0,0,0,0,0,0,0,0,0,0,0,0,0,0,0,0,0,0,0,0,0,2540,2541,2542,0,0,0,0,0,0,0,0,0,13328,13329,13330,13331,13332,13333,13334,0,0,0,0,0,0,0,0,0,0,0,2374,0,0,0,0,0,0,0,0,0,0,0,0,0,0,0,0,0,0,1245,1246,1247,2148,2149,2150,2151,0,0,0,0,0,0,0,0,0,
0,0,0,0,0,0,0,0,0,0,0,0,0,0,0,0,0,0,0,0,0,0,0,0,0,0,0,0,0,0,0,0,0,0,0,0,0,0,0,0,0,0,0,0,0,0,2374,13468,13469,13470,13471,13472,13473,13474,0,0,0,0,0,0,0,0,0,0,0,2374,0,0,0,0,2374,2374,2374,2374,2374,2374,2374,0,0,0,0,0,9673,9674,1385,1386,1387,2288,2289,2290,2291,0,0,0,0,0,0,0,0,0,
0,0,0,0,0,0,0,0,0,0,0,0,0,0,0,0,0,0,0,0,0,0,0,0,0,0,0,0,0,0,0,0,0,0,0,0,0,0,0,0,0,0,0,0,0,0,2374,2374,2374,2374,2374,2374,2374,2374,0,9673,9674,0,0,0,0,0,0,0,0,2374,2374,2374,2374,2374,2374,2374,2374,2374,2374,2374,2374,2374,0,0,0,0,9813,9814,1525,1526,1527,2428,2429,2430,2431,0,0,0,0,0,0,0,0,0,
0,0,0,0,0,0,0,0,0,0,0,0,0,0,0,0,0,0,0,0,0,0,0,0,0,0,0,0,0,0,0,0,0,0,0,0,0,0,0,0,0,0,0,0,0,0,2374,2374,2374,2374,2374,2374,15323,0,0,9813,9814,0,0,0,0,0,0,0,0,0,2374,2374,2374,2374,2374,2374,2374,2374,2374,2374,2374,2374,0,0,0,0,0,0,1665,1666,1667,2374,1848,1849,1850,1851,0,0,0,0,0,0,0,0,
0,0,0,0,0,0,0,0,0,0,0,0,0,0,0,0,0,0,0,0,0,0,0,0,0,0,0,0,0,0,0,0,0,0,0,0,0,0,0,0,0,0,0,0,0,0,0,2374,2374,2374,2374,2374,2374,0,0,0,0,0,0,0,0,0,0,0,0,0,0,2374,2374,2374,2374,2374,2374,2374,2374,2374,2374,2374,2374,2374,2374,2374,2374,2374,2374,14898,2374,2374,1988,1989,1990,1991,0,0,0,0,0,0,0,0,
0,0,0,0,0,0,0,0,0,0,0,0,0,0,0,0,0,0,0,0,0,0,0,0,0,0,0,0,0,0,0,0,0,0,0,0,0,0,0,0,0,0,0,0,0,0,0,15598,2374,2374,2374,2374,2374,0,0,0,0,0,0,0,0,0,0,0,2374,2374,2374,0,0,2374,2374,2374,2374,2374,2374,2374,2374,0,0,0,0,0,0,0,2374,2374,2374,2374,2128,2129,2130,2131,0,0,0,4203,4204,0,0,0,
0,0,0,0,0,0,0,0,0,9110,9111,9112,9110,9111,9112,9110,9111,9112,9112,0,0,0,0,0,0,0,0,0,0,0,0,0,0,0,0,0,0,0,0,0,0,0,0,0,0,0,0,0,0,0,0,0,0,0,0,0,0,0,0,0,2374,2374,2374,2374,2374,2374,2374,0,0,0,2374,2374,2374,2374,2374,2374,2374,2374,0,0,0,0,0,0,0,2374,2374,2374,2268,2269,2270,2271,0,0,0,4343,4344,0,0,0,
0,0,0,0,0,0,0,0,0,9250,9251,9252,9250,9251,9252,9250,9251,9252,9252,0,0,0,0,0,0,0,0,0,0,0,0,0,0,0,0,0,0,0,0,0,0,0,0,0,0,0,0,0,0,0,0,0,0,0,0,0,0,0,0,2374,2374,2374,2374,2374,2374,2374,2374,2374,2374,0,0,0,0,0,0,0,0,0,0,0,0,9675,9676,0,0,2374,2374,2374,2408,2409,2410,2411,0,0,0,0,0,0,0,0,
0,0,0,0,0,0,0,0,0,9390,9391,9392,9390,9391,9392,9390,9391,9392,9392,0,0,0,0,0,0,0,0,0,0,0,0,0,0,0,0,0,0,0,0,0,0,0,0,0,0,0,0,0,0,0,0,0,0,0,0,0,0,0,2374,2374,2374,2374,2374,2374,2374,2374,2374,2374,0,0,0,0,0,0,0,0,0,0,0,0,0,9815,9816,0,0,2374,2374,2374,2374,2374,2374,2374,0,0,0,0,0,0,0,0,
0,0,0,0,0,0,0,0,0,0,0,0,0,0,0,0,0,0,0,0,0,0,0,0,0,0,0,0,0,0,0,0,0,0,0,0,0,0,0,0,0,0,0,0,0,0,0,0,0,0,0,0,0,0,0,0,0,0,0,2374,2374,2374,2374,2374,2374,2374,2374,2374,0,0,0,0,0,0,0,0,0,0,0,0,0,0,0,0,0,15598,2374,2374,2374,2374,2374,2374,0,0,0,0,0,0,0,0,
0,0,0,0,0,0,0,0,0,0,0,0,0,0,0,0,0,0,0,0,0,0,0,0,0,0,0,0,0,0,0,0,0,0,0,0,0,0,0,0,0,0,0,0,0,0,0,0,0,10959,10960,10961,10962,10963,0,0,0,0,0,2374,2374,2374,2374,2374,2374,2374,0,0,0,0,0,0,0,0,0,0,0,0,0,0,0,0,0,0,0,0,0,0,0,0,0,0,0,0,0,0,0,0,0,0,
0,0,0,0,0,0,0,0,0,0,0,0,0,0,0,0,0,0,0,0,0,0,0,0,0,0,0,0,0,0,0,0,0,0,0,0,0,0,0,0,0,0,0,0,0,0,0,0,9672,11099,11100,11101,11102,11103,0,0,0,0,12102,12103,12104,12105,12106,2374,2374,2374,2374,0,0,0,9673,9674,0,0,0,0,0,0,0,0,0,0,0,0,0,0,0,0,0,0,0,0,0,0,0,0,0,0,0,0,
0,0,0,0,0,0,0,0,0,0,0,0,0,0,0,0,0,0,0,0,0,0,0,0,0,0,0,0,0,0,0,0,0,0,0,0,0,0,0,0,0,0,0,1236,1237,1238,0,0,9812,11239,11240,11241,11242,11243,0,0,0,0,12242,12243,12244,12245,12246,2374,2374,2374,2374,0,0,0,9813,9814,0,0,0,0,0,0,0,0,0,0,0,0,0,0,0,0,0,0,0,0,0,0,0,0,0,0,0,0,
0,0,0,0,0,0,0,0,0,0,0,0,0,0,0,0,0,0,0,0,0,0,0,0,0,0,0,0,0,0,0,0,0,0,0,0,0,0,0,0,0,0,0,1376,0,0,0,0,0,11379,11380,11381,11382,11383,0,0,0,10387,12382,12383,12384,12385,12386,2374,2374,2374,2374,2374,0,0,0,0,0,0,0,0,0,0,0,0,0,0,0,0,0,0,0,0,0,0,0,0,0,0,0,0,0,0,0,0,
0,0,0,0,0,0,0,0,0,0,0,0,0,0,0,0,0,0,0,0,0,0,0,0,0,0,0,0,0,0,0,0,0,0,0,0,0,0,0,0,0,0,0,0,0,0,0,0,0,11519,11520,11521,11522,11523,0,0,0,0,12522,12523,12524,12525,12526,2374,2374,11960,0,2374,0,0,0,0,0,0,0,0,0,0,11060,11060,11060,11060,11060,11060,0,0,0,0,0,0,0,0,9110,9111,9112,0,0,0,0,0,
0,0,0,0,0,0,0,0,0,0,0,0,0,0,0,0,0,0,0,0,0,0,0,0,0,0,0,0,0,0,0,0,0,0,0,0,0,0,0,0,0,0,0,0,0,0,0,0,0,11659,11660,11661,11662,11663,0,0,0,0,12662,12663,12664,12665,12666,0,0,0,0,0,2374,0,0,0,0,0,0,0,0,0,0,11060,11060,11060,11060,11060,11060,11060,0,0,0,0,0,0,9390,9391,9392,0,0,0,0,0,
0,0,0,0,0,0,0,0,0,0,0,0,0,0,0,0,0,0,0,0,0,0,0,0,0,0,0,0,0,0,0,0,0,0,0,0,0,0,0,0,0,0,0,0,0,0,0,0,0,11799,11800,11801,11802,11803,0,0,0,0,12802,12803,12804,12805,12806,0,0,0,0,0,2374,0,0,0,0,0,0,0,0,0,0,11060,11060,11060,11060,11060,0,0,0,0,0,0,0,0,0,0,0,0,0,0,0,0,
0,0,0,0,0,0,0,0,0,0,0,0,0,0,0,0,0,0,0,0,0,0,0,0,0,0,0,0,0,0,0,0,0,0,0,0,0,0,0,0,0,0,0,0,0,0,0,0,0,0,0,0,0,0,0,0,0,0,12942,12943,12944,12945,12946,0,0,0,0,0,2374,2374,2374,0,0,0,0,0,0,0,11060,11060,11060,11060,11060,10785,0,0,0,0,9672,0,0,0,0,0,0,0,0,0,0,0,
0,0,0,0,0,0,0,0,0,0,0,0,0,0,0,0,0,0,0,0,0,0,0,0,0,0,0,0,0,0,0,0,0,0,0,0,0,0,0,0,0,0,0,0,0,0,0,0,0,0,0,0,0,0,0,0,0,0,13082,13083,13084,13085,13086,0,2374,2374,2374,2374,2374,2374,0,0,0,0,0,0,0,0,0,11060,11060,11060,10785,10785,0,0,0,0,9812,0,0,0,0,0,0,0,0,0,0,0,
0,0,0,0,0,0,0,0,0,0,0,0,0,0,0,0,0,0,0,0,0,0,0,0,0,0,0,0,0,0,0,0,0,0,0,0,0,0,0,0,0,0,2822,0,0,0,0,0,0,0,0,0,0,0,1238,0,0,14893,2374,2374,2374,2374,2374,2374,12097,12098,12099,12100,12101,0,2374,0,0,0,0,0,0,0,0,10785,10785,10785,10785,10785,0,0,0,0,0,0,0,0,0,0,0,0,0,0,0,0,
0,0,0,0,0,0,0,0,0,0,0,0,0,0,0,0,0,0,0,0,0,0,0,0,0,0,0,0,0,0,0,0,0,0,0,0,0,0,0,0,0,0,2962,0,0,0,0,0,0,0,0,0,0,0,2374,2374,2374,2374,2374,2374,2374,2374,2374,2374,12237,12238,12239,12240,12241,0,2374,0,0,0,0,0,0,0,0,0,0,0,0,0,0,0,0,0,0,0,0,0,0,0,0,0,0,0,0,0,
0,0,0,0,0,0,0,0,0,0,0,0,0,0,0,0,0,0,0,0,0,0,0,0,0,0,0,0,0,0,0,0,0,0,0,0,0,0,0,0,0,0,0,0,0,0,0,0,0,0,0,0,0,0,2374,2374,2374,2374,2374,2374,2374,2374,2374,0,12377,12378,12379,12380,12381,0,0,2374,0,0,0,0,0,0,0,0,0,0,0,0,0,0,0,0,0,0,0,0,0,0,0,0,0,0,0,0,
0,0,0,0,0,0,0,0,0,0,0,0,0,0,0,0,0,0,0,0,0,0,0,0,0,0,0,0,0,0,0,0,0,0,0,0,0,0,0,0,0,0,0,0,0,0,0,0,0,0,0,0,0,0,0,0,2374,2374,2374,2374,2374,2374,2374,2374,12517,12518,12519,12520,12521,0,0,0,2374,2374,0,0,0,0,0,0,0,0,0,9113,9114,9114,9115,0,0,0,0,0,0,0,0,0,0,0,0,0,
0,0,0,0,0,0,0,0,0,0,0,0,0,0,0,0,0,0,0,0,0,0,0,0,0,0,0,0,0,0,0,0,0,0,0,0,0,0,0,0,0,0,0,0,0,0,0,0,0,0,0,0,0,0,0,0,0,2374,2374,2374,2374,2374,2374,2374,12657,12658,12659,12660,12661,0,2374,2374,2374,2374,2374,0,0,0,0,0,0,0,0,9113,9114,9254,9115,0,0,0,0,0,0,0,0,0,0,0,0,399,
0,0,0,0,0,0,0,0,0,0,0,0,0,0,0,0,0,0,0,0,0,0,0,0,0,0,0,0,0,0,0,0,0,0,0,0,0,0,0,0,0,0,0,0,0,0,0,0,0,0,0,0,0,0,0,0,0,2374,2374,2374,2374,2374,2374,2374,12797,12798,12799,12800,12801,2374,2374,2374,2374,2374,2374,0,0,0,0,0,0,0,0,9253,9254,9394,9255,1672,1672,1673,0,0,0,0,0,0,0,0,0,0,
0,0,0,0,0,0,0,0,0,0,0,0,0,0,0,0,0,0,0,0,0,0,0,0,0,0,0,0,0,0,0,0,0,0,0,0,0,0,0,0,0,0,0,0,0,0,0,0,0,0,0,0,0,0,0,0,0,0,0,0,0,0,0,0,12937,12938,12939,12940,12941,0,2374,2374,2374,2374,2374,0,0,0,0,1672,1673,1673,1673,9393,9394,9394,9395,1672,1673,1673,0,0,0,0,0,0,0,0,0,0,
0,0,0,0,2520,2521,2522,0,0,0,0,4464,4464,4464,0,0,0,0,0,0,0,0,0,0,0,0,0,0,0,0,0,0,0,0,0,0,0,0,0,0,0,0,0,0,0,0,0,0,0,0,0,0,0,0,0,0,0,0,0,0,0,0,0,0,13077,13078,13079,13080,13081,2374,2374,2374,2374,2374,2374,2374,0,0,0,1672,1673,1672,1673,1673,1673,1673,1672,1672,1673,1244,1848,1849,1850,1851,0,0,0,0,0,0,
0,0,0,0,2660,2661,2662,0,0,0,0,4464,4464,4464,0,0,0,0,0,0,0,0,0,0,0,0,0,0,0,0,0,0,0,0,0,0,0,0,0,0,0,0,0,0,0,0,0,0,0,0,0,0,0,0,0,0,0,0,0,0,0,0,0,0,0,0,0,0,0,2374,2374,2374,2374,2374,2374,2374,0,0,0,0,1672,1672,1673,0,0,0,0,0,0,0,0,0,0,0,0,0,0,0,0,0,
0,0,0,2520,2521,2522,2802,0,0,0,0,4464,4464,0,0,0,0,0,0,0,0,0,0,0,0,0,0,0,0,0,0,0,0,0,0,0,0,0,0,0,0,0,0,0,0,0,0,0,0,0,0,0,0,0,0,0,0,0,0,0,0,0,0,0,0,0,0,0,0,0,2374,2374,2374,2374,2374,2374,0,0,0,0,0,0,0,0,0,0,0,0,0,0,0,0,0,0,0,0,1337,1338,1339,1340,
0,0,0,2660,2661,2662,2942,0,0,0,0,0,0,0,0,0,0,0,0,0,0,0,0,0,0,0,0,0,0,0,0,0,0,0,0,0,0,0,0,0,0,0,0,0,0,0,0,0,0,0,0,0,0,0,0,0,0,0,0,0,0,0,0,0,0,0,0,0,0,0,0,2374,0,0,0,0,0,0,0,0,0,0,0,0,0,0,0,0,0,0,0,0,0,0,0,0,0,0,0,1480,
0,0,0,2800,2801,2802,0,0,0,0,0,0,0,0,0,0,0,0,0,0,0,0,0,0,0,0,0,0,0,0,0,0,0,0,0,0,0,0,0,0,0,0,0,0,0,0,0,0,0,0,0,0,0,0,0,0,0,0,0,0,0,0,0,0,0,0,0,0,0,0,0,0,0,0,0,0,0,0,0,0,0,0,0,0,0,0,0,0,0,0,2567,2568,2569,2570,0,0,0,0,0,0,
0,0,0,2940,2941,2942,0,0,0,0,0,0,0,0,0,0,0,0,0,0,0,0,0,0,0,0,0,0,0,0,0,0,0,0,0,0,0,0,0,0,0,0,0,0,0,0,0,0,0,0,0,0,0,0,0,0,0,0,0,0,0,0,0,0,0,0,0,0,0,0,0,0,0,0,0,0,0,0,0,0,0,0,0,0,0,0,0,0,0,0,0,0,0,0,0,0,0,0,0,0,
0,0,0,0,0,0,0,0,0,0,0,0,0,0,0,0,0,0,0,0,0,0,0,0,0,0,0,0,0,0,0,0,0,0,0,0,0,0,0,0,0,0,0,0,0,0,0,0,0,0,0,0,0,0,0,0,0,0,0,0,0,0,0,0,0,0,0,0,0,0,0,0,0,0,0,0,0,0,0,0,0,0,0,0,0,0,0,0,0,0,0,0,0,0,0,0,0,0,0,0,
0,0,0,0,0,0,0,0,0,0,0,0,0,0,0,0,0,0,0,0,0,0,0,0,0,0,0,0,0,0,0,0,0,0,0,0,0,0,0,0,0,0,0,0,0,0,0,0,0,0,0,0,0,0,0,0,0,0,0,0,0,0,0,0,0,0,0,0,0,0,0,0,0,0,0,0,0,0,0,0,0,0,0,0,0,0,0,0,0,0,0,0,0,0,0,0,0,0,0,0,
0,0,0,0,0,0,0,0,0,0,0,0,0,0,0,0,0,0,0,0,0,0,0,0,0,2536,2537,2538,0,0,0,0,0,0,0,0,0,0,0,0,0,0,0,0,0,0,0,0,0,0,0,0,0,0,0,0,0,0,0,0,0,0,0,0,0,0,0,0,0,0,0,0,0,0,0,0,0,0,0,0,0,0,0,0,0,0,0,0,0,0,0,0,0,0,0,0,0,0,0,0,
0,0,0,0,0,0,0,0,0,0,0,0,0,0,0,0,0,0,0,0,0,0,0,0,0,2676,2677,2678,0,0,0,0,0,0,0,0,0,0,0,0,0,0,0,0,0,0,0,0,0,0,0,0,0,0,0,0,0,0,0,0,0,0,0,0,0,0,0,0,0,0,0,0,0,0,0,0,0,0,0,0,0,0,0,1859,0,0,0,0,0,0,0,0,0,0,0,0,0,0,0,0,
0,0,0,0,0,0,0,0,0,0,0,0,2539,2540,2541,2542,2543,0,0,0,0,0,0,0,0,2816,2817,2818,0,0,0,0,0,0,0,0,0,0,0,0,0,0,0,0,0,0,0,0,0,0,0,0,0,0,0,0,0,0,0,0,0,0,0,0,0,0,0,0,0,0,0,0,0,1310,0,0,0,0,0,0,0,0,0,1999,0,0,0,0,0,0,0,0,0,0,0,0,0,0,0,0,
0,0,0,0,0,0,0,0,0,0,0,0,2679,2680,2681,2682,2683,0,0,0,0,0,0,0,0,2956,2957,2958,0,0,0,0,0,0,0,0,0,0,0,0,0,0,0,0,0,0,0,0,0,0,0,0,0,0,0,2537,0,0,0,0,0,0,0,0,0,0,0,0,0,0,0,0,0,0,0,0,0,0,0,0,0,0,0,2139,0,0,0,0,0,0,0,0,0,0,0,0,0,0,0,0,
0,0,0,0,0,0,0,0,0,0,0,0,2819,2820,2821,2822,2823,0,0,0,0,0,0,0,0,0,0,0,0,0,0,0,0,0,0,0,0,0,0,0,0,0,0,0,0,0,0,0,0,0,0,0,0,0,0,0,0,0,0,0,0,0,0,0,0,0,0,0,0,0,0,0,0,0,0,0,0,0,0,0,0,0,0,2279,0,0,0,0,0,0,0,0,0,0,0,0,0,0,0,0,
0,0,0,0,0,0,0,0,0,0,0,0,2959,2960,2961,2962,2963,0,0,0,0,0,0,0,0,0,0,0,0,0,0,0,0,0,0,0,0,0,0,0,0,0,0,0,0,0,0,0,0,0,0,0,0,0,0,0,0,0,0,0,0,0,0,0,0,0,0,0,0,0,0,1853,1854,1855,0,0,0,0,0,0,0,0,0,2419,0,0,0,0,0,0,0,0,0,0,0,0,0,0,0,0,
0,0,0,0,0,0,0,0,0,0,0,0,3099,3100,3101,3102,2539,2540,2541,2542,2543,0,0,0,0,0,0,0,0,0,0,0,0,0,0,0,0,0,0,0,0,0,0,0,0,0,0,0,0,0,0,0,0,0,0,0,0,0,0,0,0,0,0,0,0,0,0,0,0,0,1992,0,0,0,0,0,0,0,0,0,0,0,0,0,0,0,0,0,0,0,0,0,0,0,0,0,0,0,0,0,
0,0,0,0,0,0,0,0,0,0,0,0,0,0,0,0,2679,2680,2681,2682,2683,0,0,0,0,0,0,0,0,0,0,0,0,0,0,0,0,0,0,0,0,0,0,0,0,0,0,0,0,0,0,0,0,0,0,0,0,0,0,0,0,0,0,0,0,0,0,0,0,0,2132,0,0,0,0,0,0,0,0,0,0,0,0,0,0,0,0,0,0,0,0,0,0,0,0,0,0,0,0,0,
0,0,0,0,0,0,0,0,0,0,0,0,0,0,0,0,2819,2820,2821,2822,2823,0,0,0,0,0,0,0,0,0,0,0,0,0,0,0,0,0,0,0,0,0,0,0,0,0,0,0,0,0,0,0,0,0,0,0,0,0,0,0,0,0,0,0,0,0,0,0,1238,0,2272,0,0,0,0,0,0,0,0,0,0,0,0,0,0,0,0,0,0,0,0,0,0,0,0,0,0,0,0,0,
0,0,0,0,0,0,0,0,0,0,0,0,0,0,0,0,2959,2960,2961,2962,2963,0,0,0,0,0,0,0,0,0,0,0,0,0,0,0,0,0,0,0,0,0,0,0,0,0,0,0,0,0,0,0,0,0,0,0,0,0,0,0,0,0,0,0,0,0,0,0,1378,0,2412,0,0,0,0,0,0,0,0,0,0,0,0,0,0,0,0,0,0,0,0,0,0,0,0,0,0,0,0,0,
0,0,0,0,0,0,0,0,0,0,0,0,0,0,0,0,3099,3100,3101,3102,3103,0,0,0,0,0,0,0,0,0,0,0,0,0,0,0,0,0,0,0,0,0,0,0,0,0,0,0,0,0,0,0,0,0,0,0,0,0,0,0,0,0,0,0,0,0,0,0,0,0,0,0,0,0,0,0,0,0,0,0,0,0,0,0,0,0,0,0,0,0,0,0,0,0,0,0,0,0,0,0,
0,0,0,0,0,0,0,0,0,0,0,0,0,0,0,0,0,0,0,0,0,9113,9115,0,0,0,0,0,0,0,0,0,0,0,0,0,0,0,0,0,0,0,0,0,0,0,0,0,0,0,0,0,0,0,0,0,0,0,0,0,0,0,0,0,0,0,0,0,0,0,0,0,0,0,0,0,0,0,0,0,0,0,0,0,0,0,0,0,0,0,0,0,0,0,0,0,0,0,0,0,
0,0,0,0,0,0,0,0,0,0,0,0,0,0,0,0,0,0,0,0,0,9113,9115,0,0,0,0,0,0,0,0,0,0,0,0,0,0,0,0,0,0,0,0,0,0,0,0,0,0,0,0,0,0,0,0,0,0,0,0,0,1103,5368,0,5370,0,0,0,0,0,0,0,0,0,0,0,0,0,0,0,0,0,0,0,0,0,0,0,0,0,0,0,0,0,0,0,0,0,0,0,0,
0,0,0,0,0,0,0,0,0,0,0,0,0,0,0,0,0,0,0,0,0,9253,9255,0,0,0,0,0,0,0,0,0,0,0,0,0,0,0,0,0,0,0,0,0,0,0,0,0,0,0,0,0,0,0,0,0,0,0,0,0,0,0,0,0,0,0,0,0,0,0,0,0,0,0,0,0,0,0,0,0,2536,0,2412,0,0,0,0,2537,2538,0,0,0,0,0,0,0,0,0,0,0,
0,0,0,0,0,0,0,0,0,0,0,0,0,0,0,0,0,0,0,0,0,9393,9395,0,0,0,0,0,0,0,0,0,0,0,0,0,0,0,0,0,0,0,0,0,0,0,0,0,0,0,0,0,0,0,0,0,0,0,0,0,0,0,0,0,0,0,0,0,0,0,0,0,0,0,0,0,0,0,0,0,2676,0,0,0,0,0,0,2677,2678,0,0,0,0,0,0,0,0,0,0,0,
0,0,0,0,0,0,0,0,0,0,0,0,0,0,0,0,0,0,0,0,0,9113,9115,0,0,0,0,0,0,0,0,0,0,0,0,0,0,0,0,0,0,0,0,0,0,0,0,0,0,0,0,0,0,0,0,0,0,0,0,0,0,0,0,0,0,0,0,0,0,0,0,0,0,0,0,0,0,0,0,0,2816,0,0,0,0,0,0,2817,2818,0,0,0,0,0,0,0,0,0,0,0,
0,0,0,0,0,0,0,0,0,0,0,0,0,0,0,0,0,0,0,0,0,9253,9255,0,0,0,0,0,0,0,0,0,0,0,0,0,0,0,0,0,0,0,0,0,0,0,0,0,0,0,0,0,0,0,0,0,0,0,0,0,0,0,0,0,0,0,0,0,0,0,0,0,0,0,0,0,0,0,0,0,0,0,0,0,0,0,0,0,0,0,0,0,0,0,0,0,0,0,0,0,
0,0,0,0,0,0,0,0,0,0,0,0,0,0,0,0,0,0,0,0,0,9393,9395,0,0,0,0,0,0,0,0,0,0,0,0,0,0,0,0,0,0,0,0,0,0,0,0,0,0,0,0,0,0,0,0,0,0,0,0,0,0,0,0,0,0,0,0,0,0,0,0,0,0,0,0,0,0,0,0,0,0,0,0,0,0,0,0,0,0,0,0,0,0,0,0,0,0,0,0,0,
0,0,0,0,0,0,0,0,0,0,0,0,0,0,0,0,0,0,0,0,0,8816,8812,0,0,0,0,0,0,0,0,0,0,0,0,0,0,0,0,0,0,0,0,0,0,0,0,0,0,0,0,0,0,0,0,0,0,0,0,0,0,0,0,0,0,0,0,0,0,0,0,0,0,0,0,0,0,0,0,0,0,0,0,0,0,0,0,0,0,0,0,0,0,0,0,0,0,0,0,0,
0,0,0,0,0,0,0,0,0,0,0,0,0,0,0,0,0,0,0,0,0,0,0,0,0,0,0,0,0,0,0,0,0,0,0,0,0,0,0,0,0,0,0,0,0,0,0,0,0,0,0,0,0,0,0,0,0,0,0,0,0,0,0,0,0,0,0,0,0,0,0,0,0,0,0,0,0,0,0,0,0,0,0,0,0,0,0,0,0,0,0,0,0,0,0,0,0,0,0,0,
0,0,0,0,0,0,0,0,0,0,0,0,0,0,0,0,0,0,0,0,0,0,0,0,0,0,0,0,0,0,0,0,0,0,0,0,0,0,0,0,0,0,0,0,0,0,0,0,0,0,0,0,0,0,0,0,0,0,0,0,0,0,0,0,0,0,0,0,0,0,0,0,0,0,0,0,0,0,0,0,0,0,0,0,0,0,0,0,0,0,0,0,0,0,0,0,0,0,0,0,
0,0,0,0,0,0,0,0,0,0,0,0,0,0,0,0,0,0,0,0,0,0,0,0,0,0,0,0,0,0,0,0,0,0,0,0,0,0,0,0,0,0,0,0,0,0,0,0,0,0,0,0,0,0,0,0,0,0,0,0,0,0,0,0,0,0,0,0,0,0,0,0,0,0,0,0,0,0,0,0,0,0,0,0,0,0,0,0,0,0,0,0,0,0,0,0,0,0,0,0,
0,0,0,0,0,0,0,0,0,0,0,0,0,0,0,0,0,0,0,0,0,0,0,0,0,0,0,0,0,0,0,0,0,0,0,0,0,0,0,525,526,0,0,0,0,0,0,0,0,0,0,0,0,0,0,0,0,0,0,0,0,0,0,0,0,0,0,0,0,0,0,0,0,0,0,0,0,0,0,0,0,0,0,0,0,0,0,0,0,0,0,0,0,0,0,0,0,0,0,0,
0,0,0,0,0,0,0,0,0,0,0,0,0,0,0,0,0,0,0,0,0,0,0,0,0,0,0,0,0,0,0,0,0,0,0,0,0,0,0,557,558,0,0,0,0,0,0,0,0,0,0,0,0,0,0,0,0,0,0,0,0,0,0,0,0,0,0,0,0,0,0,0,0,0,0,0,0,0,0,0,0,0,0,0,0,0,0,0,0,0,0,0,0,0,0,0,0,0,0,0,
0,0,0,0,0,0,0,0,0,0,0,0,0,0,0,0,0,0,0,0,0,0,0,0,0,0,0,0,0,0,0,0,0,0,0,0,0,0,0,0,0,0,0,0,0,0,0,0,0,0,0,0,0,0,0,0,0,0,0,0,0,0,0,0,0,0,0,0,0,0,0,0,0,0,0,0,0,0,0,0,0,0,0,0,0,0,0,0,0,0,0,0,0,0,0,0,0,0,0,0,
0,0,0,0,0,0,0,0,0,0,0,0,0,0,0,0,0,0,0,0,0,0,0,0,0,0,0,0,0,0,0,0,0,0,0,0,0,0,0,0,0,0,0,0,0,0,0,0,0,0,0,0,0,0,0,0,0,0,0,0,0,0,0,0,0,0,0,0,0,0,0,0,0,0,0,0,0,0,0,0,0,0,0,0,0,0,0,0,0,0,0,0,0,0,0,0,0,0,0,0,
0,0,0,0,0,0,0,0,0,0,0,0,0,0,0,0,0,0,0,0,0,0,0,0,0,0,0,0,0,0,0,0,0,0,0,0,0,0,0,0,0,0,0,0,0,0,0,0,0,0,0,0,0,0,0,0,0,0,0,0,0,0,0,0,0,0,0,0,0,0,0,0,0,0,0,0,0,0,0,0,0,0,0,0,0,0,0,0,0,0,0,0,0,0,0,0,0,0,0,0,
0,0,0,0,0,0,0,0,0,0,0,0,0,0,0,0,0,0,0,0,0,0,0,0,0,0,0,0,0,0,0,0,0,0,0,0,0,0,0,0,0,0,0,0,0,0,0,0,0,0,0,0,0,0,0,0,0,0,0,0,0,0,0,0,0,0,0,0,0,0,0,0,0,0,0,0,0,0,0,0,0,0,0,0,0,0,0,0,0,0,0,0,0,0,0,0,0,0,0,0,
0,0,0,0,0,0,0,0,0,0,0,0,0,0,0,0,0,0,0,0,0,0,0,0,0,0,0,0,0,0,0,0,0,0,0,0,0,0,0,0,0,0,0,0,0,0,0,0,0,0,0,0,0,0,0,0,0,0,0,0,0,0,0,0,0,0,0,0,0,0,0,0,0,0,0,0,0,0,0,0,0,0,0,0,0,0,0,0,0,0,0,0,0,0,0,0,0,0,0,0
</data>
 </layer>
</map>
