<?xml version="1.0" encoding="UTF-8"?>
<map version="1.0" orientation="orthogonal" renderorder="right-down" width="100" height="29" tilewidth="32" tileheight="32" nextobjectid="1">
 <tileset firstgid="1" name="1" tilewidth="32" tileheight="32" tilecount="256" columns="8">
  <image source="Tiles/1.png" width="256" height="1024"/>
 </tileset>
 <tileset firstgid="257" name="2" tilewidth="32" tileheight="32" tilecount="256" columns="8">
  <image source="Tiles/2.png" width="256" height="1024"/>
 </tileset>
 <tileset firstgid="513" name="3" tilewidth="32" tileheight="32" tilecount="256" columns="8">
  <image source="Tiles/3.png" width="256" height="1024"/>
 </tileset>
 <tileset firstgid="769" name="4" tilewidth="32" tileheight="32" tilecount="256" columns="8">
  <image source="Tiles/4.png" width="256" height="1024"/>
 </tileset>
 <tileset firstgid="1025" name="tile group" tilewidth="32" tileheight="32" tilecount="21000" columns="140">
  <image source="Tiles/tile group.png" width="4480" height="4800"/>
 </tileset>
 <tileset firstgid="22025" name="the_public_pokemon_tileset_by_thatssowitty-d4ni56y" tilewidth="32" tileheight="32" tilecount="7000" columns="8">
  <image source="Tiles/the_public_pokemon_tileset_by_thatssowitty-d4ni56y.png" width="256" height="28000"/>
 </tileset>
 <tileset firstgid="29025" name="sinnohtiles" tilewidth="32" tileheight="32" tilecount="1554" columns="37">
  <image source="Tiles/sinnohtiles.png" width="1214" height="1356"/>
 </tileset>
 <tileset firstgid="30579" name="Sinoh Pokémon overworld" tilewidth="32" tileheight="32" tilecount="1188" columns="22">
  <image source="Tiles/Sinoh Pokémon overworld.png" width="704" height="1728"/>
 </tileset>
 <layer name="Layer 1" width="100" height="29">
  <data encoding="csv">
5662,5662,5662,5662,5662,5662,5662,5662,5662,5662,5662,5662,5662,5662,5662,5662,5662,5662,5662,5662,5662,5662,5662,722,722,722,722,722,722,722,722,722,722,5662,5662,5662,5662,5662,5662,5662,5662,5662,5662,5662,5662,5662,5662,5662,5662,5662,5662,5662,722,722,722,722,722,722,722,722,722,722,722,722,722,722,722,722,722,5662,5662,5662,5662,5662,5662,5662,5662,5662,5662,5662,5662,5662,5662,5662,5662,5662,5662,5662,5662,5662,5662,5662,5662,5662,5662,5662,5662,5662,5662,5662,
5662,5662,5662,5662,5662,5662,5662,5662,5662,5662,5662,5662,5662,5662,5662,5662,5662,5662,5662,5662,5662,5662,5662,722,722,722,722,722,722,722,722,722,722,5662,5662,5662,5662,5662,5662,5662,5662,5662,5662,5662,5662,5662,5662,5662,5662,5662,5662,5662,722,722,722,722,722,722,722,722,722,722,722,722,722,722,722,722,722,5662,5662,5662,5662,5662,5662,5662,5662,5662,5662,5662,5662,5662,5662,5662,5662,5662,5662,5662,5662,5662,5662,5662,5662,5662,5662,5662,5662,5662,5662,5662,
5662,5662,5662,5662,5662,5662,5662,5662,5662,5662,5662,5662,5662,5662,5662,5662,5662,5662,5662,5662,5662,5662,5662,5662,5662,722,722,722,722,722,722,722,5662,5662,5662,5662,5662,5662,5662,5662,5662,5662,5662,5662,5662,5662,5662,5662,5662,5662,5662,5662,5662,722,722,722,722,722,722,722,722,722,5662,5662,5662,5662,5662,5662,5662,5662,5662,5662,5662,5662,5662,5662,5662,5662,5662,5662,5662,5662,5662,5662,5662,5662,5662,5662,5662,5662,5662,5662,5662,5662,5662,5662,5662,5662,5662,5662,
5662,5662,5662,5662,5662,5662,5662,5662,5662,5662,5662,722,722,722,722,5662,5662,5662,5662,5662,5662,5662,5662,5662,5662,5662,5662,5662,5662,5662,5662,5662,5662,5662,5662,5662,5662,5662,5662,5662,5662,5662,5662,5662,5662,5662,5662,5662,5662,5662,5662,5662,5662,5662,722,722,722,722,722,722,5662,5662,5662,5662,5662,5662,5662,5662,5662,5662,5662,5662,5662,5662,5662,5662,5662,5662,5662,5662,5662,5662,5662,5662,722,722,722,722,722,5662,5662,5662,5662,5662,5662,5662,5662,5662,5662,5662,
722,722,722,722,722,722,722,722,722,722,722,722,722,722,722,722,722,722,722,722,5662,5662,5662,5662,5662,5662,5662,5662,5662,5662,5662,5662,5662,5662,5662,5662,5662,5662,5662,5662,5662,5662,5662,5662,722,722,722,722,722,722,5662,5662,5662,5662,5662,722,722,722,5662,5662,5662,5662,5662,5662,5662,5662,5662,5662,5662,5662,5662,5662,5662,5662,5662,5662,5662,5662,5662,5662,5662,722,722,722,722,722,722,722,722,722,722,722,722,722,5662,5662,5662,5662,5662,5662,
722,722,722,722,722,722,722,722,722,722,722,722,722,722,722,722,722,722,722,722,722,5662,5662,5662,5662,5662,5662,5662,5662,5662,5662,5662,5662,5662,5662,5662,5662,5662,5662,5662,5662,722,722,722,722,722,722,722,722,722,722,5662,5662,5662,5662,5662,5662,5662,5662,5662,5662,5662,5662,5662,5662,5662,5662,5662,5662,5662,5662,5662,5662,5662,5662,5662,5662,5662,5662,722,722,722,722,722,722,722,722,722,722,722,722,722,722,722,722,722,722,5662,5662,5662,
802,802,802,722,722,722,722,8,722,722,722,722,722,722,802,802,802,802,722,722,722,722,5662,5662,5662,5662,5662,5662,5662,5662,5662,5662,5662,5662,5662,722,722,722,722,722,722,722,722,722,722,722,722,722,722,722,722,722,5662,5662,5662,5662,5662,5662,5662,5662,5662,5662,722,722,722,722,722,722,5662,5662,5662,5662,5662,5662,722,722,722,722,722,722,722,722,722,722,722,722,722,722,722,802,802,802,722,722,722,722,722,722,722,722,
802,802,802,802,802,802,802,802,802,802,802,802,802,802,802,802,802,802,802,722,722,722,722,722,722,5662,5662,5662,5662,5662,5662,722,722,722,722,722,722,722,722,722,722,722,722,722,802,802,802,802,802,722,722,722,5662,5662,5662,5662,5662,5662,5662,5662,5662,722,722,722,722,722,722,722,722,722,722,722,722,722,722,722,722,722,722,722,722,722,722,722,722,802,802,802,802,802,802,802,802,802,802,802,802,722,722,722,
802,802,802,802,802,802,802,802,802,802,802,802,802,802,802,802,802,802,802,802,722,722,722,722,722,722,722,722,722,722,722,722,722,722,722,722,722,802,802,802,802,802,802,802,802,802,802,802,802,802,722,722,722,5662,5662,5662,5662,5662,722,722,722,722,722,722,722,722,722,722,722,722,722,722,722,722,722,722,722,722,722,722,802,802,802,802,802,802,802,802,802,802,802,802,802,802,802,802,802,802,802,722,
802,802,802,802,802,802,802,802,802,802,802,802,802,802,802,802,802,802,802,802,802,802,722,722,722,722,722,722,722,722,722,722,722,722,722,802,802,802,802,802,802,802,802,802,802,802,802,802,802,802,802,722,722,722,5662,5662,5662,5662,722,722,722,722,802,802,802,802,722,722,722,722,722,722,722,722,722,722,722,722,802,802,802,802,802,802,802,802,802,802,802,802,802,802,802,802,802,802,802,802,802,802,
802,802,802,802,802,802,802,802,802,802,802,802,802,802,802,802,802,802,802,802,802,802,802,802,722,722,722,722,722,802,802,802,802,802,802,802,802,802,802,802,802,802,802,802,802,802,802,802,802,802,722,722,722,5662,5662,5662,5662,722,722,722,802,802,802,802,802,802,802,802,802,802,802,802,802,802,802,802,802,802,802,802,802,802,802,802,802,802,802,802,802,802,802,802,802,802,802,802,802,802,24,802,
802,802,802,802,802,802,802,802,802,802,802,802,802,802,409,410,410,411,802,802,802,802,802,802,802,802,802,802,802,802,802,802,802,802,802,802,802,802,802,802,802,802,802,802,802,802,802,802,722,722,722,722,722,5662,5662,722,722,722,722,802,802,802,802,802,802,802,802,802,802,802,802,802,802,802,802,802,802,802,802,802,802,802,802,802,802,802,802,802,802,802,802,802,802,802,802,802,802,802,24,802,
802,802,802,802,802,802,802,802,802,802,409,410,410,410,389,380,381,388,410,410,410,411,802,802,802,802,802,802,802,802,802,802,802,802,802,802,802,802,802,409,410,410,410,410,410,410,411,802,722,722,722,722,722,722,722,722,722,722,410,409,410,411,802,802,802,802,802,802,802,802,802,802,802,802,802,802,802,802,802,802,802,802,802,802,802,802,409,410,410,410,410,410,411,802,802,802,802,802,24,802,
802,802,802,802,409,410,410,411,802,802,425,426,426,426,426,427,425,426,426,426,426,388,410,410,411,802,802,802,802,802,802,802,802,802,802,409,410,410,410,389,380,426,426,426,426,426,427,802,722,722,722,722,722,722,722,722,722,722,802,425,426,381,410,410,410,410,411,802,802,802,802,802,802,802,409,410,410,410,410,410,410,410,410,410,410,410,418,418,380,426,381,418,388,410,411,802,802,410,410,410,
802,802,802,409,389,380,426,427,802,802,802,802,802,802,802,802,802,802,802,802,802,425,426,426,427,802,409,411,802,802,802,802,802,409,410,389,426,426,426,426,427,802,802,802,802,802,802,722,722,722,722,722,722,722,722,722,722,802,802,802,802,425,426,426,426,381,388,410,410,411,802,802,409,410,380,426,426,426,426,426,426,426,426,426,426,426,426,426,427,802,425,426,426,426,388,410,410,418,418,418,
802,409,410,380,426,427,802,802,802,802,802,802,802,802,802,802,802,802,802,802,802,802,802,802,802,802,425,427,802,409,410,410,410,389,380,427,802,802,802,802,802,802,802,802,802,802,722,722,722,722,722,722,722,722,722,722,722,802,802,802,802,802,802,802,802,425,426,381,418,388,410,410,389,380,427,802,802,802,802,802,802,802,802,802,802,802,802,802,802,802,802,802,802,802,425,426,418,426,426,426,
409,389,380,427,802,802,802,802,802,802,802,802,802,802,802,802,802,802,802,802,802,802,802,802,802,802,802,802,802,425,426,426,426,426,427,802,802,802,802,802,802,802,802,802,722,722,722,722,722,722,722,722,722,722,722,722,802,802,802,802,802,802,802,802,802,802,802,425,426,426,426,426,426,427,802,802,802,802,802,802,802,802,802,802,802,802,802,802,4248,802,802,802,802,802,802,802,802,425,24,400,
389,380,427,802,802,802,802,802,802,802,802,802,802,722,722,722,722,722,722,802,802,802,802,802,802,802,802,802,802,802,802,802,802,802,802,802,802,802,802,802,802,722,722,722,722,722,722,722,722,722,722,722,722,722,722,802,802,802,802,802,802,802,802,802,802,802,802,802,802,802,802,802,802,802,802,802,802,802,802,802,802,802,802,802,802,802,802,802,802,4248,4248,4248,4248,802,802,802,802,802,802,802,
426,427,802,802,802,802,802,802,802,802,802,722,722,722,722,722,722,722,722,722,722,722,802,802,802,802,802,802,802,802,802,802,802,802,802,802,802,802,802,722,722,722,722,722,722,722,722,722,722,722,722,722,722,722,802,802,802,802,802,802,802,802,802,802,802,802,802,802,802,802,802,802,802,802,802,802,802,802,802,802,802,802,802,802,802,802,802,802,802,802,802,802,4248,4248,802,4248,4248,802,802,802,
802,802,802,802,802,802,802,802,802,722,722,722,722,722,722,722,722,722,722,722,722,722,722,722,802,802,802,802,802,802,802,802,802,802,802,802,802,4248,722,722,722,722,722,722,722,722,722,722,722,722,722,722,722,802,802,802,802,802,802,802,802,802,802,802,802,802,802,802,802,802,802,802,802,722,722,802,802,802,802,722,722,722,722,722,722,722,722,722,722,722,722,722,802,802,802,802,4248,802,802,802,
802,802,802,802,802,802,802,722,722,722,722,722,722,722,722,5662,5662,5662,722,722,722,722,722,722,722,722,722,722,722,722,722,722,722,722,722,722,722,722,722,722,722,5662,5662,722,722,722,722,722,722,722,722,802,802,802,802,802,802,802,802,802,802,802,802,802,802,722,722,722,722,722,722,722,722,722,722,722,722,722,722,722,722,722,722,722,722,722,722,722,722,722,722,722,722,722,722,4248,4248,802,802,802,
802,802,802,802,722,722,722,722,722,722,722,722,722,5662,5662,5662,5662,5662,5662,5662,5662,722,722,722,722,722,722,722,722,722,722,722,722,722,722,722,722,722,722,722,5662,5662,5662,5662,722,722,722,722,722,722,722,722,802,802,802,802,802,802,802,802,722,722,722,722,722,722,722,722,722,722,722,722,722,722,722,722,722,722,722,722,722,722,722,722,722,722,722,722,722,722,722,722,722,722,722,722,802,802,802,802,
722,722,722,722,722,722,722,722,722,722,722,5662,5662,5662,5662,5662,5662,5662,5662,5662,5662,5662,5662,5662,5662,722,722,722,722,722,722,5662,5662,5662,5662,5662,5662,5662,5662,5662,5662,5662,5662,5662,5662,722,722,722,722,722,722,722,722,722,722,722,722,722,722,722,722,722,722,722,722,722,722,722,722,722,5662,5662,5662,5662,722,722,722,722,722,722,722,722,722,722,5662,5662,5662,5662,5662,5662,5662,722,722,722,722,722,722,802,802,722,
722,722,722,722,722,722,722,722,5662,5662,5662,5662,5662,5662,5662,5662,5662,5662,5662,5662,5662,5662,5662,5662,5662,5662,5662,5662,5662,5662,5662,5662,5662,5662,5662,5662,5662,5662,5662,5662,5662,5662,5662,5662,5662,5662,5662,5662,5662,722,722,722,722,722,722,722,722,722,722,722,722,722,722,5662,5662,5662,5662,5662,5662,5662,5662,5662,5662,5662,5662,5662,5662,5662,5662,5662,5662,5662,5662,5662,5662,5662,5662,5662,5662,5662,5662,5662,722,722,722,722,722,722,722,722,
5662,5662,5662,5662,5662,5662,5662,5662,5662,5662,5662,5662,5662,5662,5662,5662,5662,5662,5662,5662,5662,5662,5662,5662,5662,5662,5662,5662,5662,5662,5662,5662,5662,5662,5662,5662,5662,5662,5662,5662,5662,5662,5662,5662,5662,5662,5662,5662,5662,5662,5662,5662,5662,5662,5662,5662,5662,5662,5662,5662,5662,5662,5662,5662,5662,5662,5662,5662,5662,5662,5662,5662,5662,5662,5662,5662,5662,5662,5662,5662,5662,5662,5662,5662,5662,5662,5662,5662,5662,5662,5662,5662,5662,5662,5662,722,722,722,722,722,
5662,5662,5662,5662,5662,5662,5662,5662,5662,5662,5662,5662,5662,5662,5662,5662,5662,5662,5662,5662,5662,5662,5662,5662,5662,5662,5662,5662,5662,5662,5662,5662,5662,5662,5662,5662,5662,5662,5662,5662,5662,5662,5662,5662,5662,5662,5662,5662,5662,5662,5662,5662,5662,5662,5662,5662,5662,5662,5662,5662,5662,5662,5662,5662,5662,5662,5662,5662,5662,5662,5662,5662,5662,5662,5662,5662,5662,5662,5662,5662,5662,5662,5662,5662,5662,5662,5662,5662,5662,5662,5662,5662,5662,5662,5662,5662,5662,5662,722,722,
5662,5662,5662,5662,5662,5662,5662,5662,5662,5662,5662,5662,5662,5662,5662,722,722,722,722,722,722,5662,5662,5662,5662,5662,5662,5662,5662,5662,722,722,722,722,722,722,722,722,722,722,5662,5662,5662,5662,5662,5662,5662,5662,5662,5662,5662,5662,5662,5662,5662,5662,5662,5662,5662,5662,5662,5662,5662,5662,5662,5662,5662,5662,5662,5662,5662,722,722,722,722,722,722,722,722,722,5662,5662,5662,5662,5662,5662,5662,5662,5662,5662,5662,5662,5662,5662,5662,5662,5662,5662,5662,5662,
5662,5662,5662,5662,5662,5662,5662,5662,5662,5662,5662,5662,5662,722,722,722,722,722,722,722,722,722,5662,5662,5662,5662,722,722,722,722,722,722,722,722,722,722,722,722,722,722,722,722,722,722,5662,5662,5662,5662,5662,5662,5662,5662,5662,5662,5662,5662,5662,5662,5662,5662,5662,5662,5662,5662,5662,5662,722,722,722,722,722,722,722,722,722,722,722,722,722,722,722,722,722,722,5662,5662,5662,5662,5662,5662,5662,5662,5662,5662,5662,5662,5662,5662,5662,5662,
5662,5662,5662,5662,5662,5662,5662,5662,5662,5662,5662,5662,722,722,722,722,722,722,722,722,722,722,722,722,722,722,722,722,722,722,722,722,722,722,722,722,722,722,722,722,722,722,722,722,722,722,5662,5662,5662,5662,5662,5662,5662,5662,5662,5662,5662,5662,5662,5662,5662,5662,722,722,722,722,722,722,722,722,722,722,722,722,722,722,722,722,722,722,722,722,722,722,722,722,5662,5662,5662,5662,5662,5662,5662,5662,5662,5662,5662,5662,5662,5662
</data>
 </layer>
 <layer name="Layer 2" width="100" height="29">
  <data encoding="csv">
0,0,0,0,0,0,0,0,0,0,0,0,0,0,0,0,0,0,0,0,0,0,0,5663,0,0,0,0,0,6370,0,0,5661,0,0,0,0,0,510,0,0,0,0,0,0,0,0,0,0,716,716,0,5663,0,0,0,0,0,0,0,0,0,0,0,0,0,0,0,5661,0,0,0,0,0,0,0,0,0,0,0,716,0,0,0,0,0,0,0,0,510,0,0,0,716,716,0,0,0,0,0,
0,0,0,0,510,0,716,0,0,0,0,0,0,0,0,0,0,0,0,0,0,0,0,6081,5522,5523,0,0,0,0,0,5521,6082,0,0,0,0,0,0,0,0,0,0,0,0,0,0,0,0,0,0,716,6081,5523,0,0,0,0,360,0,0,5521,5522,5522,5522,5522,5522,5522,6082,0,0,0,0,0,0,0,0,0,716,716,716,0,0,0,0,0,0,0,0,0,0,0,0,716,0,0,0,0,0,0,
0,0,0,0,0,0,0,0,0,0,781,781,781,781,781,781,0,0,0,0,0,0,31198,0,0,6081,5522,5522,5522,5522,5522,6082,0,0,0,368,0,0,31200,0,0,0,0,0,0,0,0,0,0,510,0,0,0,6081,5523,0,0,0,0,5521,5522,6082,0,0,375,0,0,716,0,0,510,0,0,0,0,716,716,716,0,0,0,0,0,781,781,781,781,781,781,781,0,0,0,0,0,0,368,0,0,0,
781,781,781,781,781,781,781,781,781,781,781,0,23,23,0,781,781,781,781,781,781,0,0,0,0,716,716,0,0,31220,0,31220,0,0,0,0,0,0,0,0,0,0,0,781,781,781,781,781,781,781,781,0,0,0,6081,5523,0,5521,5522,6082,0,0,0,31265,0,0,0,0,0,0,0,0,0,0,0,0,0,0,0,0,781,781,781,781,0,0,0,0,0,781,781,781,781,781,781,0,0,368,0,0,
0,0,0,0,0,368,0,0,0,367,0,23,23,0,0,0,0,0,0,0,781,781,0,0,0,0,716,716,0,0,31220,0,0,0,0,0,0,0,0,0,781,781,781,781,0,0,0,23,23,0,781,781,0,0,0,6081,5522,6082,0,0,0,0,0,0,0,0,0,0,0,0,0,0,0,0,0,0,0,0,781,781,781,0,0,367,0,0,0,0,0,0,0,0,0,0,781,781,781,781,0,0,
794,794,794,795,0,0,793,794,795,0,0,23,0,793,794,794,794,794,795,0,0,781,781,0,0,31200,0,0,0,0,0,0,0,0,781,781,781,781,781,781,781,368,0,0,0,0,0,0,23,23,0,781,781,0,716,716,0,0,0,0,0,781,781,781,781,781,781,781,781,0,0,0,0,781,781,781,781,781,781,0,23,0,0,0,0,0,0,0,793,794,794,794,795,0,0,0,0,781,781,781,
2606,2607,2608,799,794,794,800,0,799,794,794,794,794,800,0,0,2606,2607,799,795,0,0,781,781,781,781,0,0,0,0,781,781,781,781,781,0,0,0,368,0,0,0,0,793,794,794,794,794,794,795,0,0,781,0,0,0,0,0,0,0,781,781,0,0,0,0,0,0,781,781,781,781,781,781,0,0,0,0,23,23,23,0,0,0,793,794,794,794,800,2590,2591,2592,799,794,794,794,794,795,0,0,
1332,0,2590,2591,2592,0,2590,2591,2592,0,2590,2591,2592,0,2587,2588,2589,0,0,799,795,0,0,0,367,781,781,781,781,781,781,0,0,0,0,0,793,794,794,794,794,794,794,800,7,7,7,0,7,799,795,0,781,781,0,0,510,781,781,781,781,0,0,0,0,0,0,0,0,0,0,0,368,368,0,0,0,0,0,793,794,794,794,794,800,0,0,2590,2591,2592,0,2606,2607,2608,0,2590,2591,5519,794,795,
2590,2591,2592,0,1330,1331,1332,0,2590,2591,2592,0,2590,2591,2592,0,1330,1331,1332,0,799,794,795,0,0,0,0,0,0,0,0,0,0,0,793,794,800,0,0,0,29915,7,7,7,7,7,7,0,7,7,799,795,0,781,781,0,0,781,0,0,0,793,794,794,794,794,795,0,0,0,0,0,0,0,0,0,0,793,794,800,0,2606,2607,2608,0,1330,1331,1332,0,2587,2588,2589,0,2590,2591,2592,0,0,0,799,
2608,0,2590,2591,2592,0,2587,2588,2589,0,2606,2607,2608,0,2606,2607,2608,0,2590,2591,2592,0,799,794,795,0,0,0,793,794,794,794,794,794,800,0,0,0,7,7,7,7,7,7,7,7,7,7,7,7,0,803,0,0,781,0,781,781,0,793,794,800,0,2590,2591,2592,799,794,794,794,794,794,794,794,794,794,794,800,0,2590,2591,2592,0,2590,2591,2592,0,2606,2607,2608,0,2606,2607,2608,0,2590,2591,5518,794,800,
2587,2588,2589,0,2606,2607,2608,0,2606,2607,2608,0,2587,2588,2589,0,2590,2591,2592,0,2590,2591,2592,0,799,794,794,794,800,0,0,0,0,0,0,0,0,7,7,7,7,0,0,0,0,0,7,7,7,0,791,811,0,781,781,781,781,0,793,800,0,2590,2591,2592,0,2606,2607,2608,0,2590,2591,2592,0,1330,1331,1332,0,2590,2591,2592,0,2606,2607,2608,0,2587,2588,2589,0,2590,2591,2592,0,2587,2588,2589,29840,801,0,793,
2592,0,1330,1331,1332,0,2590,2591,2592,0,2590,2591,2592,0,0,0,0,0,1330,1331,1332,0,2606,2607,2608,0,2590,2591,2592,0,2590,2591,2592,0,0,2587,2588,2589,0,0,0,0,0,0,0,0,0,0,791,810,811,0,0,781,781,781,0,0,801,2588,2589,0,29915,1330,1331,1332,0,2590,2591,2592,0,2587,2588,2589,0,2606,2607,2608,0,2587,2588,2589,0,2587,2588,2589,29840,2590,2591,2592,0,1330,1331,1332,0,0,29840,801,0,801,
2606,2607,2608,0,2587,2588,2589,29877,2587,2588,2589,0,0,0,0,0,0,0,0,0,0,0,0,0,1330,1331,1332,2591,1330,1331,1332,0,2606,2607,2608,0,0,29915,0,0,4358,0,0,4358,0,0,0,0,803,0,0,0,0,0,0,0,0,793,800,0,2606,2607,2608,29915,0,2587,2588,2589,0,1330,1331,1332,0,2606,2607,2608,0,2590,2591,2592,0,1330,1331,1332,0,0,0,0,0,0,0,0,0,2606,2607,2608,793,800,0,809,
2592,0,2590,2591,2592,0,0,0,29915,0,0,0,0,0,0,0,0,0,0,0,0,416,0,0,0,0,2590,2591,2592,0,1330,1331,1332,0,2590,2591,2592,0,0,0,0,0,0,0,0,0,0,0,803,0,0,0,0,0,0,0,793,800,0,0,0,423,0,0,0,0,0,2606,2607,2608,29840,2590,2591,2592,424,0,0,0,0,0,0,0,0,0,0,0,0,0,0,0,0,0,0,0,0,0,801,0,0,0,
1330,1331,1332,0,0,0,0,0,0,0,0,0,0,0,0,0,0,0,0,0,0,0,0,0,0,0,0,0,2606,2607,55,0,0,0,0,415,0,0,0,0,0,0,4358,0,0,0,0,791,811,0,0,0,0,0,0,0,801,0,0,0,0,0,0,0,0,0,0,0,0,0,29915,29840,0,0,424,0,0,0,0,0,0,0,0,0,0,0,0,0,0,0,0,0,0,0,416,0,801,0,0,0,
0,0,0,0,0,0,0,0,0,0,2590,2591,2592,0,2587,2588,2589,0,1330,1331,1332,0,0,0,29879,0,0,0,2746,2747,2748,0,0,0,0,0,0,0,0,0,0,0,2587,2588,2589,0,791,811,0,0,0,0,23,23,0,793,800,0,0,0,0,0,0,0,0,0,0,0,0,0,0,0,0,0,0,0,0,0,0,7,0,0,0,0,0,0,0,0,0,0,0,29879,29879,0,0,0,801,0,0,0,
0,0,0,0,0,0,0,0,2590,2591,2592,0,2606,2607,2608,0,2590,2591,2592,0,2606,2607,2608,0,0,0,29877,0,0,0,0,0,0,0,0,0,2587,2588,2589,0,1330,1331,1332,0,791,810,811,0,0,0,367,0,23,0,0,801,0,0,0,7,0,0,0,0,0,29915,0,0,0,0,0,0,0,0,7,29879,0,0,7,7,7,7,7,7,7,7,7,0,0,0,0,0,29915,0,0,0,809,792,0,0,
0,0,0,0,0,0,0,0,0,0,2590,2591,2592,791,810,810,810,810,792,0,0,29840,2590,2591,2592,0,0,0,0,0,0,0,0,0,2590,2591,2592,0,2590,2591,2592,791,810,810,811,0,0,0,0,0,23,0,0,0,793,800,0,7,7,7,7,7,7,7,29879,0,7,7,6973,0,0,0,0,7,7,29915,0,7,7,7,7,7,0,0,0,7,7,7,29915,0,0,0,0,0,0,29879,0,801,0,0,
0,0,0,0,2590,2591,2592,0,2587,2588,2589,791,810,811,0,0,0,0,809,810,810,792,0,29879,2590,2591,2592,0,2587,2588,2589,0,2590,2591,2592,0,2606,2607,29879,791,810,811,0,0,0,23,23,0,0,0,0,0,793,794,800,0,29915,7,7,7,0,7,0,7,7,7,7,7,0,7,7,7,7,29879,29915,0,0,7,0,0,0,0,0,0,0,0,0,0,0,0,0,0,0,0,0,0,0,801,2590,2591,
0,0,2587,2588,2589,0,2590,2591,2592,791,810,811,0,0,0,0,368,0,0,0,0,809,810,792,29879,29840,2587,2588,2589,0,2606,2607,29879,29915,2587,2588,2589,0,791,811,0,0,0,0,0,0,0,0,0,0,793,794,800,7,7,7,7,7,7,7,7,7,0,0,0,7,0,0,7114,7,7,7,7,791,792,0,0,0,0,791,810,810,810,810,810,810,810,810,810,810,810,792,0,0,0,0,0,809,810,792,
2590,2591,2592,0,2606,2607,3975,791,810,811,23,0,0,367,0,781,781,781,0,0,0,0,23,809,810,810,810,810,810,810,810,810,810,810,810,810,810,810,811,0,0,781,781,0,0,0,793,794,794,794,800,7,7,7,0,7,7,0,7,0,0,0,0,0,0,791,810,810,810,810,810,810,810,811,809,810,810,810,810,811,0,0,0,0,0,0,368,0,0,0,0,809,810,810,792,0,0,0,0,801,
29879,29915,2587,2588,791,810,810,811,0,0,23,0,0,781,781,781,0,781,781,781,781,23,0,0,0,0,23,23,0,0,0,0,0,0,0,0,0,0,0,0,781,781,781,781,0,0,809,810,810,810,810,792,0,0,29915,0,0,0,0,0,791,810,810,810,810,811,0,0,0,0,0,0,0,0,0,0,0,0,0,0,0,0,0,0,0,368,0,0,0,0,0,0,0,0,809,792,0,29915,0,809,
810,810,810,810,811,0,0,0,0,0,0,781,781,781,0,0,0,0,0,0,781,781,781,781,781,0,23,0,0,0,0,781,781,781,781,781,781,781,781,781,781,0,0,781,781,0,0,0,0,0,0,809,810,810,810,810,810,810,810,810,811,0,23,23,23,0,0,0,0,0,781,781,781,781,0,0,367,0,0,0,0,0,0,0,781,781,781,781,781,781,781,0,0,0,0,809,792,0,29879,791,
0,0,0,0,0,0,367,0,781,781,781,781,0,0,0,0,0,0,0,0,0,0,0,0,781,781,781,781,781,781,781,781,0,0,0,0,0,0,0,0,0,0,0,0,781,781,781,781,781,0,0,0,0,0,0,0,0,0,0,0,0,0,0,781,781,781,781,781,781,781,781,0,0,781,781,781,781,781,781,781,781,781,781,781,781,0,0,0,0,0,781,781,0,0,0,0,809,810,810,811,
781,781,781,781,781,781,781,781,781,0,0,0,0,0,0,0,6650,0,0,0,0,0,0,0,0,0,0,0,0,0,0,0,0,0,0,0,0,0,0,0,0,0,368,0,0,0,0,0,781,781,781,781,781,781,781,781,781,781,781,781,781,781,781,781,0,0,0,0,0,0,0,0,0,0,0,0,0,0,0,0,0,0,0,0,0,0,0,0,0,0,0,781,781,781,781,0,0,0,0,0,
0,0,0,0,0,0,0,0,0,0,0,6650,0,0,0,0,0,0,0,0,0,0,0,31244,0,0,0,31265,0,0,0,0,0,0,0,0,0,0,375,0,0,0,0,0,0,0,368,0,0,0,0,0,0,0,0,0,0,0,0,0,0,0,0,0,0,0,0,0,0,0,0,0,0,0,0,0,0,0,0,0,31265,0,0,0,510,0,0,0,0,368,0,0,0,0,781,781,781,781,0,0,
0,0,0,0,0,0,0,0,0,0,0,0,0,0,0,5941,5802,5802,5802,5802,5942,0,0,0,31244,0,0,0,0,0,5941,5802,5802,5802,5802,5802,5802,5802,5802,5942,0,0,0,0,0,0,0,0,0,0,0,0,0,0,0,0,0,0,0,0,0,0,0,716,0,0,0,0,0,0,0,5941,5802,5802,5802,5802,5802,5802,5802,5942,0,0,0,0,0,0,0,0,0,0,0,0,0,0,0,0,0,781,781,781,
0,0,0,0,0,0,0,0,0,0,0,0,0,5941,5802,5803,0,0,0,0,5801,5942,0,0,0,0,5941,5802,5802,5802,5803,0,0,0,0,0,0,0,0,5801,5802,5802,5802,5942,0,0,0,0,0,0,0,0,0,0,716,0,0,0,0,0,0,0,0,0,0,0,5941,5802,5802,5802,5802,5803,0,0,0,0,0,0,0,5801,5802,5802,5802,5942,0,0,0,0,0,0,0,716,716,0,0,0,0,0,0,0,
0,0,0,6650,0,0,0,0,0,0,0,0,5941,5803,0,0,0,0,0,0,0,5801,5802,5802,5802,5802,5803,0,0,0,0,6510,0,0,0,0,0,360,0,0,0,0,0,5801,5802,5942,0,0,0,0,0,0,0,0,0,716,716,0,0,0,0,0,5941,5802,5802,5802,5803,0,0,0,0,0,0,0,0,0,0,0,0,0,0,0,0,5801,5802,5942,0,0,0,0,0,0,716,716,716,0,0,0,0,0
</data>
 </layer>
 <layer name="Layer 3" width="100" height="29">
  <data encoding="csv">
781,781,781,781,781,781,781,781,781,781,781,781,781,781,781,781,781,781,781,781,781,781,781,781,781,781,781,781,781,781,781,781,781,781,781,781,781,781,781,781,781,781,781,781,781,781,781,781,781,781,781,781,781,781,781,781,781,781,781,781,781,781,781,781,781,781,781,781,781,781,781,781,781,781,781,781,781,781,781,781,781,781,781,781,781,781,781,781,781,781,781,781,781,781,781,781,781,781,781,781,
781,781,781,781,781,781,781,781,781,781,781,781,781,781,781,781,781,781,781,781,781,781,781,781,781,781,781,781,781,781,781,781,781,781,781,781,781,781,781,781,781,781,781,781,781,781,781,781,781,781,781,781,781,781,781,781,781,781,781,781,781,781,781,781,781,781,781,781,781,781,781,781,781,781,781,781,781,781,781,781,781,781,781,781,781,781,781,781,781,781,781,781,781,781,781,781,781,781,781,781,
781,781,781,781,781,781,781,781,781,781,713,714,714,714,714,715,781,781,781,781,781,781,781,781,781,781,781,781,781,781,781,781,781,781,781,781,781,781,781,781,781,781,781,781,781,781,781,781,781,781,781,781,781,781,781,781,781,781,781,781,781,781,781,781,781,781,781,781,781,781,781,781,781,781,781,781,781,781,781,781,781,781,781,713,714,714,714,714,714,715,781,781,781,781,781,781,781,781,781,781,
714,714,714,714,714,714,714,714,714,714,724,0,0,0,0,725,714,714,714,714,715,781,781,781,781,781,781,781,781,781,781,781,781,781,781,781,781,781,781,781,781,781,781,713,714,714,714,714,714,714,715,781,781,781,781,781,781,781,781,781,781,781,781,781,781,781,781,781,781,781,781,781,781,781,781,781,781,781,781,781,713,714,714,724,0,0,0,0,0,725,714,714,714,714,715,781,781,781,781,781,
0,0,0,0,0,0,0,0,0,0,0,0,0,0,0,0,0,0,0,0,725,715,781,781,781,781,781,781,781,781,781,781,781,781,781,781,781,781,781,781,713,714,714,724,0,0,0,0,0,0,725,715,781,781,781,781,781,781,781,781,781,781,781,781,781,781,781,781,781,781,781,781,781,781,781,781,781,781,713,714,724,0,0,0,0,0,0,0,0,0,0,0,0,0,725,714,714,715,781,781,
2466,2467,2468,0,0,0,0,0,0,0,0,0,0,0,0,0,2466,2467,2468,0,0,725,715,781,781,781,781,781,781,781,781,781,781,781,713,714,714,714,714,714,724,0,0,0,0,2329,2330,2331,2332,2333,0,725,715,781,781,781,781,781,781,781,781,713,714,714,714,714,714,714,715,781,781,781,781,713,714,714,714,714,724,0,0,0,0,0,0,0,0,0,0,2450,2451,2452,0,0,0,0,0,725,714,714,
1192,0,2450,2451,2452,0,2450,2451,2452,0,2450,2451,2452,0,2447,2448,2449,0,2608,0,0,0,725,714,714,715,781,781,781,781,713,714,714,714,724,0,0,0,0,0,0,0,0,0,0,2469,2470,2471,2472,2473,0,0,723,781,781,781,781,781,781,781,713,724,0,0,0,0,0,0,725,714,714,714,714,724,0,0,0,0,0,0,0,0,0,0,0,0,0,2450,2451,2452,0,2466,2467,2468,0,2450,2451,2452,0,0,
2450,2451,2452,0,1190,1191,1192,0,2450,2451,2452,0,2450,2451,2452,0,1190,1191,1192,0,0,0,0,0,0,725,714,714,714,714,724,0,0,0,0,0,0,0,0,0,0,0,0,0,0,2609,2610,2611,2612,29842,0,0,725,715,781,781,781,713,714,714,724,0,0,0,0,0,0,0,0,0,0,0,0,0,0,0,0,0,0,0,0,2466,2467,2468,0,1190,1191,1192,0,2447,2448,2449,0,2450,2451,2452,0,2592,2310,2311,
2468,0,2450,2451,2452,0,2447,2448,2449,0,2466,2467,2468,0,2466,2467,2468,0,2450,2451,2452,0,0,0,0,0,0,0,0,0,0,0,0,0,0,0,0,4248,25755,0,0,0,0,0,0,2749,2750,2751,2752,2753,0,0,0,725,715,781,781,721,0,0,0,0,0,2450,2451,2452,0,0,0,0,0,0,0,0,0,0,0,0,0,2450,2451,2452,0,2450,2451,2452,0,2466,2467,2468,0,2466,2467,2468,0,2450,2451,2452,2450,2451,
2447,2448,2449,0,2466,2467,2468,0,2466,2467,2468,0,2447,2448,2449,0,2450,2451,2452,0,2450,2451,2452,0,0,0,0,0,0,25764,0,0,0,0,0,4248,4248,0,0,0,0,0,0,0,0,2889,2890,2891,2892,2893,0,0,0,0,723,781,713,724,0,0,0,2450,2451,2452,0,2466,2467,2468,0,2450,2451,2452,0,1190,1191,1192,0,2450,2451,2452,0,2466,2467,2468,0,2447,2448,2449,0,2450,2451,2452,0,2447,2448,2449,0,2592,2590,2591,
2452,0,1190,1191,1192,0,2450,2451,2452,0,2450,2451,2452,112,2746,2747,2748,0,1190,1191,1192,0,2466,2467,2468,0,2450,2451,2452,0,2450,2451,2452,0,2711,2447,2448,2449,0,0,0,0,0,0,0,0,0,0,0,0,0,0,0,733,731,713,724,0,2447,2448,2449,0,0,1190,1191,1192,0,2450,2451,2452,0,2447,2448,2449,0,2466,2467,2468,0,2447,2448,2449,0,2447,2448,2449,0,2450,2451,2452,0,1190,1191,1192,0,0,0,0,0,0,
2466,2467,2468,0,2447,2448,2449,0,2447,2448,2449,0,0,120,0,0,0,0,0,0,0,25755,0,0,1190,1191,1192,0,1190,1191,1192,0,2466,2467,2468,0,0,0,0,0,0,0,0,0,0,0,0,0,0,0,0,0,0,725,714,724,0,0,2587,0,2466,2467,2468,0,0,2447,2448,2449,0,1190,1191,1192,0,2466,2467,2468,0,2450,2451,2452,0,1190,1191,1192,0,0,0,0,0,0,0,0,0,2466,2467,2468,0,0,0,0,
2452,0,2450,2451,2452,0,0,0,0,0,0,0,0,0,0,0,0,0,0,0,0,0,2746,2747,2748,0,2450,2451,2452,0,1190,1191,1192,0,2450,2451,2452,0,0,0,0,0,0,0,0,0,0,0,0,0,0,0,0,0,0,0,0,0,0,0,0,0,0,0,0,0,0,2466,2467,2468,0,2450,2451,2452,0,2746,2747,2748,0,0,0,0,0,0,0,0,0,0,0,0,0,0,0,0,0,0,0,0,0,0,
1190,1191,1192,0,0,0,0,0,0,0,0,0,0,0,0,0,0,0,0,0,0,0,0,0,0,0,0,0,2466,2467,2468,0,2746,2747,2748,0,0,0,0,0,0,0,0,0,0,0,0,0,0,0,0,0,0,0,0,0,0,0,0,0,2746,2747,2748,0,0,0,0,0,0,0,0,0,0,2746,2747,2748,0,0,0,0,0,0,0,0,0,0,0,0,0,0,0,0,0,2746,2747,2748,669,0,0,0,
0,0,0,0,0,0,0,0,0,0,2450,2451,2452,0,2447,2448,2449,0,1190,1191,1192,0,0,0,0,0,0,0,0,0,2608,0,0,0,0,0,0,0,0,0,4358,0,2447,2448,2449,0,4248,0,0,0,0,0,0,0,0,0,0,0,0,0,0,0,0,0,0,0,0,2746,2747,2748,0,0,0,0,0,0,0,0,0,0,0,0,0,0,0,0,0,0,0,0,0,0,0,0,0,0,677,0,0,0,
0,0,0,0,0,0,0,0,2450,2451,2452,0,2466,2467,2468,0,2450,2451,2452,0,2466,2467,2468,0,0,0,0,0,0,0,0,0,0,0,0,0,2447,2448,2449,0,1190,1191,1192,0,0,4248,0,0,0,0,0,0,0,0,0,0,0,0,0,0,0,0,0,0,0,0,0,0,0,0,0,0,0,0,0,0,0,0,0,0,0,0,0,0,0,0,0,0,0,0,0,0,0,0,0,0,685,0,0,0,
0,0,0,0,0,0,2466,2467,2468,0,2450,2451,2452,0,0,55,0,0,2447,2448,2449,0,2450,2451,2452,0,0,0,0,0,0,0,0,0,2450,2451,2452,0,2450,2451,2452,0,0,29842,0,0,0,0,0,0,0,0,0,0,0,0,0,0,0,0,0,0,0,0,0,0,0,0,7259,7821,7822,7823,7824,0,0,0,0,0,0,0,0,0,0,0,0,0,0,0,0,0,0,0,0,8104,7262,0,693,0,0,0,
0,0,0,0,2450,2451,2452,0,2447,2448,2449,0,2746,2747,2748,0,0,0,2587,2588,2746,2747,2748,0,2450,2451,2452,55,2447,2448,2449,0,2450,2451,2452,0,2466,2467,2468,0,0,0,0,0,0,0,0,0,0,0,0,0,0,0,0,0,0,0,0,0,0,0,0,0,7816,7817,7818,7114,7399,7961,7962,7963,7964,0,0,0,0,0,0,0,0,0,0,0,0,0,0,0,0,0,0,0,0,8244,7402,0,0,0,2450,2451,
0,0,2447,2448,2449,0,2450,2451,2452,0,0,0,0,0,0,0,0,0,0,0,0,0,0,0,0,0,2447,2448,2449,0,2466,2467,2468,0,2447,2448,2449,0,2608,0,0,0,0,0,0,0,0,0,0,0,0,0,0,0,0,0,0,0,0,0,0,0,0,8104,7956,7957,7958,7260,7542,6973,6973,6973,6973,0,0,0,0,0,0,0,0,0,0,0,0,0,0,0,0,0,0,0,0,0,7545,7824,0,0,0,0,
2450,2451,2452,0,2466,2467,2468,0,0,0,0,0,0,0,0,0,0,0,0,0,0,0,0,0,0,0,0,0,0,0,0,0,2608,0,0,0,2746,2747,2748,0,0,0,0,0,0,0,0,0,0,0,0,0,0,0,0,0,0,0,0,0,0,0,0,8244,8096,8097,8098,7400,7682,0,0,0,0,0,0,0,0,0,0,0,0,0,0,0,0,0,0,0,0,0,0,0,0,0,7685,7964,0,0,0,0,
2468,0,2447,2448,2449,0,2608,0,0,0,0,0,0,0,0,733,730,732,0,0,0,0,0,0,0,0,0,0,0,0,2746,2747,2748,0,0,0,0,0,0,0,0,733,732,0,0,0,0,25755,0,0,0,0,0,0,0,0,0,0,0,0,0,0,0,0,8236,8237,8238,0,0,0,0,0,0,0,0,0,0,0,0,0,0,0,0,0,0,0,0,0,0,0,0,0,0,0,0,0,0,0,0,0,
2608,0,0,0,2746,2747,2748,0,0,0,0,0,0,733,730,731,781,729,730,730,732,0,0,0,0,0,0,0,0,0,0,0,0,0,0,0,0,0,0,0,733,731,729,732,0,0,0,0,0,0,0,0,0,0,0,0,0,0,0,0,0,0,0,0,0,0,0,0,0,0,0,0,0,0,0,0,0,0,0,0,0,0,0,0,0,0,0,0,0,0,0,0,0,0,0,0,0,0,0,0,
2748,0,0,0,0,0,0,0,0,0,0,733,730,731,781,781,781,781,781,781,729,730,730,730,732,0,0,0,0,0,0,733,730,730,730,730,730,730,730,730,731,781,781,729,732,0,0,0,0,0,0,0,0,0,0,0,0,0,0,0,0,0,0,0,0,0,0,0,0,0,733,730,730,732,0,0,0,0,0,0,0,0,0,0,733,730,730,730,730,730,732,0,0,0,0,0,0,0,0,0,
0,0,0,0,0,0,0,0,733,730,730,731,781,781,781,781,781,781,781,781,781,781,781,781,729,730,730,730,730,730,730,731,781,781,781,781,781,781,781,781,781,781,781,781,729,730,730,730,732,0,0,0,0,0,0,0,0,0,0,0,0,0,0,733,730,730,730,730,730,730,731,781,781,729,730,730,730,730,730,730,730,730,730,730,731,781,781,781,781,781,729,732,0,0,0,0,0,0,0,0,
730,730,730,730,730,730,730,730,731,781,781,781,781,781,781,781,781,781,781,781,781,781,781,781,781,781,781,781,781,781,781,781,781,781,781,781,781,781,781,781,781,781,781,781,781,781,781,781,729,730,730,730,730,730,730,730,730,730,730,730,730,730,730,731,781,781,781,781,781,781,781,781,781,781,781,781,781,781,781,781,781,781,781,781,781,781,781,781,781,781,781,729,730,730,732,0,0,0,0,0,
781,781,781,781,781,781,781,781,781,781,781,781,781,781,781,781,3858,3859,781,781,781,781,781,781,781,781,781,781,781,781,781,781,781,781,781,781,781,781,781,781,781,781,781,781,781,781,781,781,781,781,781,781,781,781,781,781,781,781,781,781,781,781,781,781,781,781,781,781,781,781,781,781,781,781,781,781,781,781,781,781,781,781,781,781,781,781,781,781,781,781,781,781,781,781,729,730,730,732,0,0,
781,781,781,781,781,781,781,781,781,781,781,781,781,781,781,781,3998,3999,3858,3859,781,781,781,781,781,781,781,781,781,781,781,781,781,781,781,781,781,781,781,781,781,781,781,781,781,781,781,781,781,781,781,781,781,781,781,781,781,781,781,781,781,781,781,781,781,781,781,781,781,781,781,781,781,781,781,781,781,781,781,781,781,781,781,781,781,781,781,781,781,781,781,781,781,781,781,781,781,729,730,730,
781,781,781,781,781,781,781,781,781,781,781,781,781,781,781,781,4138,4139,3998,3999,781,781,781,781,781,781,781,781,781,781,781,781,781,781,781,781,781,781,781,781,781,781,781,781,781,781,781,781,781,781,781,781,781,781,781,781,781,781,781,781,781,781,781,781,781,781,781,781,781,781,781,781,781,781,781,781,781,781,781,781,781,781,781,781,781,781,781,781,781,781,781,781,781,781,781,781,781,781,781,781,
781,781,781,781,781,781,781,781,781,781,781,781,781,781,781,781,781,781,4138,4139,781,781,781,781,781,781,781,781,781,781,781,781,781,781,781,781,781,781,781,781,781,781,781,781,781,781,781,781,781,781,781,781,781,781,781,781,781,781,781,781,781,781,781,781,781,781,781,781,781,781,781,781,781,781,781,781,781,781,781,781,781,781,781,781,781,781,781,781,781,781,781,781,781,781,781,781,781,781,781,781
</data>
 </layer>
 <layer name="Top layer " width="100" height="29">
  <data encoding="csv">
0,0,0,0,0,0,0,0,0,0,0,0,0,0,0,0,0,0,0,0,0,0,0,0,0,0,0,0,0,0,0,0,0,0,0,0,0,0,0,0,0,0,0,0,0,0,0,0,0,0,0,0,0,0,0,0,0,0,0,0,0,0,0,0,0,0,0,0,0,0,0,0,0,0,0,0,0,0,0,0,0,0,0,0,0,0,0,0,0,0,0,0,0,0,0,0,0,0,0,0,
0,0,0,0,0,0,0,0,0,0,0,0,0,0,0,0,0,0,0,0,0,0,0,0,0,0,0,0,0,0,0,0,0,0,0,0,0,0,0,0,0,0,0,0,0,0,0,0,0,0,0,0,0,0,0,0,0,0,0,0,0,0,0,0,0,0,0,0,0,0,0,0,0,0,0,0,0,0,0,0,0,0,0,0,0,2326,2327,2328,0,0,0,0,0,0,0,0,0,0,0,0,
0,0,0,0,0,0,0,0,0,0,0,0,0,0,0,0,0,0,0,0,0,0,0,0,0,0,0,0,0,0,0,0,0,0,0,0,0,0,0,0,0,0,0,0,0,0,0,0,0,0,0,0,0,0,0,0,0,0,0,0,0,0,0,0,0,0,0,0,0,0,0,0,0,0,0,0,0,0,0,0,0,0,0,0,0,2466,2467,2468,0,0,0,0,0,0,0,0,0,0,0,0,
0,0,0,0,0,0,0,0,0,0,0,0,0,0,0,0,0,0,0,0,0,0,0,0,0,0,0,0,0,0,0,0,0,0,0,0,0,0,0,0,0,0,0,0,0,0,0,0,0,0,0,0,0,0,0,0,0,0,0,0,0,0,0,0,0,0,0,0,0,0,0,0,0,0,0,0,0,0,0,0,0,0,0,0,0,2606,2607,2608,0,0,0,0,0,0,0,0,0,0,0,0,
2326,2327,2328,0,0,0,0,0,0,0,0,0,0,0,0,0,2326,2327,2328,0,0,0,0,0,0,0,0,0,0,0,0,0,0,0,0,0,0,0,0,0,0,0,0,0,0,0,0,0,0,0,0,0,0,0,0,0,0,0,0,0,0,0,0,0,0,0,0,0,0,0,0,0,0,0,2326,2327,2328,0,0,0,0,0,0,0,0,2746,2747,2748,0,2310,2311,2312,0,0,0,0,0,0,0,0,
1055,0,2310,2311,2312,0,2310,2311,2312,0,2310,2311,2312,0,2307,2308,2309,0,0,0,0,0,0,0,0,0,0,0,0,0,0,0,0,0,0,0,0,0,0,0,0,0,0,0,0,0,0,0,0,0,0,0,0,0,0,0,0,0,0,0,0,0,0,0,0,0,0,0,0,0,0,0,0,0,2466,2467,2468,0,0,0,0,0,0,0,0,0,0,2310,2311,2312,0,2326,2327,2328,0,2310,2311,2312,0,0,
2310,2311,2312,0,1050,1051,1052,0,2310,2311,2312,0,2310,2311,2312,0,1050,1051,1052,0,0,0,0,0,0,0,0,0,0,0,0,0,0,0,0,0,0,0,0,0,0,0,0,0,0,0,0,0,0,0,0,0,0,0,0,0,0,0,0,0,0,0,0,0,0,0,0,0,0,0,0,0,0,0,2606,2607,2608,0,0,0,0,2326,2327,2328,0,1050,1051,1052,0,2307,2308,2309,0,2310,2311,2312,0,0,0,0,
2328,0,2310,2311,2312,0,2307,2308,2309,0,2326,2327,2328,0,2326,2327,2328,0,2310,2311,2312,0,0,0,0,0,0,0,0,0,0,0,0,0,0,0,0,0,0,0,0,30643,0,0,0,0,0,0,0,0,0,0,0,0,0,0,0,0,0,0,0,0,0,2310,2311,2312,0,0,0,0,0,0,0,0,2746,2747,2748,0,0,2310,2311,2312,0,2310,2311,2312,0,2326,2327,2328,0,2326,2327,2328,0,2310,2311,2312,0,0,
2307,2308,2309,0,2326,2327,2328,0,2326,2327,2328,0,2307,2308,2309,0,2310,2311,2312,0,2310,2311,2312,0,0,0,0,0,0,0,0,0,0,0,0,0,0,0,0,0,0,0,0,0,0,0,0,0,0,0,0,0,0,0,0,0,0,0,0,0,0,2310,2311,2312,0,2326,2327,2328,0,2310,2311,2312,0,1050,1051,1052,0,2310,2311,2312,0,2326,2327,2328,0,2307,2308,2309,0,2310,2311,2312,0,2307,2308,2309,0,0,0,0,
2312,0,1050,1051,1052,0,2310,2311,2312,0,2310,2311,2312,0,0,0,0,0,1050,1051,1052,0,2326,2327,2328,0,2310,2311,2312,0,2310,2311,2312,0,0,2307,2308,2309,0,0,0,0,4358,0,0,0,0,0,0,0,0,0,0,0,0,0,0,0,2307,2308,2309,0,0,1050,1051,1052,0,2310,2311,2312,0,2307,2308,2309,0,2326,2327,2328,0,2307,2308,2309,0,2307,2308,2309,0,2310,2311,2312,0,1050,1051,1052,0,0,0,0,0,0,
2326,2327,2328,0,2307,2308,2309,0,2307,2308,2309,0,0,0,0,0,0,0,0,0,0,0,0,0,1050,1051,1052,0,1050,1051,1052,0,2326,2327,2328,0,0,0,0,30643,0,0,30665,0,0,0,0,0,0,0,0,0,0,0,0,0,0,0,0,0,2326,2327,2328,0,0,2307,2308,2309,0,1050,1051,1052,0,2326,2327,2328,0,2310,2311,2312,0,1050,1051,1052,0,0,0,0,0,0,0,0,0,2326,2327,2328,0,0,0,0,
2312,0,2310,2311,2312,0,0,0,0,0,0,0,0,0,0,0,0,0,0,0,0,0,0,0,0,0,2310,2311,2312,0,1050,1051,1052,0,2310,2311,2312,0,0,0,0,0,0,0,0,0,0,0,0,0,0,0,0,0,0,0,0,0,0,0,0,0,0,0,0,0,0,2326,2327,2328,0,2310,2311,2312,0,0,0,0,0,0,0,0,0,0,0,0,0,0,0,0,0,0,0,0,0,0,0,0,0,0,
1050,1051,1052,0,0,0,0,0,0,0,0,0,0,0,0,0,0,0,0,0,0,0,0,0,0,0,0,0,2326,2327,2328,0,0,0,0,0,0,0,0,30733,0,30665,0,0,0,0,0,8900,8901,8901,8901,8901,8901,8901,8901,8901,8901,8901,8902,0,0,0,0,0,0,0,0,0,0,0,0,0,0,0,0,0,0,0,0,0,0,0,0,0,0,0,0,0,0,0,0,0,0,0,0,0,0,0,0,0,
0,0,0,0,0,0,0,0,0,0,2310,2311,2312,0,2307,2308,2309,0,1050,1051,1052,0,0,0,0,0,0,0,0,0,0,0,0,0,0,0,0,0,0,0,0,0,2307,2308,2309,0,0,9180,9181,9181,9181,9181,9181,9181,9181,9181,9181,9181,9182,0,0,0,0,0,0,0,0,0,0,0,0,0,0,0,0,0,30643,0,0,0,30711,0,0,0,0,0,0,0,0,0,0,0,0,0,0,0,0,0,0,0,
0,0,0,0,0,0,0,0,2310,2311,2312,0,2326,2327,2328,0,2310,2311,2312,0,2326,2327,2328,0,0,0,0,0,0,0,0,0,0,0,0,0,2307,2308,2309,0,1050,1051,1052,0,0,0,2326,2327,2328,0,0,0,0,0,0,0,0,0,0,0,0,0,0,0,0,0,0,0,0,0,0,0,0,0,0,0,0,30665,0,0,0,0,2329,2330,2331,2332,2333,0,0,0,0,0,0,0,0,0,0,0,0,0,
0,0,0,0,0,0,2326,2327,2328,0,2310,2311,2312,0,0,0,0,0,2307,2308,2309,0,2310,2311,2312,0,0,0,0,0,0,0,0,0,2310,2311,2312,0,2310,2311,2312,0,0,0,0,0,2466,2467,2468,0,0,0,0,0,0,0,0,0,0,0,0,0,0,0,0,0,0,0,0,0,0,0,0,0,0,0,0,4358,0,0,0,4358,2469,2470,2471,2472,2473,0,0,8102,7823,7824,0,0,0,0,0,0,0,0,
0,0,0,0,2310,2311,2312,0,2307,2308,2309,0,0,0,0,0,0,0,0,0,0,0,0,0,2310,2311,2312,0,2307,2308,2309,0,2310,2311,2312,0,2326,2327,2328,0,0,0,0,0,0,0,2606,2607,2608,0,0,0,0,0,0,0,0,0,0,0,0,0,0,0,0,0,0,0,0,0,0,0,0,0,0,0,30643,0,0,0,0,0,2609,2610,2611,2612,2613,0,0,8242,7963,7964,0,0,0,0,0,0,2310,2311,
0,0,2307,2308,2309,0,2310,2311,2312,0,0,0,0,0,0,0,0,0,0,0,2589,0,0,0,0,0,2307,2308,2309,0,2326,2327,2328,0,2307,2308,2309,0,0,2326,2327,2328,0,0,0,0,2746,2747,2748,0,0,0,0,0,0,0,0,0,0,0,2329,2330,2331,2332,2333,0,0,0,0,0,0,0,0,0,0,0,0,0,4358,0,0,0,2749,2750,2751,2752,2753,0,0,0,0,0,0,7818,0,0,0,0,0,0,
2310,2311,2312,0,2326,2327,2328,0,0,0,0,0,0,0,0,0,0,0,0,2326,2327,2328,0,0,0,0,0,0,0,0,0,0,0,0,0,0,0,0,0,2466,2467,2468,0,0,0,0,0,0,0,0,0,0,0,0,0,0,0,0,0,0,2469,2470,2471,2472,2473,0,0,0,6973,0,0,0,0,0,0,0,0,4358,0,0,0,0,2889,2890,2891,2892,2893,0,7959,7960,25755,0,0,7958,0,0,0,0,0,0,
2328,0,2307,2308,2309,0,0,0,0,0,0,0,0,0,0,0,0,0,0,2466,2467,2468,0,0,0,0,0,0,2326,2327,2328,0,0,0,0,0,0,0,0,2606,2607,2608,0,0,0,0,0,0,0,0,0,0,0,0,0,0,0,0,0,0,2609,2610,2611,2612,2613,0,0,0,0,0,0,0,0,0,0,0,0,0,0,0,2326,2327,2328,0,0,0,0,0,0,0,0,0,0,8098,0,0,0,0,0,0,
0,0,0,0,0,0,0,0,0,0,0,0,0,0,0,0,0,0,0,2606,2607,2608,0,0,0,0,0,0,2466,2467,2468,0,0,0,0,0,0,0,0,2746,2747,2748,0,0,0,0,0,0,0,2326,2327,2328,0,0,0,0,0,25755,0,0,2749,2750,2751,2752,2753,0,0,0,0,0,0,0,0,0,0,0,0,0,0,0,2466,2467,2468,0,0,0,0,0,0,0,0,0,0,8238,0,0,0,0,0,0,
0,0,0,0,2589,0,0,0,0,0,0,0,0,0,0,0,0,0,0,2746,2747,2748,0,0,0,0,0,0,2606,2607,2608,0,0,0,0,0,0,0,0,0,0,0,0,0,0,0,0,0,0,2466,2467,2468,0,0,0,0,0,0,0,0,2889,2890,2891,2892,2893,0,0,0,0,0,0,0,0,0,0,0,0,0,0,0,2606,2607,2608,0,0,0,0,0,0,0,0,0,0,0,0,0,0,0,0,0,
0,0,0,0,0,0,0,0,0,0,0,0,0,0,0,0,0,0,0,0,0,0,0,0,0,0,0,0,2746,2747,2748,0,0,0,0,0,0,0,0,0,0,0,0,0,0,0,0,0,0,2606,2607,2608,0,0,0,0,0,0,0,0,0,0,0,0,0,0,0,0,0,0,0,0,0,0,0,0,0,0,0,0,2746,2747,2748,0,0,0,0,0,0,0,0,0,0,0,0,0,0,0,0,0,
0,0,0,0,0,0,0,0,0,0,0,0,0,0,0,0,0,0,0,0,0,0,0,0,0,0,0,0,0,0,0,0,0,0,0,0,0,0,0,0,0,0,0,0,0,0,0,0,0,2746,2747,2748,0,0,0,0,0,0,0,0,0,0,0,0,0,0,0,0,0,0,0,0,0,0,0,0,0,0,0,0,0,0,0,0,0,0,0,0,0,0,0,0,0,0,0,0,0,0,0,0,
0,0,0,0,0,0,0,0,0,0,0,0,0,0,0,0,0,0,0,0,0,0,0,0,0,0,0,0,0,0,0,0,0,0,0,0,0,0,0,0,0,0,0,0,0,0,0,0,0,0,0,0,0,0,0,0,0,0,0,0,0,0,0,0,0,0,0,0,0,0,0,0,0,0,0,0,0,0,0,0,0,0,0,0,0,0,0,0,0,0,0,0,0,0,0,0,0,0,0,0,
0,0,0,0,0,0,0,0,0,0,0,0,0,0,0,0,781,781,0,0,0,0,0,0,0,0,0,0,0,0,0,0,0,0,0,0,0,0,0,0,0,0,0,0,0,0,0,0,0,0,0,0,0,0,0,0,0,0,0,0,0,0,0,0,0,0,0,0,0,0,0,0,0,0,0,0,0,0,0,0,0,0,0,0,0,0,0,0,0,0,0,0,0,0,0,0,0,0,0,0,
0,0,0,0,0,0,0,0,0,0,0,0,0,0,0,0,781,781,781,781,0,0,0,0,0,0,0,0,0,0,0,0,0,0,0,0,0,0,0,0,0,0,0,0,0,0,0,0,0,0,0,0,0,0,0,0,0,0,0,0,0,0,0,0,0,0,0,0,0,0,0,0,0,0,0,0,0,0,0,0,0,0,0,0,0,0,0,0,0,0,0,0,0,0,0,0,0,0,0,0,
0,0,0,0,0,0,0,0,0,0,0,0,0,0,0,0,781,781,781,781,0,0,0,0,0,0,0,0,0,0,0,0,0,0,0,0,0,0,0,0,0,0,0,0,0,0,0,0,0,0,0,0,0,0,0,0,0,0,0,0,0,0,0,0,0,0,0,0,0,0,0,0,0,0,0,0,0,0,0,0,0,0,0,0,0,0,0,0,0,0,0,0,0,0,0,0,0,0,0,0,
0,0,0,0,0,0,0,0,0,0,0,0,0,0,0,0,0,0,781,781,0,0,0,0,0,0,0,0,0,0,0,0,0,0,0,0,0,0,0,0,0,0,0,0,0,0,0,0,0,0,0,0,0,0,0,0,0,0,0,0,0,0,0,0,0,0,0,0,0,0,0,0,0,0,0,0,0,0,0,0,0,0,0,0,0,0,0,0,0,0,0,0,0,0,0,0,0,0,0,0
</data>
 </layer>
</map>
