<?xml version="1.0" encoding="UTF-8"?>
<map version="1.10" tiledversion="1.11.2" orientation="orthogonal" renderorder="right-down" width="108" height="22" tilewidth="32" tileheight="32" infinite="0" nextlayerid="6" nextobjectid="2">
 <tileset firstgid="1" name="tile group" tilewidth="32" tileheight="32" tilecount="21000" columns="140">
  <image source="Tiles/tile group.png" width="4480" height="4800"/>
 </tileset>
 <tileset firstgid="21001" name="Pro all tiles" tilewidth="32" tileheight="32" tilecount="1024" columns="32">
  <image source="Tiles/Pro all tiles.png" width="1024" height="1024"/>
 </tileset>
 <tileset firstgid="22025" name="sinnohtiles" tilewidth="32" tileheight="32" tilecount="1554" columns="37">
  <image source="Tiles/sinnohtiles.png" width="1214" height="1356"/>
 </tileset>
 <layer id="1" name="Layer 1" width="108" height="22">
  <data encoding="csv">
21016,21016,21016,21016,21016,21016,21016,21016,21016,21641,21643,21016,21016,21016,21016,21016,21016,21016,21016,21016,21016,21016,21016,21016,21016,21016,21016,21016,21016,21016,21016,21016,21016,21016,21016,21016,21016,21016,21016,21016,3224,3224,21016,21016,21016,21016,3224,3224,21016,21016,21016,21016,21016,21016,21016,21016,21016,21016,21016,21016,21016,21016,21016,21016,21016,21016,3224,3224,21016,21016,21016,21016,21016,21016,21016,21016,21016,21016,21016,21016,21016,21016,21016,21016,21016,21016,21016,21016,21016,21016,21016,21016,21016,21016,21016,21016,21016,21016,21016,21016,21016,21016,21016,21016,21016,21016,21016,21016,
21016,21016,21016,21016,21016,21016,21016,21016,21016,21673,21675,21016,21016,21016,21016,21016,21016,21016,21016,21016,21016,21016,21016,3224,21016,21016,3224,21016,21016,21016,21016,21016,21016,21016,21016,21016,21016,21016,21016,21016,21016,3224,3224,21016,21016,21016,21016,3224,21016,21016,21016,21016,21016,21016,21016,21016,21016,3224,21016,3224,21016,21016,21016,3224,3224,21016,21016,21016,3224,21016,21016,21016,21016,21016,21016,21016,21016,21016,3224,21016,3224,21016,21016,21016,3224,21016,21016,21016,21016,21016,21016,21016,21016,21016,21016,21016,21016,21016,21016,21016,21016,21016,21016,21016,21016,21016,21016,21016,
21016,21016,21016,21016,21016,21016,21016,21016,21016,21016,21016,21016,21016,21016,21016,21016,21016,21016,21016,21016,21016,21016,21016,3224,21016,21016,21016,21016,21016,21016,3224,3224,3224,3224,21016,3224,21016,21016,21016,21016,21016,21016,21016,3224,21016,21016,21016,3224,3224,21016,21016,21016,21016,21016,21016,21016,21016,3224,3224,3224,21016,21016,21016,3224,21016,21016,21016,21016,21016,21016,21016,21016,21016,21016,21016,21016,21016,3224,3224,21016,21016,3224,21016,21016,21016,21016,21016,21016,21016,21016,21016,21016,21016,21016,21016,21016,21016,21016,21016,21016,21016,21016,21016,21016,21016,21016,21016,21016,
21016,21016,21016,21016,21016,21016,21016,21016,21016,21016,21016,21016,21016,21016,21016,21016,21016,21016,21016,21016,21016,21016,21016,21016,21016,21016,21016,21016,21016,21016,3224,21016,21016,3224,21016,21016,21016,21016,21016,21903,21903,21903,21903,21016,21016,21016,21016,3224,3224,21016,21016,21016,21016,21016,21016,21016,21016,21016,3224,3224,21016,21016,21016,21016,21016,21016,21016,21016,21016,21016,21016,21016,21016,21016,21016,21016,21016,21016,21016,21016,21016,21016,21016,21016,21016,21016,21016,21016,21016,21016,21016,21016,21016,21016,21016,21016,21016,21016,21016,21016,21016,21016,21016,2102,2103,2103,2103,2103,
21016,21016,21016,21016,21016,21016,21016,21016,3224,3224,21016,21016,21016,21016,21016,21016,21016,21016,21016,21016,21016,21016,21016,21016,21016,21016,21016,21016,3224,21016,3224,21016,3224,3224,21016,21016,21016,21016,21903,21903,21903,21903,21903,21903,21016,21016,21016,3224,21016,21016,21016,21016,21016,21016,21016,21016,21016,21016,21016,21016,21016,21016,21016,21016,21016,21016,21016,21016,21016,21016,21016,21016,21016,21016,21016,21016,21016,21016,21016,21016,21016,21016,21016,21016,21016,21016,21016,21016,21016,21016,21016,21016,21016,21016,21016,21016,21016,21016,21016,21016,21016,2102,2103,2663,21642,2383,2383,2383,
21016,21016,21016,21016,21016,21016,21016,21016,3224,3224,21016,21016,21016,21016,21016,21016,21016,21016,21016,21016,21016,21016,21016,3224,21016,21016,3224,3224,21016,21016,21016,21016,21016,21016,21016,21016,21016,21016,21903,21903,21016,21016,21903,21903,21903,21016,21016,21016,21016,3224,21016,21016,3224,3224,21016,21016,21016,21016,21016,21016,21016,21016,21016,21016,21016,21016,21016,21016,21016,21016,21016,21016,21016,21016,21016,21016,21016,21016,21016,21016,21016,21016,21016,21016,21016,21016,21016,21016,21016,21016,21016,21016,21016,21016,21016,21016,21016,21016,21016,21016,2102,2663,21642,2383,2384,21016,21016,21016,
21016,21016,21016,21016,21016,21016,21016,21016,21016,3224,21016,21016,21016,21016,21016,21016,21016,21016,21016,21016,21016,21016,21016,21016,21016,21016,21016,21016,21016,21016,21016,21016,21016,21016,21016,21016,21016,21016,21903,21903,21016,21016,21016,21903,21903,21016,21016,21016,21016,3224,3224,21016,21016,3224,21016,21016,21016,21016,21016,21016,21016,21016,21016,21016,21016,21016,21016,21016,21016,21016,21016,21016,21016,21016,21016,21016,21016,21016,21016,21016,21016,21016,21016,21016,21016,21016,21016,21016,21016,21016,21016,21016,21016,21016,21016,21016,21016,21016,21016,2102,2663,21642,2384,21016,21016,21016,21016,21016,
21016,21016,21016,21016,21016,3224,21016,21016,21016,21016,21016,21016,21016,21016,21016,21016,21016,21016,21016,21016,21016,21016,21016,21016,21016,21016,21016,21016,21016,21016,21016,21016,21016,21016,21016,21016,21016,21016,21903,21903,21903,21016,22132,21903,21903,21016,21016,21016,21016,3224,3224,21016,21016,3224,3224,21016,21016,21016,21016,21016,21016,21016,21016,21016,21016,21016,21016,21016,21016,21016,21016,21016,21016,21016,21016,21016,21016,21016,21016,21016,21016,21016,21016,21016,21016,21016,21016,21016,21016,21016,21016,21016,21016,21016,21016,21016,21016,21016,2102,2663,21642,2384,21016,21016,21016,21016,21016,21016,
21016,21016,21016,21016,21016,3224,21016,21016,21016,21016,3224,3224,21016,21016,21016,21016,21016,21016,21016,21016,21016,21016,21016,21016,21016,21016,21016,21016,21016,21016,21016,21016,21016,21016,21016,21016,21016,21016,21016,21903,21903,21903,21903,21903,21903,21016,21016,21016,21016,21016,21016,21016,21016,3224,21016,21016,21016,21016,21016,21016,21016,21016,21016,21016,21016,21016,21016,21016,21016,21016,21016,21016,21016,21016,21016,21016,21016,21016,21016,21016,21016,21016,21016,21016,21016,21016,21016,21016,21016,21016,21016,21016,21016,21016,21016,21016,21016,2102,2663,21642,2384,21016,21016,21016,21016,21016,21016,21016,
21016,21016,21016,21016,3224,3224,21016,21016,21016,21016,3224,3224,21016,21016,21016,21016,21016,21016,21016,21016,21016,21016,21016,21016,21016,21016,21016,21016,21016,21016,21016,21016,21016,21016,21016,21016,21016,21016,21016,21016,21016,21016,21016,21016,21016,21016,21016,21016,21016,21016,21016,21016,21016,21016,21016,21016,21016,21016,21016,21016,21016,21016,21016,21016,21016,21016,21016,21016,21016,21016,21016,3224,21016,3224,21016,21016,21016,21016,21016,21016,21016,21016,21016,21016,21016,21016,21016,21016,21016,21016,21016,21016,21016,21016,21016,21016,21016,2382,2383,2384,21016,21016,21016,21016,21016,21016,21016,21016,
21016,21016,21016,21016,3224,21016,21016,21016,21016,21016,21016,21016,21016,21016,21016,21016,21016,21016,21016,21016,21016,21016,21016,21016,21016,21016,21016,21016,21016,21016,21016,21016,21016,21016,21016,21016,21016,21016,21016,21016,21016,21016,21016,21016,21016,21016,21016,21016,21016,21016,21016,21016,21016,21016,21016,21016,21016,21016,21016,21016,21016,21016,21016,21016,21016,21016,21016,21016,21016,21016,21016,3224,3224,21016,21016,21016,21016,21016,21016,21016,21016,21016,21016,21016,21016,21016,21016,21016,21016,21016,21016,21016,21016,21016,21016,21016,21016,21016,21016,21016,21016,21016,21016,21016,21016,21016,21016,21016,
21016,21016,21016,21016,21016,21016,21016,3224,21016,21016,21016,21016,21016,21016,21016,21016,21016,21016,21016,21016,21016,21016,21016,21016,21016,21016,21016,21016,21016,21016,21016,21016,21016,21016,21016,21016,21016,21016,21016,21016,21016,21016,21016,21016,21016,21016,21016,21016,21016,21016,21016,21016,21016,21016,21016,21016,21016,21016,21016,21016,21016,21016,21016,21016,21016,21016,21016,21016,21016,21016,3224,21016,21016,21016,21016,21016,21016,21016,21016,21016,21016,21016,21016,21016,21016,21016,21016,21016,21016,21016,21016,3224,21016,3224,21016,21016,21016,21016,21016,21016,21016,21016,3224,3224,21016,3224,21016,21016,
21016,21016,21016,21016,21016,21016,21016,3224,3224,21016,21016,21016,21016,21016,21016,21016,21016,21016,21016,21016,21016,21016,21016,21016,21016,21016,21016,21016,21016,21016,21016,21016,21016,21016,21016,21016,21016,21016,21016,21016,21016,21016,21016,21016,21016,21016,21016,21016,21016,21016,21016,21016,21016,21016,21016,21016,21016,21016,21016,21016,21016,21016,21016,21016,21016,21016,21016,21016,21016,21016,21016,21016,21016,21016,21016,21016,21016,21016,21016,21016,21016,21016,21016,21016,21016,21016,21016,21016,21016,21016,3224,21016,3224,21016,21016,21016,21016,2102,2103,2104,21016,21016,21016,21016,21016,21016,21016,21016,
21016,21016,21016,21016,21016,21016,21016,21016,3224,21016,21016,21016,21016,21016,21016,21016,21016,21016,21016,21016,21016,21016,21016,21016,21016,21016,21016,21016,21016,21016,21016,21016,21016,2942,2943,21016,21016,21016,21016,21016,21016,21016,21016,21016,21016,21016,21016,21016,21016,21016,21016,21016,21016,21016,21016,21016,21016,21016,21016,21016,21016,21016,21016,21016,21016,21016,21016,21016,21016,21016,21016,21016,21016,21016,21016,21016,21016,21016,21016,21016,21016,21016,21016,21016,21016,21016,21016,21016,21016,21016,21016,21016,21016,21016,21016,21016,2102,2663,21642,2244,21016,3224,21016,21016,21016,21016,21016,21016,
21016,21016,21016,21016,21016,21016,3224,21016,3224,21016,21016,21016,21016,21016,21016,21016,21016,21016,21016,21016,21016,21016,21016,21016,21016,21016,21016,21016,21016,21016,21016,21016,21016,3082,3083,21016,21016,21016,21016,21016,21016,21016,21016,21016,21016,21016,21016,21016,21016,21016,21016,21016,21016,21016,21016,21016,21016,21016,21016,3222,3223,21016,21016,21016,21016,21016,21016,21016,21016,21016,21016,21016,21016,21016,21016,21016,21016,21016,21016,2102,2104,21016,21016,21016,21016,21016,21016,21016,21016,21016,21016,21016,21016,21016,21016,2102,2663,21642,2522,2384,3224,3224,21016,21016,21016,21016,21016,21016,
21016,21016,21016,21016,21016,3224,3224,21016,3224,3224,21016,21016,21016,21016,21016,3224,21016,21016,21016,21016,21016,21016,21016,21016,21016,21016,21016,21016,21016,21016,21016,21016,21016,21016,21016,21016,21016,2102,2103,2103,2104,21016,2102,2103,2103,2103,2104,21016,21016,21016,21016,21016,21016,21016,21016,21016,21016,21016,21016,21016,21016,21016,21016,21016,21016,21016,21016,21016,21016,21016,21016,21016,21016,21016,21016,21016,21016,21016,21016,2382,2384,21016,21016,21016,21016,21016,21016,21016,21016,21016,21016,2102,2103,2103,2103,2663,21642,2522,2384,3224,21016,21016,21016,3224,21016,21016,21016,21016,
21016,21016,21016,21016,21016,3224,21016,21016,21016,3224,3224,21016,21016,21016,21016,21016,3224,21016,21016,21016,21016,21016,21016,21016,21016,21016,21016,21016,21016,21016,21016,21016,21016,21016,21016,21016,2102,2663,2243,2243,2662,2103,2663,2243,2243,2243,2244,21016,21016,21016,21016,21016,3222,3223,21016,21016,21016,21016,21016,21016,21016,21016,21016,21016,21016,21016,21016,21016,21016,21016,21016,21016,21016,21016,21016,21016,21016,21016,21016,21016,21016,2102,2103,2103,2103,2103,2103,2103,2103,2103,2103,2663,21642,2522,2383,2383,2383,2384,21016,21016,21016,21016,21016,3224,3224,21016,21016,21016,
21016,21016,21016,21016,21016,21016,21016,21016,21016,21016,21016,21016,21016,21016,21016,21016,3224,3224,21016,21016,21016,21016,21016,21016,21016,21016,21016,21016,21016,21016,21016,21016,21016,21016,21016,21016,2242,2243,2243,2243,2243,2243,2243,2243,2243,2522,2384,21016,21016,21016,21016,21016,2942,2943,21016,21016,21016,21016,21016,21016,21016,21016,21016,21016,21016,21016,21016,21016,21016,21016,21016,21016,21016,21016,21016,21016,21016,21016,21016,21016,21016,2382,2383,2383,2383,2383,2383,2383,2383,2383,2383,2383,21642,2384,21016,21016,21016,21016,21016,21016,21016,21016,21016,21016,3224,21016,21016,21016,
21016,21016,21016,21016,21016,21016,21016,21016,21016,21016,21016,21016,21016,21016,21016,21016,21016,21016,21016,3224,21016,21016,21016,21016,21016,21016,21016,21016,21016,21016,21016,21016,21016,21016,21016,21016,2382,2523,2243,2243,2243,2243,2243,2522,2383,2384,21016,21016,21016,21016,21016,21016,3082,3083,21016,21016,21016,21016,21016,21016,21016,21016,21016,21016,21016,21016,21016,21016,21016,21016,21016,21016,21016,21016,21016,21016,21016,21016,21016,21016,21016,21016,21016,21016,21016,21016,21016,21016,21016,21016,21016,21016,21016,21016,21016,21016,21016,21016,21016,21016,21016,21016,21016,21016,21016,21016,21016,21016,
21016,21016,21016,21016,21016,21016,21016,21016,21016,21016,21016,21016,21016,21016,21016,21016,21016,21016,21016,3224,3224,21016,21016,3224,21016,21016,21016,21016,21016,21016,21016,21016,21016,21016,21016,21016,21016,2382,2383,2523,2243,2243,2522,2384,21016,21016,21016,21016,21016,21016,21016,21016,3224,3224,21016,21016,3224,21016,21016,21016,21016,21016,21016,21016,21016,21016,21016,21016,21016,21016,21016,21016,21016,21016,21016,21016,21016,21016,21016,21016,21016,21016,21016,21016,21016,21016,21016,21016,21016,21016,21016,21016,21016,21016,21016,21016,21016,21016,21016,21016,21016,21016,21016,21016,21016,21016,21016,3224,
21016,21016,21016,21016,21016,21016,21016,21016,21016,21016,21016,21016,21016,21016,21016,21016,21016,21016,21016,3224,3224,3224,21016,21016,3224,3224,3224,3224,3224,3224,3224,21016,21016,21016,21016,21016,21016,21016,21016,2242,2243,2522,2384,21016,21016,3224,3224,3224,3224,21016,21016,21016,21016,21016,21016,3224,3224,21016,21016,21016,21016,21016,21016,21016,21016,21016,21016,21016,21016,21016,21016,21016,21016,21016,21016,3224,3224,21016,21016,21016,21016,21016,21016,21016,3224,3224,21016,21016,3224,3224,21016,21016,21016,3224,21016,21016,21016,21016,21016,21016,21016,21016,21016,3224,3224,21016,21016,21016,
21016,21016,21016,21016,21016,21016,21016,21016,21016,21016,21016,21016,21016,21016,21016,21016,21016,21016,21016,21016,21016,21016,21016,21016,21016,21016,21016,21016,21016,21016,21016,21016,21016,21016,21016,21016,21016,21016,21016,21641,21642,21643,21016,21016,3224,3224,21016,21016,21016,21016,21016,21016,21016,21016,21016,3224,3224,3224,21016,21016,21016,21016,21016,21016,21016,21016,21016,21016,21016,21016,21016,21016,21016,21016,21016,21016,3224,3224,21016,21016,21016,21016,21016,21016,3224,3224,21016,21016,21016,21016,21016,21016,21016,21016,21016,21016,21016,21016,21016,21016,21016,21016,21016,3224,21016,21016,21016,21016
</data>
 </layer>
 <layer id="2" name="Layer 2" width="108" height="22">
  <data encoding="csv">
0,0,0,21169,21170,21171,0,0,0,0,0,21169,21170,21171,21141,21142,21140,288,289,290,21044,21045,288,289,290,288,289,290,0,285,286,287,0,0,0,291,292,293,291,292,293,285,286,287,0,0,285,286,287,0,288,289,290,0,285,286,287,288,289,290,0,288,289,290,1687,0,0,285,286,287,0,0,288,289,290,0,288,289,290,0,288,289,290,291,292,293,0,291,292,293,0,0,0,0,291,292,293,0,291,292,293,0,291,292,293,291,292,293,
21170,21171,0,0,0,0,21076,21077,21078,0,0,0,0,21172,21173,21174,21172,21173,21174,0,21076,21077,21078,0,21172,21173,21174,288,289,290,0,285,286,287,288,289,290,285,286,287,0,0,0,0,0,0,0,288,289,290,0,0,285,286,287,0,0,0,0,285,286,1687,0,0,285,286,287,1687,0,0,288,289,290,0,285,286,287,0,285,286,287,0,0,0,0,285,286,287,288,289,290,0,285,286,287,0,0,288,289,290,285,286,287,285,286,287,0,0,
0,285,286,287,288,289,290,0,0,0,0,0,0,22915,285,286,287,3085,285,286,287,0,1687,0,0,0,0,0,285,286,287,0,288,289,290,285,286,287,0,285,286,287,0,288,289,290,0,0,285,286,287,288,289,290,0,288,289,290,0,285,286,287,0,0,0,0,0,0,285,286,287,0,288,289,290,288,289,290,0,0,0,285,286,287,3085,0,21015,21015,21015,21015,288,289,290,0,0,288,289,290,0,291,292,293,288,289,290,0,285,286,
0,0,0,288,289,290,0,288,289,290,0,0,0,0,22879,22878,22879,0,0,0,285,286,287,0,288,289,290,285,286,287,0,1687,0,0,0,0,0,285,286,21087,21178,21178,21088,286,287,285,286,287,0,291,292,293,0,285,286,287,0,0,288,289,290,288,289,290,0,285,286,287,0,0,288,289,290,0,285,286,287,0,285,286,287,291,292,293,425,21015,21015,21015,21015,21015,21015,21015,21015,291,292,293,22879,288,289,290,0,0,0,0,0,0,0,0,
285,286,287,291,292,293,285,286,287,0,0,0,0,0,0,0,22878,285,286,287,21505,1687,285,286,287,0,285,286,287,0,0,285,286,287,285,286,287,1687,21087,21179,0,0,21177,21088,288,289,290,0,285,286,287,285,286,287,0,0,282,283,284,0,1687,285,286,287,291,292,293,288,289,290,285,286,287,291,292,293,0,288,289,290,0,285,286,287,425,21015,21015,21015,21015,21015,21015,21015,0,0,0,0,22915,0,0,0,0,0,0,0,0,0,0,0,
288,289,290,0,291,292,293,0,0,288,289,290,0,0,0,0,22915,22879,0,22915,21537,0,0,0,0,0,0,0,0,0,0,0,0,0,0,288,289,290,21147,22094,22244,22244,22095,21177,21088,0,0,0,288,289,290,0,288,289,290,288,289,290,0,0,285,286,287,288,289,290,285,286,287,291,292,293,285,286,287,285,286,287,0,288,289,290,21015,21015,21015,21015,21015,21015,21015,21015,21015,21015,0,0,0,22915,0,0,0,0,0,0,0,0,0,0,0,0,
0,0,285,286,287,288,289,290,0,0,0,0,0,0,0,0,0,0,0,21015,21537,0,0,0,285,286,287,285,286,287,288,289,290,285,286,287,22915,0,21147,22131,22171,0,22206,0,21145,285,286,287,0,0,285,286,287,0,285,286,287,1687,286,287,0,291,292,293,285,286,287,0,3085,0,0,0,0,0,0,0,0,0,0,0,0,21015,21015,21015,21015,21015,21015,21015,21015,21015,21015,0,428,428,428,0,0,0,0,0,0,0,0,0,0,285,286,287,
286,287,0,0,285,286,287,285,286,287,291,292,293,0,0,0,0,0,1121,0,21569,21570,21475,0,0,22915,0,22915,285,286,287,0,288,289,290,0,0,22915,21119,21115,22131,22170,22132,0,21145,22915,0,0,0,0,285,286,287,0,288,289,290,285,286,287,285,286,287,288,289,290,0,0,0,0,0,0,0,0,425,425,425,425,425,425,425,21015,21015,21015,21015,21015,21015,21015,21015,21015,21015,21169,21170,21171,0,0,0,0,0,0,0,0,0,0,0,0,0,0,
0,288,289,290,0,288,289,290,288,289,290,0,0,0,0,0,0,21015,21015,0,21015,0,21537,0,0,0,0,0,22915,0,1687,285,286,287,0,0,0,0,0,21119,21114,21114,21114,21114,21120,0,0,285,286,287,0,288,289,290,0,0,0,22915,0,285,286,287,0,0,0,0,0,0,0,0,21473,21698,21698,21698,21698,21698,21698,21698,21698,21698,21699,21015,21015,21015,21015,21015,21015,21015,21015,21015,21172,21173,21174,0,0,0,0,0,0,0,0,0,0,285,286,287,0,0,
289,290,285,286,287,0,288,289,290,0,0,288,289,290,0,0,1121,21015,22878,21015,21015,21015,21537,0,0,0,0,0,0,0,0,0,0,0,0,0,0,0,0,0,0,0,0,0,0,0,0,0,0,0,285,286,287,0,285,286,287,0,22915,0,0,0,0,0,0,0,0,0,0,0,21633,0,0,0,22879,22915,0,0,0,0,0,21015,21015,21015,21015,21015,21015,21015,21015,21015,21015,21015,21169,21170,21171,0,0,0,0,0,0,0,291,292,293,285,286,287,
0,288,289,290,0,285,286,287,291,292,293,291,292,293,3085,0,1121,21015,21015,21015,21015,21015,21569,21475,0,0,0,0,0,0,0,0,0,0,0,0,0,0,0,0,0,0,0,0,0,0,0,0,0,0,0,0,0,0,0,0,0,0,0,0,0,0,0,0,0,21473,21698,21698,21698,21698,21571,0,0,22915,0,0,3222,3223,0,0,21015,21015,21015,21015,21015,21015,21015,21015,21015,21015,21015,21172,21173,21174,21697,21698,21698,21698,21698,21698,21698,21698,21698,21699,285,286,287,0,
0,0,285,286,287,0,0,288,289,290,291,292,293,0,0,0,0,0,21015,21015,21015,21015,22878,21569,0,0,0,0,0,0,0,0,0,0,0,0,0,0,0,0,0,0,0,0,0,0,0,0,0,0,0,0,0,0,0,0,0,0,0,0,0,0,0,0,0,21633,0,0,21015,22879,0,0,0,0,0,0,0,0,0,0,0,21015,21015,21015,21015,21015,21015,21015,21015,21015,0,21169,21170,21171,22879,0,0,0,0,0,0,0,0,0,0,0,288,289,
288,289,290,0,288,289,290,0,6280,6281,6282,0,291,292,293,22878,0,0,0,21015,21015,21015,21015,21015,22915,21015,21015,0,21015,22915,22915,22878,0,0,0,0,0,0,0,0,0,0,0,0,0,0,0,0,0,0,0,0,0,0,0,0,0,0,0,0,0,0,0,0,21698,21571,0,21015,0,0,22915,22879,21015,21015,21015,0,0,0,0,3222,3223,0,21015,21015,21015,21015,21015,21015,21015,0,0,0,0,22915,0,0,0,0,0,0,0,0,0,0,0,0,0,0,
285,286,287,0,0,6280,6281,6282,0,0,291,292,293,0,22878,0,22915,1121,0,0,21015,21015,21015,21015,21015,21015,21015,21015,21015,21015,21015,0,0,0,0,0,0,0,0,0,0,0,0,0,0,0,0,0,0,0,0,0,0,0,0,0,0,0,0,22915,0,0,0,0,0,0,21015,21015,0,21015,21015,0,0,21015,0,0,0,0,0,0,0,0,0,0,0,0,21015,21015,21015,21015,21015,0,0,0,0,0,0,0,0,0,0,0,288,289,290,285,286,287,
292,293,0,288,289,290,0,0,288,289,290,288,289,290,0,3085,0,1121,1121,0,0,21015,21015,21015,21015,21015,21015,21015,21015,0,21015,0,0,0,0,0,0,21698,21698,21698,21698,21698,21698,21698,21698,21698,21698,0,0,0,0,22915,0,0,0,0,0,22915,0,0,0,0,0,21015,21015,0,21015,21015,21015,21015,21015,21015,21015,0,0,0,0,0,0,0,0,0,0,0,0,0,0,0,0,0,0,0,0,0,0,0,0,0,0,0,0,0,0,285,286,287,0,0,
0,291,292,293,0,0,0,0,0,0,291,292,293,285,286,287,0,0,1121,1121,0,21015,0,22878,21015,21015,21015,21015,21015,0,21015,0,0,0,0,0,0,0,0,0,0,0,0,0,0,0,0,0,0,22915,0,22915,0,0,3222,3223,0,0,22915,0,0,21015,21015,21015,0,0,21015,21015,21015,21015,21015,21015,0,0,0,0,0,0,0,0,0,0,0,0,0,0,0,0,0,0,0,0,0,0,0,0,0,0,0,0,0,0,0,0,3085,0,285,286,
286,287,0,285,286,287,0,0,0,285,286,287,291,292,293,0,0,0,0,0,0,21015,21015,0,22915,0,0,0,21015,21015,0,0,22169,22171,0,0,0,0,0,0,0,0,0,0,0,0,0,0,0,0,0,0,0,0,0,0,0,0,0,0,0,21015,0,0,21015,21015,21015,0,21015,21015,21015,0,0,0,0,0,0,0,0,0,0,0,0,0,0,0,0,0,0,0,0,0,0,0,0,0,0,0,0,3085,0,285,286,287,0,288,289,290,
0,288,289,290,0,0,288,289,290,0,291,292,293,6280,6281,6282,0,0,0,0,0,0,0,21015,21015,21015,0,0,0,0,0,22169,22132,22245,0,0,0,0,0,0,0,0,0,0,0,0,0,0,0,0,0,0,0,0,0,0,0,0,0,0,0,0,21015,0,0,0,21015,0,0,0,0,0,0,0,0,0,3085,0,0,0,0,0,0,0,0,0,0,0,0,0,0,0,0,0,0,0,3085,0,0,0,288,289,290,0,285,286,287,0,
289,290,291,292,293,6280,6281,6282,0,6280,6281,6282,0,3085,288,289,290,0,3085,0,0,0,0,0,0,0,0,0,0,0,0,22243,22245,0,0,0,0,0,0,0,0,0,0,0,0,0,0,0,0,0,0,0,0,0,0,0,0,0,0,0,0,0,21015,21015,0,0,21015,0,0,0,0,0,0,0,0,0,0,0,0,0,3085,0,0,0,0,0,0,0,0,0,0,0,0,291,292,293,0,291,292,293,0,285,286,287,0,0,291,292,
0,0,0,288,289,290,3085,291,292,293,0,285,286,287,3085,0,285,286,287,0,0,0,561,561,0,0,0,0,0,0,0,0,0,0,0,0,0,0,0,0,0,0,0,0,0,0,0,0,0,0,0,0,0,0,0,0,0,0,0,0,0,0,0,0,0,0,0,0,0,0,0,0,0,0,288,289,290,291,292,293,0,0,0,0,291,292,293,0,288,289,290,285,286,287,3224,292,293,0,0,6280,6281,6282,288,289,290,285,286,287,
285,286,287,0,0,0,285,286,287,0,288,289,290,0,288,289,290,0,0,0,0,0,561,561,561,561,0,0,0,0,0,0,0,0,0,0,0,0,0,0,0,0,0,0,0,0,0,0,0,0,0,0,0,6280,6281,6282,288,289,290,0,0,0,0,0,0,0,291,292,293,288,289,290,285,286,287,0,285,286,287,291,292,293,285,286,287,0,285,286,287,291,292,293,0,0,285,286,287,288,289,290,291,292,293,0,288,289,290,0,
289,290,0,288,289,290,0,0,288,289,290,0,0,0,0,288,289,290,288,289,290,285,286,287,285,286,287,561,288,289,290,561,288,289,290,0,285,286,287,0,0,0,0,0,0,0,0,0,0,291,292,293,288,289,290,0,0,288,289,290,288,289,290,21009,6280,6281,6282,0,285,286,287,0,0,288,289,290,0,6280,6281,6282,285,286,287,0,0,288,289,290,0,0,285,286,287,0,0,285,286,287,0,0,285,286,287,0,0,288,289,290
</data>
 </layer>
 <layer id="3" name="Layer 3" width="108" height="22">
  <data encoding="csv">
21138,21139,0,0,0,0,21044,21045,21046,0,0,0,0,21140,21141,21142,21140,21141,21142,0,21044,21045,21046,0,21140,21141,21142,148,149,150,0,145,146,147,148,149,150,145,146,147,0,0,0,145,146,147,0,148,149,150,0,0,145,146,147,151,152,153,0,145,146,147,0,0,145,146,147,0,0,0,148,149,150,0,145,146,147,0,145,146,147,0,0,0,0,145,146,147,148,149,150,0,145,146,147,0,0,148,149,150,145,146,147,145,146,147,0,0,
0,145,146,147,148,149,150,0,0,0,0,0,0,0,145,146,147,0,145,146,147,0,0,0,0,0,0,0,145,146,147,0,148,149,150,145,146,147,0,145,146,147,0,148,149,150,0,0,145,146,147,148,149,150,0,148,149,150,0,145,146,147,0,0,0,0,0,0,145,146,147,0,148,149,150,148,149,150,0,0,0,145,146,147,0,0,0,0,0,0,148,149,150,0,0,148,149,150,0,151,152,153,148,149,150,0,145,146,
0,0,0,148,149,150,0,148,149,150,0,0,0,0,0,0,0,0,0,0,145,146,147,0,148,149,150,145,146,147,0,145,146,147,0,0,0,145,146,147,0,0,145,146,147,145,146,147,0,151,152,153,0,145,146,147,0,0,148,149,150,148,149,150,0,145,146,147,0,0,148,149,150,0,145,146,147,0,145,146,147,151,152,153,425,425,425,0,0,0,0,0,0,151,152,153,0,148,149,150,0,0,0,0,0,0,0,0,
145,146,147,151,152,153,145,146,147,0,0,0,0,0,0,0,0,145,146,147,0,0,145,146,147,0,145,146,147,0,0,145,146,147,145,146,147,0,0,287,610,611,285,613,148,149,150,0,145,146,147,145,146,147,0,0,145,146,147,0,0,145,146,147,151,152,153,148,149,150,145,146,147,151,152,153,0,148,149,150,0,145,146,147,425,425,425,0,0,0,0,0,0,0,0,0,0,0,0,0,0,0,0,0,0,0,0,0,
148,149,150,0,151,152,153,0,0,148,149,150,0,0,0,0,0,0,0,0,0,0,0,0,148,149,150,148,149,150,145,146,147,0,0,148,149,150,0,0,750,751,752,753,0,151,152,153,148,149,150,0,148,149,150,148,149,150,0,0,145,146,147,148,149,150,145,146,147,151,152,153,145,146,147,145,146,147,0,148,149,150,0,0,425,425,425,0,0,0,0,0,428,428,428,0,0,0,0,0,0,0,0,0,0,0,0,0,
0,0,145,146,147,148,149,150,0,0,0,0,0,0,0,0,0,0,0,0,0,0,0,0,145,146,147,145,146,147,148,149,150,145,146,147,0,0,0,2805,890,891,892,893,0,145,146,147,0,0,145,146,147,0,145,146,147,145,146,147,0,151,152,153,145,146,147,0,0,0,0,0,0,0,0,0,0,0,0,0,0,0,0,425,425,425,0,0,0,0,0,0,428,428,428,0,0,0,0,0,0,0,0,0,0,145,146,147,
146,147,0,0,145,146,147,145,146,147,151,152,153,0,0,0,0,0,0,0,0,0,0,0,0,0,0,0,145,146,147,0,148,149,150,0,0,0,0,0,1030,1031,1032,1033,0,0,0,148,149,150,145,146,147,0,148,149,150,145,146,147,145,146,147,148,149,150,0,0,0,0,0,0,0,0,0,0,0,0,0,0,0,0,0,0,0,0,0,0,0,0,0,21137,21138,21139,0,0,0,0,0,0,0,0,0,0,0,0,0,0,
0,148,149,150,0,148,149,150,148,149,150,0,0,0,0,0,0,0,0,0,0,0,0,0,0,0,0,0,0,0,0,145,146,147,0,0,0,0,0,0,1170,1171,1172,1173,0,0,3222,145,146,147,0,148,149,150,0,0,0,0,0,145,146,147,0,0,0,0,0,0,0,0,0,21108,21109,21110,0,0,0,0,0,0,0,0,0,0,0,0,0,0,0,0,21140,21141,21142,0,0,0,0,0,0,0,0,0,0,145,146,147,0,0,
149,150,145,146,147,0,148,149,150,0,0,148,149,150,0,0,0,0,0,0,0,0,0,0,0,0,0,0,0,0,0,0,0,0,0,0,0,2942,2943,0,0,21476,21478,0,0,0,0,0,0,0,145,146,147,0,145,146,147,0,0,0,0,0,0,0,0,0,0,0,0,0,0,21140,21141,21142,0,0,0,0,0,0,0,0,0,0,0,0,0,0,0,0,0,0,21137,21138,21139,0,0,0,0,0,0,0,151,152,153,145,146,147,
0,148,149,150,0,145,146,147,151,152,153,151,152,153,0,0,0,0,0,0,0,0,0,0,0,0,0,0,0,0,0,0,0,0,0,0,0,3082,3083,0,0,0,0,0,0,0,0,0,0,0,0,0,0,0,0,0,0,0,0,0,0,0,0,0,0,0,0,0,0,0,0,21172,21173,21174,0,0,0,0,0,0,0,0,0,0,0,0,0,0,0,0,0,21140,21141,21142,0,0,0,0,0,0,0,0,0,0,145,146,147,0,
152,153,145,146,147,0,0,148,149,150,151,152,153,0,0,0,0,0,0,0,0,0,0,0,0,0,0,0,0,0,0,0,0,0,0,0,0,3222,3223,0,0,0,0,0,0,0,0,0,0,0,0,0,0,0,0,0,0,0,0,0,0,0,0,0,0,0,0,0,0,0,0,0,0,0,0,0,0,0,0,0,0,0,0,0,0,0,0,0,0,0,0,21137,21138,21139,0,0,0,0,0,0,0,0,0,0,0,0,148,149,
148,149,150,0,148,149,150,0,6140,6141,6142,0,151,152,153,0,0,0,0,0,0,0,0,21664,21698,21698,21698,21698,21698,21698,21698,21698,21475,0,0,0,0,0,0,0,0,0,0,0,0,0,0,0,0,0,0,0,0,0,0,0,0,0,0,0,0,0,0,0,0,0,0,0,0,0,0,0,0,0,0,0,0,0,0,0,0,0,0,0,0,0,0,0,0,0,0,0,0,0,0,0,0,0,0,0,0,0,0,0,0,0,0,0,
145,146,147,0,0,6140,6141,6142,0,0,151,152,153,0,0,0,0,0,0,0,0,0,0,0,0,0,0,0,0,0,0,0,21569,21698,21698,21475,0,0,0,0,0,0,0,0,0,0,0,0,0,0,0,0,0,0,0,0,0,21473,21570,21570,21570,21570,21570,21570,0,0,0,0,0,0,0,0,0,0,0,0,0,0,0,0,0,0,0,0,0,0,0,0,0,0,0,0,0,0,0,0,0,0,0,0,0,0,148,149,150,145,146,147,
152,153,0,148,149,150,0,0,148,149,150,148,149,150,0,0,0,0,0,0,0,0,0,0,0,0,0,0,0,0,0,0,0,0,0,21569,21475,0,0,0,21108,21109,21110,0,0,0,0,0,0,0,21473,21570,21570,21570,21570,21570,21570,21571,0,0,0,0,0,0,0,0,0,0,0,0,0,0,0,0,0,0,0,0,0,0,0,0,0,0,0,0,0,0,0,0,0,0,0,0,0,0,0,0,0,0,0,0,0,145,146,147,0,0,
0,151,152,153,0,0,148,149,150,0,151,152,153,145,146,147,0,0,0,0,0,0,0,0,0,0,0,0,0,0,0,0,0,0,0,0,21569,0,0,0,21140,21141,21142,0,0,0,0,21698,21698,21698,21571,0,0,0,0,0,0,0,0,0,0,0,0,0,0,0,0,0,0,0,0,0,0,0,0,0,0,0,0,0,0,0,0,0,0,0,0,0,0,0,0,0,0,0,0,0,0,0,0,0,0,151,152,153,0,0,145,146,
146,147,0,145,146,147,145,146,147,145,146,147,151,152,153,0,0,0,0,0,0,0,0,0,0,0,0,0,0,0,0,0,0,0,0,0,0,0,0,0,21172,21173,21174,0,0,0,0,0,0,0,0,0,0,0,0,0,0,0,0,0,0,0,0,0,0,0,0,0,0,0,0,0,0,0,0,0,0,0,0,0,0,0,0,0,0,0,0,0,0,0,0,0,0,0,0,0,0,0,0,0,0,145,146,147,0,148,149,150,
0,148,149,150,0,0,148,149,150,0,151,152,153,6140,6141,6142,0,0,0,0,0,0,0,0,0,0,0,0,0,0,0,0,0,0,0,0,0,0,0,0,0,0,0,0,0,0,0,0,0,0,0,0,0,0,0,0,0,0,0,0,0,0,0,0,0,0,0,0,0,0,0,0,0,0,0,0,0,0,0,0,0,0,0,0,0,0,0,0,0,0,0,0,0,0,0,0,0,0,0,0,148,149,150,0,145,146,147,0,
149,150,151,152,153,6140,6141,6142,0,6140,6141,6142,0,0,148,149,150,0,0,0,0,0,0,0,0,0,0,0,0,0,0,0,21615,0,0,0,0,0,0,0,0,0,0,0,0,0,0,0,0,0,0,0,0,0,0,0,0,0,0,0,0,0,0,0,0,0,0,0,0,0,0,0,0,0,0,0,0,0,0,0,0,0,0,0,0,0,0,0,0,0,0,0,0,151,152,153,0,151,152,153,0,145,146,147,0,0,151,152,
0,0,0,148,149,150,0,151,152,153,0,145,146,147,0,0,145,146,147,0,0,0,0,561,561,0,0,0,0,0,0,0,0,0,0,0,0,0,0,0,0,0,0,0,0,0,0,0,0,0,0,0,0,0,0,0,0,0,0,0,0,0,0,0,0,0,0,0,0,0,0,0,0,0,148,149,150,151,152,153,0,0,0,0,151,152,153,0,148,149,150,145,146,147,151,152,153,0,0,6140,6141,6142,148,149,150,145,146,147,
145,146,147,0,0,0,145,146,147,0,148,149,150,0,148,149,150,0,0,0,0,0,561,561,561,0,0,561,561,0,0,0,0,0,0,0,0,0,0,0,0,0,0,0,0,0,0,0,0,0,0,0,0,6140,6141,6142,148,149,150,0,0,0,0,0,0,0,151,152,153,148,149,150,145,146,147,0,145,146,147,151,152,153,145,146,147,0,145,146,147,151,152,153,0,0,145,146,147,148,149,150,151,152,153,0,148,149,150,0,
149,150,0,148,149,150,0,0,148,149,150,145,146,147,0,148,149,150,148,149,150,145,146,147,145,146,147,561,148,149,150,561,148,149,150,0,148,149,150,0,0,0,0,0,0,0,0,0,0,151,152,153,148,149,150,0,0,148,149,150,148,149,150,0,6140,6141,6142,0,145,146,147,0,0,148,149,150,0,6140,6141,6142,145,146,147,0,0,148,149,150,0,0,145,146,147,0,0,145,146,147,0,0,145,146,147,0,0,148,149,150,
0,0,145,146,147,0,0,145,146,147,0,145,146,147,148,149,150,145,146,147,561,561,561,561,561,151,152,153,561,561,561,561,561,561,561,561,561,0,0,0,0,0,0,0,21044,21045,21046,422,422,422,0,151,152,153,0,0,148,149,150,0,0,21137,21138,21139,0,0,0,145,146,147,0,145,146,147,6140,6141,6142,0,148,149,150,0,148,149,150,0,6140,6141,6142,0,0,145,146,147,0,0,151,152,153,6140,6141,6142,0,0,145,146,147,0
</data>
 </layer>
 <layer id="4" name="Top layer" width="108" height="22">
  <data encoding="csv">
0,5,6,7,8,9,10,0,0,0,0,0,0,0,5,6,7,0,5,6,7,0,0,0,0,0,0,0,5,6,7,0,8,9,10,5,6,7,0,5,6,7,0,8,9,10,0,0,5,6,7,8,9,10,0,8,9,10,0,5,6,7,0,0,0,0,0,0,5,6,7,0,8,9,10,8,9,10,0,0,0,5,6,7,0,0,0,0,0,0,21105,21106,21107,0,0,21105,21106,21107,0,11,12,13,21105,21106,21107,0,21012,21013,
0,0,0,8,9,10,0,8,9,10,0,0,0,0,0,0,0,0,0,0,5,6,7,0,8,9,10,5,6,7,0,5,6,7,0,0,0,5,6,7,0,0,5,6,7,5,6,7,0,11,12,13,0,5,6,7,0,0,8,9,10,8,9,10,0,5,6,7,0,0,8,9,10,0,5,6,7,0,5,6,7,11,12,13,425,425,425,0,0,0,0,0,0,11,12,13,0,21105,21106,21107,0,0,0,0,0,0,0,0,
5,6,7,11,12,13,5,6,7,0,0,0,0,0,0,0,0,5,6,7,0,0,5,6,7,0,5,6,7,0,0,5,6,7,5,6,7,0,0,0,0,0,0,0,8,9,10,0,5,6,7,5,6,7,0,0,5,6,7,0,0,5,6,7,11,12,13,8,9,10,5,6,7,11,12,13,0,8,9,10,0,5,6,7,0,0,425,0,0,0,0,0,0,0,0,0,0,0,0,0,0,0,0,0,0,0,0,0,
8,9,10,0,11,12,13,0,0,8,9,10,0,0,0,0,0,0,0,0,0,0,0,0,8,9,10,8,9,10,5,6,7,0,0,8,9,10,0,0,626,627,628,629,0,11,12,13,8,9,10,0,8,9,10,8,9,10,0,0,5,6,7,8,9,10,5,6,7,11,12,13,5,6,7,5,6,7,0,8,9,10,0,0,425,425,425,0,0,0,0,0,0,0,0,0,0,0,0,0,0,0,0,0,0,0,0,0,
0,0,5,6,7,8,9,10,0,0,0,0,0,0,0,0,0,0,0,0,0,0,0,0,5,6,7,5,6,7,8,9,10,5,6,7,0,0,0,0,766,767,768,769,0,5,6,7,0,0,5,6,7,0,5,6,7,5,6,7,0,11,12,13,5,6,7,0,0,0,0,0,0,0,0,0,0,0,0,0,0,0,0,425,425,425,0,0,0,0,0,0,428,428,428,0,0,0,0,0,0,0,0,0,0,21012,21013,21014,
6,7,0,0,5,6,7,5,6,7,11,12,13,0,0,0,0,0,0,0,0,0,0,0,0,0,0,0,5,6,7,0,8,9,10,0,0,0,0,0,906,907,908,909,0,0,0,8,9,10,5,6,7,0,8,9,10,5,6,7,5,6,7,8,9,10,0,0,0,0,0,0,0,0,0,0,0,0,0,0,0,0,0,0,0,0,0,0,0,0,0,21105,21106,21107,0,0,0,0,0,0,0,0,0,0,0,0,0,0,
0,8,9,10,0,8,9,10,8,9,10,0,421,421,421,0,0,0,0,0,0,0,0,0,0,0,0,0,0,0,0,5,6,7,0,0,0,0,0,0,1046,1047,1048,1049,0,0,0,5,6,7,0,8,9,10,0,0,0,0,0,5,6,7,0,0,0,0,0,0,0,0,0,0,0,0,0,0,0,0,0,0,0,0,0,0,0,0,0,0,0,0,21108,21109,21110,0,0,0,0,0,0,0,0,0,0,21012,21013,21014,0,0,
9,10,5,6,7,0,8,9,10,0,0,8,9,10,0,0,0,0,0,0,0,0,0,0,0,0,0,0,0,0,0,0,0,0,0,0,0,0,0,0,0,0,0,0,0,0,0,0,0,0,5,6,7,0,5,6,7,0,0,0,0,0,0,0,0,0,0,0,0,0,0,0,0,0,0,0,0,0,0,0,0,0,0,0,0,0,0,0,0,0,0,0,21105,21106,21107,0,0,0,0,0,0,0,11,12,13,21012,21013,21014,
0,8,9,10,0,5,6,7,11,12,13,11,12,13,0,0,0,0,0,0,0,0,0,0,0,0,0,0,0,0,0,0,0,0,0,0,0,0,0,0,0,0,0,0,0,0,0,0,0,0,0,0,0,0,0,0,0,0,0,0,0,0,0,0,0,0,0,0,0,0,0,0,0,0,0,0,0,0,0,0,0,0,0,0,0,0,0,0,0,0,0,21108,21109,21110,0,0,0,0,0,0,0,0,0,0,21012,21013,21014,0,
12,13,5,6,7,0,0,8,9,10,11,12,13,421,421,0,0,0,0,0,0,0,0,0,0,0,0,0,0,0,0,0,0,0,0,0,0,0,0,0,0,0,0,0,0,0,0,0,0,0,0,0,0,0,0,0,0,0,0,0,0,0,0,0,0,0,0,0,0,0,0,0,0,0,0,0,0,0,0,0,0,0,0,0,0,0,0,0,0,0,0,21105,21106,21107,0,0,0,0,0,0,0,0,0,0,0,0,21105,21106,
8,9,10,0,8,9,10,0,6000,6001,6002,0,11,12,13,0,0,0,0,0,0,0,0,0,0,0,0,0,0,0,0,0,0,0,0,0,0,0,0,0,0,0,0,0,0,0,0,0,0,0,0,0,0,0,0,0,0,0,0,0,0,0,0,0,0,0,0,0,0,0,0,0,0,0,0,0,0,0,0,0,0,0,0,0,0,0,0,0,0,0,0,0,0,0,0,0,0,0,0,0,0,0,0,0,0,0,0,0,
5,6,7,0,0,6000,6001,6002,0,0,11,12,13,0,0,0,0,0,0,0,0,0,0,0,0,0,0,0,0,0,0,0,0,0,0,0,0,0,0,0,0,0,0,0,0,0,0,0,0,0,0,0,0,0,0,0,0,0,0,0,0,0,0,0,0,0,0,0,0,0,0,0,0,0,0,0,0,0,0,0,0,0,0,0,0,0,0,0,0,0,0,0,0,0,0,0,0,0,0,0,0,0,21105,21106,21107,21012,21013,21014,
12,13,0,8,9,10,0,0,8,9,10,8,9,10,0,0,0,0,0,0,0,0,0,0,0,0,0,0,0,0,0,0,0,0,0,0,0,0,0,0,0,0,0,0,0,0,0,0,0,0,0,0,0,0,0,0,0,0,0,0,0,0,0,0,0,0,0,0,0,0,0,0,0,0,0,0,0,0,0,0,0,0,0,0,0,0,0,0,0,0,0,0,0,0,0,0,0,0,0,0,0,0,0,21012,21013,21014,0,0,
0,11,12,13,0,0,8,9,10,0,11,12,13,5,6,7,0,0,0,0,0,0,0,0,0,0,0,0,0,0,0,0,0,0,0,0,0,0,0,0,0,0,0,0,0,0,0,0,0,0,0,0,0,0,0,0,0,0,0,0,0,0,0,0,0,0,0,0,0,0,0,0,0,0,0,0,0,0,0,0,0,0,0,0,0,0,0,0,0,0,0,0,0,0,0,0,0,0,0,0,0,11,12,13,0,0,21012,21013,
6,7,0,5,6,7,5,6,7,5,6,7,11,12,13,0,0,0,0,0,0,0,0,0,0,0,0,0,0,0,0,0,0,0,0,0,0,0,0,0,0,0,0,0,21279,0,0,0,0,0,0,0,0,0,0,0,0,0,0,0,0,0,0,0,0,0,0,0,0,0,0,0,0,0,0,0,0,0,0,0,0,0,0,0,0,0,0,0,0,0,0,0,0,0,0,0,0,0,0,0,0,21012,21013,21014,0,21105,21106,21107,
0,8,9,10,0,0,8,9,10,0,11,12,13,6000,6001,6002,0,0,0,0,0,0,0,0,0,0,0,0,0,0,0,0,0,0,0,0,0,0,0,0,0,0,0,0,21311,0,0,0,0,0,0,0,0,0,0,0,0,0,0,0,0,0,0,0,0,0,0,0,0,0,0,0,0,0,0,0,0,0,0,0,0,0,0,0,0,0,0,0,0,0,0,0,0,0,0,0,0,0,0,0,21105,21106,21107,0,21012,21013,21014,0,
9,10,11,12,13,6000,6001,6002,0,6000,6001,6002,0,0,8,9,10,0,0,0,0,0,0,0,0,0,0,0,0,0,0,0,0,0,0,0,0,0,0,0,0,0,0,0,0,0,0,0,0,0,0,0,0,0,0,0,0,0,0,0,0,0,0,0,0,0,0,0,0,0,0,0,0,0,0,0,0,0,0,0,0,0,0,0,0,0,0,0,0,0,0,0,0,11,12,13,0,11,12,13,0,21012,21013,21014,0,0,11,12,
0,0,0,8,9,10,0,11,12,13,0,5,6,7,0,0,5,6,7,0,0,0,0,0,0,0,0,0,0,0,0,0,0,0,0,0,0,0,0,0,0,0,0,0,0,0,0,0,0,0,0,0,0,0,0,0,0,0,0,0,0,0,0,0,0,0,0,0,0,0,0,0,0,0,8,9,10,11,12,13,0,0,0,0,11,12,13,0,8,9,10,21012,21013,21014,11,12,13,0,0,6000,6001,6002,21105,21106,21107,21012,21013,21014,
5,6,7,0,0,0,5,6,7,0,8,9,10,0,8,9,10,0,0,0,0,0,0,0,0,0,0,0,0,0,0,0,0,0,0,0,0,0,0,0,0,0,0,0,0,0,0,0,0,0,0,0,0,6000,6001,6002,8,9,10,0,0,0,0,0,0,0,11,12,13,8,9,10,21012,21013,21014,0,21012,21013,21014,11,12,13,21012,21013,21014,0,21012,21013,21014,11,12,13,0,0,21012,21013,21014,21105,21106,21107,11,12,13,0,21105,21106,21107,0,
9,10,0,8,9,10,0,0,8,9,10,5,6,7,0,8,9,10,8,9,10,5,6,7,5,6,7,561,8,9,10,561,8,9,10,561,8,9,10,0,0,0,0,0,0,0,0,0,0,11,12,13,8,9,10,0,0,8,9,10,8,9,10,0,6000,6001,6002,0,21012,21013,21014,0,0,8,9,10,0,6000,6001,6002,21012,21013,21014,0,0,8,9,10,0,0,21012,21013,21014,0,0,21012,21013,21014,0,0,21012,21013,21014,0,0,21105,21106,21107,
0,0,5,6,7,0,0,5,6,7,0,5,6,7,8,9,10,5,6,7,0,561,561,561,561,11,12,13,0,561,11,12,13,0,561,561,561,0,0,0,0,0,0,0,21012,21013,21014,422,422,422,0,11,12,13,0,0,8,9,10,0,0,21105,21106,21107,0,0,0,21012,21013,21014,0,21012,21013,21014,6000,6001,6002,0,8,9,10,0,8,9,10,0,6000,6001,6002,0,0,21012,21013,21014,0,0,11,12,13,6000,6001,6002,0,0,21012,21013,21014,0,
8,9,10,11,12,13,8,9,10,0,0,0,8,9,10,8,9,10,0,0,561,561,561,5,6,7,561,5,6,7,151,152,153,5,6,7,0,21012,21013,21014,0,21012,21013,21014,0,21012,21013,21014,5,6,7,422,0,8,9,10,0,0,21105,21106,21107,21009,21009,21009,21012,21013,21014,0,0,21012,21013,21014,21012,21013,21014,0,21012,21013,21014,21012,21013,21014,21012,21013,21014,21012,21013,21014,0,21012,21013,21014,0,11,12,13,21012,21013,21014,0,0,0,11,12,13,0,21105,21106
</data>
 </layer>
 <objectgroup id="5" name="interface">
  <object id="1" name="spawn_player" x="1312" y="320" width="32" height="32"/>
 </objectgroup>
</map>
