<?xml version="1.0" encoding="UTF-8"?>
<map version="1.0" orientation="orthogonal" renderorder="right-down" width="76" height="34" tilewidth="32" tileheight="32" nextobjectid="1">
 <tileset firstgid="1" name="Pro all tiles" tilewidth="32" tileheight="32" tilecount="1024" columns="32">
  <image source="Tiles/Pro all tiles.png" width="1024" height="1024"/>
 </tileset>
 <tileset firstgid="1025" name="tile group" tilewidth="32" tileheight="32" tilecount="21000" columns="140">
  <image source="Tiles/tile group.png" width="4480" height="4800"/>
 </tileset>
 <tileset firstgid="22025" name="Jotho pokémon sprite overworld" tilewidth="32" tileheight="32" tilecount="1232" columns="22">
  <image source="Tiles/Jotho pokémon sprite overworld.png" width="704" height="1792"/>
 </tileset>
 <tileset firstgid="23257" name="Trainer overworld sprite" tilewidth="32" tileheight="32" tilecount="3840" columns="60">
  <image source="Tiles/Trainer overworld sprite.png" width="1920" height="2048"/>
 </tileset>
 <layer name="Layer 1" width="76" height="34">
  <data encoding="csv">
552,552,552,552,552,552,552,552,552,552,552,552,552,552,5680,5680,5680,5680,5680,5680,4736,4736,4736,4736,4736,5680,5680,552,552,80,552,80,552,552,552,552,552,552,552,552,552,552,552,552,552,552,552,552,552,552,552,552,552,552,552,552,552,552,552,552,552,552,552,552,552,552,552,552,552,552,552,552,552,552,552,552,
552,552,552,552,552,552,552,552,552,552,552,552,552,5680,5680,5680,5680,5680,4736,4736,4736,4736,4736,5680,5680,5680,5680,552,80,552,552,552,552,552,552,552,552,552,552,552,552,552,552,552,552,552,552,552,552,552,552,552,552,552,552,552,552,552,552,552,552,552,552,552,552,552,552,552,552,552,552,552,552,552,552,552,
552,552,552,552,552,552,552,552,552,80,552,80,5680,5680,5680,5680,4736,4736,4736,4736,5680,5680,5680,5680,5680,5680,5680,552,552,552,552,552,552,552,552,552,80,552,552,552,80,552,552,552,552,552,552,552,80,552,552,552,552,552,552,552,552,552,552,552,552,552,552,552,552,552,552,552,552,4248,552,552,552,552,552,552,
552,552,552,552,552,359,552,552,552,552,80,552,5680,5680,5680,4736,4736,4736,5704,5704,5680,5680,5680,5680,5680,552,552,552,552,552,552,552,552,552,552,552,80,552,552,552,552,552,552,552,552,552,552,552,552,552,552,552,552,552,552,552,552,552,552,552,552,552,552,552,552,4248,552,552,552,552,552,552,552,552,552,552,
552,552,80,552,552,552,359,552,552,552,552,5698,5680,5698,4736,4736,4736,5704,5704,5680,5680,5704,552,552,552,552,552,552,80,552,552,552,552,552,552,552,552,552,552,552,552,552,552,552,552,552,552,552,552,552,552,552,552,552,552,552,552,552,552,552,552,552,552,552,552,4248,552,552,552,552,552,552,552,552,552,552,
552,552,80,552,552,552,552,552,552,552,552,5698,5698,5698,4736,4736,5704,5704,5704,5704,552,552,552,552,552,552,552,552,552,552,552,552,552,552,552,552,552,552,552,552,552,552,552,552,552,552,552,552,552,552,552,552,552,552,552,552,552,552,552,552,609,610,610,3128,552,4248,552,552,552,552,552,552,552,552,552,552,
552,359,80,359,359,552,552,359,552,552,359,5698,5698,4736,4736,4736,5704,5704,5704,552,552,552,552,552,552,552,552,552,552,552,552,552,552,552,552,552,552,552,552,552,552,552,552,552,552,552,552,552,552,552,552,552,552,552,552,552,552,609,610,610,517,642,642,3268,552,4248,552,4248,552,552,552,552,4248,552,552,552,
552,552,552,552,552,552,552,552,552,552,359,5698,5698,4736,4736,4736,5704,5704,5704,552,552,552,552,552,552,552,552,552,552,552,552,80,552,552,552,552,552,552,552,552,552,552,552,552,552,552,552,552,552,552,552,552,609,610,610,610,610,517,642,642,642,642,642,3268,4248,552,552,552,552,552,552,552,552,552,552,552,
552,552,552,552,552,552,552,552,552,552,552,5698,5698,5698,4736,4736,4736,5704,5704,5704,80,552,552,552,552,552,552,552,552,552,552,552,552,552,552,552,552,552,552,552,552,552,552,552,552,552,552,552,552,3827,609,611,641,642,642,642,642,642,642,642,642,642,484,675,552,552,552,552,552,552,552,552,552,552,552,552,
552,552,552,552,552,552,552,552,552,552,5659,5698,5698,5698,4736,4736,4736,5704,5704,5704,552,552,552,552,552,552,552,552,552,552,552,552,552,552,552,552,552,552,552,552,552,552,552,609,610,610,610,611,552,609,517,675,673,674,674,674,674,485,642,642,484,674,675,552,552,552,552,552,552,552,552,552,552,552,552,552,
552,552,552,552,552,552,552,552,552,552,552,552,5698,5698,5698,4736,4736,4736,5704,5704,552,552,552,552,552,552,552,552,552,552,552,552,552,552,552,552,552,552,552,552,552,552,609,517,642,642,642,643,552,673,675,552,552,552,552,609,610,517,642,642,643,552,552,552,4248,552,552,552,552,552,552,552,552,552,4248,552,
552,552,552,552,552,552,552,552,552,552,552,80,5698,5698,5698,5698,4736,4736,5704,5704,552,552,80,552,552,552,552,552,552,552,552,552,552,552,552,552,552,552,552,609,610,611,641,642,642,484,674,675,3827,552,552,552,552,552,609,517,642,642,642,484,675,552,552,552,552,552,552,552,552,552,552,552,552,552,552,552,
552,552,552,552,552,552,552,552,552,552,552,80,552,5698,5698,5698,4736,4736,5704,5704,552,552,552,552,552,552,552,552,552,552,552,552,552,552,552,552,552,552,609,517,642,516,517,484,674,675,552,552,552,552,552,552,552,609,517,642,642,642,484,675,552,552,552,552,552,552,552,552,552,552,552,552,552,552,552,552,
552,552,552,552,552,552,552,552,552,552,552,552,552,5698,5698,5698,4736,4736,5704,5704,552,552,552,552,552,552,552,552,552,552,552,552,552,552,552,552,552,552,641,642,642,642,484,675,552,552,552,552,552,552,552,609,610,517,642,642,642,484,675,552,552,552,552,552,552,552,552,552,552,552,552,552,552,552,552,552,
552,552,552,552,552,552,552,552,359,552,552,552,552,5698,5698,5698,4736,4736,5704,5704,552,552,552,552,552,552,552,552,552,552,552,552,552,552,552,552,552,609,517,642,642,484,675,552,552,552,552,552,552,552,609,517,642,642,642,642,484,675,552,552,3827,3827,552,552,552,552,552,552,552,552,4248,552,552,552,552,552,
552,552,552,552,552,552,552,552,359,552,552,80,5698,5698,5698,4736,4736,4736,5704,5704,552,552,552,552,552,552,552,552,552,552,552,552,552,552,552,552,609,517,642,642,484,675,552,552,552,552,552,552,609,610,517,642,642,642,642,484,675,552,552,552,3827,552,552,552,552,552,552,552,552,552,552,552,552,552,552,552,
552,552,552,552,552,552,359,359,80,552,552,5698,5698,5698,5698,4736,4736,5704,5704,5704,552,552,552,552,552,552,552,552,552,552,552,552,552,552,552,552,641,642,642,484,675,3827,552,552,552,3827,552,609,517,642,642,642,642,484,674,675,552,552,552,552,552,552,552,552,552,552,552,552,552,552,552,552,552,552,552,552,
552,552,80,359,552,552,552,552,552,552,5698,5698,5698,5698,4736,4736,4736,5704,5704,5704,552,552,552,552,552,552,552,552,552,552,552,552,552,3827,609,610,517,642,484,675,552,552,552,552,552,609,610,517,642,642,642,484,674,675,552,552,552,552,552,552,552,552,552,552,552,552,552,552,552,552,552,552,552,552,552,552,
552,552,552,552,552,552,552,552,552,5698,5698,5698,5698,4736,4736,4736,552,552,552,552,552,552,552,552,552,552,552,552,552,552,552,552,552,609,517,642,642,484,675,552,552,552,552,3827,609,517,642,642,642,642,484,675,552,552,552,552,552,552,552,552,552,552,552,552,552,552,552,552,552,552,552,552,552,4248,552,552,
552,552,552,552,552,552,552,552,5698,5698,5698,5698,4736,4736,4736,552,552,552,552,552,552,552,80,552,552,552,552,552,552,552,552,552,609,517,642,642,484,675,552,552,552,552,552,609,517,642,642,642,642,642,516,610,610,610,610,611,3827,552,552,552,552,552,552,552,552,552,552,552,552,552,552,552,552,552,552,552,
552,552,552,552,552,552,552,80,5698,5698,5698,4736,4736,4736,552,552,552,146,552,552,552,552,552,552,552,552,552,552,552,552,552,609,517,642,642,484,675,552,552,552,552,552,609,517,642,642,642,642,642,642,642,642,642,642,642,516,610,610,611,552,552,552,552,552,552,552,552,552,552,552,552,552,552,552,609,610,
552,80,80,552,552,552,552,552,552,552,4736,4736,4736,4736,552,552,552,552,552,552,552,552,552,552,552,552,552,552,552,552,609,517,642,642,484,675,552,3827,552,552,609,610,517,642,642,642,642,484,674,674,485,642,642,642,642,642,642,642,516,610,610,611,552,552,552,552,552,552,609,611,609,610,610,610,517,642,
552,552,552,552,80,552,552,552,552,552,552,4736,4736,552,552,552,552,552,552,80,552,552,552,3827,552,552,552,552,3827,609,517,642,642,484,675,609,610,610,610,610,517,642,642,642,642,484,674,675,552,552,673,674,674,485,642,642,642,642,642,642,642,516,610,610,610,610,610,610,517,516,517,642,642,642,642,484,
3127,610,610,610,610,611,552,552,552,552,552,552,552,552,552,552,80,552,552,552,552,552,552,552,552,552,552,609,610,517,642,642,642,516,610,517,642,642,642,642,642,642,642,484,674,675,552,552,552,552,552,552,552,673,674,674,674,674,485,642,642,642,642,642,642,642,642,642,642,642,642,642,484,674,674,675,
3267,642,642,642,642,516,611,80,5659,5680,5680,5680,5680,5680,5680,5659,552,552,552,552,552,609,610,610,610,610,610,517,642,642,642,642,642,642,642,642,642,642,484,674,674,674,674,675,552,552,552,552,552,552,552,359,552,552,552,552,552,552,673,674,674,674,674,674,485,642,642,642,642,642,642,484,675,552,552,552,
642,642,642,642,642,642,516,610,3128,5680,5680,4736,4736,5680,5680,3126,610,610,610,610,610,517,642,642,642,642,642,642,642,642,642,484,674,674,674,674,674,674,675,552,3827,3827,3827,552,552,552,552,552,552,552,552,552,552,552,552,552,552,552,552,552,552,552,552,552,673,674,674,674,674,674,674,675,552,552,552,552,
674,485,642,642,642,642,642,642,3268,5680,5680,4736,4736,5680,5680,3266,642,642,484,485,642,642,642,642,642,642,642,484,674,674,674,675,552,552,552,552,552,552,552,552,552,552,552,552,552,552,552,552,552,552,552,552,552,552,552,552,552,552,552,552,4248,552,552,552,552,552,552,552,552,552,552,552,552,552,552,552,
552,673,674,485,642,642,642,642,3268,5680,5680,4736,4736,5680,5680,3266,642,484,675,673,485,642,642,642,642,484,674,675,552,552,552,552,552,552,80,552,552,552,552,552,552,80,80,552,552,552,552,552,552,552,552,552,552,552,552,552,552,552,552,4248,552,552,552,552,552,552,552,552,552,552,552,552,552,552,552,552,
552,552,552,673,674,674,674,674,3408,5680,5680,4736,4736,5680,5680,3406,674,485,611,609,517,642,642,484,674,675,552,552,80,80,552,552,552,552,552,552,552,552,80,552,552,552,552,552,552,80,80,552,552,552,552,552,552,552,552,4248,552,552,552,552,552,552,552,80,552,552,552,552,552,552,80,552,552,552,552,552,
552,80,552,552,552,552,552,552,5659,5680,5680,4736,5680,5680,5680,3126,610,517,516,517,642,484,674,675,552,552,552,80,80,552,552,552,552,80,552,552,552,552,552,552,80,552,80,80,552,552,552,80,552,552,552,4248,552,552,4248,552,552,552,552,552,552,552,80,80,552,552,80,80,552,552,80,80,552,552,552,552,
552,80,552,552,552,552,552,552,5680,5680,5680,5680,5680,5680,6797,641,642,642,642,484,674,675,552,552,552,552,552,552,552,552,552,552,552,552,552,552,552,80,80,552,552,552,80,552,552,552,552,552,552,552,552,552,552,552,552,552,552,552,552,552,552,552,80,80,80,552,552,552,552,552,80,552,552,552,552,552,
552,552,552,552,552,552,552,5680,5680,5680,5680,5680,5680,6797,609,517,642,484,674,675,552,552,552,80,80,552,552,552,552,552,552,552,552,552,552,552,552,552,552,552,552,552,552,552,552,552,552,552,552,552,552,552,552,552,552,552,552,552,552,552,552,552,552,80,552,552,552,80,552,552,80,552,552,552,552,552,
552,552,552,552,552,552,5680,5680,5680,5680,5680,5680,5680,609,517,642,642,643,552,552,80,552,552,80,80,552,552,552,552,552,552,552,552,552,552,359,552,359,552,552,359,552,552,552,552,552,552,552,552,552,552,552,552,552,552,552,552,552,552,80,80,80,80,80,552,80,80,552,552,552,552,552,552,552,552,552,
552,552,552,552,552,5680,5680,5680,5680,5680,5680,5680,5680,641,642,642,484,675,552,552,552,80,552,552,80,552,552,552,552,552,552,552,552,552,552,552,552,552,552,552,552,552,552,552,552,552,552,552,552,552,552,552,552,552,552,552,552,552,552,80,552,552,552,80,552,552,552,552,552,552,552,552,552,552,552,552
</data>
 </layer>
 <layer name="Layer 2" width="76" height="34">
  <data encoding="csv">
0,0,0,0,0,0,0,0,0,5938,5799,5799,5799,5800,5938,5799,5800,4595,4596,5156,0,0,0,0,0,4737,5658,0,0,0,0,0,0,0,0,0,0,0,0,0,0,0,0,0,0,0,0,0,0,0,0,0,0,0,0,0,0,0,0,0,0,0,0,0,3976,5938,5799,5800,87,178,179,0,0,0,0,0,
0,0,0,0,0,0,5938,5799,5799,5800,0,176,176,5938,5800,4595,4596,5156,0,0,0,0,0,5015,4876,4877,5658,0,0,0,0,0,0,0,0,0,3843,0,15,15,0,0,0,0,0,0,0,0,0,0,3843,0,0,0,0,3843,0,0,0,0,0,0,0,5938,5799,5800,87,178,179,2711,0,0,0,0,0,0,
0,0,0,5938,5799,5799,5800,0,0,0,0,7556,5938,5800,4595,5156,0,0,0,0,5015,4876,4876,4877,5518,5519,6079,0,0,0,15,15,15,0,0,0,0,15,15,0,0,0,0,0,0,0,0,0,0,0,0,0,0,0,0,0,0,0,0,5938,5799,5799,5799,5800,87,178,179,0,0,0,0,0,0,0,0,0,
0,5938,5799,5800,0,176,0,15,15,0,0,7696,5660,4595,5156,0,0,0,5015,4876,4877,5518,5519,5519,6079,0,0,0,0,0,15,15,15,0,0,0,0,15,15,0,0,0,0,0,0,0,0,0,0,0,0,0,0,0,5938,5799,5799,5799,5799,5800,87,178,178,178,179,0,3978,3979,3979,3980,0,0,0,0,0,0,
0,5660,0,0,0,0,0,48,15,0,0,5938,5800,4735,0,0,0,5015,4877,5518,5519,6079,0,0,0,0,5375,5375,0,15,15,15,15,15,15,15,15,15,0,0,0,0,0,0,0,0,0,0,0,0,5938,5799,5799,5799,5800,87,178,178,178,178,179,0,3976,0,0,0,4118,4119,4119,4120,0,0,0,0,0,0,
5938,5800,0,0,0,0,0,0,48,15,0,5660,4595,5156,0,0,5015,4877,5518,6079,5518,0,0,0,0,0,0,15,15,15,0,0,0,0,15,15,15,0,0,0,0,0,0,0,0,5938,5799,5799,5799,5799,5800,87,178,178,178,179,0,0,0,0,0,0,0,0,0,0,4258,4259,4259,4260,0,0,0,0,0,0,
5660,0,0,0,0,0,0,0,48,15,0,5660,4735,0,0,0,4737,0,5658,5518,0,0,0,0,0,0,15,15,15,15,15,0,0,0,0,0,0,0,0,5938,5799,5799,5799,5799,5799,5800,87,178,178,178,178,179,0,0,0,0,3976,0,0,0,0,0,0,0,0,0,0,0,0,0,0,0,0,0,0,113,
6078,5520,48,48,0,0,0,15,15,0,0,5660,4735,0,0,0,5155,4597,5658,0,5799,0,15,0,0,15,15,0,0,0,0,0,0,5938,5799,5799,5799,5799,5799,5800,87,178,178,178,178,178,179,0,0,0,0,0,0,0,0,0,0,0,0,0,0,0,0,0,0,0,3978,3979,3979,3979,3979,3979,3979,3979,3980,145,
0,5660,0,48,15,15,48,15,0,0,0,5660,4875,5016,0,0,0,4737,5798,5939,0,0,15,15,0,15,15,0,0,0,0,0,5938,5800,87,178,178,178,178,178,179,0,0,0,0,0,0,0,0,0,0,0,0,0,0,0,0,0,0,0,0,0,0,0,0,3976,4118,4119,4119,4119,4119,4119,4119,4119,4120,145,
0,5660,176,0,15,15,48,15,0,0,0,6078,5520,4735,0,0,0,5155,4597,5658,0,15,15,15,15,15,0,0,0,5938,5799,5799,5800,87,179,0,0,0,0,0,0,0,0,0,0,0,0,0,0,0,615,0,0,0,0,0,0,0,0,0,0,0,0,0,0,0,4258,4259,4259,4259,4259,4259,4259,4259,4260,145,
0,6078,5520,0,15,48,15,15,0,176,0,0,5660,4875,5016,0,0,0,4737,5658,15,15,0,0,0,0,0,0,0,5660,87,178,178,179,0,113,114,114,115,0,0,0,0,0,0,0,0,0,0,0,0,0,48,0,0,0,0,0,0,0,0,0,0,0,0,0,0,0,0,0,0,2711,0,0,0,145,
0,0,5660,15,48,48,15,15,15,0,0,0,6078,5520,4875,5016,0,0,4737,5658,15,0,0,0,0,0,0,0,0,5660,147,0,0,113,114,120,115,87,179,0,0,0,0,0,0,0,0,0,0,0,0,22179,0,0,0,0,0,0,0,0,0,0,0,3978,3979,3979,3979,3979,3979,3979,3979,3979,3979,3979,3980,145,
0,0,5660,15,0,0,0,15,15,15,0,0,0,5660,4129,4735,0,0,4737,5658,0,23785,23786,0,0,0,0,0,5938,5800,147,113,114,120,113,120,179,147,0,0,0,0,0,0,0,0,0,0,0,48,48,3976,0,0,0,0,0,0,0,0,0,0,0,4118,4119,4119,4119,4119,4119,4119,4119,4119,4119,4119,4120,145,
0,0,5660,15,0,0,0,0,0,15,15,0,0,5660,4129,4735,0,0,4737,5658,0,23845,23846,0,0,0,0,0,5660,87,179,177,88,113,120,179,87,179,0,0,0,0,0,0,0,15,22158,15,48,48,15,0,0,0,0,0,0,0,0,0,15,0,0,4258,4259,4259,4259,4259,4259,4259,4259,4259,4259,4259,4260,145,
0,0,5660,15,15,0,0,0,0,48,15,0,0,5660,4595,5156,0,0,4737,5658,0,0,0,0,0,0,0,5938,5800,147,0,0,145,177,179,87,179,0,0,0,0,0,0,0,15,0,15,0,0,0,0,0,0,0,0,0,0,0,0,48,48,0,0,0,0,0,0,0,0,0,0,0,0,0,0,145,
0,0,5660,176,15,0,0,0,0,48,15,0,5938,5800,4735,0,0,0,4737,5658,0,0,0,0,0,0,5938,5800,87,179,3843,0,177,88,3976,147,0,0,0,0,0,0,15,15,0,48,48,0,0,0,0,0,0,0,0,0,0,3976,15,48,0,0,0,3978,3979,3979,3979,3979,3979,3979,3979,3979,3979,3979,3980,145,
0,5938,5800,0,48,15,0,0,0,15,15,5938,5800,4595,5156,0,0,5015,4877,5658,0,0,0,0,0,5938,5800,87,179,0,0,15,15,177,178,179,0,0,0,0,0,0,15,3976,15,0,3976,0,0,0,0,0,0,0,0,0,0,15,15,48,0,3843,0,4118,4119,4119,4119,4119,4119,4119,4119,4119,4119,4119,4120,145,
5938,5800,0,0,15,15,15,0,15,15,5938,5800,4595,5156,0,0,0,4737,5518,6079,5938,5799,5799,5799,5799,5800,87,179,0,0,15,15,0,0,0,0,0,0,0,0,0,15,48,15,0,0,0,0,0,0,0,0,0,0,0,15,48,48,48,0,15,3843,0,4258,4259,4259,4259,4259,4259,4259,4259,4259,4259,4259,4260,145,
5800,0,0,15,0,0,176,0,15,5938,5800,4595,5156,0,0,0,5015,6817,6817,5799,5800,87,178,178,178,178,179,0,0,0,3976,15,0,0,0,0,0,0,0,0,15,15,48,0,0,0,0,0,0,0,0,0,0,15,48,15,0,15,15,0,0,0,0,752,0,0,0,3843,0,3843,0,0,0,0,0,177,
5799,5799,5799,5799,5939,0,0,0,5938,5800,4595,5156,0,0,0,5015,4877,0,0,87,178,179,0,15,15,15,15,15,0,15,15,0,0,0,0,0,0,0,0,15,0,15,0,0,0,0,0,0,0,0,0,0,0,0,0,0,0,15,0,15,0,0,0,0,0,0,0,0,0,3843,0,0,0,124,186,186,
178,178,178,88,5798,5799,5939,0,5660,4595,5156,0,0,0,5015,4877,0,150,87,179,0,0,0,3843,0,3976,0,15,15,48,0,0,0,0,0,0,0,0,15,15,15,0,0,0,0,0,0,0,0,0,0,0,0,0,0,0,0,0,0,0,0,0,0,3976,0,0,0,0,752,0,0,0,0,3976,0,0,
0,0,0,177,178,88,5798,5939,6817,6817,4743,4744,0,0,4737,0,87,178,179,0,15,15,15,48,48,15,15,15,15,0,0,0,0,0,0,0,15,0,15,0,0,0,0,0,0,0,0,0,0,0,0,0,0,0,0,0,0,0,0,0,0,0,0,0,0,0,0,0,0,0,0,0,0,0,0,0,
186,186,186,125,0,177,88,5798,5800,4875,5016,0,0,5015,4877,87,179,0,15,0,48,15,0,0,15,0,0,0,0,0,0,0,0,0,0,0,0,0,0,0,0,0,0,0,0,0,0,0,5518,5520,0,0,0,0,0,0,0,0,0,0,0,0,0,0,0,0,0,0,0,0,0,0,0,0,0,0,
0,0,0,0,0,0,177,178,5799,5799,5799,5799,5799,5799,5799,179,0,15,15,15,48,15,15,15,0,0,0,0,0,0,0,0,0,0,0,0,0,0,0,0,0,0,0,0,0,0,5518,5519,6079,6078,5519,5519,5520,0,0,0,0,0,0,0,0,0,297,298,299,0,0,0,0,0,0,0,0,0,0,0,
0,0,0,0,0,0,0,0,6797,5938,5799,5799,5799,5799,5939,0,0,0,0,0,0,0,0,0,0,0,0,0,0,0,0,0,0,0,0,0,0,0,0,0,0,0,0,0,5518,5519,6079,0,0,0,5800,0,5660,48,15,15,15,15,0,0,0,0,329,330,331,425,426,427,0,0,0,1,2,3,186,186,
0,0,0,0,0,0,0,0,0,5660,4595,0,6797,4597,5658,0,0,0,0,0,0,0,0,0,0,0,0,0,0,0,0,0,0,0,0,0,0,0,0,0,0,0,0,0,5798,5799,5799,5939,5798,5800,5938,5799,5800,48,15,47,0,0,15,652,653,654,361,362,363,457,458,459,297,298,299,33,34,35,0,0,
0,0,0,0,0,0,0,0,0,5660,4735,0,0,4737,5658,0,0,0,0,0,0,0,0,0,0,0,0,0,0,0,0,0,10199,10480,10480,10480,10480,158,952,126,10480,10480,10480,10480,10480,10480,10201,5798,5799,5799,5800,48,0,47,48,0,15,15,47,684,685,686,393,1741,395,489,490,491,329,330,331,65,66,67,0,0,
0,0,0,0,0,0,0,0,0,5660,4735,0,0,4737,5658,0,0,0,0,0,0,0,0,0,0,0,0,0,113,5519,5519,115,10339,0,0,0,0,143,0,0,0,0,0,0,15,143,10483,10202,10201,0,15,48,15,47,15,0,297,298,299,716,717,718,0,1881,0,521,522,523,361,362,363,97,98,99,0,0,
186,186,125,0,0,0,0,0,0,5660,4735,0,0,4737,5658,0,0,647,0,0,0,0,1098,1099,1100,0,113,5519,120,0,176,147,10339,15,0,0,0,0,0,0,0,143,0,0,0,0,0,0,10341,0,15,48,48,15,0,0,329,330,331,0,2018,0,0,0,0,0,111,0,2008,394,395,0,0,0,0,0,
0,0,0,5518,5519,5519,5519,5520,0,5660,4735,0,5015,4877,5658,0,0,0,0,1104,1105,1106,1238,1239,1240,113,120,0,0,0,0,147,10339,0,0,0,0,15,0,0,0,0,0,0,0,15,0,0,10341,15,0,297,298,299,0,0,361,362,363,0,0,0,0,0,0,0,0,0,2148,0,0,0,0,2063,0,0,
0,0,0,5658,0,0,5938,5800,5938,5800,4735,5015,4877,5518,6079,0,0,0,0,1244,1245,1246,176,1379,1380,177,88,0,0,0,0,147,10479,10480,10203,10342,0,0,0,0,143,0,0,0,0,10343,10202,186,187,15,15,329,330,331,1874,1875,393,394,395,1313,0,0,0,0,0,0,0,0,0,0,0,111,0,1202,1203,0,
0,0,5518,6079,0,5938,5800,5938,5800,4595,5156,4737,5518,6079,0,0,1062,1063,1064,1384,1385,1386,1518,1519,1520,0,177,5799,5799,88,0,119,114,114,115,10479,10480,10480,10480,10480,10480,186,186,186,10480,10481,684,685,686,0,0,361,362,363,2014,2015,0,0,0,0,0,0,111,0,0,0,0,0,0,0,2009,0,0,1342,1343,1344,
5518,5519,6079,0,5938,5800,5938,5800,4595,5156,5015,4877,5658,0,0,0,1202,1203,1204,1524,1525,1526,176,0,2199,0,0,0,0,177,5939,0,0,176,147,425,426,427,0,0,0,681,682,683,135,136,716,717,718,0,0,393,394,395,2154,2155,0,0,0,0,0,0,0,0,0,0,0,0,1311,2148,2149,0,0,0,0,0,
5658,5518,5519,5520,5660,5938,5800,4595,5156,5015,4877,5518,6079,0,0,0,1342,1343,1344,0,0,0,0,0,0,0,0,0,0,176,177,5799,5799,5799,179,457,458,459,135,136,0,713,714,715,0,0,0,0,0,0,0,0,0,0,0,0,111,0,0,0,0,0,0,0,0,0,111,0,0,0,0,0,0,0,0,0
</data>
 </layer>
 <layer name="Layer 3" width="76" height="34">
  <data encoding="csv">
1914,1915,1916,1917,1918,1919,1920,1921,2108,2109,7268,0,0,0,0,0,0,0,0,0,0,0,0,4948,0,0,0,5658,5237,5237,5237,5237,0,5938,5799,5799,5799,5799,5799,5799,5939,2660,2661,2662,0,0,0,5938,5799,5799,5799,5799,5939,0,5938,5799,5799,5799,5799,5799,5799,5799,5800,0,0,0,0,0,0,0,11985,11986,11987,11988,11989,11990,
2054,2055,2056,2057,2058,2059,2060,2061,2248,2249,7408,0,0,0,0,0,0,0,0,0,5153,0,5293,0,0,0,0,5658,5237,5938,5799,5799,5799,5800,0,0,0,0,0,0,5798,5799,5799,5799,5799,5799,5799,5800,0,0,0,0,5798,5799,5800,0,0,0,0,0,0,0,0,0,0,0,0,0,0,0,12125,12126,12127,12128,12129,12130,
2194,2195,2196,2197,2198,2199,2200,2201,2388,2389,0,0,0,0,0,0,0,0,0,5013,0,0,0,0,0,0,5518,6079,5938,5800,0,0,0,0,0,0,0,0,0,0,0,0,0,0,0,0,0,0,0,0,0,0,0,0,0,0,0,0,0,0,0,0,0,0,0,0,0,0,0,0,12265,12266,12267,12268,12269,12270,
0,0,0,0,0,0,2526,2527,2528,2529,0,0,0,0,0,0,5293,0,0,0,0,0,0,0,5518,5519,6079,5938,5800,0,0,0,0,0,0,0,0,0,0,0,0,0,0,0,0,0,0,0,0,0,0,0,0,0,0,0,0,0,0,0,0,0,0,0,830,0,0,0,0,0,12405,12406,12407,12408,12409,12410,
0,0,0,0,0,8222,0,0,0,0,0,0,0,0,0,0,0,0,0,0,0,5518,5519,5519,6079,5938,5799,5800,0,0,0,0,0,0,0,0,0,0,0,0,0,0,0,0,0,0,0,0,0,0,0,0,0,0,0,0,0,0,0,0,0,0,0,0,862,0,0,0,0,0,12545,12546,12547,12548,12549,12550,
0,0,0,0,0,0,0,0,0,0,0,0,0,0,5153,0,0,0,0,0,5237,6079,5938,5799,5799,5800,0,0,0,0,0,0,0,0,0,0,0,0,0,0,0,0,0,0,0,0,0,0,0,0,0,0,0,0,0,0,0,0,0,0,0,0,0,0,0,0,0,0,0,0,12685,12686,12687,12688,12689,12690,
0,0,0,0,0,0,0,0,0,7556,0,0,0,0,5291,5292,0,0,0,5237,6079,5938,5800,0,0,0,0,0,0,0,0,0,0,0,0,0,0,0,0,0,0,508,509,510,0,0,0,0,0,0,0,0,0,0,0,0,0,0,0,0,0,0,0,0,0,0,0,0,0,0,12825,12826,12827,12828,12829,12830,
0,0,7268,0,0,0,0,0,0,7696,0,0,0,0,0,5013,0,0,0,5798,0,5800,0,0,0,0,0,0,0,0,0,0,0,0,0,0,0,0,0,0,0,508,509,510,0,0,0,0,0,0,0,0,0,0,0,0,0,0,0,0,0,0,0,0,0,0,1634,1635,1636,1637,0,0,0,0,0,0,
0,0,7408,0,0,0,0,0,0,0,0,7268,0,0,0,4948,0,0,0,0,0,0,0,0,0,0,1966,1967,1968,1969,0,0,0,0,0,0,0,0,0,830,0,0,0,0,0,0,0,0,0,0,0,0,0,0,0,0,0,0,0,0,0,0,0,0,0,0,1774,1775,1776,1777,0,0,0,0,0,0,
0,0,0,0,0,0,0,0,0,0,0,7408,0,0,0,0,5291,0,0,0,0,0,0,0,0,0,2106,2107,2108,2109,0,0,0,0,0,0,0,0,0,862,0,0,0,0,0,0,0,0,0,0,0,0,0,0,0,0,0,0,0,0,0,0,0,0,0,0,1914,1915,1916,1917,0,0,0,0,0,0,
1063,1064,0,0,0,0,0,0,0,0,0,0,0,0,0,0,0,0,0,0,0,0,0,0,0,0,2246,2247,2248,2249,0,0,0,0,0,0,0,0,0,0,0,0,0,0,0,0,0,0,0,0,0,0,0,0,0,0,0,0,0,0,0,0,0,0,0,0,2054,2055,2056,2057,0,0,0,0,0,0,
1203,1204,0,0,0,0,0,0,0,0,0,0,0,0,0,0,0,0,0,0,0,0,0,0,0,1065,2386,2387,2388,2389,0,0,0,0,0,113,0,0,0,0,0,0,0,0,0,0,0,0,0,0,0,0,0,0,0,0,0,0,0,0,0,0,0,0,0,0,2194,2195,2196,2197,0,0,1634,1635,1636,1637,
1343,1344,0,0,0,0,0,8223,0,0,0,0,0,0,0,0,0,0,0,0,0,0,1062,1063,1064,1205,1206,1207,0,0,0,0,0,0,0,5935,0,0,0,0,0,0,0,0,0,0,0,0,0,0,0,0,0,0,0,0,0,0,0,0,0,0,0,0,0,0,0,0,0,0,0,0,1774,1775,1776,1777,
1483,1484,1070,0,0,0,8362,0,0,0,0,0,0,0,0,0,0,4948,0,0,0,0,1202,1203,1204,1345,1346,1347,0,0,0,0,0,0,5935,0,0,0,0,0,0,0,0,0,0,0,0,0,0,0,0,0,0,0,0,0,0,0,0,0,0,0,0,0,0,0,0,0,0,0,0,0,1914,1915,1916,1917,
1208,1209,1210,0,0,0,0,0,0,0,0,0,0,0,0,0,0,0,0,0,0,0,1342,1343,1344,1485,1486,1487,0,0,0,0,0,0,0,0,0,0,0,0,0,0,0,0,0,0,0,0,0,0,0,0,0,0,0,0,0,0,0,0,0,0,0,0,0,0,0,0,0,0,0,0,2054,2055,2056,2057,
1348,1349,1350,0,0,0,0,0,0,0,0,0,0,0,0,0,4948,0,0,0,0,0,1482,1483,1484,0,0,0,0,0,0,0,0,0,0,0,0,0,0,0,0,0,0,0,0,0,0,0,0,0,0,0,0,0,0,0,0,0,0,0,0,0,0,0,0,0,0,0,0,0,0,0,2194,2195,2196,2197,
1488,1489,1490,0,0,0,0,0,0,0,0,0,0,0,0,5153,0,0,0,0,0,0,0,0,0,0,0,0,0,0,0,0,0,0,0,0,0,0,0,0,0,0,0,0,0,0,0,0,0,0,0,0,0,0,0,0,0,0,0,0,0,0,0,0,0,0,0,0,0,0,0,0,0,0,0,0,
0,7556,0,0,0,0,0,0,0,0,0,0,0,0,5291,5292,0,0,0,0,0,0,0,0,0,0,0,0,0,0,0,0,0,0,0,0,0,0,0,0,0,0,0,0,0,0,0,0,0,0,0,0,0,0,0,0,0,0,0,0,0,0,0,0,0,495,496,0,0,0,0,0,0,0,0,0,
0,7696,0,0,0,0,0,0,0,0,0,0,0,0,5293,0,0,4877,5798,0,0,0,0,0,0,0,0,0,0,0,0,0,0,0,0,0,0,0,0,0,0,0,0,0,0,0,0,0,0,0,0,0,0,0,0,0,0,0,0,0,0,0,0,0,0,527,528,0,0,0,0,0,0,0,0,0,
0,0,0,0,0,0,0,0,0,0,0,0,0,5013,0,0,0,0,0,0,0,0,0,0,0,0,0,0,0,0,0,0,0,0,0,0,0,0,0,0,0,0,0,0,0,0,0,0,0,0,0,0,0,0,0,0,0,0,0,0,0,0,0,0,0,0,0,0,0,0,0,495,496,0,0,0,
0,0,0,0,0,0,0,0,0,0,0,5013,5292,0,0,0,0,0,0,0,0,0,0,0,0,0,0,0,0,0,0,0,0,0,0,0,0,0,0,0,0,0,0,0,0,0,0,0,0,0,0,0,0,0,0,0,0,0,0,0,0,0,0,0,0,0,0,0,0,0,0,527,528,0,0,0,
0,0,0,0,0,0,0,0,5660,4735,0,0,5153,0,0,0,0,0,0,0,0,0,0,0,0,0,0,0,0,0,0,0,0,0,0,0,0,0,0,0,0,0,0,0,0,0,0,0,0,0,0,0,0,0,0,0,0,0,0,0,0,0,0,0,0,0,0,0,0,0,0,0,0,0,0,0,
0,0,0,0,0,0,0,0,0,0,0,5291,0,0,0,0,0,0,0,0,0,0,0,0,0,0,0,0,0,0,0,0,0,0,0,0,0,0,0,0,0,0,0,0,0,0,0,0,0,0,0,0,0,0,0,0,0,0,0,0,0,0,0,0,0,0,0,0,0,0,0,0,0,0,0,0,
0,0,0,0,0,0,0,0,0,0,4878,4879,4879,4880,0,702,703,704,702,703,704,0,0,0,0,0,0,0,0,0,0,0,0,0,0,0,0,0,0,0,0,0,0,0,0,0,0,5518,5519,5519,5520,0,0,0,0,0,0,0,0,0,0,0,0,0,0,0,0,0,0,0,0,0,0,0,0,0,
0,0,0,0,0,0,0,0,0,0,5018,5019,5019,5020,0,734,735,736,734,735,736,0,0,0,0,0,0,0,0,0,0,0,0,0,0,0,0,0,0,0,0,0,0,0,0,79,0,5798,5939,5938,0,0,0,0,0,0,0,0,0,0,0,0,0,0,0,0,0,0,0,0,0,0,0,0,0,830,
0,0,0,0,0,0,0,0,0,0,5158,5159,5159,5160,0,0,0,0,0,0,0,0,0,0,0,0,0,0,0,0,0,0,0,0,0,0,0,0,0,0,0,0,0,0,0,0,0,0,0,0,0,0,0,0,0,0,0,0,0,0,1598,1599,1600,1032,1033,1034,1586,1587,1588,1589,0,0,0,1044,1045,862,
0,0,0,0,0,0,0,0,0,0,0,0,0,0,0,0,0,0,0,0,0,0,0,0,0,0,0,0,0,0,0,0,0,0,0,0,0,0,0,0,0,0,0,0,0,0,0,0,0,0,0,0,0,0,0,0,0,0,0,0,1738,1739,1740,1172,1173,1174,1726,1727,1728,1729,1044,1045,1046,1184,1185,1186,
0,0,0,0,0,0,0,0,0,0,0,0,0,0,0,0,0,0,0,0,0,0,0,0,0,0,0,0,0,476,478,0,0,0,0,0,4218,0,0,4218,4218,0,0,0,0,4218,0,0,0,0,0,0,0,0,0,0,0,0,0,0,1878,1879,1880,1312,1313,1314,1866,1867,1868,1869,1184,1185,1186,1324,1325,1326,
0,0,0,0,0,0,0,0,0,0,0,0,0,0,0,0,0,0,0,0,0,0,0,1634,1635,1636,1637,0,0,0,0,0,0,0,4218,0,0,0,0,0,0,0,4218,0,0,0,0,0,0,0,0,0,0,0,1594,1595,1596,1597,1032,1033,1034,2019,2020,2021,0,0,2006,2007,1802,1803,1804,1325,1326,0,0,0,
0,0,0,0,5518,5520,0,0,0,0,0,5293,0,0,0,0,0,0,0,0,0,0,0,1774,1775,1776,1777,0,0,0,0,0,0,0,0,4218,0,0,0,4218,0,0,0,0,0,0,4218,0,0,0,0,0,0,0,1734,1735,1736,1737,1172,1173,1174,2159,2160,2161,2059,2060,2061,2147,1942,1943,1944,1945,2062,1062,2064,2065,
0,0,0,0,5798,5800,0,0,0,0,0,0,0,0,0,0,0,0,0,0,1068,1069,65,1914,1915,1916,1917,0,0,0,0,0,0,0,0,0,0,0,0,0,0,0,0,0,0,0,745,746,747,1598,1599,1600,1601,1029,1030,1031,1876,1877,1312,1914,1314,0,0,0,2199,2200,1204,1866,1867,2083,2084,2085,2202,2050,2050,2205,
0,0,0,0,0,0,0,0,0,0,0,0,0,0,0,0,0,0,0,0,1208,1209,1210,2054,2055,2056,2057,508,510,0,0,0,0,0,0,0,0,0,0,0,0,649,650,651,1598,1599,1600,1601,0,1738,1739,1740,1741,1169,1170,1171,2016,2017,0,2054,2055,2056,2057,0,1342,1343,1344,2006,2007,2223,2224,1874,1875,0,1877,0,
0,0,0,0,0,0,0,0,0,0,0,0,0,0,0,0,0,0,0,0,1348,1349,1350,2194,1031,2196,2197,0,0,0,0,0,0,0,0,0,0,0,0,1032,1033,1034,0,0,1738,1739,1740,1741,0,1878,1879,1880,1881,1309,1310,1311,2156,2157,0,2194,2195,2196,2197,0,1482,1483,1309,1310,1037,0,1169,2014,2015,0,2017,0,
0,0,0,0,0,0,0,0,0,0,0,0,0,0,0,0,0,0,0,0,1488,1489,1490,0,1171,0,0,0,0,0,0,0,0,0,0,0,1032,1033,1034,1172,1173,1174,0,0,1878,1879,1880,1881,0,2018,2019,2020,2021,0,0,0,0,0,0,0,0,0,0,0,0,0,0,0,1175,0,1309,0,0,0,0,0
</data>
 </layer>
 <layer name="top layer" width="76" height="34">
  <data encoding="csv">
1640,1641,0,0,0,0,2106,2107,0,0,0,0,0,0,0,0,0,0,0,0,0,0,0,0,0,0,0,0,0,0,0,0,8220,8221,8222,8223,8224,7556,0,0,0,0,0,0,0,0,0,2250,2251,2252,2253,2254,0,0,0,0,0,0,0,0,0,495,496,0,0,0,0,0,0,0,0,0,0,0,0,0,
1780,1781,0,0,0,0,2246,2247,0,0,0,0,0,0,0,0,0,0,0,0,0,0,0,0,0,0,0,0,0,0,0,0,8360,8361,8362,8363,8364,7696,0,23903,23904,0,0,495,496,0,0,2390,2391,2392,2393,2394,0,0,0,0,0,0,0,0,0,527,528,0,0,0,0,495,496,0,0,0,0,0,0,0,
1920,1921,0,0,0,0,2386,2387,0,0,0,0,0,0,0,0,0,0,0,0,0,0,0,0,0,0,0,0,0,7556,0,0,8500,8501,8502,8503,8504,0,0,23963,23964,0,0,527,528,0,0,0,0,0,0,0,0,0,0,0,0,1586,1587,1588,1589,0,0,0,0,0,0,527,528,0,0,0,0,0,0,0,
2060,2061,0,8080,8081,8082,8083,8084,0,0,0,0,0,0,0,0,0,0,0,0,0,0,8080,8081,8082,8083,8084,0,0,7696,0,0,8640,8641,8642,8643,8644,0,0,0,0,0,0,0,0,0,0,0,0,0,0,0,0,0,0,0,0,1726,1727,1728,1729,0,26759,26760,0,0,0,0,0,0,0,0,0,0,0,0,
2200,2201,0,8220,8221,22345,8223,8224,0,0,0,0,0,0,0,0,0,0,0,0,0,0,8220,8221,8222,8223,8224,0,0,0,0,0,0,0,0,0,0,0,0,0,0,0,0,0,0,0,0,0,1598,1599,1600,1601,0,0,0,0,0,1866,1867,1868,1869,0,26819,26820,0,0,0,0,0,0,0,0,0,0,0,0,
0,0,0,8360,8361,8362,8363,8364,0,0,0,0,0,0,0,0,0,0,0,0,0,0,8360,8361,8362,8363,8364,0,0,0,0,0,0,0,0,0,0,0,0,0,0,0,0,0,0,0,0,0,1738,1739,1740,1741,0,0,0,0,0,2006,2007,2008,2009,0,0,0,0,0,0,0,0,0,0,0,0,0,0,0,
0,0,0,8500,8501,8502,8503,8504,0,0,0,0,0,0,0,0,0,0,0,0,0,0,8500,8501,8502,8503,8504,0,0,0,0,0,0,0,0,0,0,0,0,0,0,0,0,0,0,0,0,0,1878,1879,1880,1881,0,0,0,0,0,2146,2147,2148,2149,0,0,0,0,0,0,0,0,0,0,0,0,0,0,0,
0,0,0,8640,8641,8642,8643,8644,0,0,0,0,0,0,0,0,0,0,0,0,0,0,8640,8641,8642,8643,8644,0,0,0,0,0,0,0,0,0,0,0,0,0,0,0,0,0,0,0,0,0,2018,2019,2020,2021,0,0,0,0,0,0,0,0,0,0,0,0,0,0,0,0,0,0,0,0,0,0,0,0,
0,0,0,0,0,0,0,0,0,0,0,0,0,0,0,0,0,0,0,0,7556,0,0,0,0,0,0,0,0,0,0,0,0,0,0,0,0,0,0,0,26157,26158,0,0,0,0,0,0,2158,2159,2160,2161,0,0,0,0,0,0,0,0,0,0,0,0,0,0,0,0,0,0,0,0,0,0,0,0,
0,0,0,0,0,0,0,0,0,0,0,0,0,0,0,0,0,0,0,0,7696,0,0,0,0,0,0,0,0,0,0,0,0,0,0,0,0,0,0,0,26217,26218,0,0,0,0,0,0,0,0,0,0,0,0,0,0,0,0,0,0,0,0,0,0,0,0,0,0,0,0,0,0,0,0,0,0,
0,0,0,0,0,0,0,0,0,0,0,0,0,0,0,0,0,0,0,0,0,0,0,0,0,0,0,0,0,0,0,0,0,0,0,0,0,0,0,0,0,0,0,0,0,0,0,0,0,0,0,0,0,0,0,0,0,0,0,0,0,0,0,0,0,0,0,0,0,0,0,0,0,0,0,0,
0,0,0,0,8080,8081,8082,8083,8084,0,0,0,0,0,0,0,0,0,0,0,0,0,0,0,0,1065,1066,1067,0,0,0,0,0,0,0,0,0,0,0,0,0,0,0,0,0,0,0,0,0,0,0,0,0,0,0,0,0,0,0,0,2356,2357,2358,2359,2360,2361,0,0,0,0,0,0,0,0,0,0,
0,0,0,0,8220,8221,8222,22346,8224,0,0,0,0,8900,8901,8901,8901,8901,8901,8902,0,0,0,1634,1635,1636,1637,0,0,0,0,0,0,0,0,0,0,0,0,0,0,0,0,0,0,0,0,0,0,0,0,0,0,0,0,0,0,0,0,0,2496,2497,2498,2499,2500,2501,2362,2363,2364,2365,2366,2367,0,0,0,0,
1071,1072,1073,0,8360,8361,22367,8363,8364,0,0,0,0,9040,9041,9041,9041,9041,9041,9042,0,0,0,1774,1775,1776,1777,0,0,0,0,0,0,0,0,0,0,0,0,0,0,0,0,0,0,0,0,0,0,0,0,0,0,0,0,0,0,0,0,0,2636,2637,2638,2639,2640,2641,2502,2503,2504,2505,2506,2507,0,0,0,0,
0,0,0,0,8500,8501,8502,8503,8504,0,0,0,0,9180,9181,9181,9181,9181,9181,9182,2310,2311,2312,1914,1915,1916,1917,0,0,0,0,0,0,0,0,0,0,0,0,0,0,0,0,0,0,0,0,0,0,0,0,0,0,0,0,0,0,0,0,0,2776,2777,2778,2779,2780,2781,2642,2643,2644,2645,2646,2647,0,0,0,0,
0,0,0,0,8640,8641,8642,8643,8644,0,0,0,0,0,0,0,0,0,0,0,2450,2451,2452,2054,2055,2056,2057,0,0,0,0,0,0,0,0,0,0,0,0,0,0,0,0,0,0,0,0,0,0,0,0,0,0,0,0,0,0,0,0,0,2916,2917,2918,2919,2920,2921,2782,2783,2784,2785,2786,2787,0,0,0,0,
0,0,0,0,0,0,0,0,0,0,0,0,0,0,0,0,0,0,0,0,2590,2591,2592,2194,2195,2196,2197,0,0,0,0,0,0,0,0,0,0,0,0,0,0,0,0,0,0,0,0,0,0,0,0,0,0,0,0,0,0,0,0,0,3056,3057,3058,3059,3060,3061,2922,2923,2924,2925,2926,2927,0,0,0,0,
0,0,0,0,0,0,0,0,0,0,0,0,0,0,0,0,0,0,0,0,0,0,0,0,0,0,0,0,0,0,0,0,0,0,0,0,0,0,0,0,0,0,0,0,0,0,0,0,0,0,0,0,0,0,0,0,0,0,0,0,3196,3197,3198,3199,3200,3201,3062,3063,3064,3065,3066,3067,0,0,0,0,
0,0,0,0,0,0,0,0,0,0,0,0,0,0,0,0,0,0,0,0,0,0,0,0,0,0,0,0,0,0,0,0,0,0,0,0,0,0,0,0,0,0,0,0,0,0,0,0,0,0,0,0,0,0,0,0,0,0,0,0,3336,3337,3338,3339,3340,3341,3202,3203,3204,3205,3206,3207,0,0,0,0,
0,0,0,0,0,0,0,0,0,0,0,0,0,0,0,0,0,0,0,0,0,0,0,0,0,0,0,0,0,0,0,0,0,0,0,0,0,0,0,0,0,0,0,0,0,0,0,0,0,0,0,0,0,0,0,0,0,0,0,0,3476,3477,3478,3479,3480,3481,3342,3343,3344,3345,3346,3347,0,0,0,0,
0,0,0,0,0,0,0,0,0,0,0,0,0,0,0,0,0,0,0,0,0,0,0,0,0,0,0,0,0,0,0,0,0,0,0,0,0,0,0,0,0,0,0,0,0,0,0,0,0,0,0,0,0,0,0,0,0,0,0,0,0,0,0,0,0,0,3482,3483,3484,3485,3486,3487,0,0,8813,0,
0,0,0,0,0,0,0,0,0,0,0,0,0,0,0,0,0,0,0,0,0,0,0,0,0,0,0,0,0,0,0,0,0,0,0,0,0,0,0,0,0,0,0,0,0,0,0,0,0,0,0,0,0,0,0,0,0,0,0,0,0,0,0,0,0,0,3622,3623,3624,3625,3626,3627,0,0,0,0,
0,0,0,0,0,0,0,0,0,0,0,0,0,0,0,0,0,0,0,0,0,0,0,0,0,0,0,0,0,0,0,0,0,0,0,0,0,0,0,0,0,0,0,0,0,0,0,0,0,0,0,0,0,0,0,0,0,0,0,0,0,0,0,0,0,0,0,0,0,0,0,0,0,0,0,0,
0,0,8813,0,8953,23429,23430,0,0,0,0,0,0,0,0,0,0,0,0,0,0,0,0,0,0,0,0,0,0,0,0,0,0,0,0,0,0,0,0,0,0,0,23305,23306,0,0,0,0,0,79,0,79,0,0,0,0,0,0,0,0,0,0,0,0,0,0,0,0,0,0,0,0,0,0,0,0,
0,0,0,0,0,23489,23490,0,0,0,0,0,0,0,0,0,0,0,0,0,0,0,0,0,0,0,0,0,0,0,0,0,0,0,0,0,0,0,0,0,0,0,23365,23366,0,0,0,0,0,0,0,0,0,0,0,0,0,0,0,0,0,0,0,0,0,0,0,0,0,0,0,0,0,0,0,0,
0,0,0,0,0,0,0,0,0,0,0,0,0,0,0,0,0,0,0,0,0,0,0,0,0,0,0,0,0,0,0,0,0,0,0,0,0,0,0,0,0,0,0,0,0,0,0,0,0,0,0,0,0,0,0,0,0,0,0,0,0,0,0,0,0,0,0,0,0,0,0,0,0,0,0,1046,
1592,1593,0,0,0,0,0,0,0,8900,8901,8901,8901,8901,8902,0,0,0,0,0,0,0,0,0,0,0,0,0,0,0,0,0,0,0,0,0,0,0,0,0,0,0,0,0,0,0,0,0,0,0,0,0,0,0,0,0,0,0,0,0,0,0,0,1638,1639,1640,1641,0,0,0,0,0,1642,1643,1644,1645,
1732,1733,0,0,0,0,0,0,0,9040,9041,9041,9041,9041,9042,0,0,0,0,0,0,0,0,0,0,0,0,0,0,0,0,0,0,0,0,0,22282,0,0,22261,22259,0,0,0,0,22216,0,0,0,0,0,0,0,0,0,0,0,0,0,0,0,0,0,1778,1779,1780,1781,0,1662,1663,1664,1665,1782,1783,1784,1785,
1872,1873,1590,1591,1592,1593,0,0,0,9180,9181,9181,9181,9181,9182,0,0,0,0,0,0,0,0,0,0,0,0,0,0,0,0,0,0,0,22259,0,0,0,0,0,0,0,22282,0,0,0,0,0,0,0,0,0,0,0,0,0,0,0,0,1634,1635,1636,1637,1918,1919,1920,1921,1586,1587,1588,1589,1805,1922,1923,1924,1925,
2012,2013,1730,1731,1732,1733,0,0,0,0,0,0,0,0,0,0,0,0,0,0,0,0,0,0,0,0,0,0,0,0,0,0,0,0,0,22237,0,0,0,22284,0,0,0,0,0,0,22240,0,0,0,0,0,0,0,0,0,0,0,0,1774,1775,1776,1777,2058,1062,1063,1064,1726,1727,1728,1729,1594,1595,1596,1063,1064,
2152,2153,1870,1871,1872,1873,0,0,0,0,0,0,0,0,0,0,0,0,0,0,0,0,427,0,1646,1647,1648,1649,0,0,0,0,0,0,0,0,0,0,0,0,0,0,0,0,0,0,0,0,0,0,0,0,0,0,0,0,1662,1663,1664,1665,1915,1916,1917,2198,1202,1203,1029,1030,1031,1868,1869,1734,1735,1736,1737,1204,
0,0,2010,2011,2012,2013,0,0,0,0,0,0,0,0,0,0,0,0,1586,1587,1588,1589,0,0,1786,1787,1788,1789,0,0,0,0,0,0,0,0,0,0,0,0,0,0,0,0,0,0,0,0,0,0,0,0,1642,1643,1644,1645,1802,1803,1804,1805,1062,1063,1064,1029,1030,1031,1169,1170,1171,2008,1029,1030,1031,1876,1029,1030,
0,0,2150,2151,2152,2153,0,0,0,0,0,0,0,0,0,0,0,0,1726,1727,1728,1729,1029,1030,1926,1927,1928,1929,0,0,0,0,0,0,0,0,0,0,0,0,0,0,0,0,0,0,0,1634,1635,1636,1637,0,1782,1783,1784,1785,1942,1943,1944,1945,1202,1203,1204,1169,1170,1171,1035,1036,1035,1036,1037,1170,1171,2016,1169,1170,
0,0,0,0,0,0,0,0,0,0,0,0,0,0,0,0,0,0,1866,1867,1868,1869,1169,1170,2066,2067,2068,2069,0,0,0,0,0,0,0,0,0,0,0,0,0,0,0,0,0,0,0,1774,1775,1776,1777,0,1922,1923,1924,1925,2082,2083,2084,2085,1342,1343,1344,1309,1310,1311,1175,1176,1177,1176,1177,1310,1311,2156,1309,1310
</data>
 </layer>
</map>
