<?xml version="1.0" encoding="UTF-8"?>
<map version="1.10" tiledversion="1.11.2" orientation="orthogonal" renderorder="right-down" width="70" height="53" tilewidth="32" tileheight="32" infinite="0" nextlayerid="5" nextobjectid="1">
 <tileset firstgid="1" name="Pro all tiles" tilewidth="32" tileheight="32" tilecount="1024" columns="32">
  <image source="Tiles/Pro all tiles.png" width="1024" height="1024"/>
 </tileset>
 <tileset firstgid="1025" name="tile group" tilewidth="32" tileheight="32" tilecount="21000" columns="140">
  <image source="Tiles/tile group.png" width="4480" height="4800"/>
 </tileset>
 <tileset firstgid="22025" name="sinnohtiles" tilewidth="32" tileheight="32" tilecount="1554" columns="37">
  <image source="Tiles/sinnohtiles.png" width="1214" height="1356"/>
 </tileset>
 <layer id="1" name="Layer 1" width="70" height="53">
  <data encoding="csv">
552,552,552,552,552,80,552,552,552,552,552,552,552,552,552,552,552,552,552,552,552,552,552,552,4248,552,552,552,552,552,552,552,552,552,552,552,552,552,552,552,80,80,552,552,552,552,552,80,552,552,552,552,552,552,552,552,552,552,552,552,552,552,552,552,552,552,552,552,552,552,
552,552,552,552,80,80,552,552,552,552,552,552,552,552,552,552,552,552,552,552,552,552,552,552,4248,4248,552,552,552,552,552,552,552,552,552,552,552,552,552,80,80,80,552,552,80,552,80,80,552,552,552,552,552,552,552,552,552,552,552,552,552,552,552,552,552,552,552,552,552,552,
552,552,552,552,552,552,552,552,552,552,552,552,552,552,552,552,552,552,552,552,552,552,552,552,552,4248,552,552,552,552,552,552,552,4248,552,552,552,552,552,80,80,552,552,552,552,552,80,552,552,552,552,552,552,552,552,552,552,552,552,552,80,80,552,552,552,552,552,552,552,552,
552,552,552,552,552,552,552,552,552,552,552,552,552,552,552,552,552,552,552,552,552,552,552,552,4248,4248,552,552,552,552,552,552,552,552,552,552,552,552,552,552,552,552,552,552,552,80,552,552,552,552,552,552,552,552,552,552,552,552,552,552,552,552,552,552,552,552,552,552,552,552,
552,552,552,552,552,80,552,552,552,552,552,552,552,552,552,552,552,552,552,552,552,552,552,552,552,4248,552,552,552,552,552,4248,552,552,552,552,552,552,552,552,552,552,552,552,552,552,552,552,552,552,552,552,552,552,552,552,552,552,552,552,552,552,552,552,552,552,552,552,552,552,
552,552,552,552,552,80,80,552,552,552,552,552,552,552,552,552,552,552,552,552,552,552,552,4248,4248,552,552,552,552,552,552,552,4248,552,80,552,552,552,552,552,552,552,552,552,552,552,552,552,552,552,552,552,552,552,552,552,552,552,552,552,552,552,552,552,552,552,552,552,552,552,
552,552,552,552,552,552,552,552,552,552,552,552,552,552,552,552,552,552,552,552,552,552,552,552,552,552,552,552,552,552,552,552,4248,552,552,552,552,552,552,552,552,552,552,552,552,552,552,552,552,552,552,552,552,552,552,552,552,552,80,552,552,552,552,552,552,552,552,552,552,552,
552,552,552,552,552,552,552,552,552,552,552,552,552,552,552,552,552,552,552,552,552,552,552,552,552,552,552,552,552,552,552,552,552,552,552,80,80,552,552,552,552,552,552,552,80,552,552,552,552,552,552,552,552,552,552,552,552,80,80,552,552,552,552,552,552,552,552,80,552,552,
552,552,552,552,552,552,552,552,552,552,552,552,552,552,552,552,552,552,552,552,552,552,552,552,552,552,552,552,609,610,610,611,552,552,552,552,80,552,552,552,552,552,552,552,552,80,80,552,552,552,552,552,552,552,552,552,80,552,552,552,552,552,552,552,552,552,552,80,552,80,
552,80,80,552,552,80,552,552,552,552,552,552,552,552,552,552,552,552,552,552,552,552,552,552,552,552,552,552,641,642,642,643,552,552,552,552,80,552,552,552,552,552,552,552,552,359,359,552,552,552,552,552,552,552,552,80,80,552,552,552,552,552,552,552,552,80,552,80,552,80,
552,552,80,552,80,552,552,552,80,80,552,552,552,552,552,552,552,552,552,552,552,552,552,552,552,552,609,610,517,642,642,516,611,552,552,552,552,552,552,552,552,552,552,552,552,359,80,552,552,552,552,552,552,552,552,552,80,80,80,552,552,552,552,552,552,80,80,552,80,80,
552,552,552,552,552,552,552,552,552,80,80,552,552,552,552,552,552,552,552,552,552,552,552,552,552,552,641,642,642,642,642,642,516,611,552,552,552,552,552,552,552,552,552,552,552,359,359,359,359,552,552,552,552,552,552,552,552,552,552,552,552,552,552,552,552,552,80,552,80,552,
552,552,552,552,552,552,552,552,552,552,552,552,552,552,552,552,552,552,552,552,552,552,552,552,552,609,517,642,642,642,642,642,642,516,610,610,610,611,552,552,552,552,552,552,552,359,609,610,610,610,610,610,611,552,552,552,552,552,552,552,552,552,552,552,552,552,80,552,80,552,
552,552,552,552,552,80,552,552,552,552,552,552,552,552,552,552,552,552,552,552,552,552,552,552,552,641,642,642,642,642,642,642,642,642,642,642,484,675,552,552,552,552,552,552,552,552,641,642,642,642,642,642,516,611,552,552,552,552,552,552,552,552,552,552,552,552,552,552,80,80,
552,552,80,552,552,80,80,552,552,552,552,552,552,552,552,552,552,552,552,552,552,552,552,552,609,517,642,484,674,674,674,674,674,674,674,674,675,359,552,552,552,552,552,552,552,552,641,642,642,642,642,642,642,643,552,552,552,552,552,552,552,552,552,552,552,552,552,552,552,552,
552,80,80,552,552,552,552,552,552,552,552,552,552,552,552,552,552,552,552,552,552,552,552,609,517,642,642,643,552,552,552,552,552,552,552,552,552,4248,359,552,552,552,552,552,552,552,673,674,674,674,485,642,642,516,611,552,552,552,552,552,552,552,552,552,552,552,552,552,552,552,
552,80,552,552,552,552,552,552,552,552,552,552,552,552,552,552,552,552,552,552,552,552,552,641,642,642,484,675,552,552,552,552,552,552,552,552,552,4248,4248,359,552,552,552,552,552,552,552,552,552,552,673,485,642,642,516,611,552,552,552,552,552,552,552,552,552,552,552,552,552,552,
552,552,552,80,80,552,80,552,80,80,80,552,552,552,80,80,552,552,552,552,552,552,552,641,642,642,643,552,552,552,552,552,552,552,552,552,552,552,4248,359,552,552,552,552,552,552,552,552,552,552,552,673,485,642,642,643,552,552,552,552,552,552,552,552,552,552,552,552,552,552,
552,552,552,552,80,80,80,552,552,552,552,552,552,80,552,80,552,552,552,552,552,552,552,641,642,484,675,552,552,552,552,552,552,552,552,552,552,552,4248,359,359,552,552,552,552,552,552,552,552,552,552,552,673,674,674,675,552,552,552,552,552,552,552,552,80,80,552,552,552,552,
552,552,552,552,552,552,552,552,552,552,552,552,552,80,552,552,552,552,552,552,552,552,552,641,484,675,552,4248,552,4248,4248,552,552,552,552,552,552,552,552,552,552,552,552,552,552,552,552,552,552,552,552,552,552,359,359,552,552,552,552,552,552,552,552,552,552,80,80,552,552,552,
552,552,552,552,552,552,552,552,552,552,552,80,552,552,552,552,552,552,552,552,552,552,552,673,675,552,552,4248,552,4248,552,552,552,552,552,552,552,552,552,552,552,552,552,552,552,552,552,552,552,552,552,552,552,359,552,359,552,552,552,552,552,552,552,552,552,552,552,552,552,552,
552,552,552,552,552,552,552,552,552,80,552,80,80,552,552,552,552,552,552,552,552,552,552,552,552,552,552,4248,552,552,552,552,552,4248,4248,552,552,552,552,552,552,552,552,552,552,552,552,552,552,552,552,552,552,552,552,359,552,552,552,552,552,552,552,552,552,552,552,552,552,552,
552,552,552,552,552,552,80,80,80,552,552,552,80,80,552,552,552,552,552,552,552,552,552,552,552,552,552,4248,552,552,552,552,552,4248,4248,4248,552,552,552,552,552,552,552,552,552,552,552,552,552,552,552,552,552,552,552,359,552,552,552,552,552,552,552,552,552,552,80,552,552,552,
552,552,552,552,552,552,552,552,552,552,552,552,80,80,80,552,552,552,552,552,552,552,552,552,552,552,552,4248,4248,552,552,552,552,4248,552,552,552,552,552,552,552,552,552,552,552,552,552,552,552,552,552,552,552,552,552,552,552,552,552,552,552,552,552,552,80,80,80,552,552,552,
552,552,552,552,552,552,552,552,552,552,552,552,80,552,552,552,552,552,552,552,552,552,552,552,552,552,552,552,4248,552,552,552,552,552,552,552,552,552,552,4248,4248,552,552,552,552,552,552,552,552,552,552,552,552,552,552,552,359,552,552,552,552,552,552,80,80,552,552,552,552,552,
552,552,552,552,552,552,552,552,552,552,552,552,552,80,552,552,552,552,552,552,552,552,552,552,552,552,552,552,552,552,552,552,4248,552,552,552,552,552,552,552,4248,552,552,552,552,552,552,552,552,552,552,552,552,552,552,552,552,359,552,552,552,552,552,552,552,552,552,552,552,80,
80,80,552,552,552,552,552,552,552,552,552,552,552,80,80,552,552,552,552,552,552,552,552,552,552,552,552,552,552,552,552,4248,552,552,552,552,552,552,552,552,552,552,552,552,552,552,552,552,552,552,552,552,552,552,552,552,552,552,552,552,552,552,552,552,552,552,552,552,80,552,
552,552,552,552,552,552,552,80,80,552,552,552,552,552,552,552,552,552,552,552,552,552,552,552,552,552,552,552,50,50,50,50,50,50,552,552,552,552,552,552,552,552,552,552,552,552,552,552,552,552,552,552,552,552,552,552,552,552,552,552,552,552,552,552,552,552,552,552,80,80,
552,552,552,552,552,552,552,552,552,552,552,552,552,552,552,552,552,552,552,552,552,552,552,609,610,610,611,552,50,50,50,50,50,50,50,552,552,552,552,552,552,552,552,552,552,552,552,552,552,552,552,552,552,552,552,552,552,552,552,552,552,552,552,552,552,552,552,552,552,552,
552,552,552,552,552,552,552,552,552,552,552,552,552,552,552,552,552,552,552,552,552,552,552,641,642,642,643,50,50,50,50,50,50,50,50,50,552,552,552,4248,4248,552,552,552,552,552,552,552,552,552,552,552,552,552,552,552,552,552,552,552,552,552,552,80,80,552,552,552,552,552,
552,552,552,552,552,552,552,552,552,552,552,552,552,552,552,552,552,552,552,552,552,552,552,641,642,642,643,50,50,50,50,50,50,50,50,50,552,552,552,552,4248,552,552,552,552,552,552,552,552,552,552,552,552,552,552,552,552,552,552,552,552,552,552,80,80,552,552,552,552,552,
552,552,80,80,552,552,552,552,552,552,552,552,552,552,552,552,552,552,552,552,552,552,552,641,642,484,675,50,50,50,552,50,50,50,50,50,50,552,552,552,552,552,552,552,552,552,552,552,552,552,552,552,552,552,552,552,552,552,552,552,552,552,552,552,80,552,552,552,80,552,
552,552,80,80,552,552,552,552,552,552,552,552,552,552,552,552,552,552,552,552,552,552,552,641,642,643,50,50,50,50,552,552,50,50,50,50,50,552,552,552,609,610,610,610,610,611,552,552,552,552,552,552,552,552,552,552,552,552,552,552,552,552,552,552,552,552,552,552,80,552,
552,552,552,552,552,552,552,552,552,552,552,552,552,552,552,552,552,552,552,552,552,552,552,673,485,643,50,50,50,609,610,610,611,50,50,50,609,610,610,610,517,642,642,484,674,675,552,552,552,552,552,552,552,552,552,552,552,552,552,552,552,552,552,552,552,552,552,80,552,552,
552,552,552,552,552,552,552,80,552,552,552,552,552,552,552,552,552,552,552,552,552,552,552,552,641,516,610,610,610,517,642,484,675,50,50,50,673,674,674,674,674,674,674,675,552,552,552,552,552,552,552,552,552,552,552,552,552,552,552,552,552,552,552,552,552,552,80,552,552,552,
552,552,552,552,552,552,552,80,552,552,552,552,552,552,552,552,552,552,552,552,552,552,552,552,641,642,484,674,674,674,674,675,50,50,50,50,50,50,552,552,552,552,552,552,552,552,552,552,552,552,552,552,552,552,552,552,552,552,552,552,552,552,552,552,552,552,552,552,552,552,
552,552,552,552,552,552,552,552,552,552,552,552,552,552,552,552,552,552,552,552,552,552,609,610,517,484,675,552,552,552,50,50,50,50,50,50,50,50,552,552,552,552,552,552,552,552,552,552,552,552,552,552,552,552,552,552,552,552,552,552,552,552,552,552,552,552,552,552,552,552,
552,552,552,552,552,552,552,552,552,552,552,552,552,552,552,552,552,552,552,552,552,552,673,674,485,643,552,552,552,552,50,50,50,50,50,50,50,552,552,552,552,552,552,552,552,552,552,552,552,552,552,552,552,552,359,552,552,552,552,552,552,552,552,552,552,552,552,552,552,552,
552,552,552,552,552,552,552,552,552,552,552,552,552,552,552,552,552,552,552,552,552,552,552,552,673,675,552,552,552,552,552,552,552,552,50,50,50,552,552,552,552,552,552,552,552,552,552,552,552,552,552,552,552,359,359,552,552,552,552,552,552,552,552,552,552,80,80,80,552,552,
552,552,552,552,552,552,552,552,552,552,552,552,552,552,552,552,552,552,552,552,552,552,552,552,552,552,552,552,552,552,552,552,552,552,552,552,552,552,552,552,552,552,552,552,552,552,552,552,552,552,552,552,552,359,552,552,552,552,552,552,552,552,552,552,80,80,552,552,80,552,
552,552,80,80,552,552,552,552,552,552,552,552,552,552,552,552,552,552,552,552,552,552,552,552,552,552,552,552,552,552,552,552,552,552,552,552,552,552,552,552,552,552,552,552,552,552,552,552,552,552,552,552,359,552,552,552,552,552,552,552,552,80,80,80,80,80,552,552,552,552,
552,552,80,80,552,552,80,80,552,552,552,552,552,552,552,552,552,552,552,552,552,552,552,552,552,552,552,552,552,552,552,552,552,552,552,552,552,552,552,552,552,552,552,552,552,552,552,552,552,552,552,552,552,552,552,552,552,552,552,552,552,552,552,552,552,552,552,552,552,552,
552,552,552,552,552,552,552,552,552,552,552,552,552,552,552,552,552,552,552,552,552,552,552,552,552,552,552,552,552,552,552,552,552,552,552,552,552,552,552,552,552,552,552,552,552,552,552,552,552,552,552,552,552,552,552,552,552,552,552,552,552,552,552,552,552,552,80,552,552,552,
552,552,552,552,552,552,552,552,552,552,552,552,552,552,552,552,552,552,552,552,552,552,609,610,611,552,552,552,552,552,552,552,552,552,552,552,552,552,552,552,552,552,552,552,552,552,552,552,552,552,552,552,552,552,552,552,552,552,552,552,552,552,80,80,552,80,80,552,552,552,
552,552,552,552,552,552,552,552,552,552,552,552,552,552,552,552,552,552,552,552,552,552,641,642,643,552,552,552,609,611,552,552,552,552,552,552,552,552,552,552,552,552,552,552,552,552,552,552,552,552,552,552,552,552,552,552,552,552,552,80,552,80,80,552,552,80,552,552,552,552,
552,552,552,552,552,552,552,552,552,552,552,552,552,552,552,552,552,552,552,552,552,552,641,642,643,552,552,609,517,675,552,552,552,552,552,552,552,552,552,552,552,552,552,552,552,552,552,552,552,552,552,552,552,552,552,552,552,552,552,80,80,552,552,552,552,552,552,552,552,552,
552,552,552,552,552,552,552,552,552,552,552,552,552,552,552,552,552,552,552,552,552,552,673,485,516,610,610,517,643,552,552,552,552,552,552,552,552,552,552,552,552,609,611,552,552,552,552,552,552,552,552,552,552,552,552,552,552,552,80,80,552,552,552,552,552,552,552,552,552,552,
552,552,552,552,552,552,552,552,552,552,552,552,552,552,552,552,552,552,552,552,552,552,552,673,674,674,485,642,643,552,552,552,552,552,552,552,552,552,552,552,609,517,516,610,610,610,611,552,552,552,552,552,552,552,552,552,552,552,80,552,552,552,552,552,552,552,552,552,552,552,
552,552,552,552,552,552,552,552,552,552,80,552,552,552,552,552,552,552,552,552,552,552,552,552,552,552,673,674,516,611,552,552,552,552,552,552,552,552,552,552,673,674,674,674,674,485,516,610,611,552,552,552,552,552,552,552,552,552,552,552,552,552,552,552,552,552,552,552,552,552,
552,552,552,552,552,552,552,552,552,80,80,552,552,552,552,552,552,552,552,552,552,552,552,552,552,552,552,552,673,675,552,552,552,552,552,552,552,552,552,552,552,552,552,552,552,673,674,485,516,611,552,552,552,552,552,552,552,552,80,552,552,552,552,552,552,552,552,552,552,552,
552,552,552,552,552,552,552,552,552,552,552,552,552,552,552,552,552,552,552,552,552,80,80,80,552,552,552,552,552,552,552,552,552,552,552,552,552,552,552,552,552,552,552,552,552,552,552,641,642,643,552,552,552,552,552,552,552,552,552,80,80,80,552,552,552,552,552,552,552,552,
552,552,552,552,552,552,552,552,552,552,552,552,80,552,552,552,552,552,552,80,80,80,80,80,552,552,552,552,552,552,552,552,552,552,552,552,552,552,552,552,552,552,552,552,552,552,552,641,642,643,552,552,552,552,552,552,552,552,552,552,552,552,552,552,552,552,552,552,552,552,
552,552,552,80,80,80,80,80,552,552,552,80,80,552,552,552,552,552,552,552,552,552,552,552,80,80,552,552,552,552,552,552,552,552,552,552,552,552,552,552,552,552,552,552,552,552,552,641,642,643,552,552,552,552,552,552,552,552,552,552,552,552,552,552,552,552,552,552,552,552
</data>
 </layer>
 <layer id="2" name="Layer 2" width="70" height="53">
  <data encoding="csv">
173,174,0,0,0,0,172,173,174,172,173,174,169,170,171,0,169,170,171,169,170,171,0,0,0,0,0,0,0,0,0,0,0,0,0,0,0,76,77,78,0,169,170,171,0,76,77,78,0,0,0,0,0,0,0,0,0,0,169,170,171,0,0,0,0,76,77,78,0,0,
0,0,0,0,0,0,0,172,173,174,76,77,78,169,170,171,0,169,170,171,0,0,0,0,0,0,0,0,0,0,0,0,0,0,169,170,171,172,173,174,172,173,174,0,0,0,0,0,76,77,78,0,172,173,174,169,170,171,0,0,0,0,0,0,169,170,171,0,169,170,
173,174,172,173,174,0,0,0,0,169,170,171,172,173,174,76,77,78,0,76,77,78,169,170,171,0,0,0,0,0,0,0,0,172,173,174,76,77,78,0,0,76,77,78,172,173,174,76,77,78,169,170,171,169,170,171,0,0,0,0,0,169,170,171,0,0,0,0,0,169,
0,169,170,171,0,172,173,174,0,0,169,170,171,169,170,171,0,169,170,171,172,173,174,0,0,0,0,0,0,0,0,0,0,752,0,0,0,76,77,78,169,170,171,0,0,0,0,0,169,170,171,76,77,78,0,172,173,174,169,170,171,0,76,77,78,0,169,170,171,0,
172,173,174,169,170,171,0,0,76,77,78,0,0,0,0,169,170,171,0,0,0,0,76,77,78,0,0,0,0,0,0,0,0,0,76,77,78,0,0,0,0,0,0,169,170,171,0,172,173,174,0,0,172,173,174,0,169,170,171,0,0,169,170,171,76,77,78,0,0,76,
170,171,172,173,174,0,169,170,171,0,169,170,171,76,77,78,0,0,76,77,78,0,0,0,0,0,0,0,0,0,0,752,169,170,171,172,173,174,76,77,78,76,77,78,0,76,77,78,76,77,78,169,170,171,76,77,78,169,170,171,0,0,0,0,0,169,170,171,169,170,
172,173,174,169,170,171,0,169,170,171,0,0,172,173,174,0,0,0,0,0,169,170,171,752,0,0,0,0,0,0,0,0,0,0,0,0,76,77,78,0,76,77,78,172,173,172,173,174,0,172,173,174,76,77,78,169,170,171,0,169,170,171,169,170,171,0,0,76,77,78,
173,174,172,173,174,172,173,174,76,77,78,76,77,78,0,76,77,78,0,169,170,171,3843,0,0,0,0,9,9,552,552,9,169,170,171,0,0,169,170,171,77,169,170,171,172,173,174,76,77,78,169,170,171,172,173,174,0,0,76,77,78,169,170,171,0,0,0,0,169,170,
0,172,173,174,169,170,171,172,173,174,169,170,171,169,170,171,0,169,170,171,76,77,78,76,77,78,9,9,9,9,9,9,3843,9,9,0,172,173,174,76,77,78,0,0,0,0,76,77,78,172,173,174,76,77,78,76,77,78,0,0,172,173,174,0,76,77,78,0,0,0,
170,171,0,169,170,171,0,0,76,77,78,0,76,77,78,169,170,171,15,15,15,0,22879,0,0,9,9,9,9,9,9,9,9,169,170,171,0,0,76,77,78,169,170,171,0,0,0,0,76,77,78,0,0,172,173,174,0,0,172,173,174,752,76,77,78,0,0,0,0,0,
0,0,0,0,0,0,0,0,0,0,0,0,0,172,173,174,15,15,15,15,15,0,22879,0,22915,9,9,9,9,9,9,9,172,173,174,0,0,169,170,171,172,173,174,169,170,171,0,172,173,174,0,0,76,77,78,0,0,76,77,78,0,172,173,174,172,173,174,169,170,171,
0,0,169,170,171,0,76,77,78,0,169,170,171,0,76,77,78,15,15,15,15,15,15,22879,9,9,9,9,9,9,9,9,9,9,9,169,170,171,172,173,174,15,15,15,15,0,0,0,0,0,9,9,752,1315,1316,1317,0,0,172,173,174,0,169,170,171,0,172,173,174,0,
172,173,174,0,172,173,174,0,0,76,77,78,172,173,174,15,15,15,15,15,15,15,15,22915,9,9,9,9,9,9,9,9,9,9,9,9,9,9,0,15,15,15,22840,15,15,0,9,9,9,76,77,78,9,9,169,170,171,76,77,78,169,170,171,76,77,78,0,0,0,0,
170,171,172,173,174,0,76,77,78,0,169,170,171,0,0,15,15,15,15,15,15,15,15,0,9,9,9,9,9,9,9,9,9,9,9,9,9,9,0,15,15,15,15,15,15,15,9,9,9,9,9,9,9,76,77,78,172,173,174,0,752,172,173,174,0,0,0,0,0,169,
172,173,174,169,170,171,0,0,169,170,171,0,172,173,174,15,15,15,22879,15,15,15,0,552,9,9,9,9,9,0,0,9,9,9,9,9,9,9,0,0,15,15,15,15,15,15,0,9,9,9,9,9,9,9,169,170,171,9,0,0,0,0,76,77,78,0,172,173,174,0,
170,171,76,77,78,0,0,172,173,174,76,77,78,0,0,15,15,15,15,15,15,0,0,9,9,9,9,9,9,0,0,9,0,552,0,0,0,0,0,15,15,15,15,15,22840,15,9,9,9,9,9,9,9,9,9,169,170,171,76,77,78,172,173,174,172,173,174,0,0,76,
0,0,169,170,171,169,170,171,76,77,78,0,0,76,77,78,0,15,15,15,15,15,0,9,9,9,9,1309,1310,1311,2711,1309,1310,1311,1315,1316,1317,0,0,0,15,15,15,15,15,15,9,0,0,9,9,9,9,9,9,9,9,169,170,171,169,170,171,172,173,174,172,173,174,0,
170,171,0,0,0,0,0,0,0,0,0,76,77,78,0,0,998,0,0,3843,0,0,0,9,9,9,9,9,0,0,0,1312,1313,1314,0,1315,1316,1317,0,0,15,15,15,15,0,0,0,0,0,0,0,9,9,9,9,9,752,0,0,76,77,78,169,170,171,76,77,78,172,173,
0,76,77,78,0,0,0,0,0,0,0,0,0,0,0,0,0,998,0,0,0,0,9,9,9,9,9,9,1312,1313,1314,0,0,1312,1313,1314,1309,1310,1311,0,0,3843,0,0,0,0,0,0,0,0,0,0,9,9,9,9,9,172,173,174,169,170,171,172,173,174,169,170,171,76,
170,171,0,0,169,170,171,76,77,78,76,77,78,0,0,0,0,172,173,174,22915,0,22879,9,9,9,3843,0,0,1309,1310,1311,1315,1316,1317,1312,1313,1314,0,0,0,697,698,698,698,698,698,698,699,0,0,0,0,0,0,0,0,0,0,172,173,174,0,0,0,0,0,169,170,171,
0,0,76,77,78,172,173,174,172,173,174,76,77,78,172,173,174,0,0,0,0,22915,0,9,9,9,6367,0,0,0,1312,1313,1314,1309,1310,1311,0,0,1309,1310,1311,0,15,3843,0,0,0,0,0,0,0,0,0,0,0,0,0,76,77,78,0,0,169,170,171,172,173,174,172,173,
169,170,171,76,77,78,76,77,78,0,0,0,172,173,174,0,0,76,77,78,0,22879,0,9,9,6227,0,1309,1310,1311,2850,2851,0,0,1312,1313,1314,1312,1313,1314,0,2711,15,15,0,15,15,15,15,0,0,0,0,0,0,0,4124,4124,0,0,76,77,78,172,173,174,76,77,78,0,
0,0,0,0,0,0,0,0,0,76,77,78,0,0,9,76,77,78,0,0,0,0,22915,9,0,0,1315,1316,1317,0,0,1312,1313,1314,0,1312,1313,1314,1309,1310,1311,0,0,15,15,15,0,0,15,15,15,15,15,15,15,0,0,0,172,173,174,112,76,77,78,112,0,0,0,1315,
170,171,169,170,171,76,77,78,0,0,172,173,174,0,172,173,174,0,172,173,174,22915,9,0,0,1309,1310,1311,0,1309,1310,1311,0,0,1309,1310,1311,0,1309,1310,1311,0,0,0,15,15,15,15,15,15,15,15,15,15,15,15,76,77,78,172,173,174,752,0,0,76,77,78,76,77,
0,76,77,78,169,170,171,0,76,77,78,0,0,76,77,78,0,76,77,78,0,0,0,0,0,0,6367,2711,0,0,0,1315,1316,1317,0,0,1312,1313,1314,0,1309,1310,1311,15,15,15,15,15,15,15,15,0,15,15,15,15,0,172,173,174,0,0,76,77,78,0,0,172,173,174,
170,171,0,169,170,171,169,170,171,169,170,171,0,0,0,0,169,170,171,0,0,0,0,0,0,0,0,6227,1309,1310,1311,0,0,1309,1310,1311,0,1309,1310,1311,0,0,0,15,15,15,0,0,22840,15,15,15,22840,15,15,15,15,0,0,0,76,77,78,0,0,76,77,78,76,77,
174,0,0,0,76,77,78,0,0,0,0,0,0,0,0,0,0,0,76,77,78,697,698,698,698,698,698,698,699,1309,1310,1311,1309,1310,1311,1309,1310,1311,0,0,1309,1310,1311,15,0,0,15,15,15,15,15,15,15,15,15,15,15,15,172,173,174,0,0,172,173,174,172,173,174,0,
0,76,77,78,0,169,170,171,172,173,174,169,170,171,0,0,0,76,77,78,0,0,0,0,0,0,0,0,708,709,709,709,709,710,1312,1313,1314,1309,1310,1311,1312,1313,1314,15,15,15,0,15,15,15,15,15,15,15,15,15,0,0,15,76,77,78,169,170,171,76,77,78,0,0,
170,171,169,170,171,0,0,0,0,0,0,0,0,0,169,170,171,0,6367,77,78,0,0,9,9,9,9,9,740,53,53,53,53,647,710,1315,1316,1317,1312,1313,1314,0,0,15,15,15,15,15,15,15,15,15,15,0,15,15,0,15,15,0,169,170,171,76,77,78,0,0,0,0,
169,170,171,76,77,78,169,170,171,0,76,77,78,0,0,76,77,78,76,77,78,0,0,9,9,9,9,708,648,53,53,53,53,53,647,710,1312,1313,1314,0,1309,1310,1311,22842,0,15,15,15,15,15,15,15,15,15,15,15,15,0,0,169,170,171,76,77,78,0,172,173,174,169,
170,171,169,170,171,76,77,78,169,170,171,0,172,173,174,0,22915,5515,5517,6227,0,0,9,9,9,9,9,740,53,615,773,616,53,53,53,742,1309,1310,1311,6227,0,6227,22842,0,0,15,15,22840,0,15,15,15,15,15,15,15,0,0,752,6227,112,0,0,0,172,173,174,752,76,77,
76,77,78,169,170,171,0,169,170,171,76,77,78,3843,0,22879,5515,6076,5797,0,0,0,0,9,9,9,9,740,53,742,112,772,616,53,53,647,710,1309,1310,1311,6227,0,0,0,0,0,15,15,15,15,15,15,15,0,15,15,15,0,6227,0,76,77,78,0,0,0,0,0,0,0,
169,170,171,0,76,77,78,0,76,77,78,0,3843,22915,0,6227,5795,5797,0,0,0,0,9,9,9,9,708,648,615,774,9,998,772,616,53,615,774,1312,1313,1314,9,9,9,9,9,9,0,0,15,15,15,15,15,15,15,0,15,15,0,0,112,172,173,174,0,76,77,78,0,169,
174,0,0,169,170,171,172,173,174,169,170,171,22915,22879,0,0,0,0,0,0,0,0,0,9,9,9,772,773,774,9,9,9,9,740,53,742,9,9,9,9,9,9,9,9,9,9,0,0,0,0,15,15,15,15,15,15,15,0,0,752,169,170,171,169,170,171,0,0,0,0,
169,170,171,0,169,170,171,169,170,171,15,22879,0,0,15,0,0,0,0,0,0,0,9,9,9,9,9,9,9,9,9,9,9,740,53,742,9,9,9,9,9,9,9,9,9,9,0,0,0,0,0,0,0,0,0,0,0,0,6227,0,0,76,77,78,76,77,78,0,76,77,
0,0,169,170,171,0,0,0,76,77,78,0,15,15,15,15,15,0,0,0,0,0,9,9,9,9,9,9,9,9,9,9,708,648,53,647,709,710,9,9,9,0,0,0,0,0,0,0,0,0,0,0,0,0,0,22842,0,0,0,169,170,171,169,170,171,0,0,0,0,169,
174,76,77,78,0,76,77,78,0,0,0,15,0,15,15,15,76,77,78,0,0,0,9,9,9,9,9,9,9,0,708,709,648,53,53,53,615,774,0,0,0,22842,0,0,0,0,0,0,0,0,0,0,0,22915,0,0,0,112,169,170,171,0,0,76,77,78,169,170,171,752,
0,0,0,76,77,78,0,169,170,171,15,15,15,15,15,15,0,172,173,174,0,0,9,9,9,9,9,9,0,0,772,773,773,773,616,53,742,295,296,0,22842,0,0,0,0,0,0,0,0,0,0,22842,22879,0,0,76,77,78,112,0,76,77,78,0,169,170,171,172,173,174,
170,171,169,170,171,76,77,78,0,0,15,15,15,15,15,15,169,170,171,0,22840,0,0,9,9,9,9,0,0,0,0,22879,112,0,772,773,774,327,328,295,296,0,0,0,0,0,0,0,0,0,0,22915,0,0,0,0,0,0,76,77,78,0,169,170,171,76,77,78,0,169,
0,0,0,0,169,170,171,0,76,77,78,15,15,15,15,0,0,172,173,174,0,22840,0,9,9,9,22842,22915,0,0,22915,22842,0,0,0,6227,6227,0,0,327,328,0,0,0,0,0,0,0,0,0,22879,0,0,0,0,169,170,171,0,169,170,171,172,173,174,0,0,0,169,170,
169,170,171,0,0,0,76,77,78,0,15,15,15,15,15,169,170,171,0,0,0,0,0,0,0,0,0,22879,22915,0,112,112,76,77,78,6227,169,170,171,0,0,0,0,0,0,0,0,0,0,22915,0,22879,0,0,0,0,0,0,0,0,76,77,78,0,0,172,173,174,0,0,
174,0,0,76,77,78,0,0,172,173,174,15,15,15,15,0,169,170,171,0,0,0,0,0,0,0,0,0,0,0,0,0,0,169,170,171,0,0,169,170,171,697,0,0,0,0,0,0,0,0,0,0,0,0,0,0,169,170,171,169,170,171,0,0,169,170,171,0,76,77,
0,0,0,0,169,170,171,76,77,78,15,15,15,15,15,172,173,174,0,0,0,0,0,0,22840,0,22915,0,0,22915,169,170,171,0,0,169,170,171,0,0,0,0,0,207,0,176,0,0,0,0,0,0,0,76,77,78,0,169,170,171,169,170,171,76,77,78,172,173,174,169,
169,170,171,76,77,78,0,0,169,170,171,15,15,15,15,4124,76,77,78,0,0,0,0,0,0,22879,0,22915,0,0,0,0,76,77,78,15,0,76,77,78,0,15,0,0,0,207,0,207,0,0,176,0,0,4124,0,0,172,173,174,0,0,0,172,173,174,0,0,169,170,171,
170,171,76,77,78,0,76,77,78,0,0,15,15,15,15,15,15,0,0,0,0,0,0,0,0,0,22879,0,0,0,0,15,15,0,15,15,15,0,0,15,15,15,0,0,0,0,0,0,176,0,0,0,0,0,76,77,78,112,0,76,77,78,0,0,0,0,76,77,78,0,
174,172,173,174,0,76,77,78,169,170,171,15,15,15,15,15,15,15,15,15,0,0,0,0,0,0,0,0,615,0,15,15,15,15,15,15,15,15,15,15,0,0,0,0,0,0,0,0,0,0,112,0,4124,169,170,171,0,0,0,0,169,170,171,76,77,78,0,0,0,0,
76,77,78,169,170,171,169,170,171,76,77,78,15,15,15,15,15,15,15,0,0,0,0,0,0,0,0,0,0,0,0,0,15,15,15,15,15,15,15,15,0,0,0,0,0,0,0,0,0,0,0,0,0,0,169,170,171,76,77,78,172,173,174,0,0,0,172,173,174,169,
169,170,171,0,76,77,78,169,170,171,0,0,0,15,15,15,15,15,15,0,0,0,0,0,0,0,0,0,0,0,15,15,15,15,15,15,15,15,15,0,0,0,0,0,0,0,0,0,0,0,76,77,78,0,0,0,0,0,0,0,0,0,0,0,0,172,173,174,0,172,
174,0,76,77,78,169,170,171,76,77,78,0,0,0,15,15,15,15,15,15,15,15,0,0,0,0,0,0,616,0,0,15,15,15,15,0,0,15,15,0,0,0,0,0,0,0,0,0,0,0,169,170,171,76,77,78,169,170,171,172,173,174,172,173,174,0,0,76,77,78,
169,170,171,169,170,171,76,77,78,0,0,172,173,174,0,0,0,0,0,0,0,172,173,174,76,77,78,0,0,0,0,15,15,0,15,15,0,15,15,15,0,0,0,0,0,0,0,0,0,0,0,0,0,0,0,0,0,76,77,78,112,172,173,174,0,0,0,0,172,173,
0,0,169,170,169,170,171,76,77,78,172,173,174,0,169,170,171,0,169,170,171,0,0,0,0,0,76,77,78,0,9,9,9,0,0,0,0,0,0,0,0,112,0,0,0,0,0,0,0,0,0,76,77,78,0,0,0,0,0,0,172,173,174,0,76,77,78,169,170,171,
76,77,78,76,77,78,76,77,78,76,77,78,172,173,174,0,76,77,78,0,0,0,0,76,77,78,0,0,0,0,0,76,77,78,0,0,0,0,0,0,0,0,0,0,0,0,0,0,0,0,0,169,170,171,76,77,78,76,77,78,112,112,76,77,78,0,0,0,76,77,
174,169,170,171,0,0,0,0,76,77,78,0,0,0,172,173,174,169,170,171,76,77,78,0,0,76,77,78,169,170,171,0,0,172,173,174,0,172,173,174,169,170,171,0,76,77,78,0,0,0,0,0,169,170,171,169,170,171,0,0,0,0,0,0,0,76,77,78,0,0
</data>
 </layer>
 <layer id="3" name="Layer 3" width="70" height="53">
  <data encoding="csv">
142,0,140,141,142,0,0,140,141,142,44,45,46,137,138,139,0,137,138,139,0,0,0,0,0,0,0,0,0,0,0,0,0,0,137,138,139,140,141,142,140,141,142,0,44,45,46,0,44,45,46,0,140,141,142,137,138,139,0,0,0,44,45,46,137,138,139,0,137,138,
141,142,140,141,142,137,138,139,0,137,138,139,140,141,142,44,45,46,0,44,45,46,137,138,139,0,0,0,0,0,0,0,0,140,141,142,44,45,46,0,0,44,45,46,140,141,142,44,45,46,137,138,139,137,138,139,0,0,44,45,46,137,138,139,0,0,44,45,46,137,
0,137,138,139,0,140,141,142,0,0,137,138,139,137,138,139,0,137,138,139,140,141,142,0,0,0,0,0,0,0,0,0,0,0,137,138,139,44,45,46,137,138,139,44,45,46,0,0,137,138,139,44,45,46,0,140,141,142,137,138,139,0,44,45,46,0,137,138,139,0,
140,141,142,137,138,139,0,0,44,45,46,0,0,0,0,137,138,139,140,141,142,0,44,45,46,0,0,0,0,0,0,0,0,0,44,45,46,0,137,138,139,0,0,137,138,139,0,140,141,142,0,0,140,141,142,0,137,138,139,0,0,137,138,139,44,45,46,0,0,44,
138,139,140,141,142,0,137,138,139,0,137,138,139,44,45,46,0,0,44,45,46,0,0,0,0,0,0,0,0,0,0,0,137,138,139,140,141,142,44,45,46,44,45,46,0,44,45,46,44,45,46,137,138,139,44,45,46,137,138,139,0,0,140,141,142,137,138,139,137,138,
140,141,142,137,138,139,0,137,138,139,0,0,140,141,142,44,45,46,0,0,137,138,139,0,0,0,0,0,0,0,0,0,0,0,0,0,44,45,46,0,44,45,46,140,141,142,140,141,142,140,141,142,44,45,46,137,138,139,0,137,138,139,137,138,139,0,0,44,45,46,
141,142,140,141,142,140,141,142,44,45,46,44,45,46,0,44,45,46,0,137,138,139,0,0,0,0,0,0,0,0,0,0,137,138,139,0,0,137,138,139,0,137,138,139,140,141,142,44,45,46,137,138,139,140,141,142,0,0,44,45,46,137,138,139,137,138,139,0,137,138,
0,140,141,142,137,138,139,140,141,142,137,138,139,137,138,139,0,137,138,139,44,45,46,44,45,46,0,0,0,0,0,0,0,140,141,142,140,141,142,44,45,46,0,0,0,0,44,45,46,140,141,142,44,45,46,44,45,46,0,0,140,141,142,0,44,45,46,44,45,46,
138,139,0,137,138,139,0,0,44,45,46,0,44,45,46,137,138,139,0,0,0,0,0,0,0,0,0,0,0,0,0,0,0,137,138,139,0,0,44,45,46,137,138,139,0,0,0,0,44,45,46,0,0,140,141,142,0,0,140,141,142,0,44,45,46,0,0,140,141,142,
0,0,140,141,142,0,140,141,142,0,140,141,142,140,141,142,0,0,0,0,0,0,0,0,0,0,0,0,0,0,0,0,140,141,142,0,0,137,138,139,140,141,142,137,138,139,0,140,141,142,0,0,44,45,46,0,0,44,45,46,0,140,141,142,140,141,142,137,138,139,
141,142,137,138,139,0,44,45,46,0,137,138,139,0,44,45,46,0,0,0,0,0,0,0,0,0,0,0,0,0,0,0,0,0,0,137,138,139,140,141,142,0,0,0,0,0,0,0,0,140,141,142,0,140,141,142,0,0,140,141,142,0,137,138,139,0,140,141,142,0,
140,141,142,0,140,141,142,0,0,44,45,46,140,141,142,0,0,0,0,0,0,0,0,0,0,0,0,0,0,0,0,0,0,0,0,0,0,0,0,0,0,0,0,0,0,0,0,0,0,44,45,46,0,0,137,138,139,44,45,46,137,138,139,44,45,46,0,0,0,137,
138,139,140,141,142,0,44,45,46,0,137,138,139,0,0,0,0,0,0,0,0,0,0,0,0,0,0,0,0,0,0,0,0,0,0,0,0,0,0,0,0,0,0,0,0,0,0,0,0,0,0,0,0,44,45,46,140,141,142,0,0,140,141,142,0,0,44,45,46,137,
140,141,142,137,138,139,0,0,137,138,139,0,140,141,142,0,0,0,0,0,0,0,0,0,0,0,0,0,0,0,0,0,0,0,0,0,0,0,0,0,0,0,0,0,0,0,0,0,0,0,0,0,0,0,137,138,139,0,140,141,142,0,44,45,46,0,140,141,142,0,
138,139,44,45,46,0,0,140,141,142,44,45,46,0,0,0,0,0,0,0,0,0,0,0,0,0,0,0,0,0,0,0,0,0,0,0,0,0,0,0,0,0,0,0,0,0,0,0,0,0,0,0,0,0,0,137,138,139,44,45,46,140,141,142,140,141,142,0,0,44,
142,0,137,138,139,137,138,139,44,45,46,0,0,44,45,46,0,0,0,0,0,0,0,0,0,0,0,1169,1170,1171,0,1169,1170,1171,1175,1176,1177,0,0,0,0,0,0,0,0,0,0,0,0,0,0,0,0,0,0,0,0,137,138,139,137,138,139,140,141,142,140,141,142,0,
138,139,0,0,44,45,46,140,141,142,0,44,45,46,0,0,0,0,0,0,0,0,0,0,0,0,0,0,0,0,0,1172,1173,1174,0,1175,1176,1177,0,0,0,0,0,0,0,0,0,0,0,0,0,0,0,0,0,0,0,0,0,44,45,46,137,138,139,44,45,46,140,141,
142,44,45,46,140,141,142,137,138,139,140,141,142,0,140,141,142,0,0,0,0,0,0,0,0,0,0,0,1172,1173,1174,0,0,1172,1173,1174,1169,1170,1171,0,0,0,0,0,0,0,0,0,0,0,0,0,0,0,0,0,0,140,141,142,137,138,139,140,141,142,137,138,139,44,
138,139,0,0,137,138,139,44,45,46,44,45,46,0,44,45,46,140,141,142,0,0,0,0,0,0,0,0,0,1169,1170,1171,1175,1176,1177,1172,1173,1174,0,0,0,0,0,0,0,0,0,0,0,0,0,0,0,0,0,0,0,0,0,140,141,142,44,45,46,0,0,137,138,139,
0,0,44,45,46,140,141,142,140,141,142,44,45,46,140,141,142,0,0,0,0,0,0,0,0,0,0,1175,1176,1177,1172,1173,1174,1169,1170,1171,0,0,1169,1170,1171,0,0,0,0,0,0,0,0,0,0,0,0,0,0,0,0,44,45,46,0,0,137,138,139,140,141,142,140,141,
137,138,139,44,45,46,44,45,46,0,0,0,140,141,142,0,0,44,45,46,0,0,0,0,0,0,0,1169,1170,1171,0,1175,1176,1177,1172,1173,1174,1172,1173,1174,0,0,0,0,0,0,0,0,0,0,0,0,0,0,0,0,0,0,0,0,44,45,46,140,141,142,44,45,46,0,
141,142,140,141,142,140,141,142,0,44,45,46,0,0,9,44,45,46,0,0,0,0,0,0,0,0,1175,1176,1177,0,0,1172,1173,1174,0,1172,1173,1174,1169,1170,1171,0,0,0,0,0,0,0,0,0,0,0,0,0,0,0,0,0,140,141,142,0,44,45,46,137,138,139,0,140,
138,139,137,138,139,44,45,46,0,0,140,141,142,0,140,141,142,0,140,141,142,0,0,0,0,1169,1170,1171,0,1169,1170,1171,0,0,1169,1170,1171,0,1169,1170,1171,0,0,0,0,0,0,0,0,0,0,0,0,0,0,0,44,45,46,140,141,142,0,0,0,44,45,46,44,45,
0,44,45,46,137,138,139,0,44,45,46,0,0,44,45,46,0,44,45,46,0,0,0,0,0,0,0,0,1172,1173,1174,1175,1176,1177,0,0,1172,1173,1174,0,1169,1170,1171,0,0,0,0,0,0,0,0,0,0,0,0,0,0,140,141,142,0,0,44,45,46,0,0,140,141,142,
138,139,0,137,138,139,137,138,139,137,138,139,0,0,9,9,137,138,139,0,0,0,0,0,0,0,0,0,1169,1170,1171,0,0,1169,1170,1171,0,1169,1170,1171,0,0,0,0,0,0,0,0,0,0,0,0,0,0,0,0,0,0,0,0,44,45,46,0,0,44,45,46,44,45,
142,137,138,139,44,45,46,0,44,45,46,137,138,139,44,45,46,0,44,45,46,0,0,0,0,0,0,0,0,1169,1170,1171,1169,1170,1171,1169,1170,1171,0,0,1169,1170,1171,0,0,0,0,0,0,0,0,0,0,0,0,0,0,0,140,141,142,0,0,140,141,142,140,141,142,0,
0,44,45,46,0,137,138,139,140,141,142,137,138,139,137,138,139,44,45,46,0,0,0,0,0,0,0,0,0,0,0,0,0,0,1172,1173,1174,1169,1170,1171,1172,1173,1174,0,0,0,0,0,0,0,0,0,0,0,0,0,0,0,0,44,45,46,137,138,139,44,45,46,0,140,
138,139,137,138,139,0,137,138,139,0,137,138,139,0,137,138,139,0,44,45,46,0,0,0,0,0,0,0,20,21,21,21,21,22,0,1175,1176,1177,1172,1173,1174,0,0,0,0,0,0,0,0,0,0,0,0,0,0,0,0,0,0,0,137,138,139,44,45,46,137,138,139,44,
137,138,139,44,45,46,137,138,139,0,44,45,46,0,0,44,45,46,44,45,46,0,0,0,0,0,0,375,52,0,0,0,0,152,22,0,1172,1173,1174,0,1169,1170,1171,0,0,0,0,0,0,0,0,0,0,0,0,0,0,0,0,137,138,139,44,45,46,0,140,141,142,137,
138,139,137,138,139,44,45,46,137,138,139,0,140,141,142,0,0,0,0,0,0,0,0,0,0,0,0,20,151,0,0,0,0,0,152,22,1169,1170,1171,0,0,0,0,0,0,0,0,0,0,0,0,0,0,0,0,0,0,0,0,0,140,141,142,0,140,141,142,0,44,45,
44,45,46,137,138,139,0,137,138,139,44,45,46,0,0,6367,0,0,0,0,0,0,0,0,0,0,0,52,0,184,85,183,0,0,0,54,0,1169,1170,1171,0,0,0,0,0,0,0,0,0,0,0,0,0,0,0,0,0,0,0,0,44,45,46,0,0,140,141,142,0,0,
137,138,139,0,44,45,46,0,44,45,46,0,0,0,0,0,0,5935,0,0,0,0,0,0,0,0,0,52,0,54,0,84,183,0,0,152,22,1172,1173,1174,0,0,0,0,0,0,0,0,0,0,0,0,0,0,0,0,0,0,0,0,0,140,141,142,0,44,45,46,0,137,
142,0,0,137,138,139,140,141,142,137,138,139,0,0,0,0,0,0,0,0,0,0,0,0,0,0,20,151,184,86,0,0,84,183,181,184,86,0,0,0,0,0,0,0,0,0,0,0,0,0,0,0,0,0,0,0,0,0,0,0,137,138,139,137,138,139,0,0,137,138,
137,138,139,0,137,138,139,137,138,139,0,0,0,0,0,0,0,0,0,0,0,0,0,0,0,0,84,85,86,0,0,0,0,52,181,54,0,0,0,0,0,0,0,0,0,0,0,0,0,0,0,0,0,0,0,0,0,0,0,0,0,44,45,46,44,45,46,0,44,45,
0,0,137,138,139,0,0,0,44,45,46,0,0,0,0,0,0,0,0,0,0,0,0,0,0,0,0,0,0,0,0,0,0,52,181,54,0,0,432,0,0,0,0,0,0,0,0,0,0,0,0,0,0,0,0,0,0,0,0,137,138,139,137,138,139,0,137,138,139,137,
142,44,45,46,0,44,45,46,0,0,0,0,0,0,0,0,44,45,46,0,0,0,0,0,0,0,0,0,0,0,0,0,20,151,181,152,21,22,464,432,0,0,0,0,0,0,0,0,0,0,0,0,0,0,0,0,0,0,137,138,139,0,0,44,45,46,137,138,139,0,
0,0,0,44,45,46,0,137,138,139,0,0,0,0,0,0,0,140,141,142,0,0,0,0,0,0,0,0,0,0,20,21,151,0,0,0,184,86,0,464,0,0,0,0,0,0,0,0,0,0,0,0,0,0,0,44,45,46,0,0,44,45,46,0,137,138,139,140,141,142,
138,139,137,138,139,44,45,46,0,0,0,0,0,0,0,0,137,138,139,0,0,0,0,0,0,0,0,0,0,0,84,85,85,85,183,0,54,0,0,0,0,0,0,0,0,0,0,0,0,0,0,0,0,0,0,0,0,0,44,45,46,0,137,138,139,44,45,46,0,137,
44,45,46,0,137,138,139,0,44,45,46,0,0,0,0,0,0,140,141,142,0,0,0,0,0,0,0,0,0,0,0,0,0,0,84,85,86,0,0,0,0,0,0,0,0,0,0,0,0,0,0,0,0,0,0,137,138,139,0,137,138,139,140,141,142,0,0,0,137,138,
137,138,139,137,138,139,44,45,46,0,0,0,0,0,0,137,138,139,0,0,0,0,0,0,0,0,0,0,0,0,0,0,44,45,46,0,137,138,139,0,0,0,0,0,0,0,0,0,0,0,0,0,0,0,0,0,44,45,46,0,44,45,46,0,0,140,141,142,0,0,
142,0,0,44,45,46,0,0,140,141,142,0,0,0,0,0,137,138,139,697,698,698,698,475,0,0,0,0,0,0,0,0,0,137,138,139,0,0,137,138,139,0,0,0,0,0,0,0,0,0,0,0,0,137,138,139,137,138,139,137,138,139,0,0,137,138,139,0,44,45,
137,138,139,0,137,138,139,44,45,46,0,0,0,0,0,140,141,142,0,0,0,0,0,569,698,698,698,698,698,699,137,138,139,0,0,137,138,139,0,0,9,9,698,698,698,698,698,698,698,698,698,698,699,44,45,46,0,137,138,139,137,138,139,44,45,46,140,141,142,137,
137,138,139,44,45,46,0,0,137,138,139,0,0,0,0,0,44,45,46,0,0,0,0,0,0,0,0,0,0,0,0,0,44,45,46,0,0,44,45,46,0,0,0,0,0,0,0,0,0,0,0,0,0,0,0,0,140,141,142,44,45,46,140,141,142,0,0,137,138,139,
138,139,44,45,46,0,44,45,46,0,0,0,0,0,0,0,0,0,0,0,0,0,0,0,0,0,0,0,0,0,0,0,0,0,0,0,0,0,0,0,0,0,0,0,0,0,0,0,0,0,0,0,0,0,44,45,46,0,0,44,45,46,0,137,138,139,44,45,46,0,
142,140,141,142,0,44,45,46,137,138,139,0,0,0,0,0,0,0,0,0,0,0,0,0,0,0,0,0,0,0,0,0,0,0,0,0,0,0,0,0,0,0,0,0,0,0,0,0,0,0,0,0,0,137,138,139,0,137,138,139,137,138,139,44,45,46,0,0,0,137,
44,45,46,137,138,139,137,138,139,44,45,46,0,0,0,0,0,0,0,0,0,0,0,0,0,0,0,0,0,0,0,0,0,0,0,0,0,0,0,0,0,0,0,0,0,0,0,0,0,0,0,0,0,0,137,138,139,44,45,46,140,141,142,0,0,0,140,141,142,137,
137,138,139,0,44,45,46,137,138,139,0,0,0,0,0,0,0,0,0,0,0,0,0,0,0,0,0,0,0,0,0,0,0,0,0,0,0,0,0,0,0,9,9,9,0,0,0,0,0,0,44,45,46,140,141,142,44,45,46,0,0,0,44,45,46,140,141,142,0,140,
142,0,44,45,46,137,138,139,44,45,46,140,141,142,0,0,0,0,0,0,0,0,0,0,0,0,0,0,0,0,0,0,0,0,0,0,0,0,0,0,9,9,9,9,9,9,9,9,0,0,137,138,139,44,45,46,137,138,139,140,141,142,140,141,142,0,0,44,45,46,
137,138,139,137,138,139,44,45,46,0,0,140,141,142,0,0,0,0,0,0,0,140,141,142,44,45,46,0,0,0,0,0,0,0,0,0,0,0,0,0,9,9,9,9,9,9,9,9,9,0,0,137,138,139,137,138,139,44,45,46,0,140,141,142,140,141,142,0,140,141,
0,137,138,139,137,138,139,44,45,46,140,141,142,0,137,138,139,0,137,138,139,0,0,0,0,0,44,45,46,0,0,0,0,0,0,0,0,0,0,0,0,0,0,0,0,9,9,9,9,9,0,44,45,46,140,141,142,0,0,0,140,141,142,0,44,45,46,137,138,139,
44,45,46,44,45,46,44,45,46,44,45,46,140,141,142,0,44,45,46,0,44,45,46,44,45,46,0,0,0,0,0,44,45,46,0,0,0,0,0,0,0,0,0,0,0,0,9,9,9,9,0,137,138,139,44,45,46,44,45,46,0,0,44,45,46,137,138,139,44,45,
142,137,138,139,137,138,139,0,44,45,46,0,0,0,140,141,142,137,138,139,44,45,46,0,0,44,45,46,137,138,139,0,0,140,141,142,0,140,141,142,137,138,139,0,44,45,46,9,9,9,0,0,137,138,139,137,138,139,0,0,44,45,46,0,0,44,45,46,0,0,
44,45,46,0,44,45,46,0,0,140,141,142,44,45,46,137,138,139,44,45,46,0,44,45,46,1032,9,9,9,1172,1173,1174,140,141,142,1169,1170,1171,1172,1173,1174,1035,1172,1173,1174,0,0,0,0,0,1169,1170,1171,9,9,9,1031,1169,1170,1171,140,141,142,137,138,139,9,137,138,139
</data>
 </layer>
 <layer id="4" name="Top layer" width="70" height="53">
  <data encoding="csv">
109,110,108,109,110,105,106,107,0,105,106,107,108,109,110,12,13,14,0,12,13,14,105,106,107,0,0,0,0,0,0,0,0,108,109,110,12,13,14,0,0,12,13,14,108,109,110,12,13,14,105,106,107,105,106,107,0,0,12,13,14,105,106,107,0,0,12,13,14,105,
0,105,106,107,0,108,109,110,0,0,105,106,107,105,106,107,0,105,106,107,108,109,110,0,0,0,0,0,0,0,0,0,0,0,105,106,107,12,13,14,105,106,107,12,13,14,0,0,105,106,107,12,13,14,0,108,109,110,105,106,107,0,12,13,14,0,105,106,107,0,
108,109,110,105,106,107,0,0,12,13,14,0,0,0,0,105,106,107,108,109,110,0,12,13,14,0,0,0,0,0,0,0,0,0,12,13,14,0,105,106,107,0,0,105,106,107,0,108,109,110,0,0,108,109,110,0,105,106,107,0,0,105,106,107,12,13,14,0,0,12,
106,107,108,109,110,0,105,106,107,0,105,106,107,12,13,14,0,0,12,13,14,0,0,0,0,0,0,0,0,0,0,0,105,106,107,108,109,110,12,13,14,12,13,14,0,12,13,14,12,13,14,105,106,107,12,13,14,105,106,107,9,9,108,109,110,105,106,107,105,106,
108,109,110,105,106,107,0,105,106,107,0,0,108,109,110,12,13,14,0,0,105,106,107,0,0,0,0,0,0,0,0,0,0,0,0,0,12,13,14,0,12,13,14,108,109,110,108,109,110,108,109,110,12,13,14,105,106,107,0,105,106,107,105,106,107,0,0,12,13,14,
109,110,108,109,110,108,109,110,12,13,14,12,13,14,0,12,13,14,0,105,106,107,0,0,0,0,0,0,0,0,0,0,105,106,107,0,0,105,106,107,0,105,106,107,108,109,110,12,13,14,105,106,107,108,109,110,0,0,12,13,14,105,106,107,105,106,107,0,105,106,
0,108,109,110,105,106,107,108,109,110,105,106,107,105,106,107,0,105,106,107,12,13,14,12,13,14,0,0,0,0,0,0,0,108,109,110,108,109,110,12,13,14,0,0,0,0,12,13,14,108,109,110,12,13,14,12,13,14,0,0,108,109,110,0,12,13,14,12,13,14,
106,107,0,105,106,107,0,0,12,13,14,0,12,13,14,105,106,107,0,0,0,0,0,0,0,0,0,0,0,0,0,0,0,105,106,107,0,0,12,13,14,105,106,107,0,0,0,0,12,13,14,0,0,108,109,110,0,0,108,109,110,0,12,13,14,0,0,108,109,110,
0,0,108,109,110,0,108,109,110,0,108,109,110,108,109,110,0,0,0,0,0,0,0,0,0,0,0,0,0,0,0,0,108,109,110,0,0,105,106,107,108,109,110,105,106,107,0,108,109,110,0,0,12,13,14,0,0,12,13,14,0,108,109,110,108,109,110,105,106,107,
109,110,105,106,107,0,12,13,14,0,105,106,107,0,12,13,14,0,0,0,0,0,0,0,0,0,0,0,0,0,0,0,0,0,0,105,106,107,108,109,110,0,0,0,0,0,0,0,0,108,109,110,0,108,109,110,0,0,108,109,110,0,105,106,107,0,108,109,110,0,
108,109,110,0,108,109,110,0,0,12,13,14,108,109,110,0,0,0,0,0,0,0,0,0,0,0,0,0,0,0,0,0,0,0,304,0,0,0,0,0,0,0,0,0,0,0,0,0,0,12,13,14,0,0,105,106,107,12,13,14,105,106,107,12,13,14,0,0,0,105,
106,107,108,109,110,0,12,13,14,0,105,106,107,0,0,0,0,0,0,0,0,0,0,0,0,0,0,0,0,0,0,0,0,0,336,0,0,0,0,0,0,0,0,0,0,0,0,0,0,0,0,0,0,12,13,14,108,109,110,0,0,108,109,110,0,0,12,13,14,105,
108,109,110,105,106,107,0,0,105,106,107,0,108,109,110,0,0,0,0,0,0,0,0,0,0,0,0,0,0,0,0,0,0,0,0,0,0,0,0,0,0,0,0,0,0,0,0,0,0,0,0,0,0,0,105,106,107,0,108,109,110,0,12,13,14,0,108,109,110,0,
106,107,12,13,14,0,0,108,109,110,12,13,14,0,0,0,0,0,0,0,0,0,0,0,0,0,0,0,0,0,0,0,0,0,0,0,0,0,0,0,0,0,0,0,0,0,0,0,0,0,0,0,0,0,0,105,106,107,12,13,14,108,109,110,108,109,110,0,0,12,
110,0,105,106,107,105,106,107,12,13,14,0,0,12,13,14,0,0,0,0,0,0,0,0,0,0,0,1029,1030,1031,0,1029,1030,1031,1035,1036,1037,0,0,0,0,0,0,0,0,0,0,0,0,0,0,0,0,0,0,0,0,105,106,107,105,106,107,108,109,110,108,109,110,0,
106,107,0,0,12,13,14,108,109,110,0,12,13,14,0,0,0,0,0,0,0,0,0,0,0,0,0,0,0,0,0,1032,1033,1034,0,1035,1036,1037,0,0,0,0,0,0,0,0,0,0,0,0,0,0,0,0,0,0,0,0,0,12,13,14,105,106,107,12,13,14,108,109,
110,12,13,14,108,109,110,105,106,107,108,109,110,0,108,109,110,0,0,0,0,0,0,0,0,0,0,0,1032,1033,1034,0,0,1032,1033,1034,1029,1030,1031,0,0,0,0,0,0,0,0,0,0,0,0,0,0,0,0,0,0,108,109,110,105,106,107,108,109,110,105,106,107,12,
106,107,0,0,105,106,107,12,13,14,12,13,14,0,12,13,14,108,109,110,0,0,0,0,0,0,0,0,0,1029,1030,1031,1035,1036,1037,1032,1033,1034,0,0,0,0,0,0,0,0,0,0,0,0,0,0,0,0,0,0,0,0,0,108,109,110,12,13,14,0,0,105,106,107,
0,0,12,13,14,108,109,110,108,109,110,12,13,14,108,109,110,0,0,0,0,0,0,0,0,0,0,1035,1036,1037,1032,1033,1034,1029,1030,1031,0,0,1029,1030,1031,0,0,0,0,0,0,0,0,0,0,0,0,0,0,0,0,12,13,14,0,0,105,106,107,108,109,110,108,109,
105,106,107,12,13,14,12,13,14,0,0,0,108,109,110,0,0,12,13,14,0,0,0,0,0,0,0,1029,1030,1031,0,1035,1036,1037,1032,1033,1034,1032,1033,1034,0,0,0,0,0,0,0,0,0,0,0,0,0,0,0,0,0,0,0,0,12,13,14,108,109,110,12,13,14,0,
109,110,108,109,110,108,109,110,0,12,13,14,0,0,9,12,13,14,0,0,0,0,0,0,0,0,1035,1036,1037,0,0,1032,1033,1034,0,1032,1033,1034,1029,1030,1031,0,0,0,0,0,0,0,0,0,0,0,0,0,0,0,0,0,108,109,110,0,12,13,14,105,106,107,0,108,
106,107,105,106,107,12,13,14,0,0,108,109,110,0,108,109,110,0,108,109,110,0,0,0,0,1029,1030,1031,0,1029,1030,1031,0,0,1029,1030,1031,0,1029,1030,1031,0,0,0,0,0,0,0,0,0,0,0,0,0,0,0,12,13,14,108,109,110,0,0,0,12,13,14,12,13,
0,12,13,14,105,106,107,0,12,13,14,0,0,12,13,14,0,12,13,14,0,0,0,0,0,0,0,0,1032,1033,1034,1035,1036,1037,1454,1454,1032,1033,1034,0,1029,1030,1031,0,0,0,0,0,0,0,0,0,0,0,0,0,0,108,109,110,0,0,12,13,14,0,0,108,109,110,
106,107,0,105,106,107,105,106,107,105,106,107,0,0,9,9,105,106,107,0,0,0,0,0,0,0,0,0,1029,1030,1031,0,0,1029,1030,1031,0,1029,1030,1031,0,0,0,0,0,0,0,0,0,0,0,0,0,0,0,0,0,0,0,0,12,13,14,0,0,12,13,14,12,13,
110,105,106,107,12,13,14,0,12,13,14,105,106,107,12,13,14,0,12,13,14,0,0,0,0,0,0,0,0,1029,1030,1031,1029,1030,1031,1029,1030,1031,0,0,1029,1030,1031,0,0,0,0,0,0,0,0,0,0,0,0,0,0,0,108,109,110,0,0,108,109,110,108,109,110,0,
0,12,13,14,0,105,106,107,108,109,110,105,106,107,105,106,107,12,13,14,0,0,0,0,0,0,0,0,0,0,0,0,0,0,1032,1033,1034,1029,1030,1031,1032,1033,1034,0,0,0,0,0,0,0,0,0,0,0,0,0,0,0,0,12,13,14,105,106,107,12,13,14,0,108,
106,107,105,106,107,0,105,106,107,0,105,106,107,0,105,106,107,0,12,13,14,0,0,0,0,0,0,0,0,0,0,0,0,0,0,1035,1036,1037,1032,1033,1034,0,0,0,0,0,0,0,0,0,0,0,0,0,0,0,0,0,0,0,105,106,107,12,13,14,105,106,107,12,
105,106,107,12,13,14,105,106,107,0,12,13,14,0,0,12,13,14,12,13,14,0,0,0,0,0,0,0,0,0,0,0,0,0,0,0,1032,1033,1034,0,1029,1030,1031,0,0,0,0,0,0,0,0,0,0,0,0,0,0,0,0,105,106,107,12,13,14,0,108,109,110,105,
106,107,105,106,107,12,13,14,105,106,107,0,108,109,110,0,0,0,0,0,0,0,0,0,0,0,0,0,0,0,0,0,0,0,0,0,1029,1030,1031,0,0,0,0,0,0,0,0,0,0,0,0,0,0,0,0,0,0,0,0,0,108,109,110,0,108,109,110,0,12,13,
12,13,14,105,106,107,0,105,106,107,12,13,14,0,0,0,0,0,0,0,0,0,0,0,0,0,0,0,0,0,0,0,0,0,0,0,0,1029,1030,1031,0,0,0,0,0,0,0,0,0,0,0,0,0,0,0,0,0,0,0,0,12,13,14,0,0,108,109,110,0,0,
105,106,107,0,12,13,14,0,12,13,14,0,0,0,0,0,0,0,0,0,0,0,0,0,0,0,0,0,0,0,0,0,0,0,0,0,0,1032,1033,1034,0,0,0,0,0,0,0,0,0,0,0,0,0,0,0,0,0,0,0,0,0,108,109,110,0,12,13,14,0,105,
110,0,0,105,106,107,108,109,110,105,106,107,0,0,0,0,0,0,0,0,0,0,0,0,0,0,0,0,0,0,0,0,0,4954,4954,0,0,0,0,0,0,0,0,0,0,0,0,0,0,0,0,0,0,0,0,0,0,0,0,0,105,106,107,105,106,107,0,0,105,106,
105,106,107,0,105,106,107,105,106,107,0,0,0,0,0,0,0,0,0,0,0,0,0,0,0,0,0,0,0,0,0,0,0,4954,4954,0,0,0,0,0,0,0,0,0,0,0,0,0,0,0,0,0,0,0,0,0,0,0,0,0,0,12,13,14,12,13,14,0,12,13,
0,0,105,106,107,0,0,0,12,13,14,0,0,0,0,0,0,0,0,0,0,0,0,0,0,0,0,0,0,0,0,0,0,8900,8901,8902,0,0,0,0,0,0,0,0,0,0,0,0,0,0,0,0,0,0,0,0,0,0,0,105,106,107,105,106,107,9,105,106,107,105,
110,12,13,14,0,12,13,14,0,0,0,0,0,0,0,0,12,13,14,0,0,0,0,0,0,0,0,0,0,0,0,0,0,9180,9181,9182,0,0,0,0,0,0,0,0,0,0,0,0,0,0,0,0,0,0,0,0,0,0,105,106,107,0,0,12,13,14,105,106,107,0,
0,0,0,12,13,14,0,105,106,107,0,0,0,0,0,0,0,108,109,110,0,0,0,0,0,0,0,0,0,0,0,0,0,0,0,0,0,0,0,0,0,0,0,0,0,0,0,0,0,0,0,0,0,0,0,12,13,14,0,0,12,13,14,0,105,106,107,108,109,110,
106,107,105,106,107,12,13,14,0,0,0,0,0,0,0,0,105,106,107,0,0,0,0,0,0,0,0,0,0,0,0,0,0,0,0,0,0,0,0,0,0,0,0,0,0,0,0,0,0,0,0,0,0,0,0,0,0,0,12,13,14,0,105,106,107,12,13,14,0,105,
12,13,14,0,105,106,107,0,12,13,14,0,0,0,0,0,0,108,109,110,0,0,0,0,0,0,0,0,0,0,0,0,0,0,0,0,0,0,0,0,0,0,0,0,0,0,0,0,0,0,0,0,0,0,0,105,106,107,0,105,106,107,108,109,110,0,0,0,105,106,
105,106,107,105,106,107,12,13,14,0,0,0,0,0,0,105,106,107,0,0,0,0,0,0,0,0,0,0,0,0,0,0,12,13,14,0,105,106,107,0,0,0,0,0,0,0,0,0,0,0,0,0,0,0,0,0,12,13,14,0,12,13,14,0,0,108,109,110,0,0,
110,0,0,12,13,14,0,0,108,109,110,0,0,0,0,0,105,106,107,0,0,0,0,0,0,0,0,0,0,0,0,0,0,105,106,107,0,0,105,106,107,0,0,0,0,0,0,0,0,0,0,0,0,105,106,107,105,106,107,105,106,107,0,0,105,106,107,0,12,13,
105,106,107,0,105,106,107,12,13,14,0,0,0,0,0,108,109,110,0,0,0,0,0,0,0,0,0,0,0,0,105,106,107,0,0,105,106,107,0,0,0,0,0,0,0,0,0,0,0,0,0,0,0,12,13,14,0,105,106,107,105,106,107,12,13,14,108,109,110,105,
105,106,107,12,13,14,0,0,105,106,107,0,0,0,0,0,12,13,14,0,0,0,0,0,0,0,0,0,0,0,0,0,12,13,14,0,0,12,13,14,0,0,0,0,0,0,0,0,0,0,0,495,496,0,0,0,108,109,110,12,13,14,108,109,110,0,0,105,106,107,
106,107,12,13,14,0,12,13,14,0,0,0,0,0,0,0,0,0,0,0,0,0,0,0,0,0,0,0,0,0,0,0,0,0,0,0,0,0,0,0,0,0,0,0,0,0,0,0,0,0,0,527,528,0,12,13,14,0,0,12,13,14,0,105,106,107,12,13,14,0,
110,108,109,110,0,12,13,14,105,106,107,0,0,0,0,0,0,0,0,0,0,0,0,0,0,0,0,0,0,0,0,0,0,0,0,0,0,0,0,0,0,0,0,0,0,0,0,0,0,0,0,0,0,105,106,107,0,105,106,107,105,106,107,12,13,14,0,0,0,105,
12,13,14,105,106,107,105,106,107,12,13,14,0,0,0,0,0,0,0,0,0,0,0,0,0,0,0,0,0,0,0,0,0,0,0,0,0,0,0,0,0,0,0,0,0,0,0,0,0,0,0,0,0,0,105,106,107,12,13,14,108,109,110,0,0,0,108,109,110,105,
105,106,107,0,12,13,14,105,106,107,0,0,0,0,0,0,0,0,0,0,0,0,0,0,0,0,0,0,0,0,0,0,0,0,0,0,0,0,0,0,0,0,0,0,0,0,0,0,0,0,12,13,14,108,109,110,12,13,14,0,0,0,12,13,14,108,109,110,0,108,
110,0,12,13,14,105,106,107,12,13,14,108,109,110,0,0,0,0,0,0,0,0,0,0,0,0,0,0,0,0,0,0,0,0,0,0,0,0,0,0,0,0,0,0,0,0,0,0,0,0,105,106,107,12,13,14,105,106,107,108,109,110,108,109,110,0,0,12,13,14,
105,106,107,105,106,107,12,13,14,0,0,108,109,110,0,0,0,0,0,0,0,108,109,110,12,13,14,0,0,0,0,0,0,0,0,0,0,0,0,0,0,0,0,0,0,0,0,0,0,0,0,105,106,107,105,106,107,12,13,14,0,108,109,110,108,109,110,0,108,109,
0,105,106,107,105,106,107,12,13,14,108,109,110,0,105,106,107,0,105,106,107,0,0,0,0,0,12,13,14,0,0,0,0,0,0,0,0,0,0,0,0,0,0,0,0,0,0,0,0,0,0,12,13,14,108,109,110,0,0,0,108,109,110,0,12,13,14,105,106,107,
12,13,14,12,13,14,12,13,14,12,13,14,108,109,110,0,12,13,14,0,12,13,14,12,13,14,0,0,0,0,0,12,13,14,0,0,0,0,0,0,0,0,0,0,0,0,0,0,0,0,0,105,106,107,12,13,14,12,13,14,0,0,12,13,14,105,106,107,12,13,
110,105,106,107,105,106,107,0,12,13,14,0,0,0,108,109,110,105,106,107,12,13,14,0,0,12,13,14,105,106,107,0,0,108,109,110,0,108,109,110,105,106,107,0,12,13,14,0,0,0,0,0,105,106,107,105,106,107,0,0,12,13,14,0,0,12,13,14,0,0,
12,13,14,0,12,13,14,0,0,108,109,110,12,13,14,105,106,107,12,13,14,0,12,13,14,0,9,9,9,105,106,107,108,109,110,12,13,14,105,106,107,0,105,106,107,0,0,0,0,0,12,13,14,9,9,9,0,12,13,14,108,109,110,105,106,107,9,105,106,107,
108,109,110,105,106,107,12,13,14,0,0,0,0,108,109,110,0,105,106,107,0,12,13,14,0,105,106,107,0,0,0,0,1032,1033,1034,0,1035,1036,1037,1032,1033,1034,1036,1037,1035,1036,1037,0,0,0,0,0,0,0,12,13,14,0,1032,1033,1034,105,106,107,9,12,13,14,0,0
</data>
 </layer>
</map>
