<?xml version="1.0" encoding="UTF-8"?>
<map version="1.10" tiledversion="1.11.2" orientation="orthogonal" renderorder="right-down" width="70" height="50" tilewidth="32" tileheight="32" infinite="0" nextlayerid="5" nextobjectid="1">
 <tileset firstgid="1" name="tile group" tilewidth="32" tileheight="32" tilecount="21000" columns="140">
  <image source="Tiles/tile group.png" width="4480" height="4800"/>
 </tileset>
 <tileset firstgid="21001" name="Pro all tiles" tilewidth="32" tileheight="32" tilecount="1024" columns="32">
  <image source="Tiles/Pro all tiles.png" width="1024" height="1024"/>
 </tileset>
 <tileset firstgid="22025" name="new tilesert2" tilewidth="32" tileheight="32" tilecount="936" columns="4">
  <image source="Tiles/new tilesert.png" width="128" height="7488"/>
 </tileset>
 <tileset firstgid="23601" name="Trainer overworld sprite" tilewidth="32" tileheight="32" tilecount="3840" columns="60">
  <image source="Tiles/Trainer overworld sprite.png" width="1920" height="2048"/>
 </tileset>
 <layer id="1" name="Layer 1" width="70" height="50">
  <data encoding="csv">
4674,4674,4674,4674,4674,4674,4674,4674,4674,4674,4674,4674,4674,4674,4674,4674,4674,4674,4674,4674,4674,4674,4674,4674,4674,4674,4674,4674,4674,4674,4674,4674,4674,4674,4674,4674,4674,4674,4674,4674,4674,4674,4674,4674,4674,4674,4674,4674,4674,4674,2243,2243,2243,2243,2243,2243,2243,2243,2243,2243,2243,4674,4674,4674,4674,4674,4674,4674,4674,4674,
4674,4674,4674,4674,4674,4674,4674,4674,4674,4674,4674,4674,4674,4674,4674,4674,4674,4674,4674,4674,4674,4674,4674,4674,4674,4674,4674,4674,4674,4674,4674,4674,4674,4674,4674,4674,4674,4674,4674,4674,4674,4674,4674,4674,4674,4674,4674,4674,2243,2243,2243,2243,2243,2243,2243,2243,2243,2243,2243,2243,2243,4674,4674,4674,4674,4674,4674,4674,4674,4674,
4674,4674,4674,4674,4674,4674,4674,4674,4674,4674,4674,4674,4674,4674,4674,4674,4674,4674,4674,4674,4674,4674,4674,4674,4674,4674,4674,4674,4674,4674,4674,4674,4674,4674,4674,4674,4674,4674,4674,4674,4674,4674,4674,4674,4674,4674,2243,2243,2243,2243,2243,2243,2243,2243,2243,2243,2243,2243,2243,2243,4674,4674,4674,4674,4674,4674,4674,4674,4674,4674,
4674,4674,4674,4674,4674,4674,4674,4674,4674,4674,4674,4674,4674,4674,4674,4674,4674,4674,4674,4674,4674,4674,4674,4674,4674,4674,4674,4674,4674,4674,4674,4674,4674,4674,4674,4674,4674,4674,4674,4674,4674,4674,4674,4674,4674,2243,2243,2243,2243,2243,2243,2243,2243,2243,2243,2243,2243,2243,2243,4674,4674,4674,4674,4674,4674,4674,4674,4674,4674,4674,
4674,4674,4674,4674,4674,4674,4674,4674,4674,4674,4674,4674,4674,4674,4674,4674,4674,4674,4674,4674,4674,4674,4674,4674,4674,4674,4674,4674,4674,4674,4674,4674,4674,4674,4674,4674,4674,4674,4674,4674,4674,4674,2243,2243,2243,2243,2243,2243,2243,2243,2243,2243,2243,2243,2243,2243,2243,2243,4674,4674,4674,4674,4674,4674,4674,4674,4674,4674,4674,4674,
4674,4674,4674,4674,4674,4674,4674,4674,4674,4674,4674,4674,4674,4674,4674,4674,4674,4674,4674,4674,4674,4674,4674,4674,4674,4674,4674,4674,4674,4674,4674,4674,4674,4674,4674,4674,4674,4674,4674,4674,2243,2243,2243,2243,2243,2243,2243,2243,2243,2243,2243,2243,2243,2243,2243,2243,4674,4674,4674,4674,4674,4674,4674,4674,4674,4674,4674,4674,4674,4674,
4674,4674,4674,4674,4674,4674,4674,4674,4674,4674,4674,4674,4674,4674,4674,4674,4674,4674,4674,4674,4674,4674,4674,4674,4674,4674,4674,4674,4674,2243,2243,2243,2243,4674,4674,4674,4674,2243,2243,2243,2243,2243,2243,2243,2243,4680,4680,4680,2243,2243,2243,2243,2243,2243,2243,4674,4674,4674,4674,4674,4674,4674,4674,4674,4674,4674,4674,4674,4674,4674,
4674,4674,4674,4674,4674,4674,4674,4674,4674,4674,4674,4674,4674,4674,4674,4674,4674,4674,4674,4674,4674,4674,4674,4674,4674,2243,2243,2243,2243,2243,2243,2243,2243,2243,2243,2243,4674,2243,2243,2243,2243,2243,2243,2243,4680,4680,2243,2243,2243,2243,2243,2243,2243,4674,4674,4674,4674,4674,4674,4674,4674,4674,4674,4674,4674,4674,4674,4674,4674,4674,
4674,4674,4674,4674,4674,4674,4674,4674,4674,4674,4674,4674,4674,4674,4674,4674,4674,4674,4674,4674,4674,4674,4674,2243,2243,2243,2243,2243,2243,2243,2243,2243,2243,2243,2243,2243,2243,2243,2243,2243,2243,2243,2243,2243,4680,2243,2243,2243,2243,2243,2243,2243,4674,4674,4674,4674,4674,4674,4674,4674,4674,4674,4674,4674,4674,4674,4674,4674,4674,4674,
4674,4674,4674,4674,4674,4674,4674,4674,4674,4674,4674,4674,4674,4674,4674,4674,4674,4674,4674,4674,4674,4674,2243,2243,2243,2243,2243,2243,2243,2243,2243,2243,2243,2243,2243,2243,2243,2243,2243,2243,2243,2243,2243,2243,2243,2243,2243,2243,2243,2243,4674,4674,4674,4674,4674,4674,4674,4674,4674,4674,4674,4674,4674,4674,4674,4674,4674,4674,4674,4674,
4674,4674,4674,4674,4674,4674,4674,4674,4674,4674,4674,4674,4674,4674,4674,4674,4674,4674,4674,4674,2243,2243,2243,2243,2243,2243,2243,2243,2243,2243,2243,2243,2243,2243,2243,2243,2243,2243,2243,2243,2243,2243,2243,2243,2243,2243,2243,2243,2243,4674,4674,4674,4674,4674,4674,4674,4674,4674,4674,4674,4674,4674,4674,4674,4674,4674,4674,4674,4674,4674,
4674,4674,4674,4674,4674,4674,4674,4674,4674,4674,4674,4674,4674,4674,4674,4674,4674,4674,4674,2243,2243,2243,2243,2243,2243,2243,2243,2243,2243,2243,2243,2243,2243,2243,2243,2243,2243,2243,2243,2243,2243,2243,2243,2243,2243,2243,2243,2243,4674,4674,4674,4674,4674,4674,4674,4674,4674,4674,4674,4674,4674,4674,4674,4674,4674,4674,4674,4674,4674,4674,
4674,4674,4674,4674,4674,4674,4674,4674,4674,4674,4674,4674,4674,4674,4674,4674,4674,4674,2243,2243,2243,2243,2243,2243,2243,2243,2243,2243,2243,2243,2243,2243,2243,2243,2243,2243,2243,2243,2243,2243,2243,2243,2243,2243,2243,2243,2243,4674,4674,4674,4674,4674,4674,4674,4674,4674,4674,4674,4674,4674,4674,4674,4674,4674,4674,4674,4674,4674,4674,4674,
4674,4674,4674,4674,4674,4674,4674,4674,4674,4674,4674,4674,4674,4674,4674,4674,4674,4674,2243,2243,2243,2243,2243,2243,2243,2243,2243,2243,4674,4674,4674,2243,2243,2243,2243,2243,2243,2243,2243,2243,2243,2243,2243,2243,2243,4674,4674,4674,4674,4674,4674,4674,4674,4674,4674,4674,4674,4674,4674,4674,4674,4674,4674,4674,4674,4674,4674,4674,4674,4674,
4674,4674,4674,4674,4674,4674,4674,4674,4674,4674,4674,4674,4674,4674,4674,4674,2243,2243,2243,2243,2243,2243,2243,2243,2243,2243,2243,2243,4674,4674,4674,4674,2243,2243,2243,2243,2243,2243,2243,2243,2243,2243,2243,2243,4674,4674,4674,4674,4674,4674,4674,4674,4674,4674,4674,4674,4674,4674,4674,4674,4674,4674,4674,4674,4674,4674,4674,4674,4674,4674,
4674,4674,4674,4674,4674,4674,4674,4674,4674,4674,4674,4674,4674,4674,2243,2243,2243,2243,2243,2243,2243,2243,2243,2243,2243,2243,2243,4674,4674,4674,4674,4674,2243,2243,2243,2243,2243,2243,2243,2243,2243,2243,2243,2243,4674,4674,4674,4674,4674,4674,4674,4674,4674,4674,4674,4674,4674,4674,4674,4674,4674,4674,4674,4674,4674,4674,4674,4674,4674,4674,
4674,4674,4674,4674,4674,4674,4674,4674,4674,4674,4674,4674,4674,4674,2243,2243,2243,2243,2243,2243,2243,2243,2243,2243,2243,2243,4674,4674,4674,4674,4674,4674,4674,2243,2243,2243,2243,2243,2243,2243,2243,2243,2243,2243,4674,4674,4674,4674,4674,4674,4674,4674,4674,4674,4674,4674,4674,4674,4674,4674,4674,4674,4674,4674,4674,4674,4674,4674,4674,4674,
4674,4674,4674,4674,4674,4674,4674,4674,4674,4674,4674,4674,4674,2243,2243,2243,2243,2243,2243,2243,2243,2243,2243,2243,2243,4674,4674,4674,4674,4674,4674,4674,4674,4674,2243,2243,2243,2243,2243,2243,2243,2243,2243,2243,2243,4674,4674,4674,4674,4674,4674,4674,4674,4674,4674,4674,4674,4674,4674,4674,4674,4674,4674,4674,4674,4674,4674,4674,4674,4674,
4674,4674,4674,4674,4674,4674,4674,4674,4674,4674,4674,4674,2243,2243,2243,2243,2243,2243,2243,2243,2243,2243,2243,4674,4674,4674,4674,4674,4674,4674,4674,4674,4674,2243,2243,2243,2243,2243,2243,2243,4680,2243,2243,2243,2243,4674,4674,4674,4674,4674,4674,4674,4674,4674,4674,4674,4674,4674,4674,4674,4674,4674,4674,4674,4674,4674,4674,4674,4674,4674,
4674,4674,4674,4674,4674,4674,4674,4674,4674,4674,4674,4674,2243,2243,2243,2243,4680,2243,2243,2243,2243,2243,2243,4674,4674,4674,4674,4674,4674,4674,4674,4674,4674,2243,2243,2243,2243,2243,2243,4680,4680,2243,2243,2243,2243,2243,4674,4674,4674,4674,4674,4674,4674,4674,4674,4674,4674,4674,4674,4674,4674,4674,4674,4674,4674,4674,4674,4674,4674,4674,
4674,4674,4674,4674,4674,4674,4674,4674,4674,4674,4674,4674,2243,2243,2243,2243,4680,4680,2243,2243,2243,2243,4674,4674,4674,4674,4674,4674,4674,4674,4674,2243,2243,2243,2243,2243,2243,2243,2243,4680,2243,2243,2243,2243,2243,2243,4674,4674,4674,4674,4674,4674,4674,4674,4674,4674,4674,4674,4674,4674,4674,4674,4674,4674,4674,4674,4674,4674,4674,4674,
4674,4674,4674,4674,4674,4674,4674,4674,4674,4674,4674,4674,2243,2243,2243,2243,2243,4680,2243,2243,2243,2243,4674,4674,4674,4674,4674,4674,4674,4674,4674,2243,2243,2243,2243,2243,2243,2243,4680,4680,2243,2243,2243,2243,2243,2243,4674,4674,4674,4674,4674,4674,4674,4674,4674,4674,4674,4674,4674,4674,4674,4674,4674,4674,4674,4674,4674,4674,4674,4674,
4674,4674,4674,4674,4674,4674,4674,4674,4674,4674,4674,4674,2243,2243,2243,2243,2243,4680,2243,2243,2243,2243,4674,4674,4674,4674,4674,4674,4674,4674,4674,2243,2243,2243,2243,2243,2243,2243,4680,2243,2243,2243,2243,2243,2243,2243,4674,4674,4674,4674,4674,4674,4674,4674,4674,4674,4674,4674,4674,4674,4674,4674,4674,4674,4674,4674,4674,4674,4674,4674,
4674,4674,4674,4674,4674,4674,4674,4674,4674,4674,4674,4674,2243,2243,2243,2243,2243,4680,2243,2243,2243,4674,4674,4674,4674,4674,4674,4674,4674,4674,4674,4674,4674,2243,2243,2243,2243,2243,2243,2243,2243,2243,2243,2243,2243,2243,4674,4674,4674,4674,4674,4674,4674,4674,4674,4674,4674,4674,4674,4674,4674,4674,4674,4674,4674,4674,4674,4674,4674,4674,
4674,4674,4674,4674,4674,4674,4674,4674,4674,4674,4674,2243,2243,2243,2243,2243,4680,4680,2243,2243,2243,2243,4674,4674,4674,4674,4674,4674,4674,4674,4674,4674,2243,2243,2243,2243,2243,2243,2243,2243,2243,2243,2243,2243,2243,2243,4674,4674,4674,4674,4674,4674,4674,4674,4674,4674,4674,4674,4674,4674,4674,4674,4674,4674,4674,4674,4674,4674,4674,4674,
4674,4674,4674,4674,4674,4674,4674,4674,4674,4674,4674,2243,2243,2243,2243,4680,4680,2243,2243,2243,2243,2243,2243,4674,4674,4674,4674,4674,4674,4674,4674,4674,2243,2243,2243,2243,2243,2243,2243,2243,2243,2243,2243,2243,2243,4674,4674,4674,4674,4674,4674,4674,4674,4674,4674,4674,4674,4674,4674,4674,4674,4674,4674,4674,4674,4674,4674,4674,4674,4674,
4674,4674,4674,4674,4674,4674,4674,4674,4674,4674,4674,2243,2243,2243,2243,2243,2243,2243,2243,2243,2243,2243,2243,2243,4674,4674,4674,4674,4674,4674,4674,4674,2243,2243,2243,2243,2243,2243,2243,2243,2243,2243,2243,2243,2243,2243,4674,4674,4674,4674,4674,4674,4674,4674,4674,4674,4674,4674,4674,4674,4674,4674,4674,4674,4674,4674,4674,4674,4674,4674,
4674,4674,4674,4674,4674,4674,4674,4674,4674,4674,4674,4674,2243,2243,2243,2243,2243,2243,2243,2243,2243,2243,2243,2243,2243,2243,4674,4674,4674,4674,4674,4674,4674,4674,2243,2243,2243,2243,2243,2243,2243,2243,2243,2243,2243,2243,2243,4674,4674,4674,4674,4674,4674,4674,4674,4674,4674,4674,4674,4674,4674,4674,4674,4674,4674,4674,4674,4674,4674,4674,
4674,4674,4674,4674,4674,4674,4674,4674,4674,4674,4674,4674,4674,2243,2243,2243,2243,2243,2243,2243,2243,2243,2243,2243,2243,2243,4674,4674,4674,4674,4674,4674,4674,4674,4674,4674,2243,2243,2243,2243,2243,2243,2243,2243,2243,2243,2243,4674,4674,4674,4674,4674,4674,4674,4674,4674,4674,4674,4674,4674,4674,4674,4674,4674,4674,4674,4674,4674,4674,4674,
4674,4674,4674,4674,4674,4674,4674,4674,4674,4674,4674,4674,4674,2243,2243,2243,2243,2243,2243,2243,2243,2243,2243,2243,2243,2243,2243,4674,4674,4674,4674,4674,4674,4674,4674,4674,2243,2243,2243,2243,2243,2243,2243,2243,2243,2243,2243,4674,4674,4674,4674,4674,4674,4674,4674,4674,4674,4674,4674,4674,4674,4674,4674,4674,4674,4674,4674,4674,4674,4674,
4674,4674,4674,4674,4674,4674,4674,4674,4674,4674,4674,4674,4674,4674,4674,2243,2243,2243,2243,2243,2243,2243,2243,2243,2243,2243,2243,4674,4674,4674,4674,4674,4674,4674,4674,4674,4674,2243,2243,2243,2243,2243,2243,2243,2243,2243,2243,2243,4674,4674,4674,4674,4674,4674,4674,4674,4674,4674,4674,4674,4674,4674,4674,4674,4674,4674,4674,4674,4674,4674,
4674,4674,4674,4674,4674,4674,4674,4674,4674,4674,4674,4674,4674,4674,4674,4674,2243,2243,2243,2243,2243,2243,2243,2243,2243,2243,2243,4674,4674,4674,4674,4674,4674,4674,4674,4674,4674,4674,2243,2243,2243,2243,2243,2243,2243,2243,2243,2243,4674,4674,4674,4674,4674,4674,4674,4674,4674,4674,4674,4674,4674,4674,4674,4674,4674,4674,4674,4674,4674,4674,
4674,4674,4674,4674,4674,4674,4674,4674,4674,4674,4674,4674,4674,4674,4674,4674,2243,2243,2243,2243,2243,2243,4680,2243,2243,2243,2243,4674,4674,4674,4674,4674,4674,4674,4674,4674,4674,4674,4674,2243,2243,2243,2243,2243,2243,2243,2243,2243,2243,2243,4674,4674,4674,4674,4674,4674,4674,4674,4674,4674,4674,4674,4674,4674,4674,4674,4674,4674,4674,4674,
4674,4674,4674,4674,4674,4674,4674,4674,4674,4674,4674,4674,4674,4674,4674,2243,2243,2243,2243,2243,2243,4680,4680,2243,2243,2243,2243,4674,4674,4674,4674,4674,4674,4674,4674,4674,4674,4674,4674,4674,2243,2243,2243,2243,2243,2243,2243,2243,2243,2243,2243,4674,4674,4674,4674,4674,4674,4674,4674,4674,4674,4674,4674,4674,4674,4674,4674,4674,4674,4674,
4674,4674,4674,4674,4674,4674,4674,4674,4674,4674,4674,4674,4674,4674,2243,2243,2243,2243,2243,2243,4680,4680,2243,2243,2243,2243,4674,4674,4674,4674,4674,4674,4674,4674,4674,4674,4674,4674,4674,4674,4674,2243,2243,2243,2243,2243,2243,2243,2243,2243,2243,2243,2243,4674,4674,4674,4674,4674,4674,4674,4674,4674,4674,4674,4674,4674,4674,4674,4674,4674,
4674,4674,4674,4674,4674,4674,4674,4674,4674,4674,4674,4674,4674,2243,2243,2243,2243,2243,4680,4680,2243,2243,2243,2243,2243,2243,4674,4674,4674,4674,4674,4674,4674,4674,4674,4674,4674,4674,4674,4674,4674,2243,2243,2243,2243,2243,2243,2243,2243,2243,2243,2243,2243,4674,4674,4674,4674,4674,4674,4674,4674,4674,4674,4674,4674,4674,4674,4674,4674,4674,
4674,4674,4674,4674,4674,4674,4674,4674,4674,4674,4674,4674,2243,2243,2243,2243,4680,4680,4680,2243,2243,2243,2243,2243,2243,4674,4674,4674,4674,4674,4674,4674,4674,4674,4674,4674,4674,4674,4674,4674,4674,4674,4674,2243,2243,2243,2243,2243,2243,2243,2243,2243,2243,4674,4674,4674,4674,4674,4674,4674,4674,4674,4674,4674,4674,4674,4674,4674,4674,4674,
4674,4674,4674,4674,4674,4674,4674,4674,4674,4674,4674,4674,2243,2243,2243,4680,4680,2243,2243,2243,2243,2243,2243,2243,4674,4674,4674,4674,4674,4674,4674,4674,4674,4674,4674,4674,4674,4674,4674,4674,4674,4674,4674,4674,2243,2243,2243,2243,2243,2243,2243,2243,2243,2243,4674,4674,4674,4674,4674,4674,4674,4674,4674,4674,4674,4674,4674,4674,4674,4674,
4674,4674,4674,4674,4674,4674,4674,4674,4674,4674,4674,4674,2243,2243,2243,4680,2243,2243,2243,2243,2243,2243,2243,4674,4674,4674,4674,4674,4674,4674,4674,4674,4674,4674,4674,4674,4674,4674,4674,4674,4674,4674,4674,2243,2243,2243,2243,2243,2243,2243,2243,2243,2243,2243,2243,2243,4674,4674,4674,4674,4674,4674,4674,4674,4674,4674,4674,4674,4674,4674,
4674,4674,4674,4674,4674,4674,4674,4674,4674,4674,4674,4674,2243,2243,2243,4680,2243,2243,2243,2243,2243,4674,4674,4674,4674,4674,4674,4674,4674,4674,4674,4674,4674,2243,2243,4674,4674,4674,4674,4674,4674,4674,4674,2243,2243,2243,2243,2243,2243,2243,2243,2243,2243,2243,2243,2243,4674,4674,4674,4674,4674,4674,4674,4674,4674,4674,4674,4674,4674,4674,
4674,4674,4674,4674,4674,4674,4674,4674,4674,4674,4674,4674,2243,2243,2243,2243,2243,2243,2243,2243,4674,4674,4674,4674,4674,4674,4674,4674,4674,4674,4674,4674,4674,2243,2243,4674,4674,4674,4674,4674,4674,4674,4674,2243,2243,2243,2243,2243,2243,2243,2243,2243,2243,2243,2243,2243,2243,4674,4674,4674,4674,4674,4674,4674,4674,4674,4674,4674,4674,4674,
4674,4674,4674,4674,4674,4674,4674,4674,4674,4674,4674,4674,2243,2243,2243,2243,2243,2243,2243,2243,4674,4674,4674,4674,4674,4674,4674,4674,4674,4674,2243,2243,2243,2243,2243,2243,4674,4674,4674,4674,4674,4674,4674,4674,4674,4674,2243,2243,2243,2243,2243,2243,2243,2243,2243,2243,2243,4674,4674,4674,4674,4674,4674,4674,4674,4674,4674,4674,4674,4674,
4674,4674,4674,4674,4674,4674,4674,4674,4674,4674,4674,4674,2243,2243,2243,2243,2243,2243,2243,2243,4674,4674,4674,4674,4674,4674,4674,4674,4674,2243,2243,2243,2243,2243,2243,2243,2243,4674,4674,4674,4674,4674,4674,4674,4674,4674,4674,2243,2243,2243,2243,2243,2243,2243,2243,2243,2243,2243,4674,4674,4674,4674,4674,4674,4674,4674,4674,4674,4674,4674,
4674,4674,4674,4674,4674,4674,4674,4674,4674,4674,4674,4674,2243,2243,2243,2243,2243,2243,2243,2243,4674,4674,4674,4674,4674,4674,4674,4674,2243,2243,2243,2243,2243,2243,2243,2243,2243,4674,4674,4674,4674,4674,4674,4674,4674,4674,4674,4674,4674,2243,2243,2243,2243,2243,2243,2243,2243,2243,2243,4674,4674,4674,4674,4674,4674,4674,4674,4674,4674,4674,
4674,4674,4674,4674,4674,4674,4674,4674,4674,4674,4674,4674,2243,2243,2243,2243,2243,2243,2243,2243,2243,4674,4674,4674,4674,4674,4674,4674,2243,2243,2243,2243,2243,2243,2243,2243,2243,4674,4674,4674,4674,4674,4674,4674,4674,4674,4674,4674,4674,2243,2243,2243,2243,2243,2243,2243,2243,2243,2243,4674,4674,4674,4674,4674,4674,4674,4674,4674,4674,4674,
4674,4674,4674,4674,4674,4674,4674,4674,4674,4674,4674,4674,4674,2243,2243,2243,2243,2243,2243,2243,2243,4674,4674,2243,2243,2243,2243,2243,2243,2243,2243,2243,2243,2243,2243,2243,2243,2243,4674,4674,4674,4674,4674,4674,4674,4674,4674,4674,4674,2243,2243,2243,2243,2243,2243,2243,2243,2243,2243,4674,4674,4674,4674,4674,4674,4674,4674,4674,4674,4674,
4674,4674,4674,4674,4674,4674,4674,4674,4674,4674,4674,4674,4674,2243,2243,2243,2243,2243,2243,2243,2243,2243,2243,2243,2243,2243,2243,2243,2243,2243,2243,2243,2243,2243,2243,2243,2243,2243,4674,4674,4674,4674,4674,4674,4674,4674,4674,4674,4674,2243,2243,2243,2243,2243,2243,2243,2243,2243,2243,4674,4674,4674,4674,4674,4674,4674,4674,4674,4674,4674,
4674,4674,4674,4674,4674,4674,4674,4674,4674,4674,4674,4674,4674,4674,2243,2243,2243,2243,2243,2243,2243,2243,2243,2243,2243,2243,2243,2243,2243,2243,2243,2243,2243,2243,2243,2243,2243,2243,2243,2243,2243,2243,4674,4674,4674,4674,4674,4674,4674,4674,2243,2243,2243,2243,2243,2243,2243,2243,2243,4674,4674,4674,4674,4674,4674,4674,4674,4674,4674,4674,
4674,4674,4674,4674,4674,4674,4674,4674,4674,4674,4674,4674,4674,4674,4674,2243,2243,2243,2243,2243,2243,2243,2243,2243,2243,2243,2243,2243,2243,2243,2243,2243,2243,2243,2243,2243,2243,2243,2243,2243,2243,2243,2243,4674,4674,4674,4674,4674,4674,4674,4674,4674,4674,2243,2243,2243,2243,2243,2243,4674,4674,4674,4674,4674,4674,4674,4674,4674,4674,4674,
4674,4674,4674,4674,4674,4674,4674,4674,4674,4674,4674,4674,4674,4674,4674,4674,2243,2243,2243,2243,2243,2243,2243,2243,2243,2243,2243,2243,2243,2243,2243,2243,2243,2243,2243,2243,2243,2243,2243,2243,2243,2243,2243,4674,4674,4674,4674,4674,4674,4674,4674,4674,4674,2243,2243,2243,2243,2243,2243,4674,4674,4674,4674,4674,4674,4674,4674,4674,4674,4674
</data>
 </layer>
 <layer id="2" name="Layer 2" width="70" height="50">
  <data encoding="csv">
4814,4815,4953,4814,4815,4675,4953,4815,4953,4815,4953,4814,4815,4953,4815,4953,4814,4815,4953,4814,4814,4814,4815,4953,4815,4953,0,0,0,0,0,0,0,0,0,0,0,0,0,0,0,0,0,0,0,0,0,0,0,0,4953,4814,4815,0,0,0,0,0,0,0,4673,4673,4673,4673,0,4673,0,4673,0,4673,
4814,4814,4815,4953,4814,4815,4675,4953,4815,4953,4815,4953,4814,4815,4953,4815,4953,4814,4815,4953,4814,4814,4814,4815,4953,4815,4953,0,0,0,0,0,0,0,0,0,0,0,0,0,0,0,0,0,0,0,0,0,4953,4814,4815,0,0,0,0,0,0,0,0,4533,5094,5094,5094,5094,4533,5094,0,4673,0,4673,
4953,4814,4814,4815,4953,4814,4815,4675,4953,4815,4953,4815,4953,4814,4815,4953,4815,4953,4814,4815,4953,4814,4814,4814,4815,4953,4815,0,0,0,0,0,0,0,0,0,0,0,0,0,0,0,0,0,0,0,4953,4814,4815,0,0,0,0,0,0,0,0,0,4533,5094,5094,5094,5094,4533,5094,0,4533,5094,0,4673,
4675,4953,4814,4814,4815,4953,4814,4815,4675,4953,4815,4953,4815,4953,4814,4815,4953,4815,4953,4814,4815,4953,4814,4814,4814,4815,0,0,0,0,0,0,0,0,0,0,0,0,0,0,0,0,0,0,0,4953,4815,0,0,0,0,0,0,0,0,0,0,4533,5094,5094,5094,5094,4533,5094,0,0,4673,0,4533,5094,
4675,4675,4953,4814,4814,4815,4953,4814,4815,4675,4953,4815,4953,4815,4953,4814,4815,4953,4815,4953,4814,4815,4953,4814,4814,4814,4815,0,0,0,0,0,0,0,0,0,0,0,0,0,0,0,4953,4814,4814,4815,0,21079,0,0,0,0,0,0,0,4533,4534,5094,5094,5094,5094,4533,5094,0,4533,4534,5094,0,4673,4533,
4815,4675,4675,4953,4814,4814,4815,4953,4814,4815,4675,4953,4815,4953,4815,4953,4814,4815,4953,4815,4953,4814,4815,4953,4814,4814,4814,4815,0,0,0,0,0,0,0,0,0,0,0,0,4953,4814,4815,0,5512,5513,5513,5513,5514,0,0,0,0,0,4533,5094,5094,5094,5094,4533,4534,5094,4533,4534,5094,0,4533,4534,5094,4673,
4953,4815,4675,4675,4953,4814,4814,4815,4953,4814,4815,4675,4953,4815,4953,4815,4953,4814,4815,4953,4815,4953,4814,4815,4953,4814,4814,4814,4815,4953,4814,4814,4954,0,0,0,0,4953,4814,4814,4815,0,0,5512,5791,0,0,0,5654,0,0,0,4533,4534,5094,5094,5094,5094,4533,5094,0,0,4673,0,0,0,4673,4533,4534,5094,
4675,4953,4815,4675,4675,4953,4814,4814,4815,4953,4814,4815,4675,4953,4815,4953,4815,4953,4814,4815,4953,4815,4953,4814,4815,4953,4814,4814,4814,4815,0,0,4813,4814,4814,4954,4953,4815,21079,0,0,0,0,5652,0,0,5509,5510,5794,0,0,4533,5094,5094,5094,5094,4533,4534,5094,0,0,4533,5094,0,4533,4534,5094,4673,4533,4534,
4675,4675,4953,4815,4675,4675,4953,4814,4814,4815,4953,4814,4815,4675,4953,4815,4953,4815,4953,4814,4815,4953,4815,4953,4814,4815,0,0,0,0,21079,0,5203,0,0,4813,4815,0,21079,0,0,0,0,5652,0,5509,5794,0,0,4533,4534,5094,5094,5094,5094,4533,5094,0,0,4533,4534,5094,4533,4534,5094,4533,4534,5094,4673,4533,
4675,4675,4675,4953,4815,4675,4675,4953,4814,4814,4815,4953,4814,4815,4675,4953,4815,4953,4815,4953,4814,4815,4953,4815,0,0,0,21079,21079,0,0,0,0,0,0,21079,0,0,0,0,0,0,0,5792,5793,5794,0,0,4533,5094,5094,5094,5094,4533,4534,5094,0,4533,4534,5094,0,0,4673,4533,4534,5094,4533,4534,5094,4673,
4675,4675,4675,4675,4953,4815,4675,4675,4953,4814,4814,4815,4953,4814,4815,4675,4953,4815,4953,4815,4953,4814,4815,0,0,0,0,0,0,0,0,0,0,0,0,0,21079,0,0,0,0,0,0,0,0,0,0,4533,5094,5094,5094,5094,4533,5094,0,4533,4534,5094,0,0,4533,4534,5094,4673,4533,4534,5094,4533,4534,5094,
4675,4675,4675,4675,4675,4953,4815,4675,4675,4953,4814,4814,4815,4953,4814,4815,4675,4953,4815,4953,4815,0,0,0,0,0,0,0,0,0,0,0,0,0,0,0,0,0,0,0,0,0,0,0,0,0,4533,5094,5094,5094,5094,4533,5094,0,4533,5094,0,4533,4534,4534,5094,4533,4534,5094,4673,4533,4534,5094,4533,4534,
4815,4675,4675,4675,4675,4675,4953,4815,4675,4675,0,4953,4814,4815,4953,4814,4815,4675,4953,4815,0,0,0,0,0,0,0,4533,4534,4534,4534,4535,0,0,0,0,0,0,0,0,0,0,0,0,4533,4534,5094,5094,5094,5094,4533,5094,0,4533,5094,5357,0,4673,4533,4534,4534,5094,4533,4534,5094,4673,4533,4534,5094,4533,
4953,4815,4675,4675,4675,4675,4675,4953,4815,4675,0,4675,4953,4814,4815,4953,4814,4815,4675,0,0,0,0,0,0,0,0,4673,4533,4534,4535,5093,4535,0,0,0,0,0,0,0,0,0,0,4533,5094,5094,5094,5094,0,4533,5094,5357,0,4673,0,0,0,4673,4673,4533,4534,4534,5094,4533,4534,5094,4673,0,4533,5094,
4675,4953,4815,4675,4675,4675,4675,4675,4953,4815,4953,4815,4675,4953,4814,4815,4953,4814,4815,0,0,0,0,0,0,0,4533,5094,4673,0,5093,4535,4675,0,0,0,0,0,0,0,0,0,0,4673,0,0,0,4954,4533,5094,0,0,0,4673,0,4533,4534,5094,4673,4673,4533,4534,4534,5094,4533,4534,5094,4533,5094,4533,
4815,4675,4953,4815,4675,4675,4675,4675,4675,4953,4815,4953,4815,4675,4953,4814,4815,0,0,0,0,0,0,0,0,4533,5094,4533,5094,0,0,4675,5093,4535,0,0,0,0,0,0,0,0,0,4673,0,0,4954,4673,4813,4954,0,0,0,4673,0,4673,4533,4534,5094,4673,4673,4533,4534,4534,5094,4533,4534,5094,4533,5094,
4814,4815,4675,4953,4815,4675,4675,4675,4675,4675,4953,4815,4953,4815,4675,0,21079,0,0,0,0,0,0,0,4533,5094,4533,5094,5094,0,5093,5093,4535,5093,4535,0,0,0,0,0,0,0,0,4673,0,4954,4673,0,4954,4673,0,0,4533,5094,0,4673,4673,4533,4534,5094,4673,4673,0,0,0,4673,4533,4534,5094,0,
4814,4814,4815,4675,4953,4815,4675,4675,4675,4675,4675,4953,4815,4953,4815,21079,21079,0,0,0,0,0,4533,4534,5094,4533,5094,5094,0,5357,0,4675,4675,0,4675,0,0,0,0,5512,5513,5514,0,4813,4954,0,0,4954,4673,4673,0,0,4673,0,0,4673,4673,4673,4533,4534,5094,4813,4814,4814,4954,4673,4673,4533,4534,4534,
4953,4814,4814,4815,4675,4953,4815,4675,4675,4675,4675,4675,4953,4815,21079,5512,5513,5514,0,0,0,0,4673,4533,4534,5094,5094,4533,4535,4953,4814,4815,4675,4953,4815,0,0,0,5512,5791,0,5654,0,0,4673,0,4954,4673,4673,4673,0,0,4673,0,4533,5094,4673,4673,4813,4814,4814,4814,4814,4954,4673,4673,4673,4673,4533,4534,
4815,4953,4814,4814,4815,4675,4953,4815,4675,4675,4675,4675,4675,0,0,5652,0,5789,5514,0,0,4533,5094,4673,0,0,4533,5094,4675,4675,4953,4814,4815,4675,0,0,0,0,5652,0,0,5654,0,0,4813,4954,4673,4673,4673,4673,0,4533,5094,0,4673,4533,5094,4813,4814,4814,4814,4814,4954,4673,4673,4673,4673,4673,4673,4533,
4953,4815,4953,4814,4814,4815,4675,4953,4815,4675,4675,4675,4675,0,0,5652,0,0,5654,0,0,4673,4533,5094,4673,4533,5094,0,4675,4675,4675,4953,4814,4815,21231,21232,0,5512,5791,0,5509,5794,0,0,0,4673,4673,4673,4673,4673,0,4673,0,4533,5094,4813,4814,4814,4814,4814,4814,4954,4673,4673,4673,4673,4673,4673,4673,4673,
4815,4953,4815,4953,4814,4814,4815,4675,4953,4815,4675,4675,4675,0,0,5792,5511,0,5654,0,0,4673,4673,0,4673,0,0,0,4675,4675,4675,4675,0,0,21263,21264,0,5652,0,0,5654,0,0,0,0,22568,4673,4673,4673,4673,0,4813,4954,4813,4814,4814,4814,4814,4814,4814,4954,4673,4673,4673,4673,4673,4673,4673,4673,4813,
4953,4815,4953,4815,4953,4814,4814,4815,4675,4953,4815,4675,4675,0,0,0,5652,0,5654,0,4533,5094,5094,0,4673,4813,4954,4953,4815,4675,4675,5093,4534,4535,0,0,0,5652,0,5509,5794,0,0,0,0,4673,4673,4673,4673,4673,0,0,4813,4814,4814,4814,4814,4814,4814,4954,4673,4673,4673,4673,4673,4673,4673,4673,4813,4954,
4675,4953,4815,4953,4815,0,0,0,4675,4675,4953,4815,4675,0,0,5512,5791,0,5654,0,4673,4813,4954,0,4673,0,4813,4815,0,4675,5093,4535,5203,5093,4535,0,0,0,0,5794,0,0,0,0,0,4673,4673,4673,4673,4813,4954,0,4953,4814,4814,4814,4954,4813,4954,4673,4673,4673,4673,4673,4673,4673,4673,4813,4954,4813,
4675,4675,4953,4815,0,0,0,0,4675,4675,4675,4953,4815,0,5512,5791,0,0,5654,0,4813,4954,4813,4954,4813,4954,0,0,0,5093,4535,4675,4953,4814,4815,0,0,0,0,0,0,0,0,0,4533,5094,4673,4673,4813,4954,4813,4814,4815,2772,2773,0,4813,4954,4673,4673,4673,4673,4673,4673,4673,4673,4813,4954,4813,4954,
4675,4675,4675,0,0,0,0,0,4675,4675,4675,4675,0,0,5652,0,0,5509,5794,24843,24844,4813,4954,4813,4954,4813,4814,4954,0,0,4675,4675,4675,5203,0,0,0,0,0,0,0,0,0,0,4673,0,4673,4813,4954,4673,0,0,0,0,0,0,0,6319,4673,4673,4673,4673,4673,4673,4673,4813,4954,4813,4954,4673,
4675,4675,4675,0,0,0,0,0,5093,5093,5093,5093,4535,0,5792,5793,5793,5794,0,24903,24904,0,4813,4954,4813,4814,4954,4673,0,0,4675,4675,5093,4534,4535,0,0,0,0,0,0,0,0,0,4813,4954,4813,4954,4673,4673,0,0,0,0,0,5357,0,4673,4673,4673,4673,4673,4673,4673,4813,4954,4813,4954,4673,4813,
4675,4675,5093,4535,0,0,0,0,0,5093,5093,5093,3049,3049,3049,3049,3049,3603,3049,3049,3049,3049,3049,3049,4814,4954,4673,4813,4954,0,5093,5093,4534,4535,3049,3049,3049,0,0,0,0,0,0,0,0,3049,4954,4673,4673,4813,4954,0,0,4533,4534,4534,4534,5094,4673,4673,4673,4673,4673,4813,4954,4813,4954,4673,4813,4954,
4675,5093,4535,5093,4535,0,0,0,0,0,4675,4675,4675,2910,2910,2910,21079,2910,2910,2910,21079,2910,2910,2910,2910,2910,4813,4954,4673,4533,4535,0,3274,5093,4534,4535,2910,0,0,0,0,0,0,0,0,0,2910,4673,4813,4954,4813,4954,0,4673,4114,4533,4534,4534,5094,5094,5094,4673,4813,4954,4813,4954,4673,4813,4954,4673,
5093,4535,5093,4535,5093,4534,4534,4535,5662,0,5093,5093,5093,5093,4534,4535,0,0,0,0,0,0,0,0,0,4813,4954,4673,4673,4673,5093,4534,4534,5093,4535,4675,5093,4535,0,0,0,0,0,0,0,0,4673,4813,4954,4813,4954,4813,4954,4813,0,0,4814,4954,4673,0,4954,4813,4954,4813,4954,4673,4813,4954,4673,4813,
4535,5093,4535,5093,4534,4534,4535,5093,4535,0,0,0,4675,5093,5093,5093,4535,0,0,0,0,0,0,21079,21079,0,4673,4673,4673,4673,4533,0,0,5093,5093,5093,4535,5093,4535,0,0,0,0,0,0,0,4813,4954,4813,4954,4813,4954,4813,4954,4813,4814,4954,4673,4813,4954,4813,4954,4813,4954,4673,4813,4954,4673,4813,4954,
5093,4535,5093,4534,4534,4535,5093,4535,4675,0,5357,4953,4815,0,0,0,5093,4535,0,0,0,5512,5513,5514,21079,0,4673,4673,4673,4673,0,0,0,5093,5093,5093,5093,4535,5093,4535,0,0,0,0,0,0,0,4813,4954,4813,4954,4813,4954,4813,4814,4954,4673,4813,4954,4813,4954,4813,4954,4673,4813,4954,4673,4813,4954,4813,
4535,5093,4534,4534,4535,5093,4535,4675,4675,0,4953,4815,4953,4815,0,0,4953,4815,0,0,5512,5791,0,5654,0,21079,4673,4673,4673,4673,0,0,0,0,5093,5093,5093,5093,4535,5093,4535,0,0,0,0,0,0,0,4813,4954,4813,4954,4813,4814,4954,4673,4813,4954,4813,4954,4813,4954,4673,4813,4954,4673,4813,4954,4813,4954,
5093,4534,4534,4535,5093,4535,4675,4675,4675,4953,4815,4953,4815,4953,4815,4953,4815,21079,0,5512,5791,0,0,5654,0,4533,5094,4673,4673,4673,0,0,0,0,4815,5093,5093,5093,5093,4535,5093,4535,0,0,0,0,0,0,0,4813,4954,4813,4814,4954,4673,4813,4954,4813,4954,4813,4954,4673,4813,4954,4673,4813,4954,4813,4954,4673,
4534,4534,4535,5093,4535,4675,4675,4675,4675,4675,4953,4815,4953,4815,4953,4815,0,5512,5513,5791,0,0,5509,5794,0,4673,4533,5094,5094,5094,0,0,0,0,0,0,4815,5093,5093,5093,4535,4675,0,0,0,0,0,0,0,0,4813,4814,4954,4673,4813,4954,4813,4954,4813,4954,4673,4813,4954,4673,4813,4954,4813,4954,4673,4673,
4534,4535,5093,4535,4675,4675,4675,4675,4675,4675,4675,4953,4815,4953,4815,5512,5513,5791,0,0,5509,5793,5794,0,4533,5094,4673,4673,4673,0,0,4953,4814,4814,4814,4814,4814,4954,4675,0,4675,5093,4534,4535,0,0,0,0,0,0,0,0,4673,4813,4954,4813,4954,4813,4954,4673,4813,4954,4673,4813,4954,4813,4954,4673,4673,4673,
4535,5093,4535,4675,4675,4675,4675,4675,4675,4675,4675,4675,4953,4815,5512,5791,0,0,0,5509,5794,0,0,4533,5094,4533,5094,5094,5094,0,4953,4815,4953,4814,4814,4814,4954,4673,5093,5093,5093,4534,4535,5093,4535,0,0,0,0,0,0,0,4813,4954,4813,4954,4813,4954,4673,4813,4954,4673,4813,4954,4813,4954,4673,4673,4673,4673,
5093,4535,4675,4675,4675,4675,4675,4675,4675,4675,4675,4675,4675,0,5652,0,0,5509,5793,5794,0,0,4533,5094,4533,5094,5094,5094,0,0,4675,4953,4815,4953,4814,4954,4673,4673,0,5093,5093,0,4675,5357,5093,4535,0,0,0,0,0,0,0,4813,4954,4813,4954,4673,4813,4954,4673,4813,4954,4813,4954,4673,4673,4673,4673,4673,
4535,4675,4675,4675,4675,4675,4675,4675,4675,4675,4675,4675,4675,0,5652,0,5509,5794,0,0,4533,4534,5094,4533,5094,5094,5094,4953,4814,4814,4815,4675,4953,4815,0,4673,4673,4813,4954,5357,4675,0,4675,4953,4814,4815,0,0,0,0,0,0,0,0,4813,4954,4673,4813,4954,4673,4813,4954,4813,4954,4673,4673,4673,4673,4673,4673,
4675,4675,4675,4675,4675,4675,4675,4675,4675,4675,4675,4675,4675,0,5652,0,5654,0,0,4533,5094,4533,4534,5094,5094,5094,4953,4815,4953,4814,4814,4815,4675,4953,4954,4673,4813,4954,4813,4954,4675,0,4675,4675,0,0,0,0,0,0,0,0,0,0,0,4673,4813,4954,4673,4813,4954,4813,4954,4673,4673,4673,4673,4673,4673,4673,
4675,4675,4675,4675,4675,4675,4675,4675,4675,4675,4675,4675,5093,4535,5792,5793,5794,0,0,4673,4533,5094,4534,5094,5094,4953,4815,4953,4815,4953,4814,4814,4815,4675,4673,4813,4954,4813,4954,4673,4675,0,4675,5093,4534,4534,4535,0,0,0,0,0,0,0,0,4813,4954,4673,4813,4954,4813,4954,4673,4673,4673,4673,4673,4673,4673,4673,
4675,4675,4675,4675,4675,4675,4675,4675,4675,4675,4675,4675,4953,4815,0,0,0,0,0,4673,4673,4673,5357,4813,4954,4675,4953,4815,4953,4815,4953,4814,4814,4815,4813,4954,4813,4954,4673,4673,5093,5093,5093,4534,4534,4535,5093,4535,0,0,0,0,0,0,0,0,4673,4813,4954,4813,4954,4673,4673,4673,4673,4673,4673,4673,4673,4673,
4675,4675,4675,4675,4675,4675,4675,4675,4675,4675,4675,4675,4675,0,0,0,0,0,0,4673,4673,4813,4954,0,4813,4815,4675,4953,4815,4953,4815,0,0,5203,0,4813,4954,4673,4673,4813,4954,4675,0,0,0,5093,4535,5093,4534,4535,0,0,0,0,0,0,4813,4954,4813,4954,4673,4673,4673,4673,4673,4673,4673,4673,4673,4673,
4675,4675,4675,4675,4675,4675,4675,4675,4675,0,0,0,4675,0,0,0,0,0,0,4673,4813,4954,4813,4814,4814,4814,4815,4675,4953,4815,0,0,0,21079,0,0,4673,4673,4813,4954,4673,5093,4534,4534,4534,5093,5093,4534,4535,4675,0,0,0,0,0,0,0,4813,4954,4673,4673,4673,4673,4673,4673,4673,4673,4673,4673,4673,
4675,4675,4675,4675,4675,4675,4675,4675,5093,5093,5093,5093,5093,4535,0,0,0,0,0,4813,4954,4813,4814,4814,4814,4814,4814,4815,4675,0,0,21079,0,21079,21079,0,4673,4813,4954,4673,4813,4814,4814,4814,4954,5093,5093,0,4675,4675,0,0,0,0,0,0,0,0,4673,4673,4673,4673,4673,4673,4673,4673,4673,4673,4673,4673,
4675,4675,4675,4675,4675,0,0,5093,0,0,0,0,0,4675,0,0,0,0,0,0,4813,4814,4814,4814,4814,4814,4814,4814,4815,0,0,0,0,0,0,21079,4813,4954,4673,4813,4814,4814,4814,4954,4813,4954,4675,0,4675,4675,0,0,0,0,0,0,0,0,4673,4673,4673,4673,4673,4673,4673,4673,4673,4673,4673,4673,
4675,4675,4675,4675,4675,0,5093,0,0,0,5093,5093,5093,5093,4535,0,0,0,0,0,0,0,0,0,0,0,0,0,0,0,0,0,0,0,0,0,0,4673,4813,4814,4814,4814,4954,4813,4954,4673,4675,0,4675,5093,4535,0,0,0,0,0,0,0,4673,4673,4673,4673,4673,4673,4673,4673,4673,4673,4673,4673,
4675,4675,4675,4675,4675,5093,0,0,0,0,0,5093,5093,5093,5093,4535,0,0,0,0,0,0,0,0,0,0,0,0,0,0,0,0,0,0,0,0,0,4813,4814,6036,4814,4954,4813,4954,4673,4673,0,5093,5093,4535,5093,4534,4534,4535,0,0,0,0,4673,4673,4673,4673,4673,4673,4673,4673,4673,4673,4673,4673,
4675,4675,4675,4675,5093,4535,0,0,0,0,0,0,5093,5093,5093,5093,4535,0,0,0,0,0,0,0,0,0,0,0,0,0,0,0,0,0,0,0,0,0,0,0,5203,4813,4954,4673,4673,4673,5357,0,5093,5093,4535,0,0,4675,0,0,0,0,4673,4673,4673,4673,4673,4673,4673,4673,4673,4673,4673,4673,
4675,4675,4675,5093,4535,4675,0,0,0,0,0,0,0,5093,5093,5093,5093,0,0,0,0,0,0,0,0,0,0,0,0,0,0,0,0,0,0,0,0,0,0,0,0,5203,4673,4673,4673,4673,0,0,4675,4675,4675,0,0,4675,0,0,0,0,4673,4673,4673,4673,4673,4673,4673,4673,4673,4673,4673,4673
</data>
 </layer>
 <layer id="3" name="Layer 3" width="70" height="50">
  <data encoding="csv">
0,0,0,0,0,0,0,0,0,0,0,0,0,0,0,0,0,0,0,0,0,0,0,0,0,0,4814,4814,4814,4814,4814,4814,4814,4814,4814,4815,4953,4814,4814,4814,4815,0,4953,4815,4953,4814,4815,4953,4814,4815,0,0,0,0,0,0,0,0,0,0,0,0,0,0,0,0,0,0,0,0,
0,0,0,0,0,0,0,0,0,0,0,0,0,0,0,0,0,0,0,0,0,0,0,0,0,0,0,4814,4814,4814,4814,4814,4814,4814,4814,4814,4815,0,0,4953,4814,4814,4815,4953,4815,4953,4814,4815,0,0,0,0,0,0,0,0,0,0,0,0,4533,4533,4533,0,0,0,0,0,0,0,
0,0,0,0,0,0,0,0,0,0,0,0,0,0,0,0,0,0,0,0,0,0,0,0,0,0,0,4953,4814,4814,4814,4814,4814,4814,4814,4954,0,4953,4814,4815,4953,4814,4814,4815,4953,4815,0,21623,21624,0,0,0,0,0,0,0,0,0,0,4533,4533,4533,0,0,0,0,0,0,0,0,
0,0,0,0,0,0,0,0,0,0,0,0,0,0,0,0,0,0,0,0,0,0,0,0,0,0,4953,4815,4953,4814,4814,4814,4814,4814,4954,4813,4814,4815,4953,4814,4815,4953,4814,4814,4815,0,0,21655,21656,0,0,0,0,0,0,0,0,0,4533,4533,4533,0,0,0,0,0,0,0,0,0,
0,0,0,0,0,0,0,0,0,0,0,0,0,0,0,0,0,0,0,0,0,0,0,0,0,0,0,4953,4815,4953,4814,4814,4814,4954,4813,4814,4814,4814,4815,4953,4814,4815,0,0,0,0,0,0,0,0,0,0,0,0,0,0,4533,4534,4534,4534,0,0,0,0,0,0,0,0,0,0,
0,0,0,0,0,0,0,0,0,0,0,0,0,0,0,0,0,0,0,0,0,0,0,0,0,0,0,0,4953,4815,0,0,0,4813,4814,4954,4953,4814,4814,4815,0,0,0,0,0,0,0,0,0,0,0,0,0,0,0,0,0,0,0,0,0,0,0,0,0,0,0,0,0,0,
0,0,0,0,0,0,0,0,0,0,0,0,0,0,0,0,0,0,0,0,0,0,0,0,0,0,0,0,0,0,0,0,0,0,0,4813,4815,0,0,0,0,0,0,0,0,0,0,0,0,0,0,0,0,4534,4534,4534,4534,0,0,0,0,0,0,0,0,0,0,0,0,0,
0,0,0,0,0,0,0,0,0,0,0,0,0,0,0,0,0,0,0,0,0,0,0,0,0,0,0,0,21623,21624,0,0,0,0,0,0,0,0,0,0,0,0,0,0,0,0,0,0,0,0,0,0,4533,4533,4533,0,0,0,0,0,0,0,0,0,0,0,0,0,0,0,
0,0,0,0,0,0,0,0,0,0,0,0,0,0,0,0,0,0,0,0,0,0,0,0,0,0,0,0,21655,21656,0,0,0,0,0,0,0,0,0,0,0,0,0,0,0,0,0,0,0,0,4534,4534,4534,4534,0,21623,21624,0,0,0,0,0,0,0,0,0,0,0,0,0,
0,0,0,0,0,0,0,0,0,0,0,0,0,0,0,0,0,0,0,0,0,0,0,0,0,0,0,0,0,0,0,0,0,0,0,0,0,0,0,0,0,0,0,0,0,0,0,0,0,4533,4533,4533,0,0,0,21655,21656,0,0,0,0,0,0,0,0,0,0,0,0,0,
0,0,0,0,0,0,0,0,0,0,0,0,0,0,0,0,0,0,0,0,0,0,0,0,0,0,0,0,0,0,0,0,0,0,0,0,0,0,0,0,0,0,0,0,0,0,0,0,4533,4533,4533,0,0,0,0,0,0,0,0,0,0,0,0,0,0,0,0,0,0,0,
0,0,0,0,0,0,0,0,0,0,0,0,0,0,0,0,0,0,0,0,0,0,0,0,0,0,0,0,0,0,0,0,0,0,0,0,0,0,0,0,0,0,0,0,0,0,0,4533,4533,4533,0,0,0,0,0,0,0,0,0,0,0,0,0,0,0,0,0,0,0,0,
0,0,0,0,0,0,0,0,0,0,0,0,0,0,0,0,0,0,0,0,0,0,0,0,0,0,0,0,0,0,0,0,0,0,0,0,0,0,0,0,0,0,0,0,0,4533,4534,4534,4534,0,0,0,0,0,0,0,0,0,0,0,0,0,0,0,0,0,0,0,0,0,
0,0,0,0,0,0,0,0,0,0,5203,0,0,0,0,0,0,0,0,0,0,0,0,0,0,0,0,0,0,0,0,0,0,0,0,0,0,0,0,0,0,0,0,0,4533,4533,4533,0,0,0,0,0,0,0,0,0,0,0,0,0,0,0,0,0,0,0,0,0,0,0,
0,0,0,0,0,0,0,0,0,0,0,0,0,0,0,0,0,0,0,0,0,0,0,0,0,0,0,0,0,0,0,0,0,0,0,0,0,0,0,0,0,0,0,0,4673,4673,4813,0,0,0,0,0,0,0,0,0,0,0,0,0,0,0,0,0,0,0,0,0,0,0,
0,0,0,0,0,0,0,0,0,0,0,0,0,0,0,0,0,0,0,0,0,0,0,0,0,0,0,0,4533,4534,4535,0,0,0,0,0,0,0,0,0,0,0,0,0,4673,4813,0,0,0,0,0,0,0,0,0,0,0,0,0,0,0,0,0,0,0,0,0,0,0,0,
0,0,0,0,0,0,0,0,0,0,0,0,0,0,0,0,0,0,0,0,0,0,0,0,0,0,0,4533,0,0,0,4535,0,0,0,0,0,0,0,0,0,0,0,0,4813,0,0,4813,0,0,0,0,0,0,0,0,0,0,0,0,0,0,0,0,0,0,0,0,0,0,
0,0,0,0,0,0,0,0,0,0,0,0,0,0,0,0,0,0,0,0,0,0,0,0,0,0,4533,0,0,0,0,0,0,0,0,0,0,0,0,0,0,0,0,0,0,4673,4813,0,0,0,0,0,0,0,0,0,0,0,0,0,0,0,0,0,0,0,0,0,0,0,
0,0,0,0,0,0,0,0,0,0,0,0,0,0,0,0,0,0,0,0,0,0,0,0,0,4533,0,0,0,0,0,0,0,0,0,0,0,0,0,0,0,0,0,0,0,4813,0,0,0,0,0,0,0,0,0,0,0,0,0,0,0,0,0,0,0,0,0,0,0,0,
0,0,0,0,0,0,0,0,0,0,0,0,0,0,0,0,0,0,0,0,0,0,0,0,4533,5094,0,0,0,0,0,0,0,0,0,0,0,0,0,0,0,0,0,0,0,22565,22566,0,0,0,0,0,0,0,0,0,0,0,0,0,0,0,0,0,0,0,0,0,0,0,
0,0,0,0,0,0,0,0,0,0,0,0,0,0,0,0,0,0,0,0,0,0,0,0,0,0,4533,4535,0,0,0,0,0,0,0,0,0,0,0,0,0,0,0,0,0,22569,22570,0,0,0,0,0,0,0,0,0,0,0,0,0,0,0,0,0,0,0,0,0,0,0,
0,0,0,0,0,0,0,0,0,0,0,0,0,0,0,0,0,0,0,0,0,0,0,0,0,4655,4813,4815,0,0,0,0,0,0,0,0,0,0,0,0,0,0,0,0,0,22573,22574,0,0,0,21623,21624,0,0,0,0,0,0,0,0,0,0,0,0,0,0,0,0,0,0,
0,0,0,0,0,0,0,0,0,0,0,0,0,0,0,0,0,0,0,0,0,4533,0,0,0,0,0,0,0,0,0,0,0,0,0,0,0,0,0,0,0,0,0,0,0,22577,22578,0,0,0,21655,21656,0,0,0,0,0,0,0,0,0,0,0,0,0,0,0,0,0,0,
0,0,0,0,0,0,0,0,0,0,0,0,0,0,0,0,0,0,0,0,0,0,0,0,0,0,0,0,0,0,0,0,0,0,0,0,0,0,0,0,0,0,0,0,0,0,0,0,0,0,0,0,0,0,0,0,0,5479,5480,0,0,0,0,0,0,0,0,0,0,0,
0,0,0,0,0,0,0,0,0,0,0,0,0,0,0,0,0,0,0,0,0,0,0,0,0,0,0,0,0,0,0,0,0,0,0,0,0,0,0,0,0,0,0,0,0,0,0,0,0,0,0,0,0,0,0,0,0,5619,5620,0,0,0,0,0,0,0,0,0,0,0,
0,0,0,0,0,7910,7911,7912,9916,0,0,0,0,0,0,0,0,0,0,0,0,0,0,0,0,0,0,0,0,0,0,0,0,0,0,0,0,0,0,0,0,0,0,0,0,0,0,0,0,0,0,0,7917,0,0,0,0,5759,5760,0,0,0,0,0,0,0,0,0,0,0,
0,0,0,0,0,8050,8051,8052,10056,4535,4535,4535,0,0,0,0,0,0,0,0,0,0,0,0,0,0,0,0,0,0,0,0,0,0,0,0,0,0,0,0,0,0,0,0,0,0,0,0,0,0,0,0,8057,0,0,0,0,5899,5900,0,0,0,0,0,0,0,0,0,0,0,
0,0,0,0,0,0,0,0,0,0,4535,4535,5093,4535,0,0,0,3049,0,0,0,0,0,4813,0,0,0,0,0,0,0,4535,0,0,5093,4534,4535,0,0,0,0,0,0,0,0,4813,0,0,0,0,0,0,0,0,0,0,0,0,0,0,0,0,0,0,0,0,0,0,0,0,
0,0,0,0,0,0,0,0,0,0,0,0,0,4675,0,0,2910,0,0,0,2910,0,0,0,0,4673,0,0,0,0,0,5093,4534,4535,0,0,4675,0,0,0,0,0,0,0,0,0,4673,0,0,0,0,0,0,0,4114,4114,0,0,4533,4533,0,0,0,0,0,0,0,0,0,0,
0,0,0,0,0,0,0,0,0,1886,0,4534,4534,4534,4534,0,0,0,0,0,0,0,0,0,21687,21688,0,0,0,0,0,0,0,4535,0,0,0,0,0,0,0,0,0,0,0,0,0,0,0,0,0,0,0,0,4954,4813,0,0,0,4813,0,0,0,0,0,0,0,0,0,0,
0,0,0,0,0,0,0,0,0,0,0,0,4254,4254,4535,4535,0,0,0,0,0,0,0,0,21719,21720,0,0,0,0,0,4534,4534,4535,4535,4535,0,0,0,0,0,0,0,0,0,21687,21688,0,0,0,0,0,0,0,0,0,0,0,0,0,0,0,0,0,0,0,0,0,0,0,
0,0,0,0,0,0,0,0,0,0,0,0,0,4953,4815,4675,0,0,0,0,0,0,0,0,0,0,0,0,0,0,4673,4533,4534,4535,4535,4535,4535,0,0,0,0,0,0,0,0,21719,21720,0,0,0,0,0,0,0,0,0,0,0,0,0,0,0,0,0,0,0,0,0,0,0,
0,0,0,0,0,0,0,0,0,0,0,0,0,0,4953,4815,0,0,0,0,0,0,0,0,0,0,0,0,0,0,4673,4813,4954,5093,4535,4535,4535,4535,0,0,0,0,0,0,0,0,0,0,0,0,0,0,0,0,0,0,0,0,0,0,0,0,0,0,0,0,0,0,0,0,
0,0,0,0,0,0,0,0,0,0,0,0,0,0,4390,0,0,0,0,0,0,0,0,0,2819,0,0,0,0,0,4813,4954,4813,4814,0,0,4535,4535,4535,0,0,0,0,0,0,0,0,0,0,0,0,0,0,0,0,0,0,0,0,0,0,0,0,0,0,0,0,0,0,0,
0,0,0,0,0,0,0,0,0,0,0,0,0,0,0,0,0,0,0,0,0,0,0,0,0,0,0,4533,4533,4533,4535,4813,4814,4814,4814,4814,0,0,4535,4535,0,0,0,0,0,0,0,0,0,0,0,0,0,0,0,0,0,0,0,0,0,0,0,0,0,0,0,0,0,0,
0,0,0,0,0,0,0,0,0,0,0,0,0,0,0,0,0,0,0,0,0,0,0,0,0,0,0,0,0,4813,4815,0,0,0,0,0,0,0,0,4675,0,0,0,0,0,0,0,0,0,0,0,0,0,0,0,0,0,0,0,0,0,0,0,0,0,0,0,0,0,0,
0,0,0,0,0,0,0,0,0,0,0,0,0,0,0,0,0,0,0,0,0,0,0,0,0,0,4533,4533,4533,4535,0,0,0,0,0,0,0,0,0,4535,4535,0,0,0,0,0,0,0,0,0,0,0,0,0,0,0,0,0,0,0,0,0,0,0,0,0,0,0,0,0,
0,0,0,0,0,0,0,0,0,0,0,0,0,7910,7911,7912,7915,7916,7917,0,0,0,0,0,0,4533,4533,0,4813,4815,0,0,0,0,0,0,0,0,0,0,4535,4535,0,0,0,0,0,0,0,0,0,0,0,0,0,0,0,0,0,0,0,0,0,0,0,0,0,0,0,0,
0,0,0,0,0,0,0,0,0,0,0,0,0,8050,8051,8052,8055,8056,8057,0,0,0,0,0,4533,4533,0,0,0,0,0,0,0,0,0,0,0,0,0,0,0,4675,0,0,0,0,0,0,0,0,0,0,0,0,0,0,0,0,0,0,0,0,0,0,0,0,0,0,0,0,
0,0,0,0,0,0,0,0,0,0,0,0,0,0,0,0,0,0,0,0,0,0,0,4533,4533,0,0,0,0,0,0,0,0,0,0,0,0,0,0,0,0,4675,0,0,0,0,0,0,0,0,0,0,0,0,0,0,0,0,0,0,0,0,0,0,0,0,0,0,0,0,
0,0,0,0,0,0,0,0,0,0,0,0,0,0,0,0,0,0,0,0,0,4533,0,4533,5203,0,0,0,0,0,0,0,0,0,0,0,0,0,0,0,0,4675,0,0,0,0,0,0,0,0,0,0,0,0,0,0,0,0,0,0,0,0,0,0,0,0,0,0,0,0,
0,0,0,0,0,0,0,0,0,0,0,0,0,0,0,0,0,0,0,0,0,0,0,0,0,0,0,0,0,0,0,0,0,0,0,0,0,0,0,0,0,4535,4535,0,0,0,0,0,0,0,0,0,0,0,0,0,0,0,0,0,0,0,0,0,0,0,0,0,0,0,
0,0,0,0,0,0,0,0,0,0,0,0,0,0,0,0,0,0,0,0,0,0,0,0,0,0,0,0,0,0,21304,0,0,0,21623,21624,0,0,0,0,0,0,5093,4534,4534,4535,0,0,0,0,0,0,0,0,0,0,0,0,0,0,0,0,0,0,0,0,0,0,0,0,
0,0,0,0,0,0,0,0,0,4675,4675,4675,0,0,0,0,0,0,0,0,0,0,0,0,0,18509,18510,18511,18512,18513,21336,0,0,0,21655,21656,0,0,0,0,0,0,0,0,0,4535,4535,0,0,0,0,0,0,0,0,21079,21623,21624,0,0,0,0,0,0,0,0,0,0,0,0,
0,0,0,0,0,4675,0,0,0,4535,4535,4535,4535,0,0,0,0,0,0,0,0,0,0,0,0,18649,18650,18651,18652,18653,0,0,0,0,0,0,0,0,0,0,0,0,0,0,0,0,4535,4535,0,0,0,0,0,0,0,0,21655,21656,0,0,0,0,0,0,0,0,0,0,0,0,
0,0,0,0,0,4675,4675,0,4535,4675,4675,4675,4675,0,0,0,0,0,0,0,0,0,0,0,0,18789,18790,18791,18792,18793,0,0,0,0,0,0,0,0,5187,5188,5189,0,0,0,0,0,0,4675,0,0,0,0,0,0,0,21079,0,0,0,0,0,0,0,0,0,0,0,0,0,0,
0,0,0,0,0,4675,0,4535,4675,4675,0,4535,4535,4535,0,0,0,0,0,0,0,0,21507,0,0,18929,18930,18931,18932,18933,0,0,0,0,0,0,0,0,5327,5328,5329,0,0,0,0,0,0,4675,0,0,0,21623,21624,0,0,0,21079,0,0,0,0,0,0,0,0,0,0,0,0,0,
0,0,0,0,0,0,4535,4675,4675,5093,4535,0,4535,4535,4535,0,0,0,0,0,0,0,21539,0,0,19069,19070,19071,19072,19073,0,0,0,0,0,0,0,0,5467,5468,5469,0,0,0,0,0,5093,4535,4535,0,0,21655,21656,0,0,0,0,0,0,0,0,0,0,0,0,0,0,0,0,0,
0,0,0,0,0,0,4675,4675,5093,4535,5093,4535,0,4535,4535,4535,0,0,0,0,0,21473,21571,0,0,19209,19210,19211,19212,19213,0,0,0,0,0,0,0,0,0,0,0,0,0,0,0,0,0,5093,4535,4535,0,0,0,0,0,0,0,0,0,0,0,0,0,0,0,0,0,0,0,0,
0,0,0,0,0,0,4675,5093,4535,5093,4535,5093,4535,0,4535,4535,4535,4535,21697,21570,21570,21571,0,0,0,0,0,0,0,0,0,0,0,0,0,0,0,0,0,0,0,0,0,0,0,0,0,0,0,0,0,0,0,0,0,0,0,0,0,0,0,0,0,0,0,0,0,0,0,0
</data>
 </layer>
 <layer id="4" name="Top layer" width="70" height="50">
  <data encoding="csv">
0,0,0,0,0,0,0,0,0,0,0,0,0,0,0,0,0,0,0,0,0,0,0,0,0,0,0,0,0,0,0,0,0,0,0,0,0,0,0,0,0,0,0,0,0,0,0,0,0,0,0,0,0,0,0,0,0,0,0,0,0,0,0,0,0,0,0,0,0,0,
0,0,0,0,0,0,0,0,0,0,0,0,0,0,0,0,0,0,0,0,0,0,0,0,0,0,0,0,0,0,0,0,0,0,0,0,0,0,0,0,0,0,0,0,0,0,0,0,0,0,21279,0,0,0,0,0,0,0,0,0,0,0,0,0,0,0,0,0,0,0,
0,0,0,0,0,0,0,0,0,0,0,0,0,0,0,0,0,0,0,0,0,0,0,0,0,0,0,0,0,0,0,0,0,0,0,0,0,0,0,0,0,0,0,0,0,0,0,0,0,0,21311,0,0,0,0,0,0,0,0,0,0,0,0,0,0,0,0,0,0,0,
0,0,0,0,0,0,0,0,0,0,0,0,0,0,0,0,0,0,0,0,0,0,0,0,0,0,0,0,0,0,0,0,0,0,0,0,0,0,0,0,0,0,0,0,0,0,0,0,0,0,0,0,0,0,0,0,2830,0,0,1325,1326,1327,0,0,0,0,0,0,0,0,
0,0,0,0,0,0,0,0,0,0,0,0,0,0,0,0,0,0,0,0,0,0,0,0,0,0,0,0,0,0,0,0,0,0,0,0,0,0,0,0,0,0,0,0,0,0,0,0,0,0,0,0,0,0,0,0,4533,4533,4533,1465,1466,1467,0,0,0,0,0,0,0,0,
0,0,0,0,0,0,0,0,0,0,0,0,0,0,0,0,0,0,0,0,0,0,0,0,0,0,0,0,0,0,0,0,0,0,0,0,0,0,0,0,0,0,0,0,0,0,3228,0,0,0,0,0,0,0,0,4533,4533,4533,0,1605,1606,1607,0,0,0,0,0,0,0,0,
0,0,0,0,0,0,0,0,0,0,0,0,0,0,0,0,0,0,0,0,0,0,0,0,0,0,0,0,0,0,0,0,0,0,0,0,0,0,0,0,0,0,2830,0,0,0,0,0,0,0,0,0,0,4533,4533,4533,0,0,0,1745,1746,1747,0,0,0,0,0,0,0,0,
0,0,0,0,0,0,0,0,0,0,0,0,0,0,0,0,0,0,0,0,0,0,0,0,0,0,24229,24230,0,0,0,0,0,0,0,0,0,21432,0,0,0,0,0,0,0,0,0,0,0,0,0,0,0,0,0,0,0,0,0,0,0,0,0,0,0,0,0,0,0,0,
0,0,0,0,0,0,0,0,0,0,0,0,0,0,0,0,0,0,0,0,0,0,0,0,0,0,24289,24290,0,0,0,0,0,0,0,0,21432,21464,0,0,0,0,0,0,0,0,0,0,0,0,4533,4533,4533,0,0,0,0,0,0,0,0,0,0,0,0,0,0,0,0,0,
0,0,0,0,0,0,0,0,0,0,0,0,0,0,0,0,0,0,0,0,0,0,0,0,21015,21047,0,0,0,0,0,0,0,0,0,0,21464,3228,0,0,0,0,0,0,0,0,0,0,0,0,0,0,0,0,0,0,0,0,0,0,0,0,0,0,0,0,0,0,0,0,
0,0,0,0,0,0,0,0,0,0,0,0,0,0,0,0,0,0,0,0,0,0,0,21015,21047,22001,0,0,0,0,0,0,0,0,0,0,0,0,0,0,0,0,0,0,0,0,0,0,0,0,0,0,0,0,0,0,0,0,0,0,0,0,0,0,0,0,0,0,0,0,
0,0,0,0,0,0,0,0,0,0,0,0,0,0,0,0,0,0,0,0,0,21015,21047,21047,21015,22001,0,0,0,0,0,0,0,0,3228,0,0,0,0,0,0,0,0,0,0,0,0,0,0,0,0,0,0,0,0,0,0,0,0,0,0,0,0,0,0,0,0,0,0,0,
0,0,0,0,0,0,0,0,0,0,0,0,0,0,0,0,0,0,0,0,21015,21047,21015,21047,21047,0,0,0,1325,1326,1327,0,0,0,0,0,0,0,0,0,0,0,0,0,0,4533,4533,4533,1325,1326,1327,0,0,0,0,0,0,0,0,0,0,0,0,0,0,0,0,0,0,0,
0,0,0,0,0,0,0,0,0,0,0,0,0,0,0,0,0,0,0,22001,21015,22001,21047,21047,21047,0,0,0,1465,1466,1467,0,0,0,0,0,0,0,0,0,0,0,0,0,0,0,0,0,1465,1466,1467,0,0,0,0,0,0,0,0,0,0,0,0,0,0,0,0,0,0,0,
0,0,0,0,0,0,0,0,0,0,0,0,0,0,0,0,0,0,0,21047,21047,0,21047,21047,21047,21047,0,0,1605,1606,1607,0,0,0,0,0,0,0,0,0,0,0,0,0,0,0,0,0,1605,1606,1607,0,0,0,0,0,0,0,0,0,0,0,0,0,0,0,0,0,0,0,
0,0,0,0,0,0,0,0,0,0,0,0,0,0,0,21432,0,22001,21047,21047,0,21015,21015,0,0,0,0,0,1745,1746,1747,0,0,0,0,0,0,0,0,0,0,0,0,0,0,0,0,0,1745,1746,1747,0,0,0,0,0,0,0,0,0,0,0,0,0,0,0,0,0,0,0,
0,0,0,0,0,0,0,0,0,0,0,0,0,0,0,21464,0,21047,21047,0,0,0,0,21047,0,0,0,0,0,0,0,0,0,0,0,0,0,0,0,0,0,0,0,0,0,0,0,0,0,0,0,0,0,0,0,0,0,0,0,0,0,0,0,0,0,0,0,0,0,0,
0,0,0,0,0,0,0,0,0,0,0,0,0,0,0,0,0,0,0,0,0,0,0,0,0,0,0,0,0,0,0,0,0,0,0,0,0,0,0,0,0,0,0,0,0,0,0,0,0,0,0,0,0,0,0,0,0,0,0,0,0,0,0,0,0,0,0,0,0,0,
0,0,0,0,0,0,0,0,0,0,0,0,0,24125,24126,0,0,0,0,0,0,0,0,0,0,0,0,0,0,0,0,0,0,0,0,0,0,0,0,0,0,0,0,21998,0,0,0,0,0,0,0,0,0,0,0,0,0,0,0,0,0,0,0,0,0,0,0,0,0,0,
0,0,0,0,0,0,0,0,0,0,0,0,0,24185,24186,0,0,0,0,0,0,0,0,0,0,0,0,0,0,0,0,0,0,0,0,0,0,0,0,0,0,0,0,0,0,0,0,0,0,0,0,0,0,0,0,0,0,0,0,0,0,0,0,0,0,0,0,0,0,0,
0,0,0,0,0,0,0,0,0,0,0,0,0,0,0,0,0,0,0,0,0,0,0,0,0,0,0,0,0,0,0,0,0,0,0,0,0,0,0,0,0,0,0,0,0,0,0,0,0,0,0,0,0,0,0,0,0,0,0,0,0,0,0,0,0,0,0,0,0,0,
0,0,0,0,0,0,0,0,0,0,0,0,0,0,0,0,0,0,0,0,0,0,0,0,0,0,0,0,0,0,0,0,0,0,0,0,0,0,0,0,0,0,0,0,0,0,0,0,0,0,0,0,0,0,0,0,0,0,0,0,0,0,0,0,0,0,0,0,0,0,
0,0,0,0,0,0,0,0,0,0,0,0,0,0,0,0,0,0,0,0,0,0,0,0,0,0,0,0,0,0,0,0,0,0,0,0,0,0,0,0,0,0,0,0,0,0,0,0,0,0,0,0,0,0,0,0,0,0,0,0,0,0,0,0,0,0,0,0,0,0,
0,0,0,0,24685,24686,0,2805,0,0,0,0,0,0,0,0,0,0,0,0,0,0,0,0,0,0,0,0,0,0,0,0,0,0,0,0,0,0,0,0,0,0,0,0,0,0,0,0,0,0,0,0,0,22808,0,6722,0,0,0,0,0,0,0,0,0,0,0,0,0,0,
0,0,0,0,24745,24746,0,0,0,0,0,0,0,0,0,0,0,0,0,0,0,0,0,0,0,0,0,0,0,0,0,0,0,0,0,0,0,0,0,0,0,0,0,0,0,0,0,0,0,0,0,0,0,22812,0,0,0,0,0,0,0,0,0,0,0,0,0,0,0,0,
0,0,0,0,0,0,0,0,9919,9919,9919,9919,9919,9919,9919,9919,9919,9919,9919,9919,9919,9919,9919,9919,9919,9919,9919,9917,7913,7913,9916,9919,9919,9919,9919,9919,9919,9919,9919,9919,9919,9919,9919,9919,9919,9919,9919,9919,9919,9917,7913,7913,0,0,0,0,1325,1326,1327,0,0,0,0,0,0,0,0,0,0,0,
0,0,0,0,1325,1326,1327,0,10059,10059,10059,10059,10059,10059,10059,10059,10059,10059,10059,10059,10059,10059,10059,10059,10059,10059,10059,10057,8053,8053,10056,10059,10059,10059,10059,10059,10059,10059,10059,10059,10059,10059,10059,10059,10059,10059,10059,10059,10059,10057,8053,8053,0,0,0,0,1465,1466,1467,0,0,0,0,0,0,0,0,0,0,0,
0,0,0,0,1465,1466,1467,0,0,0,0,0,4535,0,0,0,0,3087,0,0,0,0,0,0,0,0,0,0,0,0,0,0,0,0,0,0,0,3049,3049,3049,3049,3049,3049,3049,3049,0,0,0,0,0,0,0,0,0,0,0,1605,1606,1607,0,0,0,0,0,0,0,0,0,0,0,
0,0,0,0,1605,1606,1607,0,0,0,0,0,0,0,0,0,0,0,0,0,0,0,0,0,0,0,0,0,0,0,0,0,0,0,0,0,0,2910,2910,2910,2910,2910,2910,2910,2910,2910,0,0,0,0,0,0,2805,0,0,0,1745,1746,1747,0,0,0,0,0,0,0,0,0,0,0,
0,0,0,0,1745,1746,1747,0,0,1886,0,0,4535,4535,4535,0,0,0,0,0,0,0,0,0,0,0,0,0,0,0,0,0,0,0,0,0,0,0,21998,0,0,0,0,0,0,0,0,0,0,0,0,0,0,0,0,0,0,0,0,0,0,0,0,0,0,0,0,0,0,0,
0,0,0,0,0,0,0,0,0,0,0,0,0,0,0,0,0,0,0,0,0,0,0,0,0,0,0,0,0,0,0,0,0,0,0,0,0,0,0,0,0,0,0,0,0,0,0,0,0,0,0,0,0,0,0,0,0,0,0,0,0,0,0,0,0,0,0,0,0,0,
0,0,0,0,0,0,0,0,0,0,0,0,0,0,0,0,0,0,0,2946,0,0,0,0,0,3228,0,0,0,0,0,0,0,0,0,0,0,0,0,0,0,0,0,0,0,0,0,21304,0,0,0,0,0,0,0,0,0,0,0,0,0,0,0,0,0,0,0,0,0,0,
0,0,0,0,0,0,0,0,0,0,0,0,0,0,0,0,0,0,0,0,0,0,0,0,0,0,0,0,0,0,0,0,0,0,0,0,0,0,0,0,0,0,0,0,0,0,0,21336,0,0,0,0,0,0,0,0,0,0,0,0,0,0,0,0,0,0,0,0,0,0,
0,0,0,0,0,0,0,0,0,0,0,0,0,0,0,0,21432,0,0,0,0,0,0,0,0,0,0,0,0,0,0,0,0,0,0,0,0,0,0,0,0,0,0,0,0,0,3228,0,0,0,0,0,0,0,0,0,0,0,0,0,0,0,0,0,0,0,0,0,0,0,
0,0,0,0,0,0,0,0,0,0,0,0,0,0,0,0,21464,0,0,0,0,0,0,0,0,0,0,0,0,0,0,0,0,0,0,0,0,0,0,0,0,0,0,0,0,0,0,0,0,0,0,0,0,0,0,0,0,0,0,0,0,0,0,0,0,0,0,0,0,0,
0,0,0,0,0,0,0,0,0,0,0,0,0,0,0,0,0,0,0,0,0,0,0,0,0,0,0,0,0,0,0,0,0,0,0,0,0,0,0,0,0,0,0,0,0,0,0,0,0,0,0,0,0,0,0,0,0,0,0,0,0,0,0,0,0,0,0,0,0,0,
0,0,0,0,0,0,0,0,0,0,0,0,0,0,0,0,0,0,0,0,0,0,0,0,0,1325,1326,1327,0,0,0,0,0,0,0,0,0,0,0,0,0,0,0,0,0,0,0,0,0,0,0,0,21432,0,0,0,0,0,0,0,0,0,0,0,0,0,0,0,0,0,
0,0,0,0,0,0,0,0,0,0,0,0,0,0,0,0,0,0,0,0,0,0,0,0,0,1465,1466,1467,0,0,0,0,0,0,0,0,0,0,0,0,0,0,0,0,0,0,0,0,0,0,0,0,21464,0,0,0,0,0,0,0,0,0,0,0,0,0,0,0,0,0,
0,0,0,0,0,0,0,0,0,0,0,0,0,24605,24606,0,0,0,0,0,0,0,0,0,0,1605,1606,1607,0,0,0,0,0,0,0,0,0,0,0,0,0,0,0,0,0,0,0,0,0,0,0,0,3228,0,0,0,0,0,0,0,0,0,0,0,0,0,0,0,0,0,
0,0,0,0,0,0,0,0,0,0,0,0,0,24665,24666,0,0,0,0,0,0,0,0,0,0,1745,1746,1747,0,0,0,0,0,0,0,0,0,0,0,0,0,0,0,0,2805,0,0,0,0,0,0,0,0,0,0,0,0,0,0,0,0,0,0,0,0,0,0,0,0,0,
0,0,0,0,0,0,0,0,0,0,0,0,0,0,0,0,0,0,3087,0,0,0,0,0,0,0,0,0,0,0,0,0,0,0,0,0,0,0,0,0,0,0,0,0,0,0,0,0,0,0,0,0,0,0,25779,25780,0,0,0,0,0,0,0,0,0,0,0,0,0,0,
0,0,0,0,0,0,0,0,0,0,0,0,0,0,0,0,0,0,0,0,0,0,0,0,0,0,0,0,0,0,0,0,21432,0,0,0,0,0,0,0,0,0,0,0,0,0,0,0,0,0,0,0,0,0,25839,25840,0,0,0,0,0,0,0,0,0,0,0,0,0,0,
0,0,0,0,0,0,0,0,0,0,0,0,0,21697,21698,21698,21698,21698,21699,0,0,0,0,0,0,0,0,0,0,0,0,0,21464,0,0,0,0,0,0,0,0,0,0,0,0,0,0,0,0,0,0,0,0,0,0,0,0,0,0,0,0,0,0,0,0,0,0,0,0,0,
0,0,0,0,0,0,0,0,0,0,0,0,0,3087,0,0,0,0,0,0,0,0,0,0,0,0,0,0,0,0,0,3228,0,0,0,0,0,0,0,0,0,0,0,0,0,0,0,0,0,0,0,0,0,0,0,0,0,0,0,0,0,0,0,0,0,0,0,0,0,0,
0,0,0,0,0,0,0,0,0,0,0,0,0,0,0,0,0,0,0,0,0,0,0,0,0,0,0,0,0,0,0,0,0,0,0,0,0,0,0,0,0,0,0,0,0,0,0,0,0,0,0,0,0,0,0,0,0,0,0,0,0,0,0,0,0,0,0,0,0,0,
0,0,0,0,0,0,0,0,0,0,0,0,0,0,21697,21698,21698,21698,21698,21699,0,0,0,0,0,0,0,0,0,3228,0,0,0,0,0,0,0,0,0,0,0,0,0,0,0,0,0,0,0,0,0,0,0,0,0,0,0,0,0,0,0,0,0,0,0,0,0,0,0,0,
0,0,0,0,0,0,0,0,0,0,0,0,0,0,0,0,0,0,0,0,0,0,0,0,0,0,0,0,0,0,0,0,0,0,2946,0,0,0,0,0,0,0,0,0,0,0,0,0,0,0,0,0,0,0,0,0,0,0,0,0,0,0,0,0,0,0,0,0,0,0,
0,0,0,0,0,0,0,0,0,0,0,0,0,0,0,0,0,0,0,0,0,0,0,0,0,0,0,0,0,0,0,0,0,0,0,0,0,0,0,0,0,0,0,0,0,0,0,0,0,0,0,0,0,0,0,0,0,0,0,0,0,0,0,0,0,0,0,0,0,0,
0,0,0,0,0,0,0,0,0,0,0,0,0,0,0,0,0,0,0,0,0,0,0,0,0,0,0,0,0,0,0,0,0,0,0,0,0,0,0,0,0,0,0,0,0,0,0,0,0,0,0,0,0,0,0,0,0,0,0,0,0,0,0,0,0,0,0,0,0,0,
0,0,0,0,0,0,0,0,0,0,0,0,0,0,0,0,0,0,0,0,0,0,0,0,0,0,0,0,0,0,0,0,0,0,0,0,0,0,0,0,0,0,0,0,0,0,0,0,0,0,0,0,0,0,0,0,0,0,0,0,0,0,0,0,0,0,0,0,0,0
</data>
 </layer>
</map>
