<?xml version="1.0" encoding="UTF-8"?>
<map version="1.0" orientation="orthogonal" renderorder="right-down" width="31" height="76" tilewidth="32" tileheight="32" nextobjectid="1">
 <tileset firstgid="1" name="Pro all tiles" tilewidth="32" tileheight="32" tilecount="1024" columns="32">
  <image source="Tiles/Pro all tiles.png" width="1024" height="1024"/>
 </tileset>
 <tileset firstgid="1025" name="tile group" tilewidth="32" tileheight="32" tilecount="21000" columns="140">
  <image source="Tiles/tile group.png" width="4480" height="4800"/>
 </tileset>
 <tileset firstgid="22025" name="Trainer overworld sprite" tilewidth="32" tileheight="32" tilecount="3840" columns="60">
  <image source="Tiles/Trainer overworld sprite.png" width="1920" height="2048"/>
 </tileset>
 <layer name="Layer 1" width="31" height="76">
  <data encoding="csv">
552,552,552,552,552,552,552,552,552,552,552,552,552,552,552,552,552,552,552,552,552,552,552,552,80,552,552,552,552,552,552,
552,552,552,552,552,552,552,80,552,552,552,552,552,80,80,552,552,552,552,552,552,552,552,552,552,552,552,552,552,552,552,
552,552,552,552,552,552,552,552,552,552,552,552,552,552,552,552,552,552,552,552,552,552,552,552,552,552,552,552,552,552,552,
552,552,552,552,552,552,552,552,552,552,552,552,552,552,552,552,552,552,552,552,552,552,552,552,552,552,552,552,552,552,552,
552,552,552,552,552,552,552,80,552,552,552,552,552,552,552,552,552,80,552,552,552,552,552,552,552,552,552,552,552,552,552,
552,552,552,552,552,552,552,552,552,552,552,552,552,552,552,552,552,552,552,552,552,552,552,552,552,552,552,80,552,552,552,
552,552,552,552,552,552,552,80,552,552,552,552,552,552,552,552,552,552,552,552,552,552,552,552,552,552,552,80,552,552,552,
552,552,552,552,552,552,552,552,552,552,552,552,552,552,552,552,552,552,552,552,552,552,552,552,80,552,552,80,552,552,552,
552,80,552,552,552,552,552,80,552,552,552,552,552,552,552,552,552,552,552,552,552,552,552,552,552,552,552,552,552,552,552,
552,552,552,552,552,552,552,552,552,552,552,552,552,552,552,552,552,552,552,552,552,552,552,552,80,552,552,552,552,552,552,
552,552,552,552,80,552,552,552,552,552,552,552,552,552,552,552,552,552,552,552,552,552,552,552,552,552,552,552,552,552,552,
552,552,552,552,80,552,552,552,552,552,552,552,552,641,642,642,643,552,552,552,552,80,552,552,552,552,552,552,552,552,80,
552,552,552,552,552,552,552,552,552,552,552,552,552,673,485,484,675,552,552,552,552,80,552,552,552,552,552,552,80,552,552,
552,552,552,552,552,552,552,552,552,552,552,552,552,552,673,675,552,552,3966,3967,552,80,552,552,552,552,552,552,552,552,552,
552,552,552,552,552,552,552,552,552,552,552,552,552,552,552,552,552,552,4106,4107,552,552,552,80,552,552,552,552,552,552,552,
552,552,552,552,552,552,552,552,552,552,552,552,552,552,552,552,552,552,552,4246,552,552,552,552,552,552,552,552,552,552,552,
552,552,552,552,552,552,552,552,552,80,552,552,552,552,552,552,552,552,552,552,552,552,552,552,552,552,552,552,552,552,552,
552,552,552,552,552,552,552,552,552,552,552,552,552,552,552,4246,552,552,552,552,552,552,552,552,552,552,552,80,552,552,552,
552,552,552,552,552,552,552,552,552,552,552,552,552,552,552,552,552,552,552,552,552,552,552,552,552,552,552,552,552,552,552,
80,552,552,552,552,552,552,80,552,552,552,552,552,552,552,552,552,552,552,552,552,552,552,552,552,552,552,552,552,552,552,
552,552,552,552,552,552,552,552,552,552,552,3966,3967,552,552,552,552,552,552,552,552,552,552,552,552,552,552,80,552,552,552,
552,552,552,552,552,552,552,552,552,552,552,4106,4107,552,552,552,552,552,552,552,552,552,609,610,610,610,610,610,610,610,610,
80,552,552,552,552,552,552,552,552,552,552,552,552,552,552,552,552,552,552,552,552,609,517,642,642,642,642,642,642,642,642,
552,552,552,552,552,552,552,552,552,552,552,552,552,552,552,552,552,552,552,552,609,517,642,642,484,674,674,485,642,642,642,
5653,5653,552,552,552,552,552,552,552,552,552,552,552,552,552,552,552,552,552,552,641,642,642,484,675,552,552,3266,642,642,642,
5653,5653,552,552,552,5653,552,552,552,552,552,552,552,552,552,552,552,552,552,552,552,552,642,643,552,552,552,552,552,5653,5653,
5653,5653,5653,5653,5653,5653,5653,552,552,552,552,552,552,552,552,552,5653,5653,5653,5653,5653,50,50,50,50,5653,5653,5653,5653,5653,5653,
5653,5653,5653,5653,5653,5653,5653,552,552,552,552,552,552,552,552,552,5653,5653,5653,5653,5653,5653,50,50,50,5653,5653,5653,5653,5653,5653,
5653,5653,5653,5653,5653,5653,5653,552,552,552,552,552,552,552,552,552,5653,5653,5653,5653,5653,5653,50,50,50,5653,5653,5653,5653,5653,5653,
5653,5653,5653,5653,5653,5653,5653,5653,552,552,552,552,552,552,552,5653,5653,5653,5653,5653,5653,5653,5653,50,50,5653,5653,5653,5653,5653,5653,
5653,5653,5653,5653,5653,5653,5653,5653,552,552,552,552,552,80,552,5653,5653,5653,5653,5653,5653,5653,5653,50,50,5653,5653,5653,5653,5653,5653,
5653,5653,5653,5653,5653,5653,5653,5653,552,552,552,552,552,552,552,5653,5653,5653,5653,5653,5653,50,50,50,5653,5653,5653,5653,5653,5653,5653,
5653,5653,5653,5653,5653,5653,5653,5653,552,552,552,552,552,552,552,5653,5653,5653,5653,5653,5653,50,50,5653,5653,5653,5653,5653,5653,5653,5653,
5653,5653,5653,5653,5653,5653,5653,5653,5653,552,552,80,552,552,5653,5653,5653,5653,5653,5653,5653,50,50,5653,5653,5653,5653,5653,5653,5653,5653,
5653,5653,5653,5653,5653,5653,5653,5653,5653,552,552,552,80,552,5653,5653,5653,5653,5653,5653,50,50,50,5653,5653,5653,5653,5653,5653,5653,5653,
5653,5653,5653,5653,5653,5653,5653,5653,5653,552,552,552,80,552,5653,5653,5653,5653,5653,5653,50,50,5653,5653,5653,5653,5653,5653,5653,5653,5653,
5653,5653,5653,5653,5653,5653,5653,5653,5653,552,552,552,552,552,5653,5653,5653,5653,5653,50,50,5653,5653,5653,5653,5653,5653,5653,5653,5653,5653,
5653,5653,5653,5653,5653,5653,5653,5653,5653,552,552,552,552,552,5653,5653,5653,5653,5653,50,50,5653,5653,5653,5653,5653,5653,5653,5653,5653,5653,
5653,5653,5653,5653,5653,5653,5653,5653,5653,552,552,552,552,552,5653,5653,5653,5653,5653,50,50,5653,5653,5653,5653,5653,5653,5653,5653,5653,5653,
5653,552,552,552,552,552,552,552,552,552,552,552,80,552,5653,5653,5653,5653,5653,50,50,5653,5653,5653,5653,5653,5653,5653,5653,5653,5653,
5653,552,552,552,552,552,552,552,552,552,552,552,552,552,5653,5653,5653,5653,5653,50,50,50,5653,5653,5653,5653,5653,5653,5653,5653,5653,
552,552,552,552,552,552,552,552,552,552,552,552,552,552,5653,5653,5653,5653,5653,5653,50,50,5653,5653,5653,5653,5653,5653,5653,5653,5653,
552,552,552,4736,4736,4736,4736,552,552,552,552,552,552,552,5653,5653,5653,5653,5653,5653,50,50,5653,5653,5653,5653,5653,5653,5653,5653,5653,
552,552,4736,4736,4736,552,552,552,552,552,552,552,552,552,5653,5653,5653,5653,5653,5653,50,50,5653,5653,5653,5653,5653,5653,5653,5653,5653,
4736,4736,4736,4736,4736,552,552,552,552,552,552,552,552,552,552,5653,5653,5653,5653,5653,50,50,5653,5653,250,250,5653,5653,5653,5653,5653,
4736,4736,4736,4736,4736,552,552,552,552,552,552,552,552,80,552,5653,5653,5653,5653,5653,50,50,5653,5653,250,5653,5653,5653,5653,5653,5653,
552,552,552,552,4736,552,552,552,552,552,552,552,552,80,552,5653,5653,5653,5653,5653,50,50,50,5653,250,5653,5653,5653,5653,5653,5653,
552,552,552,552,4736,4736,552,552,552,552,552,552,552,552,552,5653,5653,5653,5653,5653,5653,50,50,5653,5653,5653,5653,5653,5653,5653,5653,
5653,5653,552,552,552,4736,4736,552,80,80,552,552,552,552,552,5653,5653,5653,5653,5653,5653,50,50,24,5653,5653,5653,5653,5653,5653,5653,
5653,5653,552,552,552,552,552,552,552,552,80,552,552,552,552,552,5653,5653,5653,5653,5653,5653,50,50,5653,5653,5653,5653,5653,5653,5653,
5653,5653,5653,552,552,552,552,552,552,552,552,552,552,552,552,552,5653,5653,5653,5653,5653,5653,5653,50,5653,5653,5653,5653,5653,5653,5653,
5653,5653,5653,5653,5653,5653,5653,5653,5653,5653,5653,552,552,552,552,552,5653,5653,5653,5653,5653,5653,5653,5653,24,5653,5653,5653,5653,5653,5653,
5653,5653,5653,5653,5653,5653,5653,5653,5653,5653,5653,552,552,552,80,552,5653,5653,5653,5653,5653,5653,5653,5653,5653,5653,5653,5653,5653,5653,5653,
5653,5653,5653,5653,5653,5653,5653,5653,5653,5653,5653,552,3966,3967,552,552,552,5653,5653,5653,5653,5653,5653,5653,5653,5653,5653,5653,5653,5653,5653,
5653,5653,5653,5653,5653,5653,5653,5653,5653,5653,5653,552,4106,4107,552,552,552,5653,5653,5653,5653,5653,5653,5653,5653,5653,5653,5653,5653,5653,5653,
5653,5653,5653,5653,5653,5653,5653,5653,5653,5653,5653,552,4246,4247,552,552,552,5653,5653,5653,5653,5653,5653,5653,5653,24,5653,5653,5653,5653,5653,
5653,5653,5653,5653,5653,5653,5653,5653,5653,5653,5653,552,552,552,552,552,552,5653,5653,5653,5653,5653,5653,5653,5653,5653,5653,5653,5653,5653,5653,
5653,5653,5653,5653,5653,5653,5653,5653,5653,5653,5653,552,552,80,552,552,552,5653,5653,5653,5653,5653,5653,5653,5653,5653,5653,5653,5653,5653,5653,
5653,5653,5653,5653,5653,5653,5653,5653,5653,5653,5653,5653,552,80,3966,3967,552,552,552,5653,5653,5653,5653,5653,5653,5653,5653,5653,5653,5653,5653,
5653,5653,5653,5653,5653,5653,5653,5653,5653,5653,5653,5653,552,80,4106,4107,552,80,552,552,552,552,552,552,552,552,5653,5653,5653,5653,5653,
5653,5653,5653,5653,5653,5653,5653,5653,5653,5653,5653,5653,552,552,4246,4247,552,552,80,552,552,552,552,552,552,552,552,5653,5653,5653,5653,
5653,5653,5653,5653,5653,5653,5653,5653,5653,5653,50,50,552,552,552,552,552,552,552,552,552,552,552,552,552,552,552,5653,5653,5653,5653,
5653,5653,50,50,50,50,50,50,50,50,50,50,552,552,552,4248,552,552,552,552,552,552,552,552,552,552,552,5653,5653,5653,5653,
5653,50,50,50,50,50,50,50,50,50,50,50,552,552,4248,552,552,552,552,552,552,552,552,552,552,552,552,552,5653,5653,5653,
50,50,50,50,50,552,552,552,552,552,552,552,552,552,552,552,552,552,552,552,552,552,552,552,552,552,552,552,5653,5653,5653,
50,50,50,50,50,552,552,641,643,552,552,552,552,552,552,552,552,552,552,552,552,552,552,552,552,552,552,552,5653,5653,5653,
50,50,50,50,50,552,80,641,516,610,611,552,552,552,552,552,552,552,552,552,552,552,552,552,552,552,552,552,552,5653,5653,
50,50,50,50,552,552,552,673,485,642,516,611,80,552,552,552,552,552,552,552,552,552,552,552,552,552,552,552,552,5653,5653,
50,50,50,50,552,552,552,552,641,642,642,643,80,552,552,552,552,552,552,552,552,552,552,552,552,552,552,552,552,552,5653,
50,50,50,50,552,552,552,552,673,485,642,516,611,552,552,552,552,552,552,552,552,552,552,552,552,552,552,552,552,552,552,
552,552,552,552,552,552,552,552,80,673,674,485,516,610,611,552,552,552,552,552,552,552,552,552,552,552,552,552,552,552,552,
552,552,552,552,552,552,552,552,80,80,552,673,485,642,643,552,552,552,552,552,552,552,552,552,552,552,552,552,552,552,552,
4736,4736,4736,4736,4736,4736,552,552,552,552,552,552,673,485,516,611,552,552,552,552,552,552,552,552,552,552,552,552,552,552,552,
552,552,552,552,4736,4736,4736,4736,552,552,552,552,552,673,485,643,552,552,552,552,552,552,552,552,552,552,552,552,4736,4736,4736,
552,552,552,552,552,552,552,4736,4736,4736,4736,4736,552,552,641,643,552,552,4736,4736,4736,4736,4736,4736,4736,4736,4736,4736,4736,4736,4736,
552,359,552,359,552,359,552,552,4736,4736,4736,4736,4736,4736,4736,4736,4736,4736,4736,4736,4736,4736,4736,4736,4736,4736,4736,4736,4736,4736,4736
</data>
 </layer>
 <layer name="Layer 2" width="31" height="76">
  <data encoding="csv">
0,1312,1313,1314,0,1312,1313,1314,0,359,359,0,0,1312,1313,1314,0,0,0,0,1312,1313,1314,0,0,0,1315,1316,1317,112,0,
0,0,0,0,0,0,359,0,0,0,0,0,0,0,0,0,1306,1307,1308,0,0,0,0,0,0,0,0,0,0,0,359,
1312,1313,1314,1312,1313,1314,0,0,0,0,1312,1313,1314,0,1309,1310,1311,0,1312,1313,1314,1309,1310,1311,1315,1316,1317,1312,1313,1314,0,
0,0,1306,1307,1308,0,0,1309,1310,1311,0,0,1306,1307,1308,1312,1313,1314,1306,1307,1308,0,0,1306,1307,1308,752,1309,1310,1311,0,
1310,1311,0,0,1312,1313,1314,0,1306,1307,1308,0,1309,1310,1311,0,0,76,77,78,112,1312,1313,1314,0,0,1306,1307,1308,1315,1316,
0,0,0,1309,1310,1311,1315,1316,1317,0,1312,1313,1314,0,0,0,359,0,0,0,1309,1310,1311,0,1309,1310,1311,0,0,1312,1313,
1309,1310,1311,0,0,0,0,1312,1313,1314,1315,1316,1317,1315,1316,1317,0,1312,1313,1314,0,0,0,1315,1316,1317,0,1309,1310,1311,359,
0,1306,1307,1308,1309,1310,1311,0,0,0,0,1312,1313,1314,0,0,0,0,1309,1310,1311,1306,1307,1308,0,0,0,0,0,112,0,
1317,0,1312,1313,1314,1315,1316,1317,0,0,0,295,296,0,0,1315,1316,1317,0,1315,1316,1317,0,112,1309,1310,1311,1306,1307,1308,0,
0,0,0,0,1309,1310,1311,112,1315,1316,1317,327,328,0,0,0,0,0,0,0,0,1315,1316,1317,0,0,0,359,0,1315,1316,
3843,1312,1313,1314,0,0,0,0,0,0,0,0,0,0,0,0,0,0,0,0,3843,1306,1307,1308,1309,1310,1311,0,1312,1313,1314,
0,1306,1307,1308,0,0,0,0,1309,1310,1311,0,0,0,0,0,0,0,0,0,0,0,0,0,0,0,0,1309,1310,1311,0,
0,0,1312,1313,1314,1312,1313,1314,0,0,0,0,0,0,0,0,0,0,0,0,0,0,1309,1310,1311,1306,1307,1308,0,0,0,
1309,1310,1311,0,0,0,0,1312,1313,1314,0,0,0,0,0,0,0,0,0,0,0,0,0,1315,1316,1317,0,359,1306,1307,1308,
4124,1312,1313,1314,1312,1313,815,816,1309,1310,1311,0,0,0,0,0,0,0,0,0,0,0,4124,0,1309,1310,1311,0,0,0,0,
1312,1313,1314,0,1306,1307,847,848,359,0,0,0,0,0,0,0,0,0,0,0,0,0,0,0,0,0,0,0,1312,1313,1314,
0,0,1171,0,0,0,0,0,0,0,0,815,816,0,0,0,0,0,0,3835,0,0,0,1306,1307,1308,1312,1313,1314,0,0,
0,0,0,0,0,1312,1313,1314,231,232,0,847,848,0,0,0,0,0,3836,3976,0,0,0,0,0,0,0,0,0,1306,1307,
1312,1313,1314,1316,1317,0,0,0,263,264,0,0,0,0,0,0,0,3835,0,3977,0,0,0,0,0,0,0,1312,1313,1314,3843,
0,0,0,0,0,0,0,0,3843,0,0,0,0,0,0,0,0,3836,0,0,0,0,0,0,0,0,0,0,0,0,0,
0,1312,1313,1314,1315,1316,1317,0,0,0,0,0,0,0,3976,3977,0,0,0,0,0,0,0,0,0,0,0,0,1312,1313,1314,
1315,1316,1317,0,0,0,0,0,0,0,0,0,0,0,0,0,0,0,0,0,0,0,0,0,0,0,0,0,0,0,0,
0,0,0,1315,1316,1317,0,0,0,0,0,0,0,0,0,0,0,0,0,0,0,0,0,0,0,0,0,0,0,4252,0,
5513,5513,5514,0,0,0,1315,1316,1317,0,0,0,0,0,0,0,0,0,0,0,0,0,0,0,0,0,0,0,0,0,0,
5513,5514,5654,0,1312,1313,1314,0,0,0,0,0,0,0,0,0,0,0,0,0,0,0,4252,0,0,0,0,5513,5513,5513,5513,
5513,6072,6072,5513,5513,5513,5513,5514,303,0,0,0,0,0,0,5512,5513,5513,5513,5513,18,18,18,18,18,18,6073,6073,6073,17,18,
6227,0,51,0,0,5654,5654,5654,335,0,0,0,0,0,0,5652,5652,5652,51,55,0,0,56,0,49,0,17,18,18,56,0,
0,0,51,0,0,5654,5654,5654,697,698,698,698,698,698,699,5652,5652,5652,55,18,0,0,18,0,49,17,56,0,0,17,18,
0,23,83,3829,0,5654,5654,6072,5514,48,0,47,0,15,5512,6073,5652,5652,0,0,0,0,0,0,49,49,0,17,18,56,0,
0,51,0,0,0,5654,6072,5514,5654,0,15,0,15,48,5652,5512,6073,5652,0,0,0,0,0,17,56,49,0,49,0,17,18,
0,51,0,0,0,6072,5514,5654,5654,47,15,48,3843,0,5652,5652,5512,6073,0,0,0,0,0,49,0,49,17,56,17,56,0,
0,51,0,6227,0,0,5654,5654,5654,697,698,698,698,699,5652,5652,5652,0,0,0,0,0,0,49,17,56,49,0,49,0,0,
0,51,0,0,0,0,5654,5654,6072,5514,47,0,0,5512,6073,5652,5652,0,0,0,0,0,17,56,49,17,56,17,56,0,0,
0,51,3829,0,0,0,5654,6072,5514,5654,0,0,48,5652,5512,6073,5652,0,0,0,0,0,49,0,49,49,0,49,0,0,0,
0,51,0,0,0,0,6072,5514,5654,5654,15,48,0,5652,5652,5512,6073,0,0,0,0,0,49,17,56,49,0,81,82,82,24,
23,83,0,0,0,0,0,5654,5654,5654,0,15,0,5652,5652,5652,0,0,0,0,0,17,56,49,0,81,82,82,24,0,49,
83,0,0,0,0,0,0,5654,5654,5654,47,0,15,5652,5652,5652,0,0,0,0,17,56,17,56,0,0,0,0,81,24,49,
5793,5793,5793,5793,5793,5793,5793,5794,5654,5654,697,698,699,5652,5652,5652,0,0,0,0,49,6227,49,0,23,82,82,24,0,49,49,
5932,5793,5793,5793,5793,5793,5793,5793,5794,5654,0,0,0,5652,5652,5652,0,0,0,0,49,0,81,82,83,0,0,81,24,49,49,
5794,5932,5793,5793,5933,5932,5793,5793,5793,5794,0,0,0,5652,5652,5652,0,0,0,0,81,24,0,0,0,0,0,0,49,49,49,
0,5654,4595,4597,5792,5794,4595,4597,0,0,0,0,0,5652,5652,5652,0,0,0,0,0,49,0,0,0,0,0,0,49,49,49,
5932,5794,4735,5155,4596,4596,5156,4737,0,0,0,0,0,5652,5652,5652,6227,0,0,0,0,49,0,0,0,0,0,0,7205,49,49,
5794,4595,5156,0,0,0,0,4737,15,0,0,0,0,5652,5652,5792,5933,0,0,0,0,49,0,0,0,0,0,0,49,49,49,
4596,5156,0,0,0,5015,4876,4877,15,0,0,0,0,5652,5792,5933,5652,0,0,0,0,49,217,218,508,510,219,0,49,49,81,
0,0,0,0,0,4737,15,15,15,0,0,0,0,5792,5933,5652,5652,0,0,0,0,49,281,345,0,0,251,17,56,49,0,
0,0,0,0,0,4737,15,15,0,0,0,0,0,0,5652,5652,5652,0,0,0,0,81,24,249,0,346,283,49,17,56,6227,
4876,4876,4876,5016,0,5155,4597,15,15,0,0,0,0,0,5652,5652,5652,0,0,0,0,0,49,249,0,251,17,56,49,649,650,
5513,5513,5514,4735,0,0,5155,4597,15,0,0,0,0,0,5652,5652,5792,5933,0,0,0,0,49,281,282,283,49,17,56,681,682,
0,0,5654,4875,5016,0,0,4737,0,0,0,0,0,0,5652,5792,5933,5652,0,0,0,0,81,0,0,17,56,49,0,713,714,
5513,5514,6072,5514,4875,4876,4876,4877,0,0,0,0,0,0,5792,5933,5652,5652,0,0,0,0,0,49,0,49,17,56,0,0,0,
5513,6072,5513,6072,5513,5513,5513,5513,5513,5513,5514,0,0,0,0,5652,5652,5652,0,0,0,0,0,49,0,49,49,0,0,0,0,
0,0,0,5932,5794,0,0,5654,6072,5514,6072,5514,0,0,0,5652,5652,5792,5933,0,0,0,0,81,0,49,49,0,0,0,0,
0,0,5932,5794,0,15,0,6072,5514,6072,5514,5654,0,0,0,5652,5792,5933,5652,0,0,0,0,0,49,49,81,24,0,0,23,
0,0,5654,15,15,15,0,0,6072,5514,5654,5654,0,0,0,5792,5933,5652,5652,0,0,0,0,0,49,49,0,81,82,82,83,
0,0,5654,15,15,0,0,0,0,5654,5654,5654,0,0,0,111,5652,5652,5652,0,0,0,0,0,49,81,24,0,0,0,0,
0,0,5654,15,15,0,0,0,0,5654,5654,5654,0,0,0,0,5652,5652,5652,7346,7346,0,0,0,81,0,81,82,82,82,24,
0,0,5654,15,0,0,0,0,0,5654,5654,5654,0,0,0,0,5652,5652,5792,5793,5933,0,0,6227,0,81,5793,5793,5793,5933,81,
0,0,5654,15,0,0,0,0,0,5654,5654,6072,5514,0,0,0,5652,5792,5793,5933,5792,5793,5793,5793,5793,5793,5793,5933,0,5792,5933,
0,0,5654,15,15,0,0,0,0,5654,6072,5514,5654,0,0,0,5792,5793,5933,5792,5793,5793,5793,5793,5793,5793,5933,5792,5933,0,5792,
0,0,5654,0,15,0,0,0,0,6072,5514,5654,5654,0,0,0,0,0,5792,5793,5793,5793,5793,5793,5793,5933,5792,5933,5652,0,0,
0,5932,5794,15,15,15,0,0,0,0,5654,5654,5654,3843,0,0,0,0,0,0,0,15,0,0,0,5792,5933,5652,5792,5933,6227,
5793,5794,15,15,0,0,0,0,0,0,5654,5654,5654,0,0,0,0,0,0,0,15,48,15,0,0,0,5652,5792,5933,5652,0,
0,0,5932,5793,5793,5793,5793,5793,5793,5793,5794,5654,5654,0,0,0,0,0,0,0,48,0,48,47,15,15,5792,5933,5652,5652,0,
5793,5793,5794,5932,5793,5793,5793,5793,5793,5793,5793,5794,5654,0,0,0,0,0,0,0,0,15,48,15,48,48,15,5652,5652,5792,5933,
5932,5793,5793,5794,0,5932,5793,5793,5793,5793,5793,5793,5794,3843,0,0,0,0,0,0,15,0,15,0,48,15,15,5652,5792,5933,5792,
5654,0,0,0,0,5654,0,0,0,0,0,0,0,0,0,0,0,0,0,0,0,0,15,48,48,0,0,5792,5933,5652,0,
5654,0,0,0,0,5654,0,0,0,0,0,0,0,0,0,0,0,0,0,0,0,0,0,48,0,0,0,0,5652,5652,0,
5654,0,0,0,5932,5794,4124,0,0,0,0,0,0,0,0,0,0,0,0,0,0,0,0,15,0,0,0,0,5652,5792,5933,
5654,0,0,0,5654,0,0,0,0,0,4252,0,0,0,0,0,0,0,0,0,0,0,0,15,47,0,0,0,5792,5933,5792,
5794,6227,0,0,5654,0,0,0,0,0,0,0,0,0,0,0,0,0,0,0,0,0,0,0,15,15,0,0,4124,5792,5933,
5793,5793,5793,5793,5794,0,0,0,0,0,0,0,0,0,0,0,0,0,0,0,0,0,0,0,15,48,15,15,15,15,5652,
4596,4596,4596,4596,4596,4596,4597,0,0,0,0,0,0,0,0,0,0,0,0,0,0,0,0,0,0,0,48,15,47,15,5792,
0,0,0,0,0,0,5155,4596,4597,0,0,0,0,0,0,0,0,0,0,0,0,0,0,0,0,15,15,4595,4596,4596,4596,
4876,4876,4876,5016,0,0,0,0,5155,4596,4596,4596,4597,0,0,0,0,4595,4596,4596,4596,4596,4596,4596,4596,4596,4596,5156,0,0,0,
143,0,0,4875,4876,4876,5016,0,0,0,0,0,5155,4596,4596,4596,4596,5156,0,0,0,0,0,0,0,0,0,0,0,0,0,
0,0,143,0,4124,0,4875,5016,0,0,0,0,0,0,0,9045,0,0,0,0,0,0,0,0,0,0,0,0,0,0,0
</data>
 </layer>
 <layer name="Layer 3" width="31" height="76">
  <data encoding="csv">
0,0,0,0,0,0,0,0,0,0,0,0,591,0,0,0,1166,1167,1168,0,0,0,0,0,0,0,0,0,0,0,0,
1172,1173,1174,1172,1173,1174,0,1166,1167,1168,1172,1173,1174,0,1169,1170,1171,0,1172,1173,1174,1169,1170,1171,1175,1176,1177,1172,1173,1174,0,
0,0,1166,1167,1168,0,360,1169,1170,1171,0,0,1166,1167,1168,1172,1173,1174,1166,1167,1168,0,0,1166,1167,1168,0,1169,1170,1171,0,
1170,1171,559,0,1172,1173,1174,0,1166,1167,1168,0,1169,1170,1171,0,432,1169,1170,1171,0,1172,1173,1174,0,0,1166,1167,1168,1175,1176,
0,0,591,1169,1170,1171,1175,1176,1177,0,1172,1173,1174,1169,1170,1171,464,0,0,0,1169,1170,1171,0,1169,1170,1171,0,0,1172,1173,
1169,1170,1171,0,1169,1170,1171,1172,1173,1174,1175,1176,1177,1175,1176,1177,0,1172,1173,1174,0,0,0,1175,1176,1177,432,1169,1170,1171,0,
0,1166,1167,1168,1169,1170,1171,0,1166,1167,1168,1172,1173,1174,0,0,0,0,1169,1170,1171,1166,1167,1168,0,0,464,0,0,0,0,
1177,0,1172,1173,1174,1175,1176,1177,1166,1167,1168,0,0,0,0,1175,1176,1177,0,1175,1176,1177,0,0,1169,1170,1171,1166,1167,1168,0,
0,1169,1170,1171,1169,1170,1171,0,1175,1176,1177,0,0,0,0,0,0,0,0,0,432,1175,1176,1177,0,0,0,0,0,1175,1176,
0,1172,1173,1174,0,0,0,0,0,0,0,432,0,0,0,0,0,0,0,752,464,1166,1167,1168,1169,1170,1171,0,1172,1173,1174,
0,1166,1167,1168,0,1169,1170,1171,1169,1170,1171,464,0,0,0,0,0,0,0,0,0,0,0,0,0,0,0,1169,1170,1171,0,
0,0,1172,1173,1174,1172,1173,1174,0,0,0,0,0,0,0,0,0,0,0,0,0,0,1169,1170,1171,1166,1167,1168,0,0,0,
1169,1170,1171,0,0,0,0,1172,1173,1174,0,0,22081,22082,0,0,0,0,0,0,0,0,432,1175,1176,1177,0,0,1166,1167,1168,
0,1172,1173,1174,1172,1173,1174,0,1169,1170,1171,0,22141,22142,0,0,0,0,0,0,0,0,464,0,1169,1170,1171,0,0,0,0,
1172,1173,1174,0,1166,1167,1168,0,0,0,432,0,0,0,0,0,0,0,0,0,0,0,0,0,0,0,0,752,1172,1173,1174,
0,0,0,0,0,0,75,0,0,0,464,0,0,0,0,0,0,0,0,0,0,0,0,1166,1167,1168,1172,1173,1174,0,0,
1169,1170,1034,0,0,1172,1173,1174,994,0,0,0,0,0,0,0,0,0,0,0,0,0,0,0,0,0,432,0,0,1166,1167,
1172,1173,1174,1176,1177,0,0,0,0,0,0,0,0,0,0,0,0,0,0,0,0,0,0,0,0,0,464,1172,1173,1174,0,
0,0,1315,0,1169,1170,1171,994,0,0,0,0,0,0,0,0,0,0,0,0,0,0,0,0,0,0,752,0,0,0,0,
0,1172,1173,1174,1175,1176,1177,0,0,135,136,0,0,0,0,0,0,0,0,0,0,0,0,0,0,0,0,0,1172,1173,1174,
1175,1176,1177,0,0,0,0,0,199,200,0,0,0,0,0,0,0,0,0,0,0,0,0,0,0,0,0,0,0,0,0,
0,0,0,1175,1176,1177,0,0,0,0,0,0,0,0,0,0,0,0,0,0,0,0,0,0,0,0,0,0,0,0,0,
0,1450,360,1450,0,0,1175,1176,1177,0,0,0,0,0,0,0,0,0,0,0,0,0,0,0,0,0,0,0,0,0,0,
0,0,0,0,1172,1173,1174,0,0,0,0,0,0,0,0,0,0,0,0,0,0,0,0,0,0,0,0,0,0,0,0,
0,0,0,0,0,0,0,0,0,0,0,0,0,0,0,0,0,0,0,0,0,0,0,0,0,0,5512,5512,5512,0,0,
0,6072,5514,0,0,5514,5514,0,0,0,0,0,0,0,0,0,5512,5512,19,19,476,478,17,17,17,0,5513,5513,0,0,0,
0,0,0,0,0,0,0,0,0,0,0,0,0,0,0,0,0,0,0,0,476,478,0,49,0,0,0,0,0,0,0,
0,0,0,0,752,0,0,0,0,0,0,0,0,0,0,0,0,0,0,0,476,478,0,56,0,0,0,0,0,0,0,
0,0,0,0,0,0,0,0,0,0,0,0,0,0,0,0,0,0,0,0,0,0,0,0,0,0,0,0,0,0,752,
0,0,0,0,0,0,0,0,0,0,0,0,0,0,0,0,0,0,0,0,0,0,0,0,0,0,0,0,0,745,746,
0,0,0,0,0,0,0,0,0,0,0,0,0,0,0,0,0,0,0,0,0,0,0,0,0,0,0,0,0,777,778,
0,0,0,0,0,0,0,0,0,0,0,0,0,0,0,0,0,0,0,0,0,0,0,0,0,0,0,0,0,809,810,
0,0,0,0,0,0,0,0,0,0,0,0,0,0,0,0,0,0,0,0,0,0,0,0,0,0,0,0,0,0,0,
0,0,0,0,0,0,0,0,0,0,0,0,0,0,0,0,0,0,0,0,0,0,0,0,0,0,0,0,0,0,0,
0,0,0,0,0,0,0,0,0,0,0,0,0,0,0,0,0,0,0,0,0,0,0,0,0,0,0,0,0,0,0,
0,0,0,0,0,0,0,0,0,0,0,0,0,0,0,0,0,0,0,0,0,0,0,0,0,0,0,0,0,0,0,
0,0,0,0,752,0,0,0,0,0,0,0,0,0,0,0,0,0,0,0,0,0,0,0,0,0,0,0,0,0,0,
0,0,0,0,0,8903,8905,0,0,0,0,0,0,0,0,0,0,0,0,0,0,0,0,0,0,0,0,0,0,0,0,
0,0,0,0,0,0,0,0,0,0,0,0,0,0,0,0,0,0,0,0,0,0,0,0,0,0,0,0,0,0,0,
0,0,0,0,0,0,0,0,0,559,0,0,0,0,0,0,0,0,0,0,0,0,0,0,0,0,0,0,6503,6504,0,
0,0,0,0,0,0,0,0,0,591,0,0,0,0,0,0,0,0,0,0,0,637,0,0,0,0,0,0,6643,6644,0,
0,0,0,0,0,0,0,0,0,0,0,0,0,0,0,0,0,0,0,0,0,669,0,0,0,0,0,0,6783,6784,0,
0,0,0,0,0,0,0,0,0,0,0,0,0,0,0,0,0,0,0,0,0,701,0,0,0,0,0,0,6923,6924,0,
0,0,0,0,0,0,0,0,0,0,0,0,0,0,0,0,0,0,0,0,0,733,0,0,0,0,0,0,0,0,0,
6368,0,0,0,0,0,0,0,0,0,0,0,0,0,0,0,0,0,0,0,0,0,0,0,0,0,0,0,0,0,0,
6368,0,0,0,0,8903,8905,0,0,0,0,0,0,0,0,0,0,0,0,0,0,0,0,0,0,0,0,0,0,0,0,
0,0,0,0,0,9043,9045,0,0,0,0,0,0,0,0,0,0,0,0,0,0,0,0,0,0,0,0,0,0,0,0,
0,0,0,0,0,9183,9185,0,0,0,0,0,0,0,0,0,0,0,0,0,0,0,0,0,0,0,0,748,749,750,0,
0,0,0,0,0,9183,9185,0,0,0,0,0,0,0,0,0,0,0,0,0,0,0,0,0,0,0,0,780,781,782,0,
0,0,0,0,0,9043,9045,0,0,0,0,0,0,0,559,0,0,0,0,0,0,0,0,0,0,0,0,812,813,814,0,
0,0,0,5513,5514,9183,9185,5514,5514,0,0,0,0,0,591,0,0,0,0,0,0,0,0,0,0,0,0,0,0,0,0,
0,0,0,0,0,0,0,0,0,0,0,0,0,0,0,0,0,0,0,0,0,0,0,0,0,0,0,0,0,0,0,
0,0,0,0,0,0,0,0,0,0,0,0,0,0,0,0,0,0,0,0,0,0,0,0,0,0,0,0,0,0,0,
0,0,0,0,0,0,0,0,0,0,0,0,0,0,0,0,0,0,0,0,0,0,0,0,0,0,0,0,0,0,0,
0,0,0,0,0,0,0,0,0,8900,8901,8901,8901,8901,8901,8901,8901,8901,8902,7631,7346,0,0,0,0,0,0,0,0,752,0,
0,0,0,0,0,0,0,0,0,9180,9181,9181,9181,9181,9181,9181,9181,9181,9182,7346,7346,0,0,0,0,0,0,0,0,0,0,
0,0,0,0,0,0,0,0,0,0,0,0,0,0,0,0,0,0,0,0,0,0,0,0,0,0,0,0,0,0,0,
746,747,0,0,0,0,0,0,0,0,0,0,0,0,0,0,0,0,0,0,0,0,0,0,0,0,0,0,0,0,0,
778,779,0,0,0,0,0,0,0,0,0,0,0,0,0,0,0,0,0,0,0,0,12,13,14,0,0,0,0,0,0,
810,811,0,0,0,0,0,0,0,0,0,0,0,0,0,0,0,0,0,0,0,0,44,45,46,0,0,0,0,0,0,
0,0,0,0,0,0,0,0,0,0,0,0,0,0,0,0,0,0,0,0,0,0,76,77,78,0,0,0,0,0,0,
0,0,0,0,0,0,0,0,0,0,0,0,0,0,0,0,0,0,0,0,0,0,0,0,0,0,0,0,0,0,0,
0,0,0,0,0,0,0,508,510,0,0,0,0,0,0,0,0,0,24779,24780,0,0,0,0,0,0,0,0,0,0,0,
0,0,0,0,0,0,0,508,510,0,0,0,0,0,0,0,0,0,24779,24780,0,0,0,432,0,0,0,0,0,0,0,
0,0,0,0,0,0,0,508,510,0,559,0,0,0,0,0,0,0,24779,24780,0,0,0,464,0,132,133,134,0,0,0,
0,0,0,0,0,0,0,0,0,0,591,0,0,0,0,0,0,0,0,0,0,0,0,0,0,164,165,166,0,0,0,
0,0,0,0,0,0,0,0,0,0,0,0,0,0,0,0,0,0,0,0,0,0,0,0,0,196,197,198,0,0,0,
0,0,0,0,0,0,0,0,0,0,0,0,0,0,0,0,0,0,0,0,0,0,0,0,0,228,229,230,0,0,0,
0,0,752,0,0,464,0,0,0,0,0,0,0,0,0,0,0,0,0,0,0,0,0,0,0,0,0,0,0,0,0,
0,0,0,0,0,0,0,0,0,0,0,0,0,0,0,0,0,0,0,0,0,0,0,0,0,0,0,0,0,0,0,
0,0,0,0,0,0,0,0,0,0,0,0,0,0,0,0,0,0,0,0,0,0,0,0,0,0,0,0,0,0,0,
0,0,0,0,0,0,0,0,0,0,0,0,0,0,0,0,0,0,0,0,0,0,0,0,0,0,0,0,0,0,0,
0,0,0,0,0,0,0,0,0,0,0,0,0,0,0,0,0,0,0,0,0,0,0,0,0,0,0,0,0,0,0,
0,0,0,0,0,0,0,0,0,0,0,0,0,0,0,0,0,0,0,0,0,0,0,0,0,0,0,0,0,0,0,
0,111,0,0,0,0,0,0,0,0,0,0,0,0,8903,8905,0,0,0,0,0,0,0,0,0,0,0,0,0,0,0,
111,0,0,0,0,0,0,0,0,0,0,0,0,0,9043,0,0,0,0,0,0,0,0,0,0,0,0,0,0,0,0
</data>
 </layer>
 <layer name="Layer 4" width="31" height="76">
  <data encoding="csv">
1032,1033,1034,1032,1033,1034,0,1026,1027,1028,1032,1033,1034,0,1029,1030,1031,0,1032,1033,1034,1029,1030,1031,1035,1036,1037,1032,1033,1034,0,
0,0,1026,1027,1028,0,0,1029,1030,1031,0,0,1026,1027,1028,1032,1033,1034,1026,1027,1028,0,0,1026,1027,1028,0,1029,1030,1031,0,
1030,1031,0,0,1032,1033,1034,0,1026,1027,1028,0,1029,1030,1031,0,0,1029,1030,1031,0,1032,1033,1034,0,0,1026,1027,1028,1035,1036,
0,0,0,1029,1030,1031,1035,1036,1037,0,1032,1033,1034,1029,1030,1031,0,0,0,0,1029,1030,1031,0,1029,1030,1031,0,0,1032,1033,
1029,1030,1031,0,1029,1030,1031,1032,1033,1034,1035,1036,1037,1035,1036,1037,0,1032,1033,1034,0,0,0,1035,1036,1037,0,1029,1030,1031,0,
0,1026,1027,1028,1029,1030,1031,0,1026,1027,1028,1032,106,107,11782,11783,11784,11785,1029,1030,1031,1026,1027,1028,0,0,0,0,0,0,0,
1037,0,1032,1033,1034,1035,1036,1037,1026,1027,1028,0,11920,11921,11922,11923,11924,11925,11926,11927,1036,1037,0,0,1029,1030,1031,1026,1027,1028,0,
0,1029,1030,1031,1029,1030,1031,5237,1035,1036,1037,11786,12060,12061,12062,12063,12064,12065,12066,12067,0,1035,1036,1037,0,0,0,0,0,1035,1036,
0,1032,1033,1034,5237,5237,5237,5237,5237,5237,5237,5237,12200,12201,12202,12203,12204,12205,12206,12207,0,1026,1027,1028,1029,1030,1031,0,1032,1033,1034,
0,1026,1027,1028,5237,1029,1030,1031,1029,1030,1031,5237,12340,12341,12342,12343,12344,12345,12346,12347,0,0,0,0,0,0,0,1029,1030,1031,0,
0,0,1032,1033,1034,1032,1033,1034,5237,5237,5237,5237,12480,12481,12482,12483,12484,12485,12486,12487,0,0,1029,1030,1031,1026,1027,1028,0,0,0,
1029,1030,1031,0,5237,5237,5237,1032,1033,1034,5237,5237,12620,12621,12622,12623,12624,12625,12626,12627,0,0,0,1035,1036,1037,0,0,1026,1027,1028,
0,1032,1033,1034,1032,1033,1034,5237,1029,1030,1031,5237,12760,12761,12762,12763,12764,12765,12766,12767,0,0,0,0,1029,1030,1031,0,0,0,0,
1032,1033,1034,0,1026,1027,1028,5237,5237,5237,5237,5237,12900,12901,12902,12903,12904,12905,12906,12907,0,0,0,0,0,0,0,0,1032,1033,1034,
0,0,0,559,5237,5237,5237,5237,5237,5237,5237,5237,13040,13041,13042,13043,13044,13045,13046,13047,0,0,0,1026,1027,1028,1032,1033,1034,0,0,
1029,1030,1031,591,5237,1032,1033,1034,5237,5237,5237,5237,13180,13181,13182,13183,13184,13185,13186,13187,0,0,0,0,0,0,0,0,0,1026,1027,
1032,1033,1035,1036,1037,5237,5237,5237,5237,5237,5237,5237,5237,5237,5237,0,0,0,0,0,0,0,0,0,0,0,0,1032,1033,1034,0,
0,0,1175,5237,1029,1030,1031,5237,5237,5237,5237,5237,13187,0,0,0,0,0,0,0,0,0,0,0,22197,22198,0,0,0,0,0,
0,1032,1033,1034,1035,1036,1037,0,0,0,0,0,0,0,0,0,0,0,0,0,0,0,0,0,22257,22258,0,0,1032,1033,1034,
1035,1036,1037,0,0,0,0,0,0,0,0,0,0,0,0,0,0,0,0,0,0,0,0,0,0,0,0,0,0,0,0,
0,0,0,1035,1036,1037,0,0,0,0,0,0,0,0,0,0,0,0,0,0,0,0,0,0,0,0,0,0,0,0,0,
0,1450,1450,1450,0,0,1035,1036,1037,0,0,0,0,0,0,0,0,0,0,0,0,0,0,0,0,0,0,0,0,0,0,
0,0,0,0,1032,1033,1034,0,0,0,0,0,0,0,0,0,0,0,0,0,0,0,0,0,297,298,299,0,0,0,0,
0,0,1634,1635,1636,1637,0,22555,22556,0,0,0,0,0,0,0,0,0,0,0,0,0,0,0,329,330,331,0,0,0,0,
0,0,1774,1775,1776,1777,0,22615,22616,0,0,0,0,0,0,0,0,0,0,0,0,0,0,0,361,362,363,0,0,0,0,
0,0,1914,1915,1916,1917,0,0,0,0,0,0,0,0,0,0,0,0,0,0,0,0,0,0,393,394,395,0,0,0,0,
0,0,2054,2055,2056,2057,0,0,0,0,0,0,0,0,0,0,0,0,0,0,0,0,0,559,0,0,0,0,0,0,0,
0,0,2194,2195,2196,2197,0,0,0,0,0,0,0,0,0,0,0,0,0,0,0,0,0,591,0,0,0,3855,3856,0,0,
0,0,432,0,0,0,0,0,0,0,0,0,0,0,0,0,0,0,0,0,0,0,0,0,0,0,0,0,0,0,0,
6788,0,464,0,0,0,0,0,0,0,0,0,0,0,0,0,0,0,0,0,0,0,0,0,0,0,0,0,0,0,0,
6928,0,3855,3856,0,0,0,0,0,0,0,0,0,0,0,0,0,0,0,0,0,22307,22308,0,0,0,0,0,0,0,0,
0,0,0,0,0,0,0,0,0,0,0,0,0,0,0,0,0,0,0,0,0,22367,22368,0,0,0,0,0,649,650,651,
0,0,0,0,0,0,0,0,0,0,0,0,0,0,0,0,0,0,0,0,0,0,0,0,0,0,0,0,681,682,683,
0,1634,1635,1636,1637,0,0,0,0,0,0,0,0,0,0,0,0,0,0,0,0,0,0,0,0,0,0,0,713,714,715,
0,1774,1775,1776,1777,0,0,0,0,0,0,0,0,0,0,0,0,0,0,0,0,0,0,0,0,0,0,0,0,0,0,
0,1914,1915,1916,1917,0,0,0,0,0,0,0,0,0,0,0,0,0,0,0,0,0,0,0,0,0,0,0,0,0,0,
0,2054,2055,2056,2057,0,0,0,0,0,0,0,0,0,0,0,0,0,0,0,0,0,0,0,0,0,0,0,0,0,0,
0,2194,2195,2196,2197,0,0,0,0,0,0,0,0,0,0,0,22063,22064,0,0,0,0,0,0,0,0,432,0,0,0,0,
0,0,0,0,0,9043,9045,0,0,0,0,0,0,0,0,0,22123,22124,0,0,0,0,6787,6788,0,432,464,0,0,0,0,
0,0,0,0,0,9043,9045,0,0,0,0,0,0,0,0,0,0,0,0,22295,22296,0,6927,6928,6367,464,0,0,0,0,0,
0,0,0,0,0,9043,9045,0,0,0,0,0,0,0,0,0,0,0,0,22355,22356,0,0,0,0,0,0,0,0,0,0,
0,0,0,0,0,9043,9045,0,0,0,0,0,0,0,0,0,0,0,0,0,0,0,0,0,0,0,0,0,0,0,0,
0,0,0,0,0,9043,9045,0,0,0,0,0,0,0,0,0,0,0,0,0,0,0,0,0,0,0,0,0,0,0,0,
0,0,0,0,0,9043,9045,0,0,0,0,0,0,0,0,0,0,0,0,0,0,0,0,0,0,0,0,0,0,0,0,
0,0,0,0,0,9043,9045,0,23029,23030,0,0,0,0,0,0,0,0,0,0,0,0,0,0,0,0,0,0,0,0,0,
0,0,0,0,0,0,0,0,23089,23090,0,0,0,0,0,0,0,0,0,0,0,0,0,0,0,0,0,0,0,0,0,
0,0,0,0,0,0,0,0,0,0,0,0,0,0,0,0,0,0,0,0,0,0,0,0,0,0,0,0,0,0,0,
0,0,0,0,0,0,0,0,0,0,0,0,0,0,0,0,0,0,0,0,0,0,0,0,0,0,0,0,0,0,0,
0,0,0,0,0,0,0,0,0,0,0,0,0,0,0,0,0,0,0,0,0,0,0,0,0,0,0,0,0,0,0,
745,746,747,0,0,0,0,0,0,0,0,0,0,0,0,0,0,0,0,0,0,0,0,0,0,0,0,0,0,745,746,
777,778,779,0,0,0,0,0,0,0,0,0,0,0,0,0,0,0,0,0,0,0,0,0,0,0,0,3853,0,777,778,
809,810,811,0,0,0,0,0,0,0,0,0,0,0,0,0,0,0,0,0,0,0,22775,22776,0,0,0,3855,3856,809,810,
0,0,0,0,0,0,0,0,0,0,0,0,0,0,0,0,0,0,0,0,0,0,22835,22836,0,0,0,0,0,0,0,
0,0,0,0,0,0,0,0,0,0,0,0,0,0,0,0,0,0,0,0,0,0,0,0,0,0,0,0,0,0,0,
0,0,0,0,0,0,0,0,0,0,0,0,0,0,0,0,0,0,0,0,0,0,0,0,0,0,0,0,0,0,0,
0,0,0,0,22531,22532,0,0,0,0,0,0,0,0,0,0,0,0,0,7346,7346,0,0,0,0,0,0,0,0,0,0,
0,0,0,0,22591,22592,0,0,0,0,0,0,0,0,0,0,0,0,0,0,0,0,0,0,0,0,0,0,0,0,0,
0,0,0,0,0,0,0,0,0,0,0,0,0,0,0,0,0,0,0,0,0,0,0,0,0,0,0,0,0,0,0,
0,0,0,0,0,0,0,0,0,0,0,0,0,0,0,0,0,0,0,0,0,0,0,0,0,0,0,0,0,3854,0,
0,0,0,0,0,0,0,0,0,0,0,0,0,0,0,0,0,0,0,0,432,0,0,12,13,14,0,0,0,0,0,
0,0,0,0,0,0,0,0,0,0,0,0,0,0,0,0,0,0,0,0,464,0,0,44,45,46,0,0,0,0,0,
0,0,0,0,0,0,0,0,0,0,0,0,0,0,0,0,0,0,24719,24720,0,0,0,76,77,78,0,0,0,0,0,
0,0,0,0,0,0,0,0,0,0,0,0,0,0,0,0,0,0,24719,24720,0,0,0,0,0,0,0,0,0,0,0,
0,0,0,0,0,0,0,0,0,0,0,0,0,0,0,0,0,0,24719,24720,0,0,0,0,0,0,0,0,0,0,0,
0,745,746,747,0,0,0,0,0,0,0,432,0,0,0,0,0,0,0,0,0,0,0,0,0,0,0,0,0,0,0,
0,777,778,779,0,0,0,0,0,0,0,464,0,0,0,0,0,0,0,0,0,0,0,0,0,0,0,0,0,0,0,
0,809,810,811,3854,0,0,0,0,0,0,0,0,0,0,0,0,0,0,0,0,0,0,0,0,0,1,2,3,0,0,
0,3853,0,0,0,432,0,0,0,0,0,0,0,0,0,0,0,0,0,0,0,0,0,0,3853,0,33,34,35,0,0,
0,0,0,0,0,23995,23996,0,0,0,0,0,0,0,0,0,0,0,0,0,0,0,0,0,0,0,65,66,67,0,0,
0,0,0,0,0,24055,24056,0,0,0,0,0,0,0,0,0,0,0,0,0,0,0,0,0,0,0,97,98,99,0,0,
0,0,0,0,0,0,0,0,0,0,0,0,0,0,0,0,0,0,0,0,0,0,0,0,432,0,0,0,0,0,0,
0,0,0,0,0,0,0,0,0,0,0,0,0,0,0,0,0,0,0,0,0,0,0,0,464,0,0,0,0,0,0,
0,0,0,0,0,0,0,0,0,0,0,0,0,0,0,0,0,0,0,0,0,0,0,0,0,0,0,0,0,0,0,
0,0,0,0,0,0,0,0,0,0,0,0,0,0,0,0,0,0,0,0,0,0,0,0,0,0,0,0,0,0,0,
0,0,0,0,0,0,0,0,0,0,0,0,0,0,0,0,0,0,0,0,0,0,0,0,0,0,0,0,0,0,0,
0,0,0,0,0,0,0,0,0,0,0,0,0,0,0,0,0,0,0,0,0,0,0,0,0,0,0,0,0,0,0
</data>
 </layer>
</map>
