<?xml version="1.0" encoding="UTF-8"?>
<map version="1.0" orientation="orthogonal" renderorder="right-down" width="43" height="38" tilewidth="32" tileheight="32" nextobjectid="1">
 <tileset firstgid="1" name="tile group" tilewidth="32" tileheight="32" tilecount="21000" columns="140">
  <image source="Tiles/tile group.png" width="4480" height="4800"/>
 </tileset>
 <tileset firstgid="21001" name="1" tilewidth="32" tileheight="32" tilecount="256" columns="8">
  <image source="Tiles/1.png" width="256" height="1024"/>
 </tileset>
 <tileset firstgid="21257" name="3" tilewidth="32" tileheight="32" tilecount="256" columns="8">
  <image source="Tiles/3.png" width="256" height="1024"/>
 </tileset>
 <layer name="Layer 1" width="43" height="38">
  <data encoding="csv">
4626,4626,4626,4626,4626,4626,4626,4626,4626,4626,4626,4626,4626,4626,4626,4626,4626,4626,4626,4626,4626,4626,4626,4626,4626,4626,4626,4626,2960,2960,2960,2960,2960,2960,2960,2960,4626,4626,4626,4626,4626,4626,4626,
4626,4626,4626,4626,4626,4626,4626,4626,4626,4626,4626,4626,4626,4626,4626,4626,4626,4626,4626,4626,4626,4626,4626,4626,4626,2960,4626,2960,2960,2960,2960,2960,2960,2960,2960,2960,2960,4626,4626,4626,4626,4626,4626,
4626,4626,4626,4626,4626,4626,4626,4626,4626,4626,4626,4626,4626,4626,4626,4626,4626,4626,4626,4626,4626,4626,4626,4626,4626,4626,4626,2960,829,2960,2960,2960,2960,2960,2960,2960,2960,4626,4626,4626,4626,4626,4626,
4626,4626,4626,4626,4626,4626,4626,4626,4626,4626,4626,4626,4626,4626,4626,4626,4626,4626,4626,4626,4626,4626,4626,4626,2960,2960,2960,2960,2960,2960,2960,2960,2960,2960,2960,2960,2960,4626,4626,4626,4626,4626,4626,
4626,4626,4626,4626,4626,4626,4626,4626,4626,4626,4626,4626,4626,4626,4626,4626,4626,4626,4626,4626,4626,4626,4626,2960,2960,690,2960,2960,2960,2960,2960,2960,2960,2960,2960,2960,2960,4626,4626,4626,4626,4626,4626,
4626,4626,4626,4626,4626,4626,4626,4626,4626,4626,4626,4626,4626,4626,4626,4626,4626,4626,4626,4626,4626,4626,4626,2960,2960,2960,2960,2960,2960,2960,2960,2960,2960,2960,2960,2960,2960,4626,4626,4626,4626,4626,4626,
4626,4626,4626,4626,4626,4626,4626,4626,4626,4626,4626,4626,4626,4626,4626,4626,4626,4626,4626,4626,4626,4626,4626,2960,690,2960,2960,2960,2960,2960,2960,2960,2960,2960,2960,2960,2960,2960,4626,4626,4626,4626,4626,
4626,4626,4626,4626,4626,4626,4626,4626,4626,4626,4626,4626,4626,4626,4626,4626,4626,4626,4626,4626,4626,4626,2960,2960,2960,2960,690,2960,2960,4626,2960,2960,2960,2960,2960,2960,829,2960,4626,4626,4626,4626,4626,
4626,4626,4626,4626,4626,4626,4626,4626,4626,4626,4626,4626,4626,4626,4626,4626,4626,4626,4626,4626,4626,4626,2960,2960,2960,2960,2960,2960,4626,4626,4626,2960,2960,2960,2960,2960,2960,2960,4626,4626,4626,4626,4626,
4626,4626,4626,4626,4626,4626,4626,4626,4626,4626,4626,4626,4626,4626,4626,4626,4626,4626,4626,4626,4626,4626,2960,2960,2960,2960,2960,2960,2960,4626,4626,2960,2960,2960,2960,2960,2960,2960,4626,4626,4626,4626,4626,
4626,4626,4626,4626,4626,4626,4626,4626,4626,4626,4626,2960,2960,2960,2960,2960,4626,4626,4626,4626,4626,4626,2960,2960,2960,2960,2960,2960,2960,4626,4626,2960,2960,2960,2960,2960,2960,2960,2960,2960,4626,4626,4626,
4626,4626,4626,4626,4626,4626,4626,4626,4626,4626,4626,2960,2960,2960,2960,2960,2960,4626,4626,4626,2960,2960,2960,2960,2960,2960,2960,2960,2960,4626,4626,2960,2960,2960,2960,2960,2960,2960,689,2960,2960,4626,4626,
4626,4626,4626,4626,4626,4626,4626,4626,4626,4626,4626,2960,2960,2960,2960,2960,2960,2960,2960,2960,2960,2960,690,2960,2960,2960,2960,2960,2960,4626,4626,2960,2960,2960,2960,2960,2960,2960,2960,2960,2960,4626,4626,
4626,4626,4626,4626,4626,4626,4626,4626,4626,4626,4626,2960,2960,690,2960,2960,2960,2960,2960,2960,2960,690,2960,2960,2960,2960,2960,2960,2960,4626,4626,4626,2960,689,2960,2960,2960,2960,2960,2960,2960,4626,4626,
4626,4626,4626,4626,4626,4626,4626,4626,4626,4626,4626,2960,2960,2960,2960,2960,2960,2960,2960,2960,2960,2960,2960,2960,2960,2960,2960,2960,2960,2960,4626,4626,2960,2960,2960,2960,2960,2960,2960,830,2960,4626,4626,
4626,4626,4626,4626,4626,4626,4626,4626,4626,4626,4626,4626,2960,2960,2960,2960,2960,2960,2960,2960,2960,2960,2960,2960,2960,2960,2960,2960,2960,2960,4626,4626,2960,2960,2960,2960,2960,2960,2960,2960,2960,4626,4626,
4626,4626,4626,4626,4626,4626,4626,4626,4626,4626,4626,2960,2960,2960,2960,2960,2960,2960,2960,2960,2960,2960,2960,2960,2960,2960,2960,2960,2960,2960,4626,4626,4626,4626,2960,2960,2960,2960,2960,2960,2960,4626,4626,
4626,4626,4626,4626,4626,4626,4626,4626,4626,2960,2960,2960,2960,2960,2960,2960,2960,2960,2960,2960,2960,2960,2960,2960,2960,2960,2960,2960,2960,4626,4626,4626,4626,4626,2960,2960,2960,2960,2960,2960,4626,4626,4626,
4626,4626,4626,4626,4626,4626,4626,4626,2960,2960,2960,2960,2960,2960,2960,2960,2960,2960,2960,2960,2960,2960,2960,2960,2960,2960,2960,2960,2960,4626,4626,4626,4626,4626,2960,2960,2960,2960,2960,2960,4626,4626,4626,
4626,4626,4626,4626,4626,4626,4626,2960,2960,2960,2960,2960,2960,2960,2960,2960,2960,2960,2960,2960,2960,2960,2960,2960,2960,2960,2960,2960,2960,4626,4626,4626,4626,4626,2960,2960,2960,2960,2960,2960,4626,4626,4626,
4626,4626,4626,4626,4626,4626,4626,2960,2960,2960,2960,2960,2960,2960,2960,2960,2960,2960,2960,2960,2960,2960,2960,2960,2960,2960,2960,2960,4626,4626,4626,4626,4626,4626,2960,2960,2960,2960,2960,2960,4626,4626,4626,
4626,4626,4626,4626,4626,4626,4626,2960,2960,2960,2960,2960,2960,2960,2960,2960,2960,2960,2960,2960,2960,2960,2960,2960,2960,2960,2960,2960,2960,2960,4626,4626,4626,2960,2960,2960,2960,2960,2960,2960,4626,4626,4626,
4626,4626,4626,4626,4626,4626,2960,2960,2960,2960,2960,2960,2960,2960,2960,2960,2960,2960,2960,2960,2960,2960,2960,2960,2960,2960,2960,2960,2960,2960,2960,2960,2960,2960,2960,2960,2960,2960,2960,2960,4626,4626,4626,
4626,4626,4626,4626,4626,4626,2960,2960,2960,2960,2960,2960,2960,2960,2960,2960,2960,2960,2960,2960,2960,2960,2960,2960,2960,2960,2960,2960,2960,2960,2960,2960,2960,2960,2960,2960,2960,2960,2960,2960,4626,4626,4626,
4626,4626,4626,4626,4626,2960,2960,2960,690,2960,2960,2960,2960,2960,2960,2960,2960,2960,2960,2960,2960,4626,2960,2960,2960,2960,2960,2960,2960,2960,2960,2960,2960,2960,2960,2960,2960,2960,2960,2960,4626,4626,4626,
4626,4626,4626,4626,4626,2960,690,2960,2960,2960,2960,2960,2960,2960,2960,2960,2960,4626,2960,2960,4626,4626,2960,2960,2960,2960,2960,2960,2960,2960,2960,2960,2960,2960,2960,2960,2960,2960,2960,4626,4626,4626,4626,
4626,4626,4626,4626,4626,2960,2960,2960,2960,2960,2960,2960,2960,2960,2960,2960,2960,4626,4626,4626,4626,4626,2960,2960,2960,2960,2960,2960,2960,2960,2960,2960,2960,2960,2960,2960,2960,2960,2960,4626,4626,4626,4626,
4626,4626,4626,4626,4626,2960,2960,2960,2960,2960,2960,2960,2960,2960,2960,2960,2960,4626,4626,4626,4626,4626,4626,2960,2960,2960,2960,2960,2960,2960,2960,2960,2960,2960,2960,2960,2960,2960,4626,4626,4626,4626,4626,
4626,4626,4626,4626,4626,4626,2960,2960,2960,2960,2960,2960,2960,2960,2960,2960,2960,4626,4626,4626,4626,4626,2960,2960,2960,2960,2960,4629,4629,4629,2960,2960,2960,4629,4629,4629,2960,2960,4626,4626,4626,4626,4626,
4626,4626,4626,4626,4626,2960,2960,2960,2960,2960,2960,2960,2960,2960,2960,2960,4626,4626,4626,4626,4626,2960,2960,2960,4629,4629,4629,4629,0,4629,4629,4629,830,4629,4629,4629,2960,2960,4626,4626,4626,4626,4626,
4626,4626,4626,2960,2960,2960,2960,2960,2960,2960,2960,2960,2960,2960,2960,2960,4626,4626,4626,4626,4626,2960,2960,2960,4629,4629,4629,4629,4629,4629,4629,4629,4629,4629,4629,4629,2960,2960,4626,4626,4626,4626,4626,
4626,4626,2960,2960,690,2960,2960,2960,2960,2960,2960,2960,2960,830,2960,2960,2960,2960,4626,2960,2960,2960,2960,2960,4629,4629,4629,4629,4629,4629,4629,4629,4629,4629,4629,4629,2960,2960,4626,4626,4626,4626,4626,
2960,2960,2960,2960,2960,2960,2960,2960,2960,2960,2960,2960,2960,2960,2960,2960,2960,2960,2960,2960,2960,2960,2960,4629,4629,4629,4629,4629,4629,4629,4629,4629,4629,4629,4629,2960,2960,2960,4626,4626,4626,4626,4626,
2960,2960,2960,2960,2960,2960,2960,2960,2960,2960,2960,2960,2960,2960,2960,2960,2960,2960,2960,2960,2960,2960,2960,4629,4629,4629,4629,4629,4629,2960,2960,4629,4629,4629,2960,2960,2960,4626,4626,4626,4626,4626,4626,
2960,2960,2960,2960,2960,2960,2960,2960,2960,690,2960,2960,2960,2960,2960,2960,2960,2960,2960,2960,2960,2960,2960,4629,4629,4629,4629,4629,2960,2960,2960,2960,2960,2960,2960,2960,2960,4626,4626,4626,4626,4626,4626,
2960,2960,2960,2960,2960,2960,2960,2960,2960,2960,2960,2960,2960,830,2960,830,2960,2960,2960,2960,2960,2960,2960,2960,2960,2960,2960,2960,2960,2960,2960,2960,2960,2960,2960,2960,4626,4626,4626,4626,4626,4626,4626,
2960,2960,2960,2960,2960,2960,4626,4626,2960,2960,2960,2960,2960,2960,2960,2960,2960,2960,2960,2960,2960,2960,2960,2960,2960,2960,2960,2960,2960,2960,2960,4626,4626,4626,4626,4626,4626,4626,4626,4626,4626,4626,4626,
2960,2960,2960,4626,4626,4626,4626,4626,4626,4626,4626,4626,4626,4626,4626,2960,2960,2960,2960,2960,2960,2960,4626,4626,4626,4626,4626,4626,2960,2960,4626,4626,4626,4626,4626,4626,4626,4626,4626,4626,4626,4626,4626
</data>
 </layer>
 <layer name="Layer 2" width="43" height="38">
  <data encoding="csv">
4627,4905,4766,4766,4766,4767,4905,4766,4766,4766,4766,4766,4766,4766,4766,4766,4767,4627,4627,4905,4767,4905,4766,4766,4766,4906,4905,4767,4627,0,0,2260,2262,0,0,4625,4765,4906,4765,4766,4766,4766,4906,
4627,4627,3087,4905,4766,4766,4767,0,0,0,4905,4766,4766,4766,4766,4766,4906,4627,4627,4627,4905,4767,0,0,0,4765,4767,4905,4767,0,0,2260,2262,0,0,4765,4906,4625,4626,4905,4766,4906,4765,
4767,4627,4905,4767,0,0,4905,4766,4766,4766,4767,4905,4766,4766,4766,4906,4765,4767,4627,4627,4627,0,0,0,3087,0,0,4627,0,0,0,2260,2680,2122,0,0,4625,4625,4905,4767,3087,4765,4906,
0,4627,4627,3087,4905,4766,4767,4905,4766,4766,4766,4767,0,0,0,4765,4766,4766,4767,4627,4627,0,3087,5204,4905,4766,4766,4767,0,0,0,2400,2541,2680,2122,0,4625,4765,4767,4626,4626,5204,4625,
0,4627,4627,0,4627,4905,4766,4767,4905,4766,4766,4766,4766,4766,4766,4766,4906,0,4905,4767,4627,0,0,4905,4767,0,0,0,0,0,0,0,2400,2541,2262,0,4625,3087,4626,4626,4626,3087,4625,
4905,4767,4627,0,4627,4627,3087,4905,4767,4905,4766,4766,4766,4766,4766,4906,4765,4906,4627,4905,4767,0,0,4627,0,1932,1933,1934,0,0,0,0,0,2260,2262,0,4625,4626,4626,4626,3087,4485,5046,
4767,0,4627,0,4627,4627,4905,4767,4905,4767,0,0,3087,0,0,4765,4906,4765,4767,4627,0,0,0,4627,0,0,0,3087,4485,4486,4487,0,0,2260,2262,0,4765,4906,4626,4485,4486,5046,4485,
0,0,4627,0,4627,4627,4627,4905,4767,0,0,3087,0,0,0,0,4765,4906,0,4627,5204,0,4905,4767,0,0,0,4485,5046,4486,5045,4487,0,2260,2262,0,0,4625,4626,4625,4626,4485,5046,
3087,4905,4767,4905,4767,4627,4627,4627,5204,0,0,0,0,0,0,0,0,4765,4766,4767,0,0,4627,6987,6987,6987,0,4625,4765,4906,4627,4627,0,2260,2262,0,0,4625,4626,4625,4626,4625,4626,
0,4627,0,4627,0,4627,4627,4627,0,0,0,0,0,0,0,0,0,0,0,5204,0,0,4627,0,6987,6987,0,4765,4906,4625,4627,4627,0,2260,2262,0,0,4625,4626,4765,4906,4765,4906,
4905,4767,4905,4767,0,4627,4627,4627,0,0,0,4905,4766,4766,4766,4906,0,0,0,0,0,0,4627,0,0,6987,6987,0,4625,4765,4767,4627,0,2260,2680,2122,0,4765,4766,4906,4765,4906,4765,
4627,5204,4627,0,4905,4767,5045,5045,4487,0,0,4627,0,0,0,4765,4906,0,0,0,4905,4766,4767,6987,6987,6987,6987,0,4625,5204,0,4627,0,2400,2541,2680,2122,0,0,4765,4906,4625,4485,
4627,4905,4767,0,4627,0,0,4627,4627,0,0,4627,0,0,0,0,4765,4766,4766,4766,4767,0,0,0,6987,6987,6987,0,4625,0,0,5045,4487,0,2400,2541,2680,2122,0,0,4625,4625,4625,
4627,4627,0,0,4627,0,0,4627,4627,0,0,4627,0,0,0,0,0,0,0,0,0,0,0,6987,6987,6987,6987,6987,4625,0,3087,5204,4627,0,0,2400,2541,2262,0,0,4625,4625,4625,
4627,4627,3087,3087,4627,0,4905,4767,4627,0,0,5045,4487,0,6987,0,0,6987,6987,0,0,21249,0,6987,0,6987,0,6987,4765,4906,4485,4486,5045,4487,0,0,2260,2262,0,0,4625,4625,4625,
4627,4627,0,4905,4767,4905,4767,4905,4767,0,0,0,4627,0,6987,6987,0,6987,6987,0,0,0,6987,6987,0,0,6987,6987,6987,4625,4625,0,5045,5045,4487,0,2260,2262,0,0,4625,4625,4625,
4627,4627,3087,4627,0,4627,4905,4767,0,0,3087,4905,4767,0,6987,6987,6987,6987,6987,6987,0,0,6987,6987,6987,6987,6987,6987,4485,5046,5046,0,0,4627,4627,2120,2681,2262,0,4485,5046,4625,4765,
4767,4627,0,4627,0,4627,4627,0,0,4905,4766,4767,6987,6987,6987,6987,0,0,6987,6987,6987,6987,6987,6987,6987,6987,6987,0,4625,4625,0,0,0,0,4627,2260,2261,2262,0,4625,4485,5046,4485,
0,4627,0,4627,0,4627,4627,0,4905,4767,6987,6987,6987,6987,6987,6987,6987,6987,6987,0,6987,0,6987,6987,6987,0,6987,6987,4625,4625,0,0,0,0,4627,2260,2261,2680,2122,4625,4625,4485,5046,
0,4627,4905,4767,0,4627,4627,4905,4767,0,6987,0,6987,6987,0,0,6987,0,6987,6987,0,0,6987,6987,0,0,4485,4486,5046,5046,5204,0,0,0,4627,2400,2541,2261,2262,4625,4625,4625,4626,
3087,4627,4627,3087,4905,4767,4627,4627,0,6987,6987,0,2120,2121,2121,2121,2121,2121,2121,2121,2121,2121,2122,0,0,0,4765,4906,4765,0,0,0,0,0,4627,0,2260,2540,2402,4625,4625,4625,4626,
0,4627,4627,3087,4627,4905,4767,4627,0,6987,0,2120,2681,2540,2401,2401,2401,2401,2401,2401,2401,2541,2680,2122,0,0,0,4765,4766,4906,0,0,0,4905,4767,0,2260,2262,0,4625,4625,4625,4626,
4905,4767,4627,4905,4767,4627,4905,4767,0,0,2120,2681,2540,2402,0,0,0,0,0,0,0,2400,2541,2680,2122,0,3087,0,0,4765,4766,0,4766,4767,0,0,2260,2262,0,4625,4625,4625,3087,
4627,0,4627,4627,4905,4767,4627,0,0,0,2260,2540,2402,0,0,0,6987,0,393,394,395,0,2400,2541,2680,2121,2121,2122,3087,0,0,0,0,0,0,2120,2681,2262,0,4625,4625,4625,4626,
4767,3087,4627,4627,4627,4905,4767,0,0,0,2260,2262,0,0,0,6987,4485,4486,533,534,535,4486,4487,2400,2401,2401,2541,2680,2122,0,0,0,0,2120,2121,2681,2540,2402,4485,5046,4625,4625,4626,
5204,4905,4767,4627,4627,4627,0,0,0,0,2260,2262,0,0,6987,6987,4625,0,5045,4486,5046,0,4627,0,0,0,2400,2541,2680,2121,2121,2121,2121,2681,2540,2401,2402,0,4625,4485,5046,4625,4626,
0,4627,0,4627,4627,4627,0,0,0,0,2260,2262,0,6987,6987,0,4625,4625,0,4485,4487,0,5045,4487,0,0,0,2400,2401,2401,2401,2401,2401,2401,2402,0,0,4485,5046,4625,4485,5046,4626,
4766,4767,3087,4627,4627,5045,4487,0,0,0,2260,2262,0,6987,6987,3087,4625,4625,0,4765,4767,4905,4767,4627,0,3087,0,0,0,0,0,0,0,0,0,0,0,4625,4485,5046,4625,4626,4626,
0,4905,4766,4767,4627,5204,4627,0,0,0,2260,2262,0,6987,6987,4485,5046,4625,0,0,4905,4767,4905,4767,3087,3087,0,4905,4766,4766,4906,0,0,4905,4766,4906,0,4625,4625,4485,5046,4626,4485,
4905,4767,4905,4766,4767,4905,4767,0,0,2120,2681,2262,0,6987,3087,4625,0,4765,4766,4906,4627,4905,4767,0,4905,4766,4766,4767,0,7272,4765,4906,0,4627,0,4625,0,4625,4625,4625,3087,4485,5046,
4767,4905,4767,4905,4766,4767,0,0,2120,2681,2540,2402,6987,6987,4485,5046,0,0,0,4765,4767,4627,0,0,4627,7272,0,0,0,8249,8250,4765,4766,4767,7262,4625,0,4625,4625,4625,4626,4625,3087,
4766,4767,4905,4767,0,0,0,2120,2681,2540,2402,0,0,0,4765,4766,4766,4906,0,4905,4766,4767,0,4905,4767,0,8249,8250,0,8389,8390,0,0,0,4485,5046,6987,4625,4625,4625,4626,4625,4626,
4766,4766,4767,0,0,2120,2121,2681,2540,2402,0,0,0,6280,6281,6282,0,4765,4766,4767,0,0,0,4627,0,0,8389,8390,4485,4486,4486,4487,0,4485,5046,0,4485,5046,4625,4625,4626,4625,4626,
2121,2121,2121,2121,2121,2681,2540,2401,2402,0,0,399,400,401,0,6289,6290,6291,0,6280,6281,6282,0,4627,0,0,0,4485,5046,0,0,5045,4486,5046,0,6987,4625,4485,5046,4625,4626,4625,4626,
2401,2401,2401,2401,2401,2401,2402,0,0,6280,6281,6282,0,399,400,401,0,399,400,401,0,0,0,5045,4486,4486,4486,5046,0,0,3087,0,0,0,0,4485,5046,4625,3087,4625,4626,4765,4906,
0,0,0,0,0,4485,4486,4486,4487,0,3087,6289,6290,539,540,541,6281,6282,0,399,400,401,0,0,0,0,0,0,0,3087,4485,4486,4486,4486,4486,5046,4485,5046,3087,4625,4626,4626,4625,
0,0,4485,4486,4486,5046,4626,4486,4486,4486,4486,4486,4486,4486,4486,4487,3087,6286,6287,539,540,541,4486,4486,4486,4486,4486,4486,4486,4486,5046,4485,4486,4486,4486,4486,5046,5204,4485,5046,4626,4485,5046,
4486,4486,5046,4486,4486,5046,4626,4626,4626,5045,4486,4486,4486,4486,4487,5045,4486,4486,4486,4486,4486,5046,5204,4485,4486,4486,4486,4487,4626,4626,4485,5046,4626,4626,4626,4626,4485,4486,5046,4626,4485,5046,4626
</data>
 </layer>
 <layer name="Layer 3" width="43" height="38">
  <data encoding="csv">
0,0,0,0,0,0,0,0,0,0,0,0,0,0,0,0,0,0,0,0,0,1520,1521,1522,1523,0,0,0,0,0,0,0,0,0,0,0,0,0,0,0,0,0,0,
0,0,0,0,0,0,0,0,0,0,0,0,0,0,0,0,0,0,0,0,0,1660,1661,1662,1663,1372,1373,1374,1375,0,0,0,0,0,0,0,0,0,0,0,0,0,0,
0,0,0,0,0,0,0,0,0,0,0,0,0,0,0,0,0,0,0,0,0,1800,1801,1802,1803,1512,1513,1514,1515,0,0,0,0,0,0,0,0,0,0,0,0,0,0,
0,0,0,0,0,0,0,0,0,1380,1381,1382,1383,0,0,0,0,0,0,0,0,1940,1941,1942,1943,1652,1653,1654,1655,0,0,0,0,0,0,0,0,0,0,0,0,0,0,
0,0,0,0,0,0,0,0,0,1520,1521,1522,1523,0,7142,0,0,0,0,0,0,0,0,0,0,1792,1793,1794,1795,0,0,0,0,0,0,0,0,0,0,0,0,0,0,
0,0,0,0,0,0,0,0,0,1660,1661,1662,1663,0,7282,0,0,0,0,0,0,0,0,0,6183,6184,0,6183,6184,0,0,0,0,0,0,0,0,0,0,0,0,0,0,
0,0,0,0,0,0,0,0,0,1800,1801,1802,1803,0,7422,0,0,0,0,0,0,0,0,0,0,6183,6184,0,0,5204,0,0,0,0,0,0,0,0,0,0,0,0,0,
0,0,0,0,0,0,0,0,0,1940,1941,1942,1943,0,0,0,0,0,0,0,0,0,0,0,0,0,0,0,4485,0,4487,0,0,0,0,0,0,21413,0,0,0,0,0,
0,0,0,0,0,0,0,0,0,0,0,0,0,0,0,0,0,0,0,0,0,0,0,0,0,0,0,0,0,0,0,0,0,0,0,0,0,21421,0,0,0,0,0,
0,0,0,0,0,0,0,0,0,0,0,0,0,0,0,0,0,0,0,0,0,0,0,0,0,0,0,0,0,0,0,0,0,0,0,0,0,21429,0,0,0,0,0,
0,1384,1385,1386,1387,0,0,0,0,0,0,0,21380,21381,21382,0,0,0,0,0,0,0,0,0,0,0,0,0,0,0,0,0,0,0,0,0,0,21437,0,0,0,0,0,
0,1524,1525,1526,1527,0,0,4487,0,0,0,0,0,0,0,0,0,0,0,0,0,0,0,0,0,0,0,0,0,0,0,0,0,0,0,0,0,0,0,0,0,0,0,
0,1664,1665,1666,1667,0,0,0,0,0,0,0,0,0,0,0,0,0,0,0,0,0,0,0,0,0,0,0,0,0,21460,0,0,0,0,0,0,0,0,0,0,0,0,
0,1804,1805,1806,1807,0,0,1380,1381,1382,1383,0,0,0,0,0,0,0,0,634,635,636,637,0,0,0,0,0,0,0,0,0,0,0,0,0,0,0,0,0,0,0,0,
0,1944,1945,1946,1947,0,0,1520,1521,1522,1523,0,0,0,0,0,0,0,0,774,775,776,777,0,0,0,0,0,0,0,0,0,4487,0,0,0,0,0,0,0,0,0,0,
0,0,0,0,0,0,0,1660,1661,1662,1663,0,0,0,0,0,0,0,0,914,915,916,917,0,0,0,0,0,0,0,0,0,0,4487,0,0,0,0,0,0,0,0,0,
0,0,0,0,0,0,0,1800,1801,1802,1803,0,0,0,0,0,0,0,0,1054,1055,1056,1057,0,0,0,0,0,0,4485,0,6183,6184,0,0,0,0,0,0,0,0,0,0,
0,0,0,0,0,0,0,1940,1941,1942,1943,0,0,0,0,0,0,0,0,1194,1195,1196,1197,0,0,0,0,0,0,0,6183,6184,0,4627,0,0,0,0,0,0,0,0,0,
0,0,0,0,0,0,0,0,0,0,0,0,0,0,0,0,0,0,0,0,0,0,0,0,1376,1377,1378,1379,0,0,21460,6183,6184,4627,0,0,0,0,0,0,0,1380,1381,
0,0,0,0,0,0,0,0,0,0,0,0,0,0,0,0,0,0,0,0,0,0,0,0,1516,1517,1518,1519,4485,0,0,0,0,4627,0,0,0,0,0,0,0,1520,1521,
0,0,0,0,0,0,0,0,0,0,0,0,0,0,0,0,0,0,0,0,0,0,0,0,1656,1657,1658,1659,0,4766,4906,0,4905,4767,0,0,0,0,0,0,0,1660,1661,
0,0,0,0,0,0,0,0,0,0,0,0,0,0,0,0,0,0,0,0,0,0,0,0,1796,1797,1798,1799,0,0,4765,4766,4767,0,0,0,0,0,0,0,0,1800,1801,
0,0,0,0,0,0,0,0,0,0,0,0,0,0,0,0,0,252,253,254,255,0,0,0,1936,1937,1938,1939,0,0,0,0,0,0,0,0,0,0,0,0,0,1940,1941,
0,0,0,0,0,1372,1373,1374,1375,0,0,0,0,0,0,0,0,0,0,0,0,0,0,1372,1373,1374,1375,0,0,0,0,0,0,0,0,0,0,0,0,0,0,1380,1381,
0,0,0,0,0,1512,1513,1514,1515,0,0,0,0,0,0,0,0,0,4487,0,4485,0,0,1512,1513,1514,1515,0,0,0,0,0,0,0,0,0,0,0,0,0,0,1520,1521,
0,0,0,0,0,1652,1653,1654,1655,0,0,0,0,0,0,0,0,4485,4486,0,4486,4487,0,1652,1653,1654,1655,0,0,0,0,0,0,0,0,0,0,0,0,0,0,1660,1661,
0,0,0,0,0,1792,1793,1794,1795,0,0,0,0,0,0,0,0,0,0,0,0,5045,4487,1792,1793,1794,1795,0,0,0,0,0,0,0,0,0,0,0,0,0,0,1800,1801,
0,0,0,0,0,1932,1933,1934,1935,0,0,0,0,0,0,0,0,0,0,0,0,0,0,1932,1933,1934,1935,0,0,0,0,0,0,0,0,0,0,0,0,0,0,1940,1941,
0,0,0,0,0,0,0,0,0,0,0,0,0,0,0,0,0,0,0,0,0,0,0,0,0,0,0,5445,5446,5446,5447,0,0,5445,5446,5447,0,0,0,0,0,0,0,
0,0,0,0,0,0,0,0,0,0,0,0,0,0,0,0,0,0,0,0,0,0,0,0,5445,5446,5446,5588,5586,5586,5589,5447,0,5585,5586,5587,0,0,0,0,0,0,0,
0,0,0,0,0,0,0,0,0,0,0,0,0,0,0,0,0,0,0,0,0,0,0,0,5585,5586,5586,5586,5448,5586,5586,5589,5446,5588,5586,5587,0,0,0,0,0,0,0,
0,0,0,0,0,0,0,0,0,0,0,0,0,6140,6141,6142,0,0,0,0,0,0,0,5445,5588,5586,5586,5586,5586,5586,5586,5586,5586,5586,5729,5727,0,0,0,0,0,0,0,
0,0,0,0,0,0,0,0,0,0,0,259,260,261,0,6149,6150,6151,0,6140,6141,6142,0,5585,5586,5448,5586,5586,5729,5726,5726,5728,5586,5729,5727,0,0,0,0,1376,1377,1378,1379,
0,0,0,0,0,0,0,0,0,6140,6141,6142,0,259,260,261,0,259,260,261,0,0,0,5585,5586,5586,5586,5729,5727,0,0,5725,5726,5727,0,0,0,0,0,1516,1517,1518,1519,
0,0,0,0,0,0,0,0,0,0,0,6149,6150,6151,0,6140,6141,6142,0,259,260,261,0,5725,5726,5726,5726,5727,0,0,0,0,1384,1385,1386,1387,0,0,0,1656,1657,1658,1659,
0,0,0,0,0,0,0,1384,1385,1386,1387,0,0,6291,0,6280,0,6146,6147,6148,0,0,0,0,0,0,0,0,0,0,0,0,1524,1525,1526,1527,0,0,0,1796,1797,1798,1799,
0,0,0,0,0,4485,4486,1524,1525,1526,1527,0,0,0,0,0,0,0,0,6288,0,0,0,0,0,0,0,0,0,0,0,0,1664,1665,1666,1667,0,0,0,1936,1937,1938,1939,
0,0,4485,0,5204,0,0,1664,1665,1666,1667,0,0,0,0,0,0,0,0,0,0,0,0,0,0,0,0,0,0,0,0,0,1804,1805,1806,1807,0,0,0,0,0,0,0
</data>
 </layer>
 <layer name="Top layer " width="43" height="38">
  <data encoding="csv">
0,0,0,1524,1525,1526,1527,0,0,0,0,0,0,0,0,0,0,0,0,0,0,0,0,0,0,0,0,0,0,0,0,0,0,0,0,0,0,0,0,0,0,0,0,
0,0,0,1664,1665,1666,1667,0,0,0,0,0,0,0,0,0,0,0,0,0,0,0,0,0,0,0,0,0,0,0,0,0,0,0,0,0,0,0,5204,0,0,0,0,
0,0,0,1804,1805,1806,1807,0,0,0,0,0,0,0,0,0,0,0,0,0,0,0,0,0,0,0,0,0,0,0,0,0,0,0,0,0,0,0,0,0,0,0,0,
5204,0,0,1944,1945,1946,1947,0,0,0,0,0,0,0,0,0,0,0,0,0,0,0,0,0,0,0,0,0,0,0,0,0,0,0,0,0,0,0,0,0,0,0,0,
1377,1378,1379,0,0,0,0,0,0,0,0,0,0,0,0,0,0,0,0,0,0,0,0,0,6043,6044,0,6043,6044,0,0,0,0,0,0,0,0,0,0,0,0,0,0,
1517,1518,1519,0,0,0,0,0,0,0,0,0,0,0,0,0,0,0,0,0,0,0,0,0,0,6043,6044,0,0,0,0,0,0,0,0,0,0,0,0,0,0,0,0,
1657,1658,1659,0,0,0,0,0,0,0,0,0,0,0,0,0,0,0,0,0,0,0,0,0,0,0,0,0,0,0,0,0,0,0,0,0,0,0,0,0,0,0,0,
1797,1798,1799,0,0,0,0,0,0,0,0,0,0,0,0,0,0,0,0,0,0,0,0,0,0,0,0,0,0,0,0,0,0,0,0,0,0,0,0,0,0,0,0,
1937,1938,1939,0,0,0,0,0,0,0,0,0,0,0,0,0,0,0,0,0,0,0,0,0,0,0,0,0,0,0,0,0,0,0,0,0,0,0,0,0,0,0,0,
0,0,0,0,0,0,0,0,0,0,0,0,0,0,0,0,0,0,0,0,0,0,0,0,0,0,0,0,0,0,0,0,0,0,0,0,0,0,0,0,0,0,0,
0,0,0,0,0,0,0,0,0,0,0,0,0,0,0,0,0,0,0,0,0,0,0,0,0,0,0,0,0,0,0,0,0,0,0,0,0,0,0,0,0,0,0,
0,0,0,0,0,0,0,0,0,0,0,0,0,0,0,0,0,0,0,0,0,0,0,0,0,0,0,0,0,0,0,0,0,0,0,0,0,0,0,0,0,0,0,
0,0,0,0,0,0,0,0,0,0,0,0,0,0,0,0,0,0,0,0,0,0,0,0,0,0,0,0,0,0,0,0,0,0,0,0,0,0,0,0,0,0,0,
0,0,0,0,0,0,0,0,0,0,0,0,0,0,0,0,0,0,0,650,651,652,653,0,0,0,0,0,0,0,0,0,0,0,0,0,0,0,0,0,0,0,0,
0,0,0,0,0,0,1384,1385,1386,1387,0,0,0,0,0,0,0,0,0,790,791,792,793,0,0,0,0,0,0,0,0,0,0,0,0,0,0,0,0,0,0,0,0,
0,0,0,0,0,0,1524,1525,1526,1527,0,0,0,0,0,0,0,0,0,930,931,932,933,0,0,0,0,0,0,0,0,6043,6044,0,0,0,0,0,0,0,0,0,0,
1378,1379,0,0,0,0,1664,1665,1666,1667,0,0,0,0,0,0,0,0,0,1070,1071,1072,1073,0,0,0,0,0,0,0,6043,6044,0,0,0,0,0,0,0,0,5204,0,0,
1518,1519,0,0,0,0,1804,1805,1806,1807,0,0,0,0,0,0,0,0,0,0,0,0,0,0,0,0,0,0,0,0,0,6043,6044,0,0,0,0,0,0,0,0,0,0,
1658,1659,0,0,0,0,1944,1945,1946,1947,0,0,0,0,0,0,0,0,0,0,0,0,0,0,0,0,0,0,0,0,0,0,0,0,0,0,0,0,0,0,0,0,0,
1798,1799,0,0,0,0,0,0,0,0,0,0,0,0,0,0,0,0,0,0,0,0,0,0,0,0,1384,1385,1386,1387,0,0,0,0,0,0,0,0,0,0,0,0,0,
1938,1939,0,0,0,0,0,0,0,0,0,0,0,0,0,0,0,0,0,0,0,0,0,0,0,0,1524,1525,1526,1527,5610,5611,5612,0,0,0,0,0,0,0,0,0,0,
0,0,0,0,0,0,0,0,0,0,0,0,0,0,0,0,0,0,113,114,115,0,0,0,0,0,1664,1665,1666,1667,5750,5751,5752,0,0,0,0,0,0,0,0,0,0,
0,0,0,0,0,0,0,0,0,0,0,0,0,0,0,0,0,0,0,0,0,0,0,0,0,0,1804,1805,1806,1807,5890,5891,5892,0,0,0,0,0,0,0,0,0,0,
0,0,0,0,0,0,0,0,0,0,0,0,0,0,0,0,0,0,0,0,0,0,0,0,0,0,1944,1945,1946,1947,0,0,0,0,0,0,0,0,0,0,0,0,0,
0,0,0,0,0,0,0,0,0,0,0,0,0,0,0,0,0,0,0,0,0,0,0,0,0,672,673,674,675,0,0,0,0,0,0,0,0,0,0,0,1372,1373,1374,
1378,1379,0,0,0,0,1380,1381,1382,1383,0,0,0,0,0,0,0,0,0,0,0,0,0,0,0,812,813,814,815,0,0,0,0,0,0,0,0,0,0,0,1512,1513,1514,
1518,1519,0,0,0,0,1520,1521,1522,1523,0,0,0,0,0,0,0,0,0,0,0,0,0,0,0,952,953,954,955,0,0,0,0,0,0,0,0,0,0,0,1652,1653,1654,
1658,1659,0,0,0,0,1660,1661,1662,1663,0,0,0,0,0,0,0,0,0,0,0,0,0,0,0,1092,1093,1094,1095,0,0,0,0,0,0,0,0,0,0,0,1792,1793,1794,
1798,1799,0,0,0,0,1800,1801,1802,1803,0,0,0,0,0,0,0,0,0,0,0,0,0,0,0,1232,1233,1234,1235,0,0,0,0,0,0,0,0,0,0,0,1932,1933,1934,
1938,1939,0,0,0,0,1940,1941,1942,1943,0,0,0,0,0,0,0,0,0,0,0,0,0,0,0,0,0,0,0,0,0,0,0,0,0,0,0,0,0,0,0,0,0,
0,0,0,0,0,0,0,0,0,0,0,0,0,6000,6001,6002,0,0,0,0,0,0,0,0,0,0,0,0,0,8111,8112,0,0,0,0,0,0,0,0,0,0,0,0,
0,0,0,0,0,0,0,0,0,0,0,119,120,121,0,6000,6001,6002,0,6000,6001,6002,0,0,0,0,8111,8112,0,8251,8252,0,0,0,0,0,0,0,0,0,0,0,0,
0,0,0,0,0,0,0,0,0,6000,6001,6002,0,119,120,121,0,119,120,121,0,0,0,0,0,0,8251,8252,0,0,0,0,0,0,0,0,0,0,0,0,0,0,0,
0,0,0,0,0,0,0,0,0,0,0,6000,6001,6002,0,6000,6001,6002,0,119,120,121,0,0,0,0,0,0,0,0,0,0,0,0,0,0,0,0,0,0,0,0,0,
0,0,0,0,0,0,0,0,0,0,0,0,0,0,0,0,0,6000,6001,6002,0,0,0,0,0,0,0,0,0,0,0,0,0,0,0,0,0,0,0,0,0,0,0,
0,0,0,0,0,0,0,0,0,0,0,0,0,0,0,0,0,0,0,0,0,0,0,0,0,0,0,0,0,0,0,0,0,0,0,0,0,0,0,0,0,0,0,
0,0,0,0,1376,1377,1378,1379,0,0,0,0,0,0,0,0,0,0,0,0,0,4485,0,0,0,0,0,0,0,0,1376,1377,1378,1379,0,0,0,0,0,0,0,0,0,
0,0,0,0,1516,1517,1518,1519,0,0,0,0,0,0,0,0,0,0,0,0,0,0,0,0,0,0,0,0,0,0,1516,1517,1518,1519,0,0,0,0,0,0,0,0,0
</data>
 </layer>
</map>
