<?xml version="1.0" encoding="UTF-8"?>
<map version="1.0" orientation="orthogonal" renderorder="right-down" width="55" height="47" tilewidth="32" tileheight="32" nextobjectid="1">
 <tileset firstgid="1" name="tile group" tilewidth="32" tileheight="32" tilecount="21000" columns="140">
  <image source="Tiles/tile group.png" width="4480" height="4800"/>
 </tileset>
 <tileset firstgid="21001" name="4" tilewidth="32" tileheight="32" tilecount="256" columns="8">
  <image source="Tiles/4.png" width="256" height="1024"/>
 </tileset>
 <tileset firstgid="21257" name="3" tilewidth="32" tileheight="32" tilecount="256" columns="8">
  <image source="Tiles/3.png" width="256" height="1024"/>
 </tileset>
 <tileset firstgid="21513" name="the_public_pokemon_tileset_by_thatssowitty-d4ni56y" tilewidth="32" tileheight="32" tilecount="7000" columns="8">
  <image source="Tiles/the_public_pokemon_tileset_by_thatssowitty-d4ni56y.png" width="256" height="28000"/>
 </tileset>
 <tileset firstgid="28513" name="new tilesert2" tilewidth="32" tileheight="32" tilecount="3744" columns="8">
  <image source="Tiles/new tilesert2.png" width="256" height="14976"/>
 </tileset>
 <tileset firstgid="32257" name="1" tilewidth="32" tileheight="32" tilecount="256" columns="8">
  <image source="Tiles/1.png" width="256" height="1024"/>
 </tileset>
 <layer name="Layer 1" width="55" height="47">
  <data encoding="csv">
4635,4635,4635,4635,4635,4635,4635,4635,4635,4635,4635,4635,2242,2244,4635,4635,4635,4635,4635,4635,4635,4635,4635,4635,4635,4635,4635,4635,4635,4635,4635,4635,4635,4635,4635,4635,4635,4635,4635,21010,21010,21010,21010,3224,4635,4635,4635,4635,4635,4635,4635,4635,4635,4635,4635,
4635,4635,4635,4635,4635,4635,4635,4635,4635,4635,4635,4635,2242,2244,4635,4635,4635,4635,4635,4635,4635,4635,4635,4635,4635,4635,4635,4635,4635,4635,4635,4635,4635,4635,4635,3224,4635,4635,21010,21010,21010,21010,21010,3224,4635,4635,4635,4635,4635,4635,4635,4635,4635,4635,4635,
4635,4635,4635,4635,4635,4635,3224,4635,4635,4635,4635,4635,2382,2384,4635,4635,4635,4635,4635,4635,4635,4635,4635,4635,4635,4635,4635,4635,4635,4635,4635,4635,4635,4635,3224,4635,4635,21010,21010,21010,21010,21010,4635,3224,4635,4635,4635,4635,4635,4635,4635,4635,4635,4635,4635,
4635,4635,4635,4635,4635,4635,3224,4635,4635,4635,2102,2104,4635,4635,4635,4635,4635,4635,4635,4635,4635,4635,4635,4635,4635,4635,4635,4635,4635,4635,4635,4635,4635,4635,3224,4635,4635,21010,21010,21010,21010,4635,4635,4635,4635,4635,4635,4635,4635,3224,3224,3224,4635,4635,4635,
4635,4635,4635,4635,4635,4635,3224,4635,4635,4635,2382,2384,4635,4635,4635,4635,4635,4635,4635,4635,4635,4635,4635,4635,4635,4635,4635,4635,4635,4635,4635,4635,4635,4635,4635,4635,4635,4635,4635,4635,4635,4635,4635,4635,4635,4635,4635,4635,4635,4635,4635,4635,4635,4635,4635,
4635,4635,4635,4635,4635,4635,3224,4635,4635,4635,4635,4635,4635,4635,4635,4635,4635,4635,4635,4635,4635,4635,4635,4635,4635,4635,4635,4635,4635,4635,4635,4635,4635,4635,4635,4635,4635,4635,4635,4635,4635,4635,4635,4635,4635,3224,3224,3224,4635,4635,4635,4635,4635,4635,4635,
4635,4635,4635,4635,4635,4635,4635,4635,3224,4635,4635,4635,4635,4635,4635,4635,4635,4635,4635,4635,4635,4635,4635,4635,4635,4635,4635,4635,4635,4635,4635,4635,4635,4635,4635,4635,21010,21010,21010,21010,21010,4635,4635,4635,4635,4635,4635,4635,4635,4635,4635,4635,4635,4635,4635,
4635,4635,4635,4635,4635,4635,3224,4635,4635,4635,4635,4635,4635,4635,4635,4635,4635,4635,4635,4635,4635,4635,4635,4635,4635,4635,4635,4635,4635,4635,4635,4635,4635,4635,4635,4635,21010,21010,21010,21010,21010,21010,4635,4635,4635,4635,4635,4635,4635,4635,4635,4635,4635,4635,4635,
4635,4635,4635,4635,4635,4635,4635,4635,4635,3224,4635,4635,4635,4635,4635,4635,4635,4635,4635,4635,4635,4635,4635,4635,4635,4635,4635,4635,4635,4635,4635,4635,4635,4635,4635,4635,4635,21010,21010,21010,21010,21010,4635,4635,4635,4635,4635,4635,4635,4635,4635,4635,4635,4635,4635,
4635,4635,4635,4635,4635,4635,4635,4635,4635,4635,3224,4635,4635,4635,4635,4635,4635,4635,4635,4635,4635,4635,4635,4635,4635,4635,4635,4635,4635,4635,4635,4635,4635,4635,4635,4635,4635,4635,21010,21010,21010,21010,4635,4635,4635,4635,4635,4635,4635,4635,4635,4635,4635,4635,4635,
4635,4635,4635,4635,4635,4635,4635,4635,4635,4635,4635,2102,2104,4635,4635,4635,4635,4635,4635,4635,4635,4635,4635,4635,4635,4635,4635,4635,4635,4635,4635,4635,4635,4635,3224,4635,4635,4635,4635,4635,4635,4635,4635,4635,4635,4635,3224,4635,21010,21010,4635,4635,4635,4635,3224,
4635,4635,4635,4635,4635,4635,4635,4635,4635,4635,2102,2663,2384,4635,4635,4635,4635,4635,4635,4635,4635,4635,4635,4635,4635,4635,4635,4635,4635,4635,4635,4635,21010,21010,4635,4635,4635,4635,4635,4635,4635,4635,4635,4635,3224,3224,4635,21010,21010,21010,21010,4635,4635,4635,3224,
4635,4635,4635,4635,4635,4635,4635,4635,4635,4635,2382,2384,4635,4635,4635,4635,4635,4635,4635,4635,4635,4635,4635,4635,4635,4635,4635,4635,4635,4635,4635,21010,21010,21010,4635,3224,21010,21010,21010,21010,21010,21010,21010,21010,21010,21010,21010,21010,21010,21010,21010,21010,21010,4635,3224,
4635,4635,4635,4635,4635,4635,4635,4635,4635,4635,4635,4635,4635,4635,4635,4635,4635,4635,4635,4635,4635,4635,4635,4635,4635,4635,4635,4635,4635,4635,21010,21010,21010,21010,21010,21010,21010,21010,21010,21010,21010,21010,21010,21010,21010,21010,21010,21010,21010,21010,21010,21010,21010,21010,3224,
4635,4635,4635,4635,4635,4635,4635,4635,4635,4635,3224,4635,4635,4635,4635,4635,4635,4635,3224,3224,4635,4635,4635,4635,4635,4635,4635,4635,4635,21010,21010,21010,21010,21010,21010,21010,21010,21010,21010,21010,21010,21010,21010,21010,21010,21010,21010,21010,21314,21314,21010,21010,21010,21010,4635,
4635,4635,4635,4635,4635,4635,4635,4635,4635,4635,4635,3224,4635,4635,4635,4635,4635,4635,4635,4635,4635,3224,4635,4635,4635,4635,4635,4635,4635,21010,21010,21010,21010,21010,21010,21010,21010,21314,21314,21010,21010,21010,21010,21010,21010,21010,21314,21314,21314,21314,21314,21010,21010,21010,4635,
4635,4635,4635,4635,4635,4635,4635,4635,4635,4635,4635,4635,4635,4635,4635,4635,4635,4635,4635,4635,4635,4635,4635,4635,4635,4635,4635,4635,21010,21010,21010,21010,21010,21010,4769,21010,21010,21314,21314,21314,21010,4769,21010,21010,21010,21010,21314,21314,21314,21010,21010,21010,21010,21010,4635,
4635,4635,4635,4635,4635,4635,4635,4635,4635,4635,4635,4635,4635,4635,4635,4635,3224,4635,4635,4635,4635,4635,4635,4635,4635,4635,4635,3224,21010,21010,21010,21010,21314,21314,21314,21314,21314,21314,21314,21314,21314,21314,21010,21010,21010,21010,21010,21010,21010,21010,21010,21010,21010,21010,4635,
4635,4635,4635,4635,4635,4635,4635,4635,4635,4635,4635,4635,4635,4635,4635,4635,3224,3224,4635,4635,4635,4635,4635,4635,4635,4635,4635,21010,21010,21010,21010,21010,21314,21314,21314,21314,21314,21317,21314,21314,21314,21314,21314,21010,21010,21010,21010,21010,21010,21010,21010,21010,21010,21010,4635,
4635,4635,4635,4635,4635,4635,4635,4635,4635,4635,4635,4635,4635,4635,4635,4635,4635,3224,3224,4635,4635,4635,4635,4635,4635,3224,21010,21010,21010,21010,21010,21314,21314,21314,21314,21317,21317,21317,21317,21317,21314,21314,21314,21314,21010,21010,21010,21010,21010,21010,21010,21010,21010,4635,4635,
4635,4635,4635,4635,4635,4635,4635,4635,4635,4635,4635,4635,4635,4635,4635,4635,4635,4635,3224,4635,4635,4635,4635,4635,4635,4635,21010,21010,21010,21010,21314,21314,21314,21314,21317,21317,21317,21317,21317,21314,21314,21314,21314,21314,21010,21010,21010,21010,21010,21010,21010,4635,4635,4635,4635,
4635,4635,4635,4635,4635,4635,4635,4635,4635,4635,4635,4635,4635,4635,4635,4635,4635,4635,3224,4635,4635,4635,4635,4635,4635,3224,21010,21010,21010,21010,21314,21314,21314,21314,21314,21314,21314,21314,21317,21317,21314,21314,21010,21010,21010,21314,21010,21010,21010,21010,3224,4635,4635,4635,3224,
4635,4635,4635,4635,4635,4635,4635,4635,4635,4635,4635,4635,4635,4635,3224,4635,4635,4635,4635,4635,4635,4635,4635,4635,4635,3224,21010,21010,21010,21010,21010,21314,21314,21314,21314,21314,21314,21314,21314,21314,21314,21314,21010,21010,21010,21314,21010,21010,21010,21010,4635,4635,3224,3224,4635,
4635,4635,4635,4635,4635,4635,4635,4635,4635,4635,4635,4635,4635,4635,2118,2119,2257,2258,4635,4635,4635,4635,4635,4635,4635,4635,21010,21010,21010,21010,21010,21010,21010,21010,21010,21010,21010,21010,21010,21010,21314,21314,21010,21010,21010,21314,21010,21010,21010,21010,4635,4635,4635,4635,4635,
4635,4635,4635,4635,4635,4635,4635,4635,4635,4635,4635,4635,4635,2257,2258,2259,2397,2398,4635,4635,4635,4635,4635,4635,4635,4635,4635,21010,21010,21010,21010,21010,21010,21010,21010,21010,21010,21010,21010,21010,21010,21314,21314,21314,21314,21010,21010,21010,21010,21010,4635,4635,4635,4635,4635,
4635,4635,4635,4635,4635,4635,4635,4635,4635,4635,4635,4635,4635,2397,2398,2399,2117,2119,4635,4635,4635,4635,4635,4635,4635,4635,4635,21010,21010,21010,21010,21010,21010,21010,21010,21010,21010,21010,21010,21010,21010,21010,21010,21010,21010,21010,21010,21010,21010,21010,4635,4635,4635,4635,4635,
4635,4635,4635,4635,4635,4635,4635,4635,4635,4635,4635,2117,2117,2119,4635,2117,2678,2259,4635,4635,4635,4635,4635,4635,4635,4635,4635,4635,4635,21010,21010,21010,21010,21010,21010,21010,21010,21010,21010,21010,21010,21010,21010,21010,21010,21010,21010,21010,21010,4635,4635,4635,4635,4635,4635,
4635,4635,4635,4635,4635,4635,4635,4635,4635,4635,4635,2537,2538,2259,2117,2678,2537,2399,4635,4635,4635,4635,4635,4635,4635,4635,4635,4635,4635,4635,4635,4635,4635,4635,4635,4635,4635,4635,21010,21010,21010,21010,21010,21010,21010,21010,21010,21010,4635,4635,4635,4635,4635,4635,4635,
4635,4635,4635,4635,4635,4635,4635,4635,4635,4635,4635,4635,2257,2677,2678,2537,2399,2117,2118,4635,4635,3224,4635,4635,4635,4635,4635,3224,4635,2102,2104,4635,4635,4635,4635,4635,4635,4635,4635,4635,4635,21010,21010,21010,21010,21010,21010,4635,4635,4635,4635,4635,3224,4635,4635,
4635,4635,4635,4635,4635,4635,4635,4635,4635,4635,4635,4635,2397,2538,2537,2399,2117,2678,2258,4635,4635,4635,4635,4635,4635,4635,4635,4635,4635,2382,2662,2104,4635,4635,4635,4635,4635,4635,4635,4635,4635,21010,21010,21010,21010,21010,4635,4635,4635,4635,4635,3224,4635,4635,4635,
4635,4635,4635,4635,4635,4635,4635,4635,4635,4635,4635,4635,4635,2397,2399,4635,2257,2258,4635,4635,3224,4635,4635,4635,4635,4635,4635,4635,4635,2102,2663,2384,4635,4635,4635,4635,4635,4635,4635,4635,4635,4635,4635,4635,4635,4635,4635,4635,4635,4635,3224,4635,4635,4635,4635,
4635,4635,4635,4635,4635,4635,4635,4635,4635,4635,4635,4635,4635,4635,4635,4635,4635,2258,4635,4635,4635,4635,4635,4635,4635,4635,4635,4635,2102,2663,2384,4635,4635,4635,4635,4635,4635,4635,4635,4635,4635,4635,4635,4635,4635,4635,4635,4635,4635,4635,4635,4635,4635,4635,4635,
4635,4635,4635,4635,4635,4635,4635,4635,4635,4635,4635,4635,2118,2118,2118,4635,4635,4635,4635,3224,4635,4635,4635,4635,4635,4635,4635,4635,2382,2384,4635,4635,4635,4635,4635,4635,4635,4635,4635,4635,4635,4635,4635,4635,3224,4635,4635,4635,4635,4635,4635,4635,4635,4635,4635,
4635,4635,4635,4635,4635,4635,4635,4635,4635,4635,4635,4635,4635,4635,4635,2102,2104,4635,4635,3224,4635,4635,4635,4635,4635,4635,4635,4635,4635,4635,4635,4635,4635,4635,4635,4635,4635,4635,4635,4635,4635,4635,4635,3224,4635,4635,4629,4629,4629,4629,4629,4629,4635,4635,4635,
4635,4635,4635,4635,4635,4635,4635,4635,4635,4635,4635,4635,4635,4635,4635,2242,2244,4635,4635,4635,4635,4635,4635,4635,4635,4635,3224,4635,4635,4635,4635,4635,4635,4635,4635,4635,4635,4635,4635,4635,4635,4635,4635,4635,4635,4629,4629,4629,4629,4629,4629,4629,4635,4635,4635,
4635,4635,4635,4635,4635,4635,4635,4635,4635,4635,4635,4635,4635,4635,4635,2242,2244,4635,4635,4635,4635,4635,4635,4635,4635,3224,4635,4635,2102,2103,2103,2104,4635,4635,4635,4629,4629,4629,4635,4635,4635,4635,4635,4635,4629,4629,4629,4629,4629,4629,4629,4629,4629,4629,4635,
4635,4635,3224,3224,4635,4635,4635,4635,4635,4635,4635,4635,4635,4635,2102,2663,2244,4635,3224,3224,4635,4635,4635,4635,4635,2102,2103,2103,2663,2522,2383,2384,4629,4629,4629,4629,4629,4629,4629,4635,4635,4629,4629,4629,4629,4629,4629,4629,4629,4629,4629,4629,4629,4629,4635,
4635,4635,4635,4635,4635,4635,4635,4635,4635,4635,4635,4635,4635,4635,2242,2243,2662,2104,4635,3224,4635,4635,4635,4635,2102,2663,2243,2522,2383,2384,4629,4629,4629,4629,4629,4629,4629,4629,4629,4629,4629,4629,4629,4629,4629,4629,4629,4629,4629,4629,4629,4629,4629,4629,4635,
2383,2523,2243,2243,4635,3224,4635,4635,4635,4635,4635,4635,4635,4635,2382,2383,2523,2662,2103,2103,2103,2103,2103,2103,2522,2383,2383,2384,4629,4629,4629,4629,4629,4629,4629,4629,4629,4629,4629,4629,4629,4629,4629,4629,4629,4629,4629,4629,4629,4629,4629,4629,4629,4629,4629,
4635,2382,2383,2523,2243,4635,3224,4635,4635,4635,4635,4635,4635,4635,4635,4635,2382,2383,2383,2523,2243,2243,2522,2383,2384,4635,4635,4629,4629,4629,4629,4629,4629,4629,4629,4629,4629,4629,4629,4629,4629,4629,4629,4629,4629,4629,4629,4629,4629,4629,4629,4629,4629,4629,4629,
4635,4635,4635,2382,2523,2243,4635,4635,4635,4635,4635,4635,4635,4635,4635,4635,4635,4635,4635,2382,2383,2383,2384,4635,4635,4635,4635,4629,4629,4629,4629,4629,4629,4629,4629,4629,4629,4629,4629,4629,4629,4629,4629,4629,4629,4629,4629,4629,4629,4629,4629,4629,4629,4629,4629,
4635,4635,4635,3224,2242,2243,4635,4635,4635,4635,4635,4635,4635,2102,2103,2104,4635,4635,4635,4635,4635,4635,4635,4635,4635,4635,4635,4629,4629,4629,4629,4629,4629,4629,4629,4629,4629,4629,4629,4629,4629,4629,4629,4629,4629,4629,4629,4629,4629,4629,4629,4629,4629,4629,4629,
4635,4635,4635,4635,2382,2243,2243,4635,4635,4635,4635,4635,2102,2663,2383,2384,4635,4635,4635,4635,4635,4635,4635,4635,4635,4635,4635,4629,4629,4629,4629,4629,4629,4629,4629,4629,4629,4629,4629,4629,4629,4629,4629,4629,4629,4629,4629,4629,4629,4629,4629,4629,4629,4629,4629,
4635,4635,4635,4635,4635,2382,2243,2243,2243,4635,4635,2243,2243,2384,4635,4635,4635,4635,4635,4635,4635,4635,4635,4635,4635,4635,4635,4635,4635,4629,4629,4629,4629,4629,4629,4629,4629,4629,4629,4629,4629,4629,4629,4629,4629,4629,4629,4629,4629,4629,4629,4629,4629,4635,4635,
4635,4635,4635,4635,4635,3224,2382,2383,2383,2383,2383,2384,4635,4635,4635,4635,4635,4635,4635,4635,4635,4635,4635,4635,4635,4635,4635,4635,4635,4635,4635,3224,3224,4629,4629,4629,4629,4629,4629,4629,4629,4629,4629,4629,4629,4629,4629,4629,4629,4629,4635,4635,4635,4635,4635,
4635,4635,4635,4635,4635,4635,4635,4635,4635,4635,4635,4635,4635,4635,4635,4635,4635,4635,4635,4635,4635,4635,4635,4635,4635,4635,4635,4635,4635,4635,4635,4635,4635,4635,4635,4635,4635,4635,4635,4629,4629,4629,4629,4629,4629,4629,4629,4629,4635,4635,4635,4635,4635,4635,4635,
4635,4635,4635,4635,4635,4635,4635,4635,4635,4635,4635,4635,4635,4635,4635,4635,4635,4635,4635,4635,4635,4635,4635,4635,4635,4635,4635,4635,4635,4635,4635,4635,4635,4635,4635,4635,4635,4635,4635,4635,4635,4635,4629,4629,4635,4635,4635,4635,4635,4635,4635,4635,4635,4635,4635
</data>
 </layer>
 <layer name="Layer 2" width="55" height="47">
  <data encoding="csv">
0,357,358,359,357,358,359,8942,8667,0,0,3100,0,327,328,329,327,328,329,0,327,328,329,0,327,328,329,0,0,1390,8942,8667,310,311,309,310,311,0,0,21035,0,2958,21033,0,0,309,310,311,0,309,310,311,0,0,8804,
1564,1565,498,499,1564,1565,0,9082,8807,289,290,0,0,0,288,289,290,0,309,310,311,0,288,289,467,468,469,310,311,0,9082,8807,288,289,290,0,327,328,9359,21043,3924,21025,21032,1563,1564,1565,0,327,328,329,0,288,289,290,8804,
288,289,290,0,357,358,359,9363,8947,1563,1564,1565,0,0,0,0,357,358,359,0,1563,1564,1565,32263,32263,32263,32263,327,328,329,3093,8942,8943,8667,0,0,3100,9359,9781,3100,21025,21032,171,0,0,309,310,311,0,327,328,329,0,8666,8944,
359,0,327,328,329,0,0,8802,289,290,0,0,0,0,327,328,329,0,309,310,311,32263,32263,32263,32263,32263,32263,32263,32263,32263,0,9082,9083,8807,1563,1564,1565,21031,21026,21026,21032,0,311,288,289,290,0,1563,1564,464,465,466,358,8806,9084,
327,328,329,0,1563,1564,1565,8942,8943,8667,0,0,0,0,0,0,1563,1564,1565,2952,1390,0,0,0,0,32263,2952,32263,32263,32263,32263,3084,32263,8942,8667,8666,8943,8943,8943,8943,8943,8943,8667,328,329,327,328,329,0,8666,8943,8943,8943,8944,0,
1565,0,288,289,290,0,0,9082,9083,8807,3100,0,0,0,0,0,0,0,0,0,3100,21281,0,0,21283,0,0,32263,32263,32263,32263,2952,2952,9082,8807,8806,9083,9083,9083,9083,9083,9083,8807,465,1564,464,465,466,310,8804,9083,9083,9083,9084,0,
309,310,311,0,309,310,311,3084,0,8942,8943,8943,8667,0,0,0,0,32263,0,0,0,21289,0,0,21291,0,32263,0,32263,3100,32263,32263,32263,0,8942,8944,21023,21042,21042,21042,21024,3100,8942,8943,8943,8943,8943,8943,8943,8944,357,358,359,0,8666,
290,0,1563,1564,1565,0,0,0,1687,9082,9083,9083,8807,0,0,3093,32263,2952,32263,0,0,21297,0,0,0,0,0,32263,32263,32263,32263,0,0,32263,9082,9084,21031,21027,3100,2818,21041,21024,9082,9083,9083,9083,9083,9083,9083,9084,494,1390,496,289,8806,
288,289,290,0,288,289,290,0,0,0,0,0,8942,8943,8943,8943,8667,1390,32263,32263,0,0,32263,0,2952,32263,1390,32263,32263,0,32263,8666,8943,8943,8943,8943,8667,21031,21027,2958,3924,21033,0,3100,8666,8943,8943,8943,8943,8943,8943,8667,1390,8666,8944,
311,0,357,358,359,0,327,328,329,0,0,0,9082,9083,9083,9083,8807,0,32263,32263,32263,32263,32263,32263,32263,32263,32263,32263,32263,32263,0,8806,9083,9083,9083,9083,8807,1390,21031,21026,21026,21032,0,1390,8806,9083,9083,9083,9083,9083,9083,8807,3100,8806,9084,
1563,1564,1565,0,309,310,311,288,289,290,0,0,0,0,0,0,8942,8667,0,32263,32263,32263,32263,32263,32263,32263,32263,32263,8666,8943,8943,8944,0,0,0,1390,8942,8943,8943,8943,8943,8943,8943,8943,8944,0,0,1390,21023,21024,0,8942,8943,8944,0,
290,0,309,310,311,0,1563,1564,1565,3084,0,0,0,0,4629,0,9082,8807,357,358,359,32263,2952,32263,32263,32263,32263,1390,8806,9083,9083,9084,21023,21024,0,2819,9082,9083,9083,9083,9083,9083,9083,9083,9084,0,1390,21023,21043,21041,21024,9082,9083,9084,0,
327,328,329,0,288,289,290,288,289,290,0,0,0,0,4629,0,0,8942,8943,8943,8943,8943,8667,3093,32263,32263,32263,8666,8944,0,1251,21023,21043,21033,2819,0,21023,21042,21042,21042,21042,21042,21042,21042,21042,21042,21042,21043,0,0,21041,21042,21024,0,327,
329,0,1563,1564,1565,0,357,358,359,1251,0,1390,0,4629,4629,0,0,9082,9083,9083,9083,9083,8807,0,32263,32263,3084,8806,9084,1251,21023,21043,0,21041,21042,21042,21043,0,0,0,3100,3111,0,0,0,0,0,21305,21306,21306,21307,0,21041,9361,328,
288,289,290,0,309,310,311,288,289,290,0,0,0,0,0,0,0,0,0,309,310,311,8942,8943,8943,8943,8943,8944,1390,21023,21043,0,3100,0,2829,0,21305,21306,21306,21307,3100,0,3924,3924,0,21305,21306,21329,0,0,21330,21307,0,9501,310,
290,0,357,358,359,0,288,289,290,1251,0,0,0,0,0,0,0,0,1251,0,0,0,9082,9083,9083,9083,9083,9084,2819,21035,0,0,0,2829,0,0,21313,0,0,21330,21307,0,0,0,0,21313,2969,2970,0,3924,0,21315,0,9501,327,
309,310,311,0,1563,1564,1565,288,289,290,2819,0,0,0,0,0,1251,0,11883,327,328,329,2819,0,0,309,310,311,21023,21043,0,21305,21306,21306,2818,21306,21329,0,0,0,21330,2817,21307,0,0,21313,3109,3110,0,21338,21322,21323,0,9501,0,
311,0,288,289,290,0,327,328,329,0,0,0,0,0,0,0,0,0,1563,1564,1565,0,288,289,290,0,0,0,21035,0,0,21313,0,0,2958,0,21308,21309,21310,0,0,2957,21330,21307,0,21321,21322,21322,21322,21323,0,0,0,9501,1564,
1563,1564,1565,0,288,289,290,0,288,289,290,0,3084,0,0,0,0,0,0,357,358,359,0,0,357,358,359,21023,21043,0,21305,21329,5626,0,21308,21309,21345,5485,21346,21309,21310,5626,0,21330,21307,0,0,2829,0,0,0,0,9922,9641,309,
290,0,357,358,359,0,309,310,311,0,288,289,290,0,0,0,0,327,328,329,0,309,310,311,0,495,21023,21043,0,21305,21329,0,0,21308,21345,0,0,0,0,5486,21318,0,2969,2970,21315,0,0,0,0,0,9922,9640,9641,1563,1564,
327,328,329,0,327,328,329,0,1563,1564,1565,0,0,4914,4775,4775,4915,464,465,466,1564,1565,0,1563,1564,1565,21035,0,0,21313,2969,2970,0,21316,0,5486,0,0,0,21354,21326,0,3109,3110,21330,21306,21307,3100,0,9922,9641,1564,1565,0,309,
1565,0,309,310,311,0,288,289,290,0,327,328,329,4636,0,1390,4774,4915,288,289,290,288,289,290,0,0,21035,0,0,21313,3109,3110,0,21324,21325,21325,21325,21353,0,21346,21310,0,21338,21322,21337,0,21315,0,0,9501,0,0,327,328,329,
288,289,290,0,309,310,311,0,357,358,359,0,0,4636,0,0,0,4774,4915,309,310,311,0,309,310,311,21035,0,0,21321,21337,0,0,5626,0,0,0,21324,21325,21325,21326,0,21315,0,21313,0,21315,0,2818,9501,309,310,311,0,4914,
290,0,1563,1564,1565,0,288,289,290,0,288,289,4914,4776,4914,4775,4775,4915,4634,0,0,357,358,359,0,0,21031,21027,0,3100,21321,21322,21322,21322,21322,21322,21322,21322,21322,21337,0,3100,21330,21306,21329,0,21315,2818,2958,9501,0,1563,1564,4914,4776,
357,358,359,0,327,328,329,0,288,289,290,4914,4776,4914,4776,0,0,4634,4774,4915,289,290,0,327,328,329,3084,21035,0,0,0,0,2818,3924,0,3924,0,3924,2818,21321,21337,0,0,0,0,21338,21323,2958,0,9501,358,359,0,4636,0,
311,0,327,328,329,0,1563,1564,1565,0,4914,4776,4914,4776,0,0,0,4774,4915,4774,4915,1563,1564,1565,0,2819,0,21031,21031,21027,0,3100,2958,0,3924,3924,0,0,2958,0,21321,21322,21322,21322,21322,21323,0,0,9922,9641,0,327,328,4636,0,
288,289,290,0,357,358,359,0,0,0,4636,4914,4776,5203,3084,0,0,0,4634,0,4634,3084,0,1563,1564,1565,2952,2819,0,21031,21026,21026,21026,21026,21026,21026,21026,21026,21027,0,0,0,0,0,0,2829,3111,9922,9641,309,310,311,2819,4636,357,
290,0,1563,1564,1565,0,288,289,290,0,4636,4636,5203,0,0,0,0,0,4634,0,4634,309,310,311,0,0,0,3084,0,0,0,2952,0,0,0,0,0,2952,21031,9640,9640,9921,0,2829,0,0,9922,9641,1563,1564,1565,0,1390,4636,1564,
327,328,329,0,288,289,290,309,310,311,4636,4636,0,0,0,0,0,0,4634,4494,5055,0,0,288,289,290,0,0,0,0,0,0,0,0,0,0,0,12736,0,1563,1564,9499,0,0,0,9922,9641,289,290,0,288,289,290,4636,0,
1565,0,309,310,311,0,327,328,329,0,4636,4636,0,0,0,0,0,4494,5055,4634,2819,1563,1564,1565,0,357,358,359,0,0,2526,0,0,0,0,0,0,357,358,359,0,9639,9640,9640,9640,9641,0,0,309,310,311,0,4914,4776,289,
288,289,290,0,357,358,359,1563,1564,1565,4636,5054,4496,0,0,0,0,4634,4494,5055,0,0,0,327,328,329,0,0,0,0,2525,0,0,0,2952,0,13015,0,288,289,290,0,1563,1564,1565,0,357,358,359,0,2819,4914,4776,0,357,
311,0,1563,1564,1565,0,288,289,290,0,5054,4496,4636,3084,4494,4495,4495,5055,4634,0,0,357,358,359,0,309,310,311,0,2525,0,0,0,0,0,2819,13155,310,311,0,327,328,329,0,309,310,494,495,496,1564,4914,4776,0,1563,1564,
327,328,329,0,309,310,311,288,289,1966,0,4636,5054,4495,5055,0,0,4494,5055,288,289,290,0,1563,1564,1565,0,2952,0,0,0,0,0,0,0,0,0,0,288,289,290,0,288,289,290,4914,4775,4775,4775,4775,4776,327,328,329,288,
359,0,327,328,329,0,1563,1564,1565,0,0,4636,2819,0,0,0,0,4634,0,0,0,327,328,329,0,4914,4775,4775,4775,4775,4775,4775,4915,327,328,329,1563,1564,1565,0,309,310,311,0,4914,4776,4914,4775,4775,4775,4775,4915,0,357,358,
1563,1564,464,465,466,289,290,0,288,289,290,5054,4496,0,0,0,0,4774,4915,1563,1564,1565,0,4635,4914,4776,0,0,0,0,0,0,4774,4775,4775,4775,4775,4775,4915,358,359,288,289,4914,4776,4914,4776,4908,4769,4769,4909,4634,1564,1565,0,
4775,4775,4775,4775,4915,3924,357,358,359,0,0,4914,4776,0,0,0,0,0,4774,4915,288,289,4914,4775,4776,0,0,0,0,0,0,0,0,0,0,4914,4775,4915,4774,4915,4914,4775,4775,4776,4914,4776,4908,4770,4908,4909,4628,4774,4775,4915,310,
0,2819,0,0,4774,4775,4915,0,327,328,329,4636,0,0,0,0,0,0,0,4774,4775,4775,4776,2952,0,0,0,0,0,0,0,0,4914,4775,4775,4776,5203,4774,4915,4774,4776,4914,4775,4775,4776,4908,4770,4908,4770,4628,4768,4769,4909,4634,0,
2103,2103,2103,2103,2104,2952,4634,288,289,290,4914,4776,0,0,0,0,0,0,0,0,0,2952,0,0,0,0,0,0,0,0,4914,4775,4776,4629,4629,4629,4629,4629,4774,4915,4914,4776,4908,4769,4769,4770,4908,4770,5203,4768,4769,4909,4628,4634,1564,
0,0,0,0,2244,0,4774,4915,0,0,4636,5203,0,0,0,0,0,0,0,0,0,0,0,0,2666,0,0,0,4914,4775,4776,4908,4769,4769,4769,4769,4769,4769,4909,4634,4636,4908,4770,4908,4769,4769,4770,0,0,0,0,4628,4628,4774,4915,
0,0,0,0,2662,2104,0,4774,4915,0,5054,4495,4496,0,0,0,0,0,0,0,0,0,0,0,0,0,0,4914,4776,4908,4769,4770,4908,4769,4769,4769,4769,4909,4628,4634,4636,4630,5203,4630,0,0,0,0,0,0,0,4628,4768,4909,4634,
1564,1565,0,0,0,2244,0,2952,4634,1563,1564,4914,4776,0,0,0,0,0,0,0,0,0,0,0,0,0,0,4636,4908,4770,4908,4769,4770,0,0,0,0,4628,4628,4774,4915,5048,4490,5048,4490,0,0,0,0,0,0,4628,5203,4628,4634,
0,288,289,290,0,2662,2104,0,4774,4775,4775,4776,0,0,0,0,0,5203,5203,0,0,0,0,0,0,288,289,4636,0,4490,5048,4489,4489,4490,0,0,6867,4628,4628,0,0,4915,5048,4490,4630,0,0,0,4488,4489,4489,5049,4488,5049,4495,
310,311,0,0,0,2523,2662,2104,0,0,0,0,0,2525,0,0,0,0,0,309,310,311,0,1563,1564,1565,0,5054,4495,5048,0,0,0,5048,0,0,0,5049,5049,0,5203,0,4636,0,4630,0,4488,4489,5049,4488,0,0,5049,4495,5055,
0,357,358,359,0,0,2523,2662,2103,2103,2104,2102,2383,0,0,0,0,327,328,329,0,327,328,329,0,327,328,329,0,5054,4495,4495,4495,5048,4489,4489,4489,5049,4908,4769,4769,4775,4776,0,5048,4489,5049,4488,0,5049,4495,4495,5055,357,358,
328,329,0,1563,1564,1565,0,0,0,0,0,0,0,0,0,288,289,290,0,1563,1564,1565,0,357,358,359,0,309,310,311,0,0,0,5054,0,0,0,0,5054,4496,0,0,0,5048,0,0,0,5049,4495,5055,0,1563,1564,1565,0,
0,327,328,329,0,0,0,0,0,0,0,0,0,327,328,329,0,357,358,359,0,288,289,290,0,1563,1564,1565,0,288,289,290,0,1563,1564,1565,327,328,329,5054,4495,4495,4496,4494,4495,4495,4495,5055,0,327,328,329,0,309,310,
1564,1565,0,309,310,311,0,327,328,329,0,309,310,311,0,288,289,290,0,309,310,311,0,1563,1564,1565,0,327,328,329,0,357,358,359,0,288,289,290,0,309,310,311,5054,5055,1563,1564,1565,357,358,359,0,327,328,329,0
</data>
 </layer>
 <layer name="Layer 3" width="55" height="47">
  <data encoding="csv">
1424,1425,0,1423,1424,1425,0,0,148,149,150,0,0,0,148,149,150,0,169,170,171,0,148,149,150,0,169,170,171,0,0,309,148,149,150,0,187,188,189,21012,21013,21013,21014,1423,1424,1425,0,187,188,189,0,148,149,150,0,
148,149,150,1563,217,218,219,0,288,1423,1424,1425,0,0,0,0,217,218,219,0,1423,1424,1425,0,290,1390,309,187,188,189,0,0,0,0,0,0,0,0,329,21039,21013,21048,21022,0,0,169,170,171,0,187,188,189,0,0,0,
219,0,187,188,189,0,0,148,149,150,0,0,0,0,187,188,189,0,169,170,171,0,0,0,0,0,0,0,0,0,0,0,0,0,1423,1424,1425,0,0,21013,21048,21022,0,148,149,150,0,1423,1424,1425,0,217,218,219,0,
187,188,189,0,1423,1424,1425,288,0,0,0,0,0,0,0,0,1423,1424,1425,0,0,638,639,640,641,0,0,467,468,469,0,0,0,0,0,0,0,21020,21021,21021,21022,0,187,188,189,187,188,189,0,1565,0,357,0,359,0,
1425,0,148,149,150,0,0,0,0,0,0,0,0,0,467,468,469,0,0,0,0,778,779,780,781,0,0,0,0,0,0,0,0,0,0,0,0,0,0,0,0,0,327,1423,1424,1425,0,169,170,171,0,494,495,496,1390,
169,170,171,0,169,170,171,0,0,0,0,0,0,0,0,0,0,0,0,0,0,918,919,920,921,0,0,0,0,0,0,0,0,0,0,0,0,0,0,0,0,0,464,1563,0,1565,0,309,0,311,217,218,219,0,1390,
150,0,1423,1424,1425,0,0,0,0,0,7142,8438,0,0,0,0,0,0,0,0,0,1058,1059,1060,1061,0,0,0,0,0,0,0,0,0,0,0,21004,21005,21005,21005,21006,0,0,0,0,0,0,0,0,0,0,0,148,149,150,
148,149,150,0,148,149,150,0,0,0,7282,8578,0,0,0,0,0,0,0,0,0,1198,1199,1200,1201,0,0,0,0,0,0,0,0,0,0,0,21020,21047,21013,21013,21040,21006,0,0,0,0,0,0,0,0,0,495,288,0,290,
171,0,217,218,219,0,187,188,189,0,7422,8718,10757,10758,10759,10760,10761,10762,10763,0,0,0,0,0,0,0,0,0,0,0,0,0,7142,0,0,0,0,21020,21047,21013,21013,21014,0,0,0,0,0,0,0,0,0,0,0,0,0,
1423,1424,1425,0,169,170,171,148,149,150,0,10896,10897,10898,10899,10900,10901,10902,10903,0,0,0,0,0,0,0,0,0,0,0,0,0,7282,0,0,0,0,0,21020,21021,21021,21022,0,0,0,0,0,0,0,0,0,0,0,0,0,
150,0,169,170,171,0,1423,1424,1425,0,0,11036,11037,11038,11039,11040,11041,11042,217,218,219,0,0,0,0,0,0,0,0,0,0,0,7422,0,0,0,0,0,0,0,0,0,0,0,0,0,0,0,21004,21006,0,0,0,0,0,
187,188,189,0,148,149,150,148,149,150,0,11176,11177,11178,11179,11180,11181,11182,11183,0,0,0,0,0,0,0,0,0,0,0,0,0,21004,21006,0,0,0,0,0,0,0,0,0,0,0,0,0,21004,21039,21040,21006,0,0,0,187,
189,0,1423,1424,1425,0,217,218,219,0,0,11316,11317,11318,11319,11320,11321,11322,11323,0,0,0,0,0,0,0,0,0,0,0,0,21004,21039,21014,0,0,21004,21005,21005,21005,21005,21005,21005,21005,21005,21005,21005,21039,21013,21013,21040,21005,21006,187,188,
148,149,150,0,169,170,171,148,149,150,0,11456,11457,11458,11459,11460,11461,11462,11463,169,170,171,0,0,0,0,0,0,0,0,21004,21039,21013,21040,21005,21005,21039,21013,21013,21013,21013,21013,21013,21013,21013,21013,21013,21013,21013,21013,21013,21013,21040,169,170,
150,0,217,218,219,0,148,149,150,0,0,11596,11597,11598,11599,11600,11601,11602,11603,0,0,0,0,0,0,0,0,0,0,21004,21039,21013,21013,21013,21013,21013,21013,21013,21013,21013,21013,21013,21013,21013,21013,21013,21013,21013,21013,21013,21013,21013,21013,309,187,
169,170,171,0,1423,1424,1425,148,149,150,0,11736,11737,11738,11739,11740,11741,11742,11743,187,188,189,0,0,0,169,170,171,0,21012,21013,21013,21013,21013,21013,21013,21013,21013,21013,21013,21013,21013,21013,21013,21013,21013,21013,21013,21013,21013,21013,21013,21013,0,0,
171,0,148,149,150,0,187,188,189,0,0,11876,11877,11878,11879,11880,11881,11882,1423,1424,1425,0,148,149,150,0,0,0,21004,21039,21013,21013,21013,21013,21013,21013,21013,21013,21013,21013,21013,21013,21013,21013,21013,21013,21013,21013,21013,21013,21013,21013,21013,1423,1424,
1423,1424,1425,0,148,149,150,0,148,149,150,12016,12017,12018,12019,12020,12021,12022,12023,217,218,219,0,0,217,218,219,0,21012,21013,21013,21013,21013,21013,21013,21013,21013,21013,21013,21013,21013,21013,21013,21013,21013,21013,21013,21013,21013,21013,21013,21013,21013,1563,169,
150,0,217,218,219,0,169,170,171,0,148,149,150,12158,12159,12160,12161,187,188,189,0,169,170,171,0,0,0,21004,21039,21013,21013,21013,21013,21013,21013,21013,21013,21013,21013,21013,21013,21013,21013,21013,21013,21013,21013,21013,21013,21013,21013,21013,0,1423,1424,
187,188,189,0,187,188,189,0,1423,1424,1425,0,0,0,0,0,0,0,0,1423,1424,1425,0,1423,1424,1425,21004,21039,21013,21013,21013,21013,21013,21013,21013,21013,21013,2972,2973,21013,21013,21013,21013,21013,21013,21013,21013,21013,21013,21013,1423,1424,1425,0,169,
1425,0,169,170,171,0,148,149,150,0,187,188,189,0,21380,21382,0,0,148,149,150,148,149,150,0,0,21012,21013,21013,21013,21013,21013,21013,21013,21013,21013,21013,3112,3113,21013,21013,21013,21013,21013,21013,21013,21013,21013,21013,0,1563,0,187,188,189,
148,149,150,0,169,170,171,0,217,218,219,0,0,0,0,0,0,0,0,169,170,171,0,169,170,171,21012,21013,21013,21013,21013,21013,21013,21013,21013,21013,21013,21013,21013,21013,21013,21013,21013,21013,21013,21013,21013,21013,21013,0,169,170,171,0,0,
150,0,1423,1424,1425,0,148,149,150,0,148,149,150,0,0,0,0,0,0,0,0,217,218,219,0,0,21012,21013,21013,21013,21013,21013,21013,21013,21013,21013,21013,21013,21013,21013,21013,21013,21013,21013,21013,21013,21013,21013,21013,0,0,1423,458,459,460,
217,218,219,0,187,188,189,0,148,149,150,0,290,0,0,21380,21382,0,0,148,149,150,0,187,188,189,21020,21047,21013,21013,21013,21013,21013,21013,21013,21013,21013,21013,21013,21013,21013,21013,21013,21013,21013,21013,21013,21013,21013,217,218,219,0,1565,0,
171,0,187,188,189,0,1423,1424,1425,0,0,0,0,0,0,0,0,8438,0,288,0,1423,1424,1425,0,0,0,21012,21013,21013,21013,21013,21013,21013,21013,21013,21013,21013,21013,21013,21013,21013,21013,21013,21013,21013,21013,21013,21013,357,0,187,188,189,0,
148,149,150,0,217,218,219,0,0,1687,0,0,0,0,0,0,0,8578,0,0,0,0,0,1423,1424,1425,0,21020,21021,21047,21013,21013,21013,21013,21013,21013,21013,21013,21013,21013,21013,21013,21013,21013,21013,21013,21013,21013,0,169,170,171,0,329,217,
150,0,1423,1424,1425,0,148,149,150,0,0,0,0,0,0,0,0,8718,0,1390,0,169,170,171,0,0,0,0,0,21020,21021,21021,21021,21021,21021,21021,21021,21021,21047,21013,21013,21013,21013,21013,21013,21013,21013,0,1423,1424,1425,458,459,1423,1424,
187,188,189,0,148,149,150,169,170,171,0,0,0,0,0,0,0,0,0,1251,0,0,0,148,149,150,0,0,0,0,0,0,12591,12592,12593,12594,12595,12596,21020,1423,1424,1425,21013,21013,21013,21013,148,149,150,0,148,149,150,1563,148,
1425,0,169,170,171,0,187,188,189,0,0,0,0,0,0,0,0,0,0,0,0,1423,1424,1425,0,217,218,219,0,0,0,0,12731,12732,12733,12734,12735,217,218,219,0,1565,21013,21013,21013,0,288,0,169,170,171,0,0,148,149,
148,149,150,0,217,218,219,1423,1424,1425,0,0,0,0,0,0,0,0,0,0,0,0,0,187,188,189,0,0,0,0,0,0,12871,12872,12873,12874,12875,12876,148,149,150,0,1423,1424,1425,0,217,218,219,0,0,0,0,288,217,
171,0,1423,1424,1425,0,148,149,150,0,0,1390,0,0,0,0,0,0,0,0,0,217,218,219,0,169,170,171,0,0,0,0,13011,13012,13013,13014,169,170,171,0,187,188,189,0,169,170,171,0,1423,1424,1425,0,0,1423,1424,
187,188,189,0,169,170,171,148,149,1826,1827,0,0,0,0,21372,21374,0,0,148,149,150,0,1423,1424,1425,0,0,0,0,0,0,13151,13152,13153,13154,309,0,148,149,150,0,148,149,150,0,311,0,1563,0,1565,187,188,189,148,
219,0,187,188,189,0,1423,1424,1425,290,1967,0,0,0,0,0,0,0,5203,0,0,187,188,189,0,0,0,0,0,0,0,0,13291,187,188,189,1423,1424,1425,0,169,170,171,0,0,0,0,0,0,0,0,0,0,217,218,
1423,1424,1425,0,148,149,150,0,148,149,150,0,0,0,0,0,0,0,0,1423,1424,1425,0,0,0,0,0,0,21380,21381,21382,0,0,0,0,0,0,0,217,218,219,148,149,150,0,0,0,0,0,0,0,1423,1424,1425,0,
8438,0,1565,0,288,0,217,218,219,0,0,0,8438,0,0,0,0,0,0,0,148,149,150,0,8438,0,0,0,0,0,0,0,0,461,462,463,0,0,357,0,0,0,0,290,0,0,0,0,0,0,0,1563,0,169,170,
8578,0,0,0,0,0,0,0,187,188,189,0,8578,0,0,0,0,0,0,0,0,0,290,0,8578,0,0,0,0,0,0,0,0,0,0,0,0,0,494,495,496,0,0,0,0,0,0,0,0,0,0,0,0,309,0,
8718,0,0,0,0,0,494,495,149,150,0,0,8718,0,0,0,0,0,0,0,0,0,0,0,8718,0,0,0,0,0,0,0,0,21380,21382,0,0,0,0,0,0,0,0,0,0,0,0,0,0,0,0,0,0,1423,1424,
0,0,0,0,0,0,0,0,0,0,0,0,0,0,0,0,0,0,0,0,0,0,0,0,0,0,0,0,0,0,0,0,0,0,5187,5188,5189,0,0,0,0,0,0,0,0,0,0,0,0,5769,5770,0,0,1563,0,
0,0,0,0,0,0,0,0,0,1251,0,0,0,0,0,0,0,0,0,0,0,0,0,0,0,0,0,0,0,0,0,0,0,7142,5327,5328,5329,0,0,0,0,0,0,28550,28551,28552,0,0,0,5909,5910,0,0,0,217,
1424,1425,0,0,0,0,0,8438,0,1423,1424,1425,8438,0,0,0,0,0,0,0,0,0,0,0,0,0,0,0,0,0,0,0,0,7282,5467,5468,5469,0,0,0,0,0,0,28558,28559,28560,0,0,0,0,0,0,0,0,357,
0,148,149,150,0,0,0,8578,0,0,0,1565,8578,0,0,0,0,0,0,0,0,0,0,0,0,148,149,150,0,0,0,0,0,7422,0,0,0,0,0,0,5051,4496,0,0,28567,0,0,0,0,0,0,0,0,0,148,
170,171,0,0,0,0,0,8718,6523,6524,6525,7086,8718,0,0,0,0,0,0,169,170,171,0,1423,1424,1425,0,290,6867,0,0,0,0,0,0,0,0,0,0,0,4774,5051,4496,0,0,0,0,0,0,0,2831,2832,0,0,288,
0,217,218,219,0,0,0,0,6663,6664,6665,7226,0,0,0,0,0,187,188,189,0,187,188,189,0,187,188,189,0,4496,4489,4489,4489,4490,4489,4489,4489,4488,0,0,0,4634,0,4630,0,0,0,0,0,0,4489,4489,4494,217,218,
188,189,0,1423,1424,1425,0,0,0,0,0,2525,2666,0,0,148,149,150,0,1423,1424,1425,0,217,218,219,0,169,170,171,0,0,0,4496,0,0,0,4488,4492,4492,4492,5052,0,4630,0,0,0,0,4489,4494,0,1423,1424,1425,0,
0,187,188,189,0,0,0,0,0,0,2665,2666,0,187,188,189,0,217,218,219,0,148,149,150,0,1423,1424,1425,0,148,149,150,0,1423,1424,1425,187,188,189,0,0,0,0,0,4489,4489,4489,4494,0,187,188,189,0,169,170,
1424,1425,0,169,170,171,0,187,188,189,0,169,170,171,0,148,149,150,0,169,170,171,0,1423,1424,1425,0,187,188,189,0,217,218,219,0,148,149,150,0,169,170,171,0,0,1423,1424,1425,217,218,219,0,187,188,189,0,
0,1423,1424,1425,0,217,218,219,0,217,218,219,0,1423,1424,1425,0,148,149,150,0,187,188,189,0,148,149,150,0,1423,1424,1425,0,187,188,189,0,1423,1424,1425,0,187,188,189,0,148,149,150,0,169,170,171,0,1423,1424
</data>
 </layer>
 <layer name="Top layer " width="55" height="47">
  <data encoding="csv">
8,9,10,0,77,78,79,0,0,1283,1284,1285,0,0,0,0,77,78,79,0,1283,1284,1285,0,0,0,0,47,48,49,0,0,0,0,0,0,0,0,0,0,0,0,0,0,0,29,30,31,0,47,48,49,0,0,0,
79,0,47,48,49,0,0,8,9,10,0,0,0,0,47,48,49,0,29,30,31,0,0,0,0,0,0,0,0,0,0,0,0,0,1283,1284,1285,0,0,0,29,30,31,8,9,10,0,1283,1284,1285,0,77,78,79,0,
47,48,49,0,1283,1284,1285,0,0,0,0,0,0,0,0,0,1283,1284,1285,0,0,0,0,0,0,0,0,0,0,0,0,0,0,0,0,0,0,0,0,0,169,170,47,48,49,47,48,49,0,0,0,0,0,0,0,
1285,0,8,9,10,0,0,0,0,0,0,0,0,0,0,0,0,0,0,0,0,0,0,0,0,0,0,0,0,0,0,0,0,0,0,0,0,3557,3558,3559,309,310,0,1283,1284,1285,0,29,30,31,0,0,0,0,8,
29,30,31,0,29,30,31,0,0,0,0,0,0,0,0,1390,0,0,0,0,0,0,0,0,0,0,0,0,0,0,0,0,0,0,0,0,0,3837,3838,3839,0,0,0,0,0,0,0,0,0,0,77,78,79,0,0,
10,0,1283,1284,1285,0,0,0,0,0,0,0,0,0,0,0,0,0,0,0,0,0,0,0,0,0,0,0,0,0,0,0,0,0,0,0,0,3977,3978,3979,0,0,0,0,0,0,0,0,0,0,0,0,8,9,10,
8,9,10,0,8,9,10,0,0,0,0,0,0,0,0,0,0,0,0,0,0,0,0,0,0,0,0,0,0,0,0,0,0,0,0,0,0,4117,4118,4119,0,0,0,0,0,0,0,0,0,0,0,0,0,0,0,
31,0,77,78,79,0,47,48,49,0,0,0,0,0,0,0,0,0,0,0,0,0,21298,21298,21299,0,0,0,0,0,0,0,0,0,0,0,0,0,0,0,0,0,0,0,0,0,0,0,0,0,0,0,0,0,0,
1283,1284,1285,0,29,30,31,8,9,10,0,0,0,0,0,0,0,0,0,0,0,0,0,0,0,0,0,0,0,0,0,0,0,0,0,0,0,0,0,0,0,0,0,0,0,0,0,0,0,0,0,0,0,0,0,
10,0,29,30,31,0,1283,1284,1285,0,0,0,0,0,0,0,0,0,77,78,79,0,0,0,0,0,0,0,0,0,0,0,0,0,0,0,0,0,0,3557,3558,3559,0,0,0,0,0,0,0,0,0,0,0,0,0,
47,48,49,0,8,9,10,8,9,10,0,0,0,0,0,0,0,0,0,0,0,0,0,0,0,0,0,0,0,0,0,0,0,0,0,0,0,0,0,3837,3838,3839,0,0,0,0,0,0,0,0,0,0,0,0,47,
49,0,1283,1284,1285,0,77,78,79,0,0,0,0,0,0,0,0,0,0,0,0,0,0,0,0,0,0,0,0,0,0,0,0,0,0,0,0,0,0,3977,3978,3979,0,0,0,0,0,0,0,0,0,0,0,47,48,
8,9,10,0,29,30,31,8,9,10,0,0,0,0,0,0,0,0,0,29,30,31,0,0,0,0,0,0,0,0,0,0,0,0,0,0,0,0,0,4117,4118,4119,0,0,0,0,0,0,0,0,0,0,0,29,30,
10,0,77,78,79,0,8,9,10,0,0,0,0,0,0,0,0,0,0,0,0,0,0,0,0,0,0,0,0,0,0,0,0,0,0,0,0,0,0,0,0,0,0,0,0,0,0,0,0,0,0,0,0,0,47,
29,30,31,0,1283,1284,1285,8,9,10,0,0,0,0,0,0,0,0,0,47,48,49,0,0,0,29,30,31,0,0,0,0,0,0,0,0,0,0,0,0,0,0,0,0,0,0,0,0,0,0,0,0,0,0,0,
31,0,8,9,10,0,47,48,49,0,0,0,0,0,0,0,0,0,1283,1284,1285,0,8,9,10,0,0,0,0,0,0,0,0,0,0,0,0,0,0,0,0,0,0,0,0,0,0,0,0,0,0,0,0,1283,1284,
1283,1284,1285,0,8,9,10,0,8,9,10,0,0,0,0,0,0,0,0,77,78,79,0,0,77,78,79,0,0,0,0,0,0,0,0,0,0,0,0,0,0,0,0,0,0,0,0,0,0,0,0,0,0,0,29,
10,0,77,78,79,0,29,30,31,0,8,9,10,0,0,0,0,47,48,49,0,29,30,31,0,0,0,0,0,0,0,0,0,0,0,0,0,0,0,0,0,0,0,0,0,0,0,0,0,0,0,0,0,1283,1284,
47,48,49,0,47,48,49,0,1283,1284,1285,0,0,0,0,0,0,0,0,1283,1284,1285,0,1283,1284,1285,0,0,0,0,0,0,0,0,0,0,0,0,0,0,0,0,0,0,0,0,0,0,0,0,1283,1284,1285,0,29,
1285,0,29,30,31,0,8,9,10,0,47,48,49,0,0,0,0,0,8,9,10,8,9,10,0,0,496,0,0,0,0,0,0,0,0,0,0,21013,21013,0,0,0,0,0,0,0,0,0,0,0,0,0,47,48,49,
8,9,10,0,29,30,31,0,77,78,79,0,0,0,0,0,0,0,0,29,30,31,0,29,30,31,0,0,0,0,0,0,0,0,0,0,0,21013,21013,0,0,0,0,0,0,0,0,0,0,0,29,30,31,0,0,
10,0,1283,1284,1285,0,8,9,10,0,8,9,10,0,0,0,0,0,0,0,0,77,78,79,0,0,0,0,0,0,0,0,0,0,0,0,0,0,0,0,0,0,0,0,0,0,0,0,0,0,0,1283,1284,1285,0,
77,78,79,0,47,48,49,0,8,9,10,0,0,0,0,0,0,0,0,8,9,10,0,47,48,49,0,0,0,0,0,0,0,0,0,0,0,0,0,0,0,0,0,0,0,0,0,0,0,77,78,79,1424,1425,0,
31,0,47,48,49,0,1283,1284,1285,0,0,0,0,0,0,0,0,0,0,0,0,1283,1284,1285,0,0,0,0,0,0,0,0,0,0,0,0,0,0,0,0,0,0,0,0,0,0,0,0,0,0,0,47,48,49,0,
8,9,10,0,77,78,79,0,0,0,0,0,0,0,0,0,0,0,0,0,0,0,0,1283,1284,1285,0,0,0,0,0,0,21161,21162,21163,21164,21165,21166,0,0,0,0,0,0,0,0,0,0,0,29,30,31,0,0,74,
10,0,1283,1284,1285,0,8,9,10,0,0,0,0,0,0,0,0,0,0,0,0,29,30,31,0,0,0,0,0,0,0,0,21169,21170,21171,21172,21173,21174,0,0,0,0,0,0,0,0,0,0,1283,1284,1285,0,0,1283,1284,
47,48,49,0,8,9,10,29,30,31,0,0,0,0,0,0,0,0,0,0,0,0,0,8,9,10,0,0,0,0,0,0,21177,21178,21179,21180,21181,21182,0,1283,1284,1285,0,0,0,0,8,9,10,0,8,9,10,0,8,
1285,0,29,30,31,0,47,48,49,0,0,0,0,0,0,0,0,0,0,0,0,1283,1284,1285,0,77,78,79,0,0,0,0,0,0,0,0,0,77,78,79,0,0,0,0,0,0,0,0,29,30,31,0,0,8,9,
8,9,10,0,77,78,79,1283,1284,1285,0,0,0,0,0,0,0,0,0,0,0,0,0,47,48,49,0,0,0,0,0,0,0,0,0,0,0,0,8,9,10,0,1283,1284,1285,0,77,78,79,0,0,0,0,0,74,
31,0,1283,1284,1285,0,8,9,10,0,0,0,0,0,0,0,0,0,0,0,0,77,78,79,0,29,30,31,0,0,0,0,0,0,0,0,29,30,31,0,47,48,49,0,29,30,31,0,1283,1284,1285,0,0,1283,1284,
47,48,49,0,29,30,31,8,9,10,0,0,0,0,0,0,0,0,0,8,9,10,0,1283,1284,1285,0,0,0,0,0,0,0,0,0,0,0,0,8,9,10,0,8,9,10,0,0,0,0,0,0,47,48,49,8,
79,0,47,48,49,0,1283,1284,1285,150,0,0,0,0,0,0,0,0,0,0,0,47,48,49,0,0,0,0,0,0,0,0,0,47,48,49,1283,1284,1285,0,29,30,31,0,0,0,0,0,0,0,0,0,0,74,75,
1283,1284,1285,0,8,9,10,0,8,9,10,0,0,0,0,0,0,0,0,1283,1284,1285,0,0,0,0,0,0,0,0,0,0,0,0,0,0,0,0,77,78,79,8,9,10,0,0,0,0,0,0,0,1283,1284,1285,0,
0,0,0,0,0,0,77,78,79,0,0,0,0,0,0,0,0,0,0,0,8,9,10,0,0,0,0,0,0,0,0,0,0,0,0,0,0,0,0,0,0,0,0,0,0,0,0,0,0,0,0,0,0,29,30,
0,0,0,0,0,0,0,0,47,48,49,0,0,0,0,0,0,0,0,0,0,0,0,0,0,0,0,0,0,0,0,0,0,0,0,0,0,0,0,0,0,0,0,0,0,0,0,0,0,0,0,0,0,0,0,
0,0,0,0,0,0,0,8,9,10,0,0,0,0,0,0,0,0,0,0,0,0,0,0,0,0,0,0,0,0,0,0,0,0,0,0,0,4915,0,0,0,0,0,0,0,0,0,0,0,0,0,0,0,1283,1284,
0,0,0,0,0,0,0,148,0,0,0,0,0,0,0,0,0,0,0,0,0,0,0,0,0,0,0,0,0,0,0,0,0,0,0,0,0,0,0,0,0,0,0,0,0,0,0,0,0,0,0,0,0,0,0,
0,0,0,0,0,0,0,0,0,0,0,0,0,0,0,0,0,0,0,0,0,0,0,0,0,0,0,0,0,0,0,0,0,0,0,0,0,0,0,0,0,0,0,0,0,0,0,0,0,0,0,0,0,0,74,
1284,1285,0,0,0,0,0,0,0,1283,1284,1285,0,0,0,0,0,0,0,0,0,0,0,0,0,0,0,0,0,0,0,0,0,0,0,0,8438,0,0,0,0,0,0,0,0,0,0,0,0,0,0,0,0,0,0,
0,8,9,10,0,0,0,0,0,0,0,0,0,0,0,0,0,0,0,0,0,0,0,0,0,8,9,10,0,0,0,0,0,0,0,0,8578,0,0,0,0,0,0,0,0,0,0,0,0,0,0,0,0,0,8,
30,31,0,0,0,0,0,0,0,0,0,0,0,0,0,0,0,0,0,29,30,31,0,1283,1284,1285,0,0,4908,0,0,0,0,0,0,0,8718,0,0,0,0,0,0,0,0,0,0,0,0,0,0,0,0,0,0,
0,77,78,79,0,0,0,0,0,0,0,0,0,0,0,0,0,47,48,49,0,47,48,49,0,47,48,49,5048,0,0,0,0,0,0,0,0,0,0,0,0,0,0,0,0,0,0,0,0,0,0,0,0,74,75,
48,49,0,1283,1284,1285,0,0,0,0,0,0,0,0,0,8,9,10,0,1283,1284,1285,0,74,75,76,0,29,30,31,6867,0,0,0,0,0,0,0,0,0,0,0,0,0,0,0,0,0,0,0,0,1283,1284,1285,0,
0,47,48,49,0,0,0,0,0,0,0,0,0,47,48,49,0,74,75,76,0,8,9,10,0,1283,1284,1285,0,8,9,10,0,1283,1284,1285,47,48,49,0,0,0,0,0,0,0,0,0,0,47,48,49,0,29,30,
1284,1285,0,29,30,31,0,47,48,49,0,29,30,31,0,8,9,10,0,29,30,31,0,1283,1284,1285,0,47,48,49,0,74,75,76,0,8,9,10,0,29,30,31,0,0,1283,1284,1285,74,75,76,0,47,48,49,0,
0,1283,1284,1285,0,77,78,79,0,74,75,76,0,1283,1284,1285,0,8,9,10,0,47,48,49,0,8,9,10,0,1283,1284,1285,0,47,48,49,0,1283,1284,1285,0,47,48,49,0,8,9,10,0,29,30,31,0,1283,1284,
9,10,0,47,48,49,0,8,9,10,0,1283,1284,1285,0,8,9,10,0,1283,1284,1285,0,8,9,10,0,74,75,76,0,8,9,10,0,8,9,10,0,74,75,76,0,1283,1284,1285,0,1283,1284,1285,0,8,9,10,0
</data>
 </layer>
</map>
