<?xml version="1.0" encoding="UTF-8"?>
<map version="1.10" tiledversion="1.11.2" orientation="orthogonal" renderorder="right-down" width="100" height="79" tilewidth="32" tileheight="32" infinite="0" nextlayerid="5" nextobjectid="1">
 <tileset firstgid="1" name="tile group" tilewidth="32" tileheight="32" tilecount="21000" columns="140">
  <image source="Tiles/tile group.png" width="4480" height="4800"/>
 </tileset>
 <tileset firstgid="21001" name="new tilesert2" tilewidth="32" tileheight="32" tilecount="936" columns="4">
  <image source="Tiles/new tilesert.png" width="128" height="7488"/>
 </tileset>
 <tileset firstgid="22704" name="Pro all tiles" tilewidth="32" tileheight="32" tilecount="1024" columns="32">
  <image source="Tiles/Pro all tiles.png" width="1024" height="1024"/>
 </tileset>
 <tileset firstgid="23728" name="Sinoh Pokémon overworld" tilewidth="32" tileheight="32" tilecount="0" columns="22">
  <image source="Mapping/Tiles/Sinoh Pokémon overworld.png" width="704" height="1728"/>
 </tileset>
 <tileset firstgid="24332" name="Jotho pokémon sprite overworld" tilewidth="32" tileheight="32" tilecount="1232" columns="22">
  <image source="Tiles/Jotho pokémon sprite overworld.png" width="704" height="1792"/>
 </tileset>
 <tileset firstgid="25564" name="Trainer overworld sprite" tilewidth="32" tileheight="32" tilecount="3840" columns="60">
  <image source="Tiles/Trainer overworld sprite.png" width="1920" height="2048"/>
 </tileset>
 <layer id="1" name="Layer 1" width="100" height="79">
  <data encoding="csv">
4674,4674,4674,4674,4674,4674,4674,4674,4674,4674,4674,4674,4674,4674,4674,4674,4674,4674,4674,4674,4674,4674,4674,4674,4674,4674,4674,4674,4674,4674,4674,4674,4674,4674,4674,4674,4674,4674,4674,4674,4674,4674,4674,4674,4674,4674,4638,4638,4638,4638,4638,4638,4638,4638,4638,4638,4638,4638,4638,4638,4638,4638,4638,4638,4638,4638,4638,4638,4638,4638,4638,4638,4638,4638,4638,4638,4638,4638,4638,4638,4638,4638,4674,4674,4674,4674,4674,4674,4674,4674,4674,4674,4674,4674,4674,4674,4674,4674,4674,4674,
4674,4674,4674,4674,4674,4674,4674,4674,4674,4674,4674,4674,4674,4674,4674,4674,4674,4674,4674,4674,4674,4674,4674,4674,4674,4674,4674,4674,4674,4674,4674,4674,4674,4674,4674,4674,4674,4674,4674,4674,4674,4674,4674,4674,4674,4674,4674,4638,4638,4638,4638,4638,4638,4638,4638,4638,4638,4638,4638,4638,4638,4638,4638,4638,4638,4638,4638,4638,4638,4638,4638,4638,4638,4638,4638,4638,4638,4638,4638,4638,4638,4638,4638,4638,4638,4674,4674,4674,4674,4674,4674,4674,4674,4674,4674,4674,4674,4674,4674,4674,
4674,4674,4674,4674,4674,4674,4674,4674,4674,4674,4674,4674,4674,4674,4674,4674,4674,4674,4674,4674,4674,4674,4674,4674,4674,4674,4674,4674,4674,4674,4674,4674,4674,4674,4674,4674,4674,4674,4674,4674,4674,4674,4674,4674,4674,4674,4674,4638,4638,4638,4638,4638,4638,4638,4638,4638,4638,4638,4638,4638,4638,4638,4638,4638,4638,4638,4638,4638,4638,4638,4638,4638,4638,4638,4638,4638,4638,4638,4638,4638,4638,4638,4638,4638,4638,4674,4674,4674,4674,4674,4674,4674,4674,4674,4674,4674,4674,4674,4674,4674,
4674,4674,4674,4674,4674,4674,4674,4674,4674,4674,4674,4674,4674,4674,4674,4674,4674,4674,4674,4674,4674,4674,4674,4674,4674,4674,4674,4674,4674,4674,4674,4674,4674,4674,4674,4674,4674,4674,4674,4674,4674,4674,4674,4674,4674,4674,4674,4674,4638,4638,4638,4638,4638,4638,4638,4638,4638,4638,4638,4638,4638,4638,4638,4638,4638,4638,4638,4638,4638,4638,4638,4638,4638,4638,4638,4638,4638,4638,4638,4638,4638,4638,4638,4638,4638,4674,4674,4674,4674,4674,4674,4674,4674,4674,4674,4674,4674,4674,4674,4674,
4674,4674,4674,4674,4674,4674,4674,4674,4674,4674,4674,4674,4674,4674,4674,4674,4674,4674,4674,4674,4674,4674,4674,4674,4674,4674,4674,4674,4674,4674,4674,4674,4674,4674,4674,4674,4674,4674,4674,4674,4674,4674,4674,4674,4674,4674,4674,4674,4638,4638,4638,4638,4638,4638,4638,4638,4638,4638,4638,4638,4638,4638,4638,4638,4638,4638,4638,4638,4638,4638,4638,4638,4638,4638,4638,4638,4638,4638,4638,4638,4638,4638,4638,4638,4638,4674,4674,4674,4674,4674,4674,4674,4674,4674,4674,4674,4674,4674,4674,4674,
4674,4674,4674,4674,4674,4674,4674,4674,4674,4674,4674,4674,4674,4674,4674,4674,4674,4674,4674,4674,4674,4674,4674,4674,4674,4674,4674,4674,4674,4674,4674,4674,4674,4674,4674,4674,4674,4674,4674,4674,4674,4674,4674,4674,4674,4674,4674,4674,4638,4638,4638,4638,4638,4638,4638,4638,4638,4638,4638,4638,4638,4638,4638,4638,4638,4638,4638,4638,4638,4638,4638,4638,4638,4638,4638,4638,4638,4638,4638,4638,4638,4638,4638,4638,4638,4674,4674,4674,4674,4674,4674,4674,4674,4674,4674,4674,4674,4674,4674,4674,
4674,4674,4674,4674,4674,4674,4674,4674,4674,4674,4674,4674,4674,4674,4674,4674,4674,4674,4674,4674,4674,4674,4674,4674,4674,4674,4674,4674,4674,4674,4674,4674,4674,4674,4674,4674,4674,4674,4674,4674,4674,4674,4674,4674,4674,4674,4674,4638,4638,4638,4638,4638,4638,4638,4638,4638,4638,4638,4638,4638,4638,4638,4638,4638,4638,4638,4638,4638,4638,4638,4638,4638,4638,4638,4638,4638,4638,4638,4638,4638,4638,4638,4638,4638,4638,4674,4674,4674,4674,4674,4674,4674,4674,4674,4674,4674,4674,4674,4674,4674,
4674,4674,4674,4674,4674,4674,4674,4674,4674,4674,4674,4674,4674,4674,4674,4638,4638,4638,4638,4638,4674,4638,4638,4638,4638,4674,4674,4674,4674,4674,4674,4674,4674,4674,4674,4674,4674,4674,4674,4674,4674,4674,4674,4674,4674,4674,4674,4638,4638,4638,4638,4638,4638,4638,4638,4638,4638,4638,4638,4638,4638,4638,4638,4638,4638,4638,4638,4638,4638,4638,4638,4638,4638,4638,4638,4638,4638,4638,4638,4638,4638,4638,4638,4638,4674,4674,4674,4674,4674,4674,4674,4674,4674,4674,4674,4674,4674,4674,4674,4674,
4674,4674,4674,4674,4674,4674,4674,4674,4674,4674,4674,4674,4674,4674,4638,4638,4638,4638,4638,4638,4638,4638,4638,4638,4638,4638,4638,4674,4674,4674,4674,4674,4674,4674,4674,4674,4674,4674,4674,4674,4674,4674,4674,4674,4674,4674,4638,4638,4638,4638,4638,4638,4638,4638,4638,4638,4638,4638,4638,4638,4638,4638,4638,4638,4638,4638,4638,4638,4638,4638,4638,4638,4638,4638,4638,4638,4638,4638,4638,4638,4638,4638,4638,4638,4674,4674,4674,4674,4674,4674,4674,4674,4674,4674,4674,4674,4674,4674,4674,4674,
4674,4674,4674,4674,4674,4674,4674,4674,4674,4674,4674,4674,4674,4674,4638,4638,4638,4638,4638,4638,4638,4638,4638,4638,4638,4638,4638,4638,4638,4674,4674,4674,4674,4674,4674,4674,4674,4674,4674,4674,4674,4674,4674,4674,4674,4638,4638,4638,4638,4638,4638,4638,4638,4638,4638,4638,4638,4638,4638,4638,4638,4638,4638,4638,4638,4638,4638,4638,4638,4638,4638,4638,4638,4638,4638,4638,4638,4638,4638,4638,4638,4638,4638,4638,4674,4674,4674,4674,4674,4674,4674,4674,4674,4674,4674,4674,4674,4674,4674,4674,
4674,4674,4674,4674,4674,4674,4674,4674,4674,4674,4674,4674,4674,4674,4638,4638,4638,4638,4638,4638,4638,4638,4638,4638,4638,4638,4638,4638,4638,4638,4674,4674,4674,4674,4674,4674,4674,4674,4674,4674,4674,4674,4674,4674,4674,4638,4638,4638,4638,4638,4638,4638,4638,4638,4638,4638,4638,4638,4638,4638,4638,4638,4638,4638,4638,4638,4638,4638,4638,4638,4638,4638,4638,4638,4638,4638,4638,4638,4638,4638,4638,4638,4638,4674,4674,4674,4674,4674,4674,4674,4674,4674,4674,4674,4674,4674,4674,4674,4674,4674,
4674,4674,4674,4674,4674,4674,4674,4674,4674,4674,4674,4674,4674,4674,4638,4638,4638,4638,4638,4638,4638,4638,4638,4638,4638,4638,4638,4638,4638,4638,4674,4674,4674,4674,4674,4674,4674,4674,4674,4674,4674,4674,4674,4674,4674,4638,4638,4638,4638,4638,4638,4638,4638,4638,4638,4638,4638,4638,4638,4638,4638,4638,4638,4638,4638,4638,4638,4638,4638,4638,4638,4638,4638,4638,4638,4638,4638,4638,4638,4638,4638,4638,4638,4674,4674,4674,4674,4674,4674,4674,4674,4674,4674,4674,4674,4674,4674,4674,4674,4674,
4674,4674,4674,4674,4674,4674,4674,4674,4674,4674,4674,4674,4674,4674,4638,4638,4638,4638,4638,4638,4638,4638,4638,4638,4638,4638,4638,4638,4638,4638,4638,4674,4674,4674,4674,4674,4674,4674,4674,4674,4674,4674,4674,4674,4674,4638,4638,4638,4638,4638,4638,4638,4638,4638,4638,4638,4638,4638,4638,4638,4638,4638,4638,4638,4638,4638,4638,4638,4638,4638,4638,4638,4638,4638,4638,4638,4638,4638,4638,4638,4638,4638,4638,4674,4674,4674,4674,4674,4674,4674,4674,4674,4674,4674,4674,4674,4674,4674,4674,4674,
4674,4674,4674,4674,4674,4674,4674,4674,4674,4674,4674,4674,4674,4674,4638,4638,4638,4638,4638,4638,4638,4638,4638,4638,4638,4638,4638,4638,4638,4638,4638,4674,4674,4674,4674,4674,4674,4674,4674,4674,4674,4674,4674,4674,4674,4638,4638,4638,4638,4638,4638,4638,4638,4638,4638,4638,4638,4638,4638,4638,4638,4638,4638,4638,4638,4638,4638,4638,4638,4638,4638,4638,4638,4638,4638,4638,4638,4638,4638,4638,4638,4638,4674,4674,4674,4674,4674,4674,4674,4674,4674,4674,4674,4674,4674,4674,4674,4674,4674,4674,
4674,4674,4674,4674,4674,4674,4674,4674,4674,4674,4674,4674,4674,4674,4674,4638,4638,4638,4638,4638,4638,4638,4638,4638,4638,4638,4638,4638,4638,4638,4638,4638,4638,4674,4674,4674,4674,4674,4674,4674,4674,4674,4674,4674,4674,4638,4638,4638,4638,4638,4638,4638,4638,4638,4638,4638,4638,4638,4638,4638,4638,4638,4638,4638,4638,4638,4638,4638,4638,4638,4638,4638,4638,4638,4638,4638,4638,4638,4638,4638,4638,4638,4674,4674,4674,4674,4674,4674,4674,4674,4674,4674,4674,4674,4674,4674,4674,4674,4674,4674,
4674,4674,4674,4674,4674,4674,4674,4674,4674,4674,4674,4674,4674,4674,4674,4638,4638,4638,4638,4638,4638,4638,4638,4638,4638,4638,4638,4638,4638,4638,4638,4638,4638,4638,4674,4674,4674,4674,4674,4674,4674,4674,4674,4674,4638,4638,4638,4638,4638,4638,4638,4638,4638,4638,4638,4638,4638,4638,4638,4638,4638,4638,4638,4638,4638,4638,4638,4638,4638,4638,4638,4638,4638,4638,4638,4638,4638,4638,4638,4638,4638,4638,4674,4674,4674,4674,4674,4674,4674,4674,4674,4674,4674,4674,4674,4674,4674,4674,4674,4674,
4674,4674,4674,4674,4674,4674,4674,4674,4674,4674,4674,4674,4674,4674,4674,4674,4638,4638,4638,4638,4638,4638,4638,4638,4638,4638,4638,4638,4638,4638,4638,4638,4638,4638,4638,4674,4674,4674,4674,4674,4674,4674,4674,4674,4638,4638,4638,4638,4638,4638,4638,4638,4638,4638,4638,4638,4638,4638,4638,4638,4638,4638,4638,4638,4638,4638,4638,4638,4638,4638,4638,4638,4638,4638,4638,4638,4638,4638,4638,4638,4638,4638,4674,4674,4674,4674,4674,4674,4674,4674,4674,4674,4674,4674,4674,4674,4674,4674,4674,4674,
4674,4674,4674,4674,4674,4674,4674,4674,4674,4674,4674,4674,4674,4674,4674,4674,4674,4638,4638,4638,4638,4638,4638,4638,4638,4638,4638,4638,4638,4638,4638,4638,4638,4638,4638,4638,4674,4674,4659,4674,4674,4674,4674,4638,4638,4638,4638,4638,4638,4638,4638,4638,4638,4638,4638,4638,4638,4638,4638,4638,4638,4638,4638,4638,4638,4638,4638,4638,4638,4638,4638,4638,4638,4638,4638,4638,4638,4638,4638,4638,4638,4638,4674,4674,4674,4674,4674,4674,4674,4674,4674,4674,4674,4674,4674,4674,4674,4674,4674,4674,
4674,4674,4674,4674,4674,4674,4674,4674,4674,4674,4674,4674,4674,4674,4674,4674,4674,4674,4638,4638,4638,4638,4638,4638,4638,4638,4638,4638,4638,4638,4638,4638,4638,4638,4638,4638,4659,4659,4659,4674,4674,4674,4674,4638,4638,4638,4638,4638,4638,4638,4638,4638,4638,4638,4638,4638,4638,4638,4638,4638,4638,4638,4638,4638,4638,4638,4638,4638,4638,4638,4638,4638,4638,4638,4638,4638,4638,4638,4638,4638,4638,4638,4674,4674,4674,4674,4674,4674,4674,4674,4674,4674,4674,4674,4674,4674,4674,4674,4674,4674,
4674,4674,4674,4674,4674,4674,4674,4674,4674,4674,4674,4674,4674,4674,4674,4674,4674,4674,4674,4638,4638,4638,4638,4638,4638,4638,4638,4638,4638,4638,4638,4638,4638,4638,4638,4638,4659,4659,4659,4674,4674,4674,4638,4638,4638,4638,4638,4638,4638,4638,4638,4638,4638,4638,4638,4638,4638,4638,4638,4638,4638,4638,4638,4638,4638,4638,4638,4638,4638,4638,4638,4638,4638,4638,4638,4638,4638,4638,4638,4638,4638,4638,4674,4674,4674,4674,4674,4674,4674,4674,4674,4674,4674,4674,4674,4674,4674,4674,4674,4674,
4674,4674,4674,4674,4674,4674,4674,4674,4674,4674,4674,4674,4674,4674,4638,4638,4674,4674,4674,4674,4638,4638,4638,4638,4638,4638,4638,4638,4638,4638,4638,4638,4638,4638,4638,4638,4674,4659,4674,4674,4674,4638,4638,4638,4638,4638,4638,4638,4638,4638,4638,4638,4638,4638,4638,4638,4638,4638,4638,4638,4638,4638,4638,4638,4638,4638,4638,4638,4638,4638,4638,4638,4638,4638,4638,4638,4638,4638,4638,4638,4638,4638,4638,4674,4674,4674,4674,4674,4674,4674,4674,4674,4674,4674,4674,4674,4674,4674,4674,4674,
4674,4674,4674,4674,4674,4674,4674,4674,4674,4674,4638,4638,4638,4638,4638,4638,4638,4638,4638,4674,4674,4638,4638,4638,4638,4638,4638,4638,4638,4638,4638,4638,4638,4638,4638,4674,4674,4659,4674,4674,4638,4638,4638,4638,4638,4638,4638,4638,4638,4638,4638,4638,4638,4638,4638,4638,4638,4638,4638,4638,4638,4638,4638,4638,4638,4638,4638,4638,4638,4638,4638,4638,4638,4638,4638,4638,4638,4638,4638,4638,4638,4638,4638,4674,4674,4674,4674,4674,4674,4674,4674,4674,4674,4674,4674,4674,4674,4674,4674,4674,
4674,4674,4674,4674,4674,4674,4674,4674,4674,4638,4638,4638,4638,4638,4638,4638,4638,4638,4638,4638,4674,4638,4638,4638,4638,4638,4638,4638,4638,4638,4638,4638,4638,4638,4638,4674,4674,4674,4674,4674,4638,4638,4638,4638,4638,4638,4638,4638,4638,4638,4638,4638,4638,4638,4638,4638,4638,4638,4638,4638,4638,4638,4638,4638,4638,4638,4638,4638,4638,4638,4638,4638,4638,4638,4638,4638,4638,4638,4638,4638,4638,4638,4638,4638,4674,4674,4674,4674,4674,4674,4674,4674,4674,4674,4674,4674,4674,4674,4674,4674,
4674,4674,4674,4674,4674,4674,4674,4674,4674,4638,4638,4638,4638,4638,4638,4638,4638,4638,4638,4638,4638,4674,4638,4638,4638,4638,4638,4638,4638,4638,4638,4638,4638,4638,4638,4638,4674,4674,4674,4638,4638,4638,4638,4638,4638,4638,4638,4638,4638,4638,4638,4638,4638,4638,4638,4638,4638,4638,4638,4638,4638,4638,4638,4638,4638,4638,4638,4638,4638,4638,4638,4638,4638,4638,4638,4638,4638,4638,4638,4638,4638,4638,4638,4638,4674,4674,4674,4674,4674,4674,4674,4674,4674,4674,4674,4674,4674,4674,4674,4674,
4674,4674,4674,4674,4674,4674,4674,4674,4674,4638,4638,4638,4638,4638,4638,4638,4638,4638,4638,4638,4638,4638,4638,4638,4638,4638,4638,4638,4638,4638,4638,4638,4638,4638,4638,4638,4674,4638,4638,4638,4638,4638,4638,4638,4638,4638,4638,4638,4638,4638,4638,4638,4638,4638,4638,4638,4638,4638,4638,4638,4638,4638,4638,4638,4638,4638,4638,4638,4638,4638,4638,4638,4638,4638,4638,4638,4638,4638,4638,4638,4638,4638,4638,4638,4638,4674,4674,4674,4674,4674,4674,4674,4674,4674,4674,4674,4674,4674,4674,4674,
4674,4674,4674,4674,4674,4674,4674,4674,4674,4638,4638,4638,4638,4638,4638,4638,4638,4638,4638,4638,4638,4638,4638,4638,4638,4638,4638,4638,4638,4638,4638,4638,4638,4638,4638,4638,4638,4638,4638,4638,4638,4638,4638,4638,4638,4638,4638,4638,4638,4638,4638,4638,4638,4638,4638,4638,4638,4638,4638,4638,4638,4638,4638,4638,4638,4638,4638,4638,4638,4638,4638,4638,4638,4638,4638,4638,4638,4638,4638,4638,4638,4638,4638,4638,4638,4674,4674,4674,4674,4674,4674,4674,4674,4674,4674,4674,4674,4674,4674,4674,
4674,4674,4674,4674,4674,4674,4674,4674,4674,4638,4638,4638,4638,4638,4638,4638,4638,4638,4638,4638,4638,4638,4638,4638,4638,4638,4638,4638,4638,4638,4638,4638,4638,4638,4638,4638,4638,4638,4638,4638,4638,4638,4638,4638,4638,4638,4638,4638,4638,4638,4638,4638,4638,4638,4638,4638,4638,4638,4638,4638,4638,4638,4638,4638,4638,4638,4638,4638,4638,4638,4638,4638,4638,4638,4638,4638,4638,4638,4638,4638,4638,4638,4638,4638,4638,4638,4674,4674,4674,4674,4674,4674,4674,4674,4674,4674,4674,4674,4674,4674,
4674,4674,4674,4674,4674,4674,4674,4674,4674,4638,4638,4638,4638,4638,4638,4638,4638,4638,4638,4638,4638,4638,4638,4638,4638,4638,4638,4638,4638,4638,4638,4638,4638,4638,4638,4638,4638,4638,4638,4638,4638,4638,4638,4638,4638,4638,4638,4638,4638,4638,4638,4638,4638,4638,4638,4638,4638,4638,4638,4638,4638,4638,4638,4638,4638,4638,4638,4638,4638,4638,4638,4638,4638,4638,4638,4638,4638,4638,4638,4638,4638,4638,4638,4638,4638,4638,4638,4674,4674,4674,4674,4674,4674,4674,4674,4674,4674,4674,4674,4674,
4674,4674,4674,4674,4674,4674,4674,4674,4674,4674,4638,4638,4638,4638,4638,4638,4638,4638,4638,4638,4638,4638,4638,4638,4638,4638,4638,4638,4638,4638,4638,4638,4638,4638,4638,4638,4638,4638,4638,4638,4638,4638,4638,4638,4638,4638,4638,4638,4638,4638,4638,4638,4638,4638,4638,4638,4638,4638,4638,4638,4638,4638,4638,4638,4638,4638,4638,4638,4638,4638,4638,4638,4638,4638,4638,4638,4638,4638,4638,4638,4638,4638,4638,4638,4638,4638,4638,4674,4674,4674,4674,4674,4674,4674,4674,4674,4674,4674,4674,4674,
4674,4674,4674,4674,4674,4674,4674,4674,4674,4674,4638,4638,4638,4638,4638,4638,4638,4638,4638,4638,4638,4638,4638,4638,4638,4638,4638,4638,4638,4638,4638,4638,4638,4638,4638,4638,4638,4638,4638,4638,4638,4638,4638,4638,4638,4638,4638,4638,4638,4638,4638,4638,4638,4638,4638,4638,4638,4638,4638,4638,4638,4638,4638,4638,4638,4638,4638,4638,4638,4638,4638,4638,4638,4638,4638,4638,4638,4638,4638,4638,4638,4638,4638,4638,4638,4638,4638,4638,4674,4674,4674,4674,4674,4674,4674,4674,4674,4674,4674,4674,
4674,4674,4674,4674,4674,4674,4674,4674,4674,4638,4638,4638,4638,4638,4638,4638,4638,4638,4638,4638,4638,4638,4638,4638,4638,4638,4638,4638,4638,4638,4638,4638,4638,4638,4638,4638,4638,4638,4638,4638,4638,4638,4638,4638,4638,4638,4638,4638,4638,4638,4638,4638,4638,4638,4638,4638,4638,4638,4638,4638,4638,4638,4638,4638,4638,4638,4638,4638,4638,4638,4638,4638,4638,4638,4638,4638,4638,4638,4638,4638,4638,4638,4638,4638,4638,4638,4638,4638,4674,4674,4674,4674,4674,4674,4674,4674,4674,4674,4674,4674,
4674,4674,4674,4674,4674,4674,4674,4674,4674,4638,4638,4638,4638,4638,4638,4638,4638,4638,4638,4638,4638,4638,4638,4638,4638,4638,4638,4638,4638,4638,4638,4638,4638,4638,4638,4638,4638,4638,4638,4638,4638,4638,4638,4638,4638,4638,4638,4638,4638,4638,4638,4638,4638,4638,4638,4638,4638,4638,4638,4638,4638,4638,4638,4638,4638,4638,4638,4638,4638,4638,4638,4638,4638,4638,4638,4638,4638,4638,4638,4638,4638,4638,4638,4638,4638,4638,4638,4638,4638,4674,4674,4674,4674,4674,4674,4674,4674,4674,4674,4674,
4674,4674,4674,4674,4674,4674,4674,4674,4674,4638,4638,4638,4638,4638,4638,4638,4638,4638,4638,4638,4638,4638,4638,4638,4638,4638,4638,4638,4638,4638,4638,4638,4638,4638,4638,4638,4638,4638,4638,4638,4638,4638,4638,4638,4638,4638,4638,4638,4638,4638,4638,4638,4638,4638,4638,4638,4638,4638,4638,4638,4638,4638,4638,4638,4638,4638,4638,4638,4638,4638,4638,4638,4638,4638,4638,4638,4638,4638,4638,4638,4638,4638,4638,4638,4638,4638,4638,4638,4638,4674,4674,4674,4674,4674,4674,4674,4674,4674,4674,4674,
4674,4674,4674,4674,4674,4674,4674,4674,4674,4638,4638,4638,4638,4638,4638,4638,4638,4638,4638,4638,4638,4638,4638,4638,4638,4638,4638,4638,4638,4638,4638,4638,4638,4638,4638,4638,4638,4638,4638,4638,4638,4638,4638,4638,4638,4638,4638,4638,4638,4638,4638,4638,4638,4638,4638,4638,4638,4638,4638,4638,4638,4638,4638,4638,4638,4638,4638,4638,4638,4638,4638,4638,4638,4638,4638,4638,4638,4638,4638,4638,4638,4638,4638,4638,4638,4638,4638,4638,4638,4674,4674,4674,4674,4674,4674,4674,4674,4674,4674,4674,
4674,4674,4674,4674,4674,4674,4674,4674,4674,4674,4638,4638,4638,4638,4638,4638,4638,4638,4638,4638,4638,4638,4638,4638,4638,4638,4638,4638,4638,4638,4638,4638,4638,4638,4638,4638,4638,4638,4638,4638,4638,4638,4638,4638,4638,4638,4638,4638,4638,4638,4638,4638,4638,4638,4638,4638,4638,4638,4638,4638,4638,4638,4638,4638,4638,4638,4638,4638,4638,4638,4638,4638,4638,4638,4638,4638,4638,4638,4638,4638,4638,4638,4638,4638,4638,4638,4638,4638,4638,4674,4674,4674,4674,4674,4674,4674,4674,4674,4674,4674,
4674,4674,4674,4674,4674,4674,4674,4674,4674,4674,4674,4638,4638,4638,4638,4638,4638,4638,4638,4638,4638,4638,4638,4638,4638,4638,4638,4638,4638,4638,4638,4638,4638,4638,4638,4638,4638,4638,4638,4638,4638,4638,4638,4638,4638,4638,4638,4638,4638,4659,4659,4659,4659,4659,4638,4638,4638,4638,4638,4638,4638,4638,4638,4638,4638,4638,4638,4638,4638,4638,4638,4638,4638,4638,4638,4638,4638,4638,4638,4638,4638,4638,4638,4638,4638,4638,4638,4638,4638,4674,4674,4674,4674,4674,4674,4674,4674,4674,4674,4674,
4674,4674,4674,4674,4674,4674,4674,4674,4674,4674,4674,4674,4638,4638,4638,4638,4638,4638,4638,4638,4638,4638,4638,4638,4638,4638,4638,4638,4638,4638,4638,4638,4638,4638,4638,4638,4638,4638,4638,4638,4638,4638,4638,4638,4638,4638,4638,4638,4659,4659,4659,4659,4659,4659,4659,4659,4659,4638,4638,4638,4638,4638,4638,4638,4638,4638,4638,4638,4638,4638,4638,4638,4638,4638,4638,4638,4638,4638,4638,4638,4638,4638,4638,4638,4638,4638,4638,4638,4638,4674,4674,4674,4674,4674,4674,4674,4674,4674,4674,4674,
4674,4674,4674,4674,4674,4674,4674,4674,4674,4674,4674,4674,4674,4638,4638,4638,4638,4638,4638,4638,4638,4638,4638,4638,4638,4638,4638,4638,4638,4638,4638,4638,4638,4638,4638,4638,4638,4638,4638,4638,4638,4638,4638,4638,4638,4638,4638,4638,4659,4659,4659,4659,4659,4659,4659,4659,4659,4659,4638,4638,4638,4638,4638,4638,4638,4638,4638,4638,4638,4638,4638,4638,4638,4638,4638,4638,4638,4638,4638,4638,4638,4638,4638,4638,4638,4638,4638,4638,4638,4674,4674,4674,4674,4674,4674,4674,4674,4674,4674,4674,
4674,4674,4674,4674,4674,4674,4674,4674,4674,4674,4674,4674,4674,4674,4638,4638,4638,4638,4638,4638,4638,4638,4638,4638,4638,4638,4638,4638,4638,4638,4638,4638,4638,4638,4638,4638,4638,4638,4638,4638,4638,4638,4638,4638,4638,4659,4659,4659,4659,4659,4659,4659,4659,4659,4659,4659,4659,4659,4659,4659,4659,4659,4659,4638,4638,4638,4638,4638,4638,4638,4638,4638,4638,4638,4638,4638,4638,4638,4638,4638,4638,4638,4638,4638,4638,4638,4638,4638,4638,4674,4674,4674,4674,4674,4674,4674,4674,4674,4674,4674,
4674,4674,4674,4674,4674,4674,4674,4674,4674,4674,4674,4674,4674,4674,4674,4638,4638,4638,4638,4638,4638,4638,4638,4638,4638,4638,4638,4638,4638,4638,4638,4638,4638,4638,4638,4638,4638,4638,4638,4638,4638,4638,4638,4638,4638,4659,4659,4659,4659,4659,4659,4659,4659,4659,4659,4659,4659,4659,4659,4659,4659,4659,4659,4659,4638,4638,4638,4638,4638,4638,4638,4638,4638,4638,4638,4638,4638,4638,4638,4638,4638,4638,4638,4638,4638,4638,4638,4638,4638,4674,4674,4674,4674,4674,4674,4674,4674,4674,4674,4674,
4674,4674,4674,4674,4674,4674,4674,4674,4674,4674,4674,4674,4674,4674,4674,4674,4638,4638,4638,4638,4638,4638,4638,4638,4638,4638,4638,4638,4638,4638,4638,4638,4638,4638,4638,4638,4638,4638,4638,4638,4638,4638,4638,4638,4659,4659,4659,4659,4659,4659,4659,4659,4659,4659,4659,4659,4659,4659,4659,4659,4659,4659,4659,4659,4659,4638,4638,4638,4638,4638,4638,4638,4638,4638,4638,4638,4638,4638,4638,4638,4638,4638,4638,4638,4638,4638,4638,4638,4638,4674,4674,4674,4674,4674,4674,4674,4674,4674,4674,4674,
4674,4674,4674,4674,4674,4674,4674,4674,4674,4674,4674,4674,4674,4674,4674,4674,4674,4638,4638,4638,4638,4638,4638,4638,4638,4638,4638,4638,4638,4638,4638,4638,4638,4638,4638,4638,4638,4638,4638,4638,4638,4638,4638,4638,4659,4659,4659,4659,4659,4659,4659,3712,3712,4659,4659,4659,4659,4659,4659,4659,4659,4659,4659,4659,4659,4638,4638,4638,4638,4638,4638,4638,4638,4638,4638,4638,4638,4638,4638,4638,4638,4638,4638,4638,4638,4638,4638,4638,4638,4674,4674,4674,4674,4674,4674,4674,4674,4674,4674,4674,
4674,4674,4674,4674,4674,4674,4674,4674,4674,4674,4674,4674,4674,4674,4674,4674,4674,4674,4674,4638,4638,4638,4638,4638,4638,4638,4638,4638,4638,4638,4638,4638,4638,4638,4638,4638,4638,4638,4638,4638,4638,4638,4638,4638,4659,4659,4659,4659,4659,3712,3712,3712,3712,3712,4659,4659,4659,4659,4659,4659,4659,4659,4659,4659,4659,4638,4638,4638,4638,4638,4638,4638,4638,4638,4638,4638,4638,4638,4638,4638,4638,4638,4638,4638,4638,4638,4638,4638,4638,4674,4674,4674,4674,4674,4674,4674,4674,4674,4674,4674,
4674,4674,4674,4674,4674,4674,4674,4674,4674,4674,4674,4674,4674,4674,4674,4674,4674,4674,4674,4674,4638,4638,4638,4638,4638,4638,4638,4638,4638,4638,4638,4638,4638,4638,4638,4638,4638,4638,4638,4638,4638,4638,4638,4638,4659,4659,4659,4659,4659,3712,3712,4659,4659,3712,4659,4659,4659,4659,4659,4659,4659,4659,4659,4659,4638,4638,4638,4638,4638,4638,4638,4638,4638,4638,4638,4638,4638,4638,4638,4638,4638,4638,4638,4638,4638,4638,4638,4638,4638,4674,4674,4674,4674,4674,4674,4674,4674,4674,4674,4674,
4674,4674,4674,4674,4674,4674,4674,4674,4674,4674,4674,4674,4674,4674,4674,4674,4674,4674,4674,4674,4674,4638,4638,4638,4638,4638,4638,4638,4638,4638,4638,4638,4638,4638,4638,4638,4638,4638,4638,4638,4638,4638,4638,4659,4659,4659,4659,4659,3712,3712,4659,4659,4659,4659,4659,4659,4659,4659,4659,4659,4659,4659,4659,4659,4638,4638,4638,4638,4638,4638,4638,4638,4638,4638,4638,4638,4638,4638,4638,4638,4638,4638,4638,4638,4638,4638,4638,4638,4638,4674,4674,4674,4674,4674,4674,4674,4674,4674,4674,4674,
4674,4674,4674,4674,4674,4674,4674,4674,4674,4674,4674,4674,4674,4674,4674,4674,4674,4674,4674,4674,4674,4674,4638,4638,4638,4638,4638,4638,4638,4638,4638,4638,4638,4638,4638,4638,4638,4638,4638,4638,4638,4638,4659,4659,4659,4659,4659,3712,3712,4659,4659,4659,4659,4659,4659,4659,4659,4659,4659,4659,4659,4659,4659,4659,4638,4638,4638,4638,4638,4638,4638,4638,4638,4638,4638,4638,4638,4638,4638,4638,4638,4638,4638,4638,4638,4638,4638,4638,4674,4674,4674,4674,4674,4674,4674,4674,4674,4674,4674,4674,
4674,4674,4674,4674,4674,4674,4674,4674,4674,4674,4674,4674,4674,4674,4674,4674,4674,4674,4674,4674,4674,4674,4638,4638,4638,4638,4638,4638,4638,4638,4638,4638,4638,4638,4638,4638,4638,4638,4638,4638,4638,4659,4659,4659,4659,4659,4659,3712,4659,4659,4659,4659,4659,4659,4659,4659,4659,4659,4659,4659,4659,4659,4659,4638,4638,4638,4638,4638,4638,4638,4638,4638,4638,4638,4638,4638,4638,4638,4638,4638,4638,4638,4638,4638,4638,4638,4638,4638,4674,4674,4674,4674,4674,4674,4674,4674,4674,4674,4674,4674,
4674,4674,4674,4674,4674,4674,4674,4674,4674,4674,4674,4674,4674,4674,4674,4674,4674,4674,4674,4674,4674,4674,4638,4638,4638,4638,4638,4638,4638,4638,4638,4638,4638,4638,4638,4638,4638,4638,4638,4659,4659,4659,4659,4659,4659,4659,4659,4659,4659,4659,4659,4659,4659,4659,4659,4659,4659,4659,4659,4659,4659,4638,4638,4638,4638,4638,4638,4638,4638,4638,4638,4638,4638,4638,4638,4638,4638,4638,4638,4638,4638,4638,4638,4638,4638,4638,4638,4638,4674,4674,4674,4674,4674,4674,4674,4674,4674,4674,4674,4674,
4674,4674,4674,4674,4674,4674,4674,4674,4674,4674,4674,4674,4674,4674,4674,4674,4674,4674,4674,4674,4674,4674,4638,4638,4638,4638,4638,4638,4638,4638,4638,4638,4638,4638,4638,4638,4638,4638,4638,4659,4659,4659,4659,4659,4659,4659,4659,4659,4659,4659,4659,4659,4659,4659,4659,4659,4659,4659,4659,4659,4659,4638,4638,4638,4638,4638,4638,4638,4638,4638,4638,4638,4638,4638,4638,4638,4638,4638,4638,4638,4638,4638,4638,4638,4638,4638,4638,4638,4674,4674,4674,4674,4674,4674,4674,4674,4674,4674,4674,4674,
4674,4674,4674,4674,4674,4674,4674,4674,4674,4674,4674,4674,4674,4674,4674,4674,4674,4674,4674,4674,4674,4674,4638,4638,4638,4638,4638,4638,4638,4638,4638,4638,4638,4638,4638,4638,4638,4638,4638,4659,4659,4659,4659,4659,4659,4659,4659,4659,4659,4659,4659,4659,4638,4638,4659,4659,4659,4659,4659,4659,4659,4638,4638,4638,4638,4638,4638,4638,4638,4638,4638,4638,4638,4638,4638,4638,4638,4638,4638,4638,4638,4638,4638,4638,4638,4638,4638,4638,4674,4674,4674,4674,4674,4674,4674,4674,4674,4674,4674,4674,
4674,4674,4674,4674,4674,4674,4674,4674,4674,4674,4674,4674,4674,4674,4674,4674,4674,4674,4674,4674,4674,4638,4638,4638,4638,4638,4638,4638,4638,4638,4638,4638,4638,4638,4638,4638,4638,4638,4638,4659,4659,4659,4659,4659,4659,4659,4659,4659,4659,4659,4659,4638,4638,4638,4659,4659,4659,4659,4659,4659,4638,4638,4638,4638,4638,4638,4638,4638,4638,4638,4638,4638,4638,4638,4638,4638,4638,4638,4638,4638,4638,4638,4638,4638,4638,4638,4638,4638,4674,4674,4674,4674,4674,4674,4674,4674,4674,4674,4674,4674,
4674,4674,4674,4674,4674,4674,4674,4674,4674,4674,4674,4674,4674,4674,4674,4674,4674,4674,4674,4674,4674,4638,4638,4638,4638,4638,4638,4638,4638,4638,4638,4638,4638,4638,4638,4638,4638,4638,4638,4638,4638,4638,4638,4659,4659,4659,4659,4659,4659,4659,4659,4638,4638,4638,4638,4638,4638,4638,4638,4638,4638,4638,4638,4638,4638,4638,4638,4638,4638,4638,4638,4638,4638,4638,4638,4638,4638,4638,4638,4638,4638,4638,4638,4638,4638,4638,4638,4638,4674,4674,4674,4674,4674,4674,4674,4674,4674,4674,4674,4674,
4674,4674,4674,4674,4674,4674,4674,4674,4674,4674,4674,4674,4674,4674,4674,4674,4674,4674,4674,4674,4638,4638,4638,4638,4638,4638,4638,4638,4638,4638,4638,4638,4638,4638,4638,4638,4638,4638,4638,4638,4638,4638,4638,4638,4638,4638,4638,4638,4638,4638,4638,4638,4638,4638,4638,4638,4638,4638,4638,4638,4638,4638,4638,4638,4638,4638,4638,4638,4638,4638,4638,4638,4638,4638,4638,4638,4638,4638,4638,4638,4638,4638,4638,4638,4638,4638,4638,4674,4674,4674,4674,4674,4674,4674,4674,4674,4674,4674,4674,4674,
4674,4674,4674,4674,4674,4674,4674,4674,4674,4674,4674,4674,4674,4674,4674,4674,4674,4674,4674,4674,4638,4638,4638,4638,4638,4638,4638,4638,4638,4638,4638,4638,4638,4638,4638,4638,4638,4638,4638,4638,4638,4638,4638,4638,4638,4638,4638,4638,4638,4638,4638,4638,4638,4638,4638,4638,4638,4638,4638,4638,4638,4638,4638,4638,4638,4638,4638,4638,4638,4638,4638,4638,4638,4638,4638,4638,4638,4638,4638,4638,4638,4638,4638,4638,4638,4638,4638,4674,4674,4674,4674,4674,4674,4674,4674,4674,4674,4674,4674,4674,
4674,4674,4674,4674,4674,4674,4674,4674,4674,4674,4674,4674,4674,4674,4674,4674,4674,4674,4674,4674,4638,4638,4638,4638,4638,4638,4638,4638,4638,4638,4638,4638,4638,4638,4638,4638,4638,4638,4638,4638,4638,4638,4638,4638,4638,4638,4638,4638,4638,4638,4638,4638,4638,4638,4638,4638,4638,4638,4638,4638,4638,4638,4638,4638,4638,4638,4638,4638,4638,4638,4638,4638,4638,4638,4638,4638,4638,4638,4638,4638,4638,4638,4638,4638,4638,4638,4638,4674,4674,4674,4674,4674,4674,4674,4674,4674,4674,4674,4674,4674,
4674,4674,4674,4674,4674,4674,4674,4674,4674,4674,4674,4674,4674,4674,4674,4674,4674,4674,4674,4674,4638,4638,4638,4638,4638,4638,4638,4638,4638,4638,4638,4638,4638,4638,4638,4638,4638,4638,4638,4638,4638,4638,4638,4638,4638,4638,4638,4638,4638,4638,4638,4638,4638,4638,4638,4638,4638,4638,4638,4638,4638,4638,4638,4638,4638,4638,4638,4638,4638,4638,4638,4638,4638,4638,4638,4638,4638,4638,4638,4638,4638,4638,4638,4638,4638,4638,4674,4674,4674,4674,4674,4674,4674,4674,4674,4674,4674,4674,4674,4674,
4674,4674,4674,4674,4674,4638,4638,4674,4674,4674,4674,4674,4674,4674,4674,4674,4674,4674,4674,4674,4638,4638,4638,4638,4638,4638,4638,4638,4638,4638,4638,4638,4638,4638,4638,4638,4638,4638,4638,4638,4638,4638,4638,4638,4638,4638,4638,4638,4638,4638,4638,4638,4638,4638,4638,4638,4638,4638,4638,4638,4638,4638,4638,4638,4638,4638,4638,4638,4638,4638,4638,4638,4638,4638,4638,4638,4638,4638,4638,4638,4638,4638,4638,4638,4638,4674,4674,4674,4674,4674,4674,4674,4674,4674,4674,4674,4674,4674,4674,4674,
4674,4674,4674,4674,4638,4638,4638,4638,4638,4674,4674,4674,4674,4674,4674,4674,4674,4674,4674,4674,4638,4638,4638,4638,4638,4638,4638,4638,4638,4638,4638,4638,4638,4638,4638,4638,4638,4638,4638,4638,4638,4638,4638,4638,4638,4638,4638,4638,4638,4638,4638,4638,4638,4638,4638,4638,4638,4638,4638,4638,4638,4638,4638,4638,4638,4638,4638,4638,4638,4638,4638,4638,4638,4638,4638,4638,4638,4638,4638,4638,4638,4638,4638,4638,4638,4674,4674,4674,4674,4674,4674,4674,4674,4674,4674,4674,4674,4674,4674,4674,
4674,4674,4674,4674,4638,4638,4638,4638,4638,4674,4674,4674,4674,4674,4674,4674,4674,4674,4674,4674,4674,4638,4638,4638,4638,4638,4638,4638,4638,4638,4638,4638,4638,4638,4638,4638,4638,4638,4638,4638,4638,4638,4638,4638,4638,4638,4638,4638,4638,4638,4638,4638,4638,4638,4638,4638,4638,4638,4638,4638,4638,4638,4638,4638,4638,4638,4638,4638,4638,4638,4638,4638,4638,4638,4638,4638,4638,4638,4638,4638,4638,4638,4638,4674,4674,4674,4674,4674,4674,4674,4674,4674,4674,4674,4674,4674,4674,4674,4674,4674,
4674,4674,4674,4674,4638,4638,4638,4638,4638,4674,4674,4674,4674,4674,4674,4674,4674,4674,4674,4674,4674,4638,4638,4638,4638,4638,4638,4638,4638,4638,4638,4638,4638,4638,4638,4638,4638,4638,4638,4638,4638,4638,4638,4638,4638,4638,4638,4638,4638,4638,4638,4638,4638,4638,4638,4638,4638,4638,4638,4638,4638,4638,4638,4638,4638,4638,4638,4638,4638,4638,4638,4638,4638,4638,4638,4638,4638,4638,4638,4638,4638,4638,4674,4674,4674,4674,4674,4674,4674,4674,4674,4674,4674,4674,4674,4674,4674,4674,4674,4674,
4674,4674,4674,4674,4638,4638,4638,4638,4638,4674,4674,4674,4674,4674,4674,4674,4674,4674,4674,4674,4674,4674,4638,4638,4638,4638,4638,4638,4638,4638,4638,4638,4638,4638,4638,4638,4638,4638,4638,4638,4638,4638,4638,4638,4638,4638,4638,4638,4638,4638,4638,4638,4638,4638,4638,4638,4638,4638,4638,4638,4638,4638,4638,4638,4638,4638,4638,4638,4638,4638,4638,4638,4638,4638,4638,4638,4638,4638,4638,4638,4674,4674,4674,4674,4674,4674,4674,4674,4674,4674,4674,4674,4674,4674,4674,4674,4674,4674,4674,4674,
4674,4674,4674,4674,4638,4638,4638,4638,4638,4674,4674,4674,4674,4674,4674,4674,4674,4674,4674,4674,4674,4674,4674,4638,4638,4638,4638,4638,4638,4638,4638,4638,4638,4638,4638,4638,4638,4638,4638,4638,4638,4638,4638,4638,4638,4638,4638,4638,4638,4638,4638,4638,4638,4638,4638,4638,4638,4638,4638,4638,4638,4638,4638,4638,4638,4638,4638,4638,4638,4638,4638,4638,4638,4638,4638,4638,4638,4638,4674,4674,4674,4674,4674,4674,4674,4674,4674,4674,4674,4674,4674,4674,4674,4674,4674,4674,4674,4674,4674,4674,
4674,4674,4674,4674,4638,4638,4638,4638,4638,4674,4674,4674,4674,4674,4674,4674,4674,4674,4674,4674,4674,4674,4674,4638,4638,4638,4638,4638,4638,4638,4638,4638,4638,4638,4638,4638,4638,4638,4638,4638,4638,4638,4638,4638,4638,4638,4638,4638,4638,4638,4638,4638,4638,4638,4638,4638,4638,4638,4638,4638,4638,4638,4638,4638,4638,4638,4638,4638,4638,4638,4638,4638,4638,4638,4638,4638,4674,4674,4674,4674,4674,4674,4674,4674,4674,4674,4674,4674,4674,4674,4674,4674,4674,4674,4674,4674,4674,4674,4674,4674,
4674,4674,4674,4674,4638,4638,4638,4638,4638,4674,4674,4674,4674,4674,4674,4674,4674,4674,4674,4674,4674,4674,4674,4674,4638,4638,4638,4638,4638,4638,4638,4638,4638,4638,4638,4638,4638,4638,4638,4638,4638,4638,4638,4638,4638,4638,4638,4638,4638,4638,4638,4638,4638,4638,4638,4638,4638,4638,4638,4638,4638,4638,4638,4638,4638,4638,4638,4638,4638,4638,4638,4638,4638,4638,4638,4674,4674,4674,4674,4674,4674,4674,4674,4674,4674,4674,4674,4674,4674,4674,4674,4674,4674,4674,4674,4674,4674,4674,4674,4674,
4674,4674,4674,4674,4674,4638,4638,4638,4638,4674,4674,4674,4674,4674,4674,4674,4674,4674,4674,4674,4674,4674,4674,4674,4674,4674,4638,4638,4638,4638,4638,4638,4638,4638,4638,4638,4638,4638,4638,4638,4638,4638,4638,4638,4638,4638,4638,4638,4638,4638,4638,4638,4638,4638,4638,4638,4638,4638,4638,4638,4638,4638,4638,4638,4638,4638,4638,4638,4638,4638,4638,4638,4638,4674,4674,4674,4674,4674,4674,4674,4674,4674,4674,4674,4674,4674,4674,4674,4674,4674,4674,4674,4674,4674,4674,4674,4674,4674,4674,4674,
4674,4674,4674,4674,4674,4674,4674,4674,4674,4674,4674,4674,4674,4674,4674,4674,4674,4674,4674,4674,4674,4674,4674,4674,4674,4674,4674,4674,4638,4638,4638,4638,4638,4638,4638,4638,4638,4638,4638,4638,4638,4638,4638,4638,4638,4638,4638,4638,4638,4638,4638,4638,4638,4638,4638,4638,4638,4638,4638,4638,4638,4638,4638,4638,4638,4638,4638,4638,4638,4638,4638,4674,4674,4674,4674,4674,4674,4674,4674,4674,4674,4674,4674,4674,4674,4674,4674,4674,4674,4674,4674,4674,4674,4674,4674,4674,4674,4674,4674,4674,
4674,4674,4674,4674,4674,4638,4638,4638,4638,4674,4674,4674,4674,4674,4674,4674,4674,4674,4674,4674,4674,4674,4674,4674,4674,4674,4674,4674,4674,4638,4638,4638,4638,4638,4638,4638,4638,4638,4638,4638,4638,4638,4638,4638,4638,4638,4638,4638,4638,4638,4638,4638,4638,4638,4638,4638,4638,4638,4638,4638,4638,4638,4638,4638,4638,4638,4638,4638,4638,4638,4674,4674,4674,4674,4674,4674,4674,4674,4674,4674,4674,4674,4674,4674,4674,4674,4674,4674,4674,4674,4674,4674,4674,4674,4674,4674,4674,4674,4674,4674,
4674,4674,4674,4674,4674,4638,4638,4638,4638,4638,4674,4674,4674,4674,4674,4674,4674,4674,4674,4674,4674,4674,4674,4674,4674,4674,4674,4674,4674,4674,4638,4638,4638,4638,4638,4638,4638,4638,4638,4638,4638,4638,4638,4638,4638,4638,4638,4638,4638,4638,4638,4638,4638,4638,4638,4638,4638,4638,4638,4638,4638,4638,4638,4638,4638,4638,4638,4638,4638,4674,4674,4674,4674,4674,4674,4674,4674,4674,4674,4674,4674,4674,4674,4674,4674,4674,4674,4674,4674,4638,4638,4638,4638,4638,4638,4674,4674,4674,4674,4674,
4674,4674,4674,4674,4674,4638,4638,4638,4638,4638,4638,4674,4674,4674,4674,4674,4674,4674,4674,4674,4674,4674,4674,4674,4674,4674,4674,4674,4674,4674,4674,4638,4638,4638,4638,4638,4638,4638,4638,4638,4638,4638,4638,4638,4638,4638,4638,4638,4638,4638,4638,4638,4638,4638,4638,4638,4638,4638,4638,4638,4638,4638,4638,4638,4638,4638,4638,4638,4674,4674,4674,4674,4674,4674,4674,4674,4674,4674,4674,4674,4674,4674,4674,4674,4674,4674,4674,4674,4674,4638,4638,4638,4638,4638,4638,4674,4674,4674,4674,4674,
4674,4674,4674,4674,4674,4674,4638,4638,4638,4638,4638,4638,4638,4638,4674,4674,4674,4674,4674,4674,4674,4674,4674,4674,4674,4674,4674,4674,4674,4674,4674,4674,4638,4638,4638,4638,4638,4638,4638,4638,4638,4638,4638,4638,4638,4638,4638,4638,4638,4638,4638,4638,4638,4638,4638,4638,4638,4638,4638,4638,4638,4638,4638,4638,4638,4638,4674,4674,4674,4674,4674,4674,4674,4674,4674,4674,4674,4674,4674,4674,4674,4674,4674,4674,4674,4674,4674,4674,4638,4638,4638,4638,4638,4638,4638,4674,4674,4674,4674,4674,
4674,4674,4674,4674,4674,4674,4638,4638,4638,4638,4638,4638,4638,4638,4638,4674,4674,4674,4674,4674,4674,4674,4674,4674,4674,4674,4674,4674,4674,4674,4674,4674,4674,4638,4638,4638,4638,4638,4638,4638,4638,4638,4638,4638,4638,4638,4638,4638,4638,4638,4638,4638,4638,4638,4638,4638,4638,4638,4638,4638,4638,4638,4638,4638,4638,4674,4674,4674,4674,4674,4674,4674,4674,4674,4674,4674,4674,4674,4674,4674,4674,4674,4674,4674,4674,4674,4674,4674,4638,4638,4638,4638,4638,4638,4638,4674,4674,4674,4674,4674,
4674,4674,4674,4674,4674,4674,4638,4638,4638,4638,4638,4638,4638,4638,4638,4674,4674,4674,4674,4674,4674,4674,4674,4674,4674,4674,4674,4674,4674,4674,4674,4674,4674,4674,4638,4638,4638,4638,4638,4638,4638,4638,4638,4638,4638,4638,4638,4638,4638,4638,4638,4638,4638,4638,4638,4638,4638,4638,4638,4638,4638,4638,4638,4638,4674,4674,4674,4674,4674,4674,4674,4674,4674,4674,4674,4674,4674,4674,4674,4674,4674,4674,4674,4674,4674,4674,4674,4638,4638,4638,4638,4638,4638,4638,4638,4674,4674,4674,4674,4674,
4674,4674,4674,4674,4674,4674,4638,4638,4638,4638,4638,4638,4638,4638,4638,4674,4674,4674,4674,4674,4674,4674,4674,4674,4674,4674,4674,4674,4674,4674,4674,4674,4674,4674,4674,4674,4674,4638,4638,4638,4638,4638,4638,4638,4638,4638,4638,4638,4638,4638,4638,4638,4638,4638,4638,4638,4638,4638,4638,4638,4638,4638,4638,4674,4674,4674,4674,4674,4674,4674,4674,4674,4674,4674,4674,4674,4674,4674,4674,4674,4674,4674,4674,4674,4674,4674,4638,4638,4638,4638,4638,4638,4638,4638,4674,4674,4674,4674,4674,4674,
4674,4674,4674,4674,4674,4674,4674,4674,4638,4638,4638,4638,4638,4638,4638,4638,4674,4674,4674,4674,4674,4674,4674,4674,4674,4674,4674,4674,4674,4674,4674,4674,4674,4674,4674,4674,4674,4638,4638,4638,4638,4638,4638,4638,4638,4638,4638,4638,4638,4638,4638,4638,4638,4638,4638,4638,4638,4638,4638,4638,4638,4638,4674,4674,4674,4674,4674,4674,4674,4674,4674,4674,4674,4674,4674,4674,4674,4674,4674,4674,4674,4638,4638,0,4638,4638,4638,4638,4638,4638,4638,4638,4638,4674,4674,4674,4674,4674,4674,4674,
4674,4674,4674,4674,4674,4674,4674,4674,4674,4638,4638,4638,4638,4638,4638,4674,4674,4674,4674,4674,4674,4674,4674,4674,4674,4674,4674,4674,4674,4674,4674,4674,4674,4674,4674,4674,4674,4638,4638,4638,4638,4638,4638,4638,4638,4638,4638,4638,4638,4638,4638,4638,4638,4638,4638,4638,4638,4638,4638,4638,4638,4674,4674,4674,4674,4674,4674,4674,4674,4674,4674,4674,4674,4674,4674,4674,4674,4674,4674,4674,4674,4638,4638,4638,4638,4638,4638,4638,4638,4638,4638,4638,4674,4674,4674,4674,4674,4674,4674,4674,
4674,4674,4674,4674,4674,4674,4674,4674,4674,4674,4638,4638,4638,4638,4638,4674,4674,4674,4674,4674,4674,4674,4674,4674,4674,4674,4674,4674,4674,4674,4674,4674,4674,4674,4674,4674,4674,4674,4638,4638,4638,4638,4638,4638,4638,4638,4638,4638,4638,4638,4638,4638,4638,4638,4638,4638,4638,4638,4638,4638,4638,4674,4674,4674,4674,4674,4674,4674,4674,4674,4674,4674,4674,4674,4674,4674,4674,4674,4674,4674,4638,4638,4638,4638,4638,4638,4638,4638,4638,4638,4674,4674,4674,4674,4674,4674,4674,4674,4674,4674,
4674,4674,4674,4674,4674,4674,4674,4674,4674,4674,4638,4638,4638,4638,4638,4674,4674,4674,4674,4674,4674,4674,4674,4674,4674,4674,4674,4674,4674,4674,4674,4674,4674,4674,4674,4674,4674,4674,4638,4638,4638,4638,4638,4638,4638,4638,4638,4638,4638,4638,4638,4638,4638,4638,4638,4638,4638,4638,4638,4638,4674,4674,4674,4674,4674,4674,4674,4674,4674,4674,4674,4674,4674,4674,4674,4674,4674,4674,4674,4638,4638,4638,4638,4638,4638,4638,4638,4638,4674,4674,4674,4674,4674,4674,4674,4674,4674,4674,4674,4674,
4674,4674,4674,4674,4674,4674,4674,4674,4674,4674,4674,4674,4674,4674,4674,4674,4674,4674,4674,4674,4674,4674,4674,4674,4674,4674,4674,4674,4674,4674,4674,4674,4674,4674,4674,4674,4674,4674,4638,4638,4638,4638,4638,4638,4638,4638,4638,4638,4638,4638,4638,4638,4638,4638,4638,4638,4638,4638,4638,4638,4674,4674,4674,4674,4674,4674,4674,4674,4674,4674,4674,4674,4674,4674,4674,4674,4674,4674,4674,4638,4638,4638,4638,4638,4638,4638,4674,4674,4674,4674,4674,4674,4674,4674,4674,4674,4674,4674,4674,4674,
4674,4674,4674,4674,4674,4674,4674,4674,4674,4674,4674,4674,4674,4674,4674,4674,4674,4674,4674,4674,4674,4674,4674,4674,4674,4674,4674,4674,4674,4674,4674,4674,4674,4674,4674,4674,4674,4674,4638,4638,4638,4638,4638,4638,4638,4638,4638,4638,4638,4638,4638,4638,4638,4638,4638,4638,4638,4638,4638,4638,4674,4674,4674,4674,4674,4674,4674,4674,4674,4674,4674,4674,4674,4674,4674,4674,4674,4674,4674,4638,4638,4638,4638,4674,4674,4674,4674,4674,4674,4674,4674,4674,4674,4674,4674,4674,4674,4674,4674,4674
</data>
 </layer>
 <layer id="2" name="Layer 2" width="100" height="79">
  <data encoding="csv">
0,0,0,0,0,0,0,0,0,0,0,0,0,0,0,0,0,0,0,0,0,0,0,0,0,0,0,0,0,0,0,0,0,0,0,0,0,0,0,0,0,0,0,0,0,0,5093,4535,0,0,0,0,0,0,0,0,0,0,0,0,0,0,0,0,0,0,0,0,0,0,0,0,0,0,4497,5058,4813,4814,4814,4814,4814,4954,0,0,0,0,0,0,0,0,0,0,0,0,0,0,0,0,0,0,
0,0,0,0,0,0,0,0,0,0,0,0,0,0,0,0,0,0,0,0,0,0,0,0,0,0,0,0,0,0,0,0,0,0,0,0,0,0,0,0,0,0,0,0,0,0,0,4675,0,0,0,0,0,0,0,0,0,0,0,0,0,0,0,0,0,0,0,0,0,0,0,0,0,4497,5058,0,0,0,0,0,3228,4813,4814,4814,4954,0,0,0,0,0,0,0,0,0,0,0,0,0,0,0,
0,0,0,0,0,0,0,0,0,0,0,0,0,0,0,0,0,0,0,0,0,0,0,0,0,0,0,0,0,0,0,0,0,0,0,0,0,0,0,0,0,0,0,0,0,0,0,5093,4535,0,0,0,0,4499,0,0,0,0,0,0,0,0,0,0,0,0,0,0,0,0,0,0,0,4637,0,0,0,0,0,3228,0,2946,0,3228,4673,0,0,0,0,0,0,0,0,0,0,0,0,0,0,0,
0,0,0,0,0,0,0,0,0,0,0,0,0,0,0,0,0,0,0,0,0,0,0,0,0,0,0,0,0,0,0,0,0,0,0,0,0,0,0,0,0,0,0,0,0,0,0,0,4675,0,0,0,4638,5057,4499,0,0,0,0,0,0,0,0,0,0,0,0,0,0,0,0,0,0,4637,0,0,0,0,0,3228,3228,0,3228,3228,4673,0,0,0,0,0,0,0,0,0,0,0,0,0,0,0,
0,0,0,0,0,0,0,0,0,0,0,0,0,0,0,0,0,0,0,0,0,0,0,0,0,0,0,0,0,0,0,0,0,0,0,0,0,0,0,0,0,0,0,0,0,0,0,0,4675,0,0,0,4638,4638,4639,0,0,0,0,0,0,0,0,0,0,0,0,0,0,0,0,0,0,4637,0,0,0,0,0,0,3228,0,3228,3228,4673,0,0,0,0,0,0,0,0,0,0,0,0,0,0,0,
0,0,0,0,0,0,0,0,0,0,0,0,0,0,0,0,0,0,0,0,0,0,0,0,0,0,0,0,0,0,0,0,0,0,0,0,0,0,0,0,0,0,0,0,0,0,0,0,4675,0,0,0,0,4638,4639,0,0,0,0,0,0,0,0,0,0,0,0,0,0,0,0,0,0,4637,0,0,0,0,0,0,3228,3228,2946,0,4673,0,0,0,0,0,0,0,0,0,0,0,0,0,0,0,
0,0,0,0,0,0,0,0,0,0,0,0,0,0,0,0,0,0,0,0,0,0,0,0,0,0,0,0,0,0,0,0,0,0,0,0,0,0,0,0,0,0,0,0,0,0,0,4953,4815,0,0,0,0,4638,4639,4221,4221,4221,4221,4221,4221,4221,4221,0,0,0,0,0,0,0,0,4497,4498,5058,0,0,0,0,0,2946,0,0,0,4533,5094,0,0,0,0,0,0,0,0,0,0,0,0,0,0,0,
0,0,0,0,0,0,0,0,0,0,0,0,0,0,0,4953,4814,4814,4814,4954,0,4953,4814,4814,4954,0,0,0,0,0,0,0,0,0,0,0,0,0,0,0,0,0,0,0,0,0,0,4675,0,0,0,0,0,4638,4639,4221,4221,0,0,0,0,0,4221,0,0,0,0,0,4497,4498,4498,5058,4638,4638,0,4497,4498,4499,0,0,0,2946,3228,4673,0,0,0,0,0,0,0,0,0,0,0,0,0,0,0,0,
0,0,0,0,0,0,0,0,0,0,0,0,0,0,4953,4815,4216,4638,4638,4813,4814,4815,0,0,4813,4814,4954,0,0,0,0,0,0,0,0,0,0,0,0,0,0,0,0,0,0,0,4953,4815,0,0,0,4638,4638,4638,4639,4497,4498,4498,4498,4499,0,0,4221,4221,0,24566,0,0,4637,4638,4638,4638,0,0,0,4637,0,5057,4498,4499,0,3228,0,4673,0,0,0,0,0,0,0,0,0,0,0,0,0,0,0,0,
0,0,0,0,0,0,0,0,0,0,0,0,0,4216,4675,4216,4638,4638,4216,4638,4638,4638,0,0,0,0,4813,4814,4954,0,0,0,0,0,0,0,0,0,0,0,0,0,0,0,0,4953,4815,0,0,4638,4638,4638,4917,4778,4779,4637,4638,4638,4638,5057,4498,4498,4498,4499,4221,4221,0,0,4637,4638,0,0,0,0,4497,5058,0,0,0,4639,0,0,4533,5094,0,0,0,0,0,0,0,0,0,0,0,0,0,0,0,0,
0,0,0,0,0,0,0,0,0,0,0,0,0,4216,4675,4216,4638,4917,4778,4778,4918,4638,4638,4638,4638,4638,0,0,4813,4954,0,0,0,0,0,0,0,0,0,0,0,0,0,0,0,4675,0,0,0,4638,4917,4778,4779,0,0,4637,4638,0,0,4638,4638,4638,4638,4639,4221,4221,24545,0,4637,4638,4638,0,0,0,4637,0,0,0,4917,4779,0,0,4673,0,0,0,0,0,0,0,0,0,0,0,0,0,0,0,0,0,
0,0,0,0,0,0,0,0,0,0,0,0,0,4216,4675,4638,4638,4639,0,0,4777,4778,4778,4778,4918,4638,4638,0,0,4673,0,0,0,0,0,0,0,0,0,0,0,0,0,0,0,4675,0,3228,0,4638,4639,0,0,0,0,4637,4638,23697,0,0,4638,4638,4638,4639,4221,4221,4221,4221,4777,4918,4638,4638,0,0,4637,4917,4918,0,4639,0,0,0,4673,0,0,0,0,0,0,0,0,0,0,0,0,0,0,0,0,0,
0,0,0,0,0,0,0,0,0,0,0,0,0,4216,4675,4216,4638,5057,4498,4499,0,0,0,0,4777,4918,4638,4638,4638,4813,4954,0,0,0,0,0,0,0,0,0,0,0,0,0,0,4675,0,3228,0,4638,4639,0,0,0,0,4777,4918,4638,4497,4498,4498,4499,4638,4639,0,24588,4221,4221,4221,4637,4638,4638,0,4497,5058,5057,5058,0,4639,0,0,4533,5094,0,0,0,0,0,0,0,0,0,0,0,0,0,0,0,0,0,
0,0,0,0,0,0,0,0,0,0,0,0,0,0,5093,4535,4638,4638,4638,5057,4499,0,0,0,0,4777,4778,4918,4638,0,4813,4954,0,0,0,0,0,0,0,0,0,0,0,0,0,4675,0,3228,4638,4638,4639,0,0,0,0,0,4637,4638,4637,0,0,4639,4638,4639,0,0,0,0,0,4777,4918,4638,0,4637,0,0,0,0,4639,0,0,4673,0,0,0,0,0,0,0,0,0,0,0,0,0,0,0,0,0,0,
0,0,0,0,0,0,0,0,0,0,0,0,0,0,0,4675,0,0,4638,4638,5057,4499,0,0,0,0,0,4777,4918,4638,0,4813,4954,0,0,0,0,0,0,0,0,0,0,0,0,4675,3228,0,4638,4917,4779,0,0,0,0,0,4637,4638,4637,0,0,4639,4638,4639,0,0,0,24589,0,0,4637,4638,0,4637,0,0,0,4917,4779,0,0,4673,0,0,0,0,0,0,0,0,0,0,0,0,0,0,0,0,0,0,
0,0,0,0,0,0,0,0,0,0,0,0,0,0,0,5093,4535,0,0,4638,4638,5057,4498,4499,0,0,0,0,4637,4638,4638,0,4813,4954,0,0,0,0,0,0,0,0,0,0,4953,4815,0,0,4638,4639,0,0,0,0,0,0,4637,4638,4637,0,0,4639,4638,5057,4499,0,0,0,0,0,4637,4638,0,4777,4778,4918,0,4639,0,0,0,4673,0,0,0,0,0,0,0,0,0,0,0,0,0,0,0,0,0,0,
0,0,0,0,0,0,0,0,0,0,0,0,0,0,0,0,5093,4535,0,0,4638,4638,4638,5057,4499,0,3228,0,4777,4918,4638,4638,0,4813,4954,0,0,0,0,0,0,0,0,0,4675,0,0,4638,4638,4639,0,0,0,0,0,0,4637,4638,4637,0,0,4639,4638,4638,4639,0,0,0,0,0,4637,4638,0,0,0,4777,4778,4779,0,0,0,4673,0,0,0,0,0,0,0,0,0,0,0,0,0,0,0,0,0,0,
0,0,0,0,0,0,0,0,0,0,0,0,0,0,0,0,0,5093,4535,0,0,0,4638,4638,4639,0,3228,3228,0,4777,4918,4638,0,0,4813,4954,0,0,3087,0,0,0,0,4953,4815,0,0,4638,4917,4779,0,0,0,0,0,0,4637,4497,5058,4917,4918,5057,4499,4638,4639,0,0,0,0,0,4637,4638,0,23697,0,0,0,0,0,0,0,4673,0,0,0,0,0,0,0,0,0,0,0,0,0,0,0,0,0,0,
0,0,0,0,0,0,0,0,0,0,0,0,0,0,0,0,0,0,5093,4535,0,0,0,4638,5057,4499,0,0,0,0,4637,4638,0,0,0,4658,0,0,0,0,0,0,0,4675,0,0,4638,4638,4639,0,0,23697,0,0,0,4497,5058,4637,0,4639,4637,0,4639,4638,4639,0,0,0,0,0,4637,4638,0,0,0,0,0,0,0,0,0,4673,0,0,0,0,0,0,0,0,0,0,0,0,0,0,0,0,0,0,
0,0,0,0,0,0,0,0,0,0,0,0,0,0,0,0,0,0,0,5093,4535,0,0,0,4638,5057,4499,0,0,0,4777,4918,4638,0,0,4658,0,0,3087,0,0,0,4953,4815,0,0,4638,4917,4779,0,0,0,4497,4498,4498,5058,4497,5058,4917,4779,4637,0,4639,4638,4639,0,0,0,0,0,4777,4918,4638,0,0,0,0,0,0,0,0,4673,0,0,0,0,0,0,0,0,0,0,0,0,0,0,0,0,0,0,
0,0,0,0,0,0,0,0,0,0,0,0,0,4953,4814,4814,4954,0,0,0,5093,4535,0,0,4638,4638,5057,4499,0,0,0,4637,4638,0,4533,5094,0,0,0,0,0,4953,4815,0,0,23697,23697,4639,0,0,0,4219,4637,4638,4638,4638,4637,0,5057,4498,5058,0,4639,4638,4639,0,0,0,0,0,0,4637,4638,0,0,0,0,0,0,0,0,4813,4954,0,0,0,0,0,0,0,0,0,0,0,0,0,0,0,0,0,
0,0,0,0,0,0,0,0,0,4205,4953,4814,4814,4815,0,0,4813,4814,4954,0,0,4675,0,0,0,4638,4638,4639,0,0,0,4637,4638,4638,4673,0,0,3087,0,0,4953,4815,0,0,4638,4638,4917,4779,0,0,0,0,4637,4638,5339,5339,4777,4918,0,0,4917,4778,4779,4638,4639,0,0,0,0,0,0,4637,4638,0,0,0,0,0,0,0,0,0,4673,0,0,0,0,0,0,0,0,0,0,0,0,0,0,0,0,0,
0,0,0,0,0,0,0,0,4675,4953,4815,4638,0,0,0,4917,4918,0,4813,4954,0,5093,4535,0,0,0,4638,4639,0,0,0,4777,4918,4638,4673,0,0,0,0,0,4675,0,0,4638,4638,4917,4779,0,0,0,0,0,4637,5339,5339,5339,0,4777,4918,0,4639,0,0,4638,4639,0,0,0,0,0,0,4637,4638,4638,0,0,4497,4498,4498,4499,0,0,4813,4954,0,0,0,0,0,0,0,0,0,0,0,0,0,0,0,0,
0,0,0,0,0,0,0,0,4675,4675,4638,4638,4638,4638,4638,5057,5058,0,0,4813,4954,0,4675,0,0,0,4638,5057,4499,0,0,0,4637,4638,4813,4954,0,0,0,4953,4815,0,4638,4638,4917,4779,0,0,0,0,0,4497,5058,5058,5339,5339,0,0,4777,4778,4779,0,0,4638,4639,0,0,0,0,0,0,4777,4918,4638,0,4497,5058,0,0,4639,0,0,0,4673,0,0,0,0,0,0,0,0,0,0,0,0,0,0,0,0,
0,0,0,0,0,0,0,0,4675,9284,4638,4638,4917,4918,4638,4638,4638,0,0,0,4813,4954,5093,4535,0,0,0,4638,4639,0,0,0,4637,4638,0,4673,0,4953,4814,4815,0,4638,4638,4917,4779,0,0,0,0,0,4497,5058,4638,4638,0,0,0,0,0,0,0,0,0,4638,5057,4499,0,0,0,0,0,0,4637,4638,0,4777,4918,0,0,5057,4498,4499,0,4813,4954,0,0,0,0,0,0,0,0,0,0,0,0,0,0,0,
0,0,0,0,0,0,0,0,4675,4675,4638,4917,4779,4777,4778,4918,4638,4638,0,0,0,4813,4814,4815,0,0,0,4638,5057,4499,0,0,4637,4638,0,4673,4953,4815,0,0,4638,4638,4917,4779,0,0,0,0,4497,4498,5058,4638,4638,0,0,0,0,0,0,0,0,0,0,4638,4638,4639,0,0,0,0,0,0,4777,4918,4638,0,4637,0,0,0,0,4639,0,0,4673,0,0,0,0,0,0,0,0,0,0,0,0,0,0,0,
0,0,0,0,0,0,0,0,0,4675,4638,4639,0,0,0,4777,4778,4918,4638,4638,0,0,0,4533,4535,0,0,4638,4638,4639,0,0,4637,4638,0,4813,4815,0,0,4638,4638,4917,4779,0,0,0,0,4497,5058,4638,4638,0,0,0,0,4497,4498,4498,4498,4498,4498,4499,0,0,4638,4639,0,0,0,4917,4918,0,0,4637,4638,4638,4637,0,0,0,0,5057,4499,0,4813,4954,0,0,0,0,0,0,0,0,0,0,0,0,0,0,
0,0,0,0,0,0,0,0,0,5093,4535,5057,4499,0,0,0,0,4777,4918,4638,4638,0,0,4673,4675,0,0,0,4638,4639,0,0,4637,4638,0,0,0,0,4638,4638,4917,4779,0,0,0,4497,4498,5058,4638,4638,0,0,0,0,4497,5058,4497,4498,4498,4498,4499,5057,4499,0,4638,5057,4499,0,0,5057,5058,0,0,4777,4918,4638,4777,4778,4918,0,0,0,4639,0,0,4813,4954,0,0,0,0,0,0,0,0,0,0,0,0,0,
0,0,0,0,0,0,0,0,0,4205,4675,4638,4639,0,0,0,0,0,4777,4918,4638,4638,0,4813,4815,0,0,0,4638,5057,4499,0,4637,4638,0,0,4638,4638,4638,4917,4779,0,0,0,4497,5058,4638,4638,0,0,0,0,4497,4498,5058,4638,4637,4497,4498,4499,4639,4638,4639,0,0,4638,5057,4499,0,0,0,0,0,0,4777,4918,4638,0,4637,0,0,0,5057,4499,0,0,4673,0,0,0,0,0,0,0,0,0,0,0,0,0,
0,0,0,0,0,0,0,0,0,4205,4675,4638,5057,4499,0,0,0,0,0,4777,4918,4638,0,0,0,0,0,0,0,4638,4639,0,4637,4638,4638,4638,4638,4917,4778,4779,0,0,4497,4498,5058,4638,4917,4918,0,0,0,4497,5058,4638,4497,4498,5058,4637,4638,4639,5057,4499,4639,0,0,4638,4638,5057,4499,0,0,0,0,0,0,4777,4918,4638,4637,0,0,0,0,5057,4499,0,4813,4954,0,0,0,0,0,0,0,0,0,0,0,0,
0,0,0,0,0,0,0,0,0,4953,4815,4638,4638,5057,4499,0,0,0,0,0,4637,4638,4638,0,4497,4498,4498,4499,0,4638,4639,0,4777,4918,4638,4917,4778,4779,0,0,0,4497,5058,4638,4638,0,5057,5058,0,0,0,4637,4638,4638,4637,23698,23699,4777,4778,4779,0,4639,5057,4499,0,0,4638,4638,4639,0,0,0,0,0,0,0,4637,4638,4777,4778,4918,0,0,0,4639,0,0,4673,0,0,0,0,0,0,0,0,0,0,0,0,
0,0,0,0,0,0,0,0,0,4675,0,0,4638,4638,5057,4499,0,0,0,0,4777,4918,4638,4638,4637,0,0,0,4498,4499,4639,0,0,4777,4778,4779,0,0,0,0,4497,5058,4638,4638,0,0,0,0,0,3228,0,4777,4918,4638,4777,4778,4778,4918,0,0,0,5057,4499,4639,0,0,0,4638,5057,4499,0,0,0,0,0,0,4777,4918,4638,0,4637,0,0,0,5057,4499,0,4813,4954,0,0,0,0,0,0,0,0,0,0,0,
0,0,0,0,0,0,0,0,0,4675,0,0,0,4638,4638,5057,4498,4499,0,0,0,4777,4918,4638,4637,0,0,0,0,4779,4639,0,0,0,0,0,4917,4918,0,4497,5058,4638,4638,0,4497,4498,4498,4499,0,3228,3228,0,4777,4918,4638,4638,4638,4777,4778,4918,0,0,4639,5057,4499,0,0,4638,4638,5057,4499,0,0,0,0,0,0,4637,4638,23697,4637,0,0,0,0,4639,0,0,4673,0,0,0,0,0,0,0,0,0,0,0,
0,0,0,0,0,0,0,0,0,5093,4535,0,0,4917,4918,4638,4638,5057,4498,4499,0,0,4777,4918,4777,4918,0,0,4639,4638,4639,0,0,0,0,0,5057,5058,0,4637,4638,4638,0,4497,5058,0,4917,4779,0,3228,0,0,0,4777,4778,4918,4638,4638,4638,4777,4778,4778,4779,4638,4639,0,0,3228,4638,4638,5057,4499,0,0,0,0,0,4777,4918,23697,4777,4778,4918,0,0,4639,0,0,4673,0,0,0,0,0,0,0,0,0,0,0,
0,0,0,0,0,0,0,0,0,0,5093,4535,0,5057,5058,0,4638,4638,4638,5057,4499,0,0,4637,4638,4777,4778,4778,4779,4638,4639,0,0,0,0,0,0,0,4497,5058,4638,0,0,4637,0,0,4639,0,0,0,0,0,0,0,0,4777,4778,4778,4918,4638,4638,4638,4638,4638,4639,0,3228,0,0,4638,4638,4639,0,0,0,0,0,0,4777,4918,23697,0,4637,0,0,4639,0,0,4673,0,0,0,0,0,0,0,0,0,0,0,
0,0,0,0,0,0,0,0,0,0,0,5093,4535,0,0,0,0,0,4638,4638,4639,0,0,4777,4918,4638,4638,0,0,4917,4779,0,0,0,0,0,0,0,4637,4638,0,4497,4498,5058,0,4917,4779,0,4917,4778,4778,4778,4778,4918,0,0,0,0,4777,4778,4778,4778,4778,4778,4779,0,3228,3228,0,0,4638,4639,0,0,0,0,0,0,0,4637,4638,4638,4637,0,0,4639,0,0,4673,0,0,0,0,0,0,0,0,0,0,0,
0,0,0,0,0,0,0,0,0,0,0,0,5093,4535,0,0,0,0,0,4638,4639,0,0,0,4777,4918,4638,4638,4917,4779,0,0,0,0,0,0,0,4497,5058,4638,0,4777,4778,4778,4778,4779,0,4638,4639,0,0,0,0,4777,4778,4778,4918,0,0,0,0,0,0,0,0,3228,3228,0,0,0,4638,5057,4499,0,0,0,0,0,0,4777,4918,4638,4637,0,0,4639,0,0,4673,0,0,0,0,0,0,0,0,0,0,0,
0,0,0,0,0,0,0,0,0,0,0,0,0,5093,4535,0,0,0,0,4638,5057,4499,0,0,0,4777,4778,4778,4779,4221,4221,4221,0,0,0,4497,4498,5058,4638,4638,0,0,0,0,4638,4638,4638,0,4779,0,0,22910,0,0,0,2819,4777,4918,0,0,0,0,0,0,0,0,3228,0,0,0,0,4638,4639,0,0,0,0,0,0,0,4637,4638,4777,4918,0,5057,4499,0,4673,0,0,0,0,0,0,0,0,0,0,0,
0,0,0,0,0,0,0,0,0,0,0,0,0,0,5093,4535,0,4355,4355,4638,4638,5057,4499,0,0,0,0,4497,4498,4498,4499,0,0,0,4497,5058,4638,4638,0,3228,3228,0,0,4638,4638,0,4778,4779,0,0,0,0,22910,0,0,0,22718,4777,4778,4778,4778,4778,4918,0,0,0,0,4497,4498,4498,4499,4638,4639,0,0,0,0,0,0,0,4777,4918,4638,4637,0,0,4639,0,4673,0,0,0,0,0,0,0,0,0,0,0,
0,0,0,0,0,0,0,0,0,0,0,0,0,0,0,5093,4535,4355,4355,4355,4638,4638,5057,4498,4498,4498,4498,5058,4497,4499,4639,0,0,4497,5058,4638,4638,0,3228,0,0,0,0,23697,0,4779,0,0,0,0,0,0,0,0,0,0,2819,0,22718,22718,0,22879,4777,4778,4918,0,0,4637,0,0,4639,4638,4639,0,0,0,0,0,0,0,0,4637,4638,4637,0,0,4639,0,4673,0,0,0,0,0,0,0,0,0,0,0,
0,0,0,0,0,0,0,0,0,0,0,0,0,0,0,0,5093,4535,4355,4355,4355,4638,4638,4355,4355,4355,4638,4638,4777,4779,4639,0,0,4637,4638,4638,3228,3228,0,0,4917,4918,23698,23699,0,0,0,22718,22879,0,3571,3572,3572,3573,0,0,4491,4493,0,22718,22718,0,0,0,4637,0,0,4637,0,0,5057,4499,5057,4499,0,0,4917,4778,4918,0,0,4637,4638,4637,0,0,4639,0,4673,0,0,0,0,0,0,0,0,0,0,0,
0,0,0,0,0,0,0,0,0,0,0,0,0,0,0,0,0,5093,4534,4535,0,0,0,0,4917,4918,0,0,0,4917,4779,4221,4497,5058,4638,0,0,3228,3228,0,5057,5058,0,4638,0,22718,22718,0,3571,3572,4132,0,0,4131,3573,4491,5052,5051,4493,0,22718,0,0,0,4637,0,0,4637,0,0,0,4639,4638,4639,0,0,4639,0,4637,0,0,4637,4638,4637,0,0,4639,0,4673,0,0,0,0,0,0,0,0,0,0,0,
0,0,0,0,0,0,0,0,0,0,0,0,0,0,0,0,0,0,0,5093,4535,0,0,0,5057,5058,0,0,4917,4779,4221,4221,4637,4638,4638,0,0,0,0,3228,0,3228,0,4638,0,22718,22718,22910,3711,0,0,0,0,0,3713,4631,4911,4772,0,0,22910,22718,22910,22879,4637,0,0,4637,0,0,0,4639,4638,4639,0,0,4639,0,4637,0,0,4637,4638,4637,0,4917,4779,0,4673,0,0,0,0,0,0,0,0,0,0,0,
0,0,0,0,0,0,0,0,0,0,0,0,0,0,0,0,0,0,0,0,5093,4535,0,0,0,0,0,4917,4779,4356,0,4497,5058,4638,0,4917,4778,4778,4918,0,0,3228,4638,4638,0,0,0,3571,4132,0,0,3991,3992,0,3713,4631,4633,0,0,0,0,22718,0,4497,5058,0,4497,5058,0,0,4917,4779,4638,4639,0,4917,4779,0,4637,0,0,4637,4638,4777,4778,4779,0,0,4673,0,0,0,0,0,0,0,0,0,0,0,
0,0,0,0,0,0,0,0,0,0,0,0,0,0,0,0,0,0,0,0,0,5093,4535,0,0,0,0,4639,0,4356,0,4637,4638,4638,0,4639,0,23697,4637,0,3228,4638,4638,0,4779,22879,3571,4132,0,0,3991,3853,3851,3852,3853,4631,5051,4492,4493,0,22718,22718,0,4637,0,0,4637,0,0,0,4639,0,4638,4639,0,4639,0,0,4777,4918,0,4637,4638,0,0,0,0,4533,5094,0,0,0,0,0,0,0,0,0,0,0,
0,0,0,0,0,0,0,0,0,0,0,0,0,0,0,0,0,0,0,0,0,0,4675,0,0,0,0,4639,4356,4356,4221,4637,4638,0,0,4639,0,0,4637,0,4638,4638,0,4779,0,0,3711,0,0,3991,3853,0,22718,22718,4491,5052,22879,4911,4773,22718,22718,0,4497,5058,0,0,4637,0,0,0,4639,0,4638,4639,0,4639,0,0,0,4637,0,4637,23697,0,0,0,0,4673,0,0,0,0,0,0,0,0,0,0,0,0,
0,0,0,0,0,0,0,0,0,0,0,0,0,0,0,0,0,0,0,0,0,0,4675,0,0,0,0,5057,4499,4356,4221,4637,4638,0,4917,4779,23697,4497,5058,0,4638,4778,4779,2819,0,0,3711,0,3991,3853,22718,22718,22718,22718,4771,4772,4912,4633,0,22718,4497,4498,5058,3228,0,0,4637,0,0,0,4639,0,4638,4639,0,4639,0,0,4497,5058,0,4637,23697,0,0,0,0,4673,0,0,0,0,0,0,0,0,0,0,0,0,
0,0,0,0,0,0,0,0,0,0,0,0,0,0,0,0,0,0,0,0,0,0,4675,0,0,0,0,0,4639,4356,4221,4637,4638,0,4639,0,4497,5058,0,4917,4778,0,0,22718,0,0,3851,3852,3853,22718,22718,0,0,22718,22718,22718,4771,4773,22718,0,4637,0,3228,3228,0,4497,5058,0,0,4917,4779,0,4638,4639,0,5057,4499,0,4637,0,0,4637,4638,23697,0,0,0,4673,0,0,0,0,0,0,0,0,0,0,0,0,
0,0,0,0,0,0,0,0,0,0,0,0,0,0,0,0,0,0,0,0,0,0,4675,0,0,0,0,0,4639,4356,4221,4637,4638,0,5057,4498,5058,0,0,4639,0,0,0,22718,22718,22718,22718,22718,22718,0,22718,22718,4497,4499,4221,22718,0,22718,22718,0,4637,3228,3228,0,4497,5058,5059,0,0,4639,0,4638,4638,4639,0,0,0,4498,5058,0,0,4637,4638,0,0,0,0,4673,0,0,0,0,0,0,0,0,0,0,0,0,
0,0,0,0,0,0,0,0,0,0,0,0,0,0,0,0,0,0,0,0,0,4953,4815,0,0,0,0,0,4639,4356,4221,4637,4638,0,0,0,0,0,0,4639,2819,0,22718,22718,22718,22718,22718,22718,22718,22718,0,4497,5058,5057,4499,0,22879,0,0,4497,5058,3228,0,0,4637,0,0,0,0,4639,0,4638,4917,4779,0,0,0,0,0,0,4497,5058,4638,0,0,0,0,4673,0,0,0,0,0,0,0,0,0,0,0,0,
0,0,0,0,0,0,0,0,0,0,0,0,0,0,0,0,0,0,0,0,0,4675,0,0,4497,4498,4499,0,4639,0,0,4637,4638,4357,0,0,3228,0,0,5057,4498,4498,4498,4499,0,22718,22718,22718,0,22910,4497,5058,3228,3228,5057,4498,4499,4497,4498,5058,0,3228,0,4497,5058,0,0,4917,4778,4779,4638,4638,4639,0,0,0,0,0,0,4497,5058,4638,0,0,0,0,0,4673,0,0,0,0,0,0,0,0,0,0,0,0,
0,0,0,0,0,0,0,0,0,0,0,0,0,0,0,0,0,0,0,0,0,4675,0,0,4637,0,4779,0,4639,0,0,4637,4638,4357,0,0,3228,3228,0,0,3228,0,0,5057,4498,4498,4498,4498,4498,4498,5058,0,4497,4498,4499,0,5057,5058,0,23698,23699,0,4497,5058,0,0,4917,4779,0,4638,4638,4917,4779,23697,0,0,0,0,0,4637,4638,4638,4497,4498,4499,0,4533,5094,0,0,0,0,0,0,0,0,0,0,0,0,
0,0,0,0,0,0,0,0,0,0,0,0,0,0,0,0,0,0,0,0,4953,4815,0,0,4637,4639,0,4917,4779,0,0,4637,4638,4638,4357,0,0,3228,3228,3228,3228,23697,3228,3228,3228,0,0,0,0,0,4497,4498,5058,0,5057,4499,0,0,0,0,4497,4498,5058,0,0,0,4639,0,4638,4638,4917,4779,0,23697,0,0,0,0,4497,5058,4638,0,4637,4917,4779,0,4673,0,0,0,0,0,0,0,0,0,0,0,0,0,
0,0,4953,4814,4814,4814,4814,4814,4814,4814,4954,0,0,0,0,0,0,0,0,0,4675,0,0,4497,5058,4639,0,4639,4357,0,0,4777,4918,4638,0,0,0,0,3228,3228,0,3228,3228,0,0,0,0,4497,4498,4498,5058,4497,4498,4498,4499,5057,4499,0,0,0,4637,0,0,0,4917,4778,4779,4638,4638,4917,4779,0,0,0,0,0,0,4497,5058,4638,4497,4498,5058,4639,0,0,4673,0,0,0,0,0,0,0,0,0,0,0,0,0,
0,4953,4815,4953,4814,4814,4814,4814,4814,4954,4813,4954,0,0,0,0,0,0,0,0,4675,0,0,4637,3228,4639,0,4639,4357,0,0,0,4637,4638,4638,0,0,0,3228,3228,3228,3228,0,0,0,4497,4498,5058,4638,4497,4498,5058,4638,4638,4639,4638,4639,0,0,0,4637,0,0,0,4639,0,4638,4638,4917,4779,23697,0,0,0,0,0,4497,5058,4638,4638,4637,4917,4778,4779,0,4533,5094,0,0,0,0,0,0,0,0,0,0,0,0,0,
0,4675,4953,4815,4953,4814,4814,4814,4954,4813,4954,4673,0,0,0,0,0,0,0,0,4675,0,0,4637,3228,5057,4499,5057,4499,0,0,0,4777,4918,4638,4638,4638,4638,0,0,23697,0,0,4497,4498,5058,4497,4498,4498,5058,0,0,0,0,4639,4638,4639,0,0,0,4777,4778,4778,4778,4779,4638,4638,4917,4779,0,0,0,0,0,0,4497,5058,4638,4497,4498,5058,4639,0,0,4533,5094,0,0,0,0,0,0,0,0,0,0,0,0,0,0,
0,4675,4675,4953,4815,4953,4814,4954,4813,4954,4673,4673,0,0,0,0,0,0,0,0,4675,0,0,4637,0,3228,5057,4499,5057,4499,0,0,0,4777,4778,4778,4918,4638,23697,4638,0,0,4497,5058,4638,4638,4637,0,4917,4918,0,4917,4778,4778,4779,4638,4639,0,0,0,8549,0,0,4638,4638,4917,4778,4779,0,0,0,0,0,4497,4498,5058,4638,4497,5058,4917,4778,4779,0,0,4673,0,0,0,0,0,0,0,0,0,0,0,0,0,0,0,
0,4675,4675,4675,4953,4815,0,4813,4954,4673,4673,4673,0,0,0,0,0,0,0,0,5093,4535,0,4777,4918,0,3228,5057,4499,5057,4499,0,0,0,0,5059,4777,4778,4918,4638,0,0,4637,4638,4497,4498,5058,4917,4779,4637,4917,4779,0,4638,4638,4917,4779,0,0,0,0,4638,4638,4917,4778,4779,0,0,0,0,0,4497,4498,5058,4638,4497,4498,5058,4917,4779,0,0,4533,4534,5094,0,0,0,0,0,0,0,0,0,0,0,0,0,0,0,
0,4675,4675,4675,4675,0,0,0,4673,4673,4673,4673,0,0,0,0,0,0,0,0,0,4675,0,0,4777,4918,0,0,4639,0,5057,4499,0,0,0,0,0,5059,4637,4638,0,0,4637,4638,4637,0,0,5057,4498,5058,4639,0,4638,4917,4778,4779,0,0,0,4638,4638,4638,4917,4779,0,0,0,0,0,4497,4498,5058,4497,4498,4498,5058,0,4917,4779,0,0,4533,5094,0,0,0,0,0,0,0,0,0,0,0,0,0,0,0,0,0,
0,4675,4675,4675,4675,0,0,0,4673,4673,4673,4673,0,0,0,0,0,0,0,0,0,5093,4535,0,0,4777,4778,4778,4779,0,0,5057,4499,0,0,0,0,0,4637,4638,0,0,4637,4638,4777,4918,0,0,0,4917,4779,4638,4917,4779,0,0,0,0,4638,4638,4917,4778,4779,0,0,0,4497,4498,4498,5058,4497,4498,5058,0,4917,4778,4778,4779,0,4533,4534,5094,0,0,0,0,0,0,0,0,0,0,0,0,0,0,0,0,0,0,
0,4675,4675,4675,0,0,0,0,4673,4673,4673,4673,0,0,0,0,0,0,0,0,0,0,5093,4535,0,0,0,0,0,0,0,0,5057,4499,0,0,0,0,4777,4918,4638,0,4777,4918,4638,4777,4778,4778,4778,4779,4638,4917,4779,23697,23697,0,0,4638,4638,4917,4779,0,0,0,0,4497,5058,4638,4638,4497,5058,0,4917,4778,4779,0,0,4533,4534,5094,0,0,0,0,0,0,0,0,0,0,0,0,0,0,0,0,0,0,0,0,
0,4675,4675,4675,4675,0,0,0,4673,4673,4673,4673,0,0,0,0,0,0,0,0,0,0,0,4675,0,0,0,0,0,0,0,0,0,5057,4498,4499,0,0,0,4637,4638,4638,0,4777,4778,4918,4638,4638,4638,4638,4638,4639,0,0,23697,0,0,4638,4917,4779,0,0,0,4497,4498,5058,4497,4498,4498,5058,4917,4778,4779,0,0,4533,4534,5094,0,0,0,0,0,0,0,0,0,0,0,0,0,0,0,0,0,0,0,0,0,0,
0,4675,4675,4675,4675,0,0,0,4673,4673,4673,4673,0,0,0,0,0,0,0,0,0,0,0,5093,4535,0,0,0,0,0,0,4497,4498,4499,4638,4639,0,0,0,4777,4918,4638,4638,0,0,4777,4778,4778,4778,4778,4778,4779,0,0,0,23697,4638,4917,4779,0,0,0,4497,5058,4638,4497,5058,0,0,0,4639,0,0,0,4533,5094,0,0,0,0,0,0,0,0,0,0,0,0,0,0,0,0,0,0,0,0,0,0,0,0,
0,4675,4675,4675,5093,4535,0,0,4673,4673,4673,4673,0,0,0,0,0,0,0,0,0,0,0,0,5093,4534,4535,0,0,0,0,4637,4638,4639,4638,5057,4499,0,0,0,4777,4918,4638,0,0,0,0,0,0,0,0,0,0,0,4638,4638,4917,4779,0,0,4497,4498,5058,4638,4497,5058,0,4917,4778,4778,4779,0,4533,4534,5094,0,0,0,0,0,0,0,0,0,0,0,0,0,0,0,0,0,0,0,0,0,0,0,0,0,
0,4675,4675,5093,0,5093,4534,4534,5094,5094,4673,4813,4954,0,0,0,0,0,0,0,0,0,0,0,0,0,5093,4534,4535,0,0,4777,4778,4779,4638,4638,5057,4499,0,0,0,4637,4638,4638,0,0,0,0,4497,4498,4499,0,0,0,4638,4917,4779,0,0,4497,5058,4638,4638,4497,5058,0,4917,4779,0,0,4533,4534,5094,0,0,0,0,0,0,0,0,0,0,0,0,0,4953,4814,4814,4814,4814,4814,4814,4814,4814,4814,4814,4954,0,0,
0,4675,4675,0,4953,0,0,0,0,4954,4813,4954,4813,4954,0,0,0,0,0,0,0,0,0,0,0,0,0,0,5093,4535,0,0,0,0,0,4638,23697,23697,4499,0,0,4777,4918,4638,0,0,4497,4498,5058,0,5057,4498,4499,4638,4638,4639,0,0,4497,5058,4638,4497,4498,5058,4917,4778,4779,0,0,4533,5094,0,0,0,0,0,0,0,0,0,0,0,0,0,0,0,4675,4953,4814,4814,4814,4814,4814,4814,4814,4814,4954,4813,4954,0,
0,4675,5093,4535,4675,4953,4814,4814,4954,4813,4954,4813,4954,4813,4814,4814,4954,0,0,0,0,0,0,0,0,0,0,0,0,5093,4535,0,0,0,0,0,4638,23697,5057,4499,0,0,4637,4638,4638,0,4637,0,4497,4498,4499,0,4639,4638,4917,4779,0,4497,5058,4497,4498,5058,0,4917,4779,0,0,0,4533,5094,0,0,0,0,0,0,0,0,0,0,0,0,0,0,0,4953,4815,4675,4953,4814,4814,4814,4814,4814,4814,4954,4813,4954,4673,0,
0,4675,0,4675,4675,4675,4219,0,4813,4954,4813,4954,4813,4814,4814,4954,4813,4954,0,0,0,0,0,0,0,0,0,0,0,0,5093,4535,0,0,0,23697,0,4638,4638,5057,4499,0,4777,4918,4638,0,4637,0,4637,4638,4639,4917,4779,4638,4639,0,4497,5058,4638,4637,0,4917,4778,4779,0,0,0,4533,5094,0,0,0,0,0,0,0,0,0,0,0,0,0,0,0,0,4675,4953,4815,4675,4953,4814,4814,4814,4814,4954,4813,4954,4673,4673,0,
0,5093,4535,4675,4675,5093,4535,0,0,4813,4954,4813,4814,4814,4954,4813,4954,4673,0,0,0,0,0,0,0,0,0,0,0,0,0,5093,4535,0,0,0,0,0,4638,4638,4639,0,0,4637,4638,4497,5058,0,4777,4778,4779,4639,4638,4917,4779,4497,5058,4638,4638,4637,4917,4779,0,0,0,4533,4534,5094,0,0,0,0,0,0,0,0,0,0,0,0,0,0,0,0,4953,4815,4675,4953,4815,4675,0,0,0,0,4813,4954,4673,4673,4673,0,
0,0,4675,4675,5093,4535,4675,0,0,0,4813,4814,4814,4954,4813,4954,4673,4813,4954,0,0,0,0,0,0,0,0,0,0,0,0,0,5093,4535,0,0,0,0,0,4638,5057,4499,0,4777,4918,4637,0,4497,4499,0,0,4639,4638,4639,0,4637,4638,4638,4497,5058,4639,0,0,0,4533,5094,0,0,0,0,0,0,0,0,0,0,0,0,0,0,0,0,0,4953,4815,4953,4815,4675,4953,4815,0,0,0,0,4080,4673,4673,4673,4673,0,
0,0,4675,5093,4535,4675,4675,0,0,0,0,0,0,4813,4954,4673,4813,4954,4673,0,0,0,0,0,0,0,0,0,0,0,0,0,0,5093,4535,0,0,0,0,4638,4638,4639,0,0,4637,4637,0,4777,4779,0,4917,4779,4638,4639,0,4637,4638,0,4637,0,4639,0,0,4533,5094,0,0,0,0,0,0,0,0,0,0,0,0,0,4953,4814,4814,4814,4814,4815,4953,4815,4953,4815,4675,23050,23051,0,0,0,4533,5094,4673,4673,4673,0,
0,0,5093,4535,4675,4675,4675,0,0,0,0,0,0,0,4673,4813,4954,4673,4673,0,0,0,0,0,0,0,0,0,0,0,0,0,0,0,5093,4534,4534,4535,0,0,4638,4639,0,0,4637,4777,4778,4918,0,0,4639,4638,4917,4779,4497,5058,4638,0,4777,4778,4779,0,4533,5094,0,0,0,0,0,0,0,0,0,0,0,0,0,0,4675,4953,4814,4814,4814,4814,4815,4953,4815,4953,4815,0,0,0,0,4533,5094,4533,5094,4673,4673,0,
0,0,0,4675,4675,4675,5093,4534,4535,0,0,0,0,0,4813,4954,4673,4673,4673,0,0,0,0,0,0,0,0,0,0,0,0,0,0,0,0,0,0,4675,0,0,4638,4639,0,0,4637,4638,4638,4637,0,0,4639,4638,4639,0,4637,4638,4638,0,0,0,0,4533,5094,0,0,0,0,0,0,0,0,0,0,0,0,0,0,4953,4815,4675,4953,4814,4814,4814,4814,4815,4953,4815,0,0,0,0,4533,5094,4533,5094,4533,5094,4673,0,
0,0,0,4675,4675,5093,4534,4535,5093,4535,0,0,0,0,5234,4673,4673,4673,4673,0,0,0,0,0,0,0,0,0,0,0,0,0,0,0,0,0,0,4675,0,0,4638,5057,4499,0,4637,4638,4638,4777,4778,4778,4779,4638,4639,0,4637,4638,0,0,0,0,4533,5094,0,0,0,0,0,0,0,0,0,0,0,0,0,0,4953,4815,4953,4815,4675,4953,4814,0,4814,4814,4815,0,0,0,0,4533,5094,4533,5094,4533,5094,4533,5094,0,
0,0,0,4675,5093,4534,4535,5093,4535,5093,4535,0,0,0,4533,5094,4673,4673,4673,0,0,0,0,0,0,0,0,0,0,0,0,0,0,0,0,0,0,5093,4535,0,4638,4638,4639,0,4777,4918,4638,4638,4638,4638,4638,4917,4779,0,4637,4638,0,0,0,0,4673,0,0,0,0,0,0,0,0,0,0,0,0,0,0,0,4675,4953,4815,4953,4815,4675,0,4396,0,0,0,0,0,4533,4534,5094,4533,5094,4533,5094,4533,5094,0,0,
0,0,0,5093,4534,4535,5093,4535,5093,4535,4675,0,0,0,4673,4533,5094,4673,4673,0,0,0,0,0,0,0,0,0,0,0,0,0,0,0,0,0,0,0,4675,0,0,4638,4639,0,0,4777,4778,4778,4918,4638,4638,4639,0,0,4637,4638,0,0,0,4533,5094,0,0,0,0,0,0,0,0,0,0,0,0,0,0,0,4675,4675,4953,4815,4953,4815,4396,0,0,0,0,4533,4534,5094,4533,4534,5094,4533,5094,4533,5094,0,0,0,
0,0,0,0,0,5093,4535,5093,4535,4675,5093,4534,4534,4534,5094,4673,4533,5094,4673,4392,0,0,0,0,0,0,0,0,0,0,0,0,0,0,0,0,0,0,4675,0,0,0,4221,4221,4221,0,0,0,4777,4778,4778,4779,0,0,4637,4638,0,0,0,4673,0,0,0,0,0,0,0,0,0,0,0,0,0,0,0,0,4675,4675,4675,4953,4815,0,0,0,0,4533,4534,5094,4533,4534,5094,4533,4534,5094,4533,5094,0,0,0,0,
0,0,0,0,0,0,5093,4535,4675,5093,4534,4534,4534,4534,4534,5094,4673,4533,5094,0,0,0,0,0,0,0,0,0,0,0,0,0,0,0,0,0,0,0,4675,0,0,0,0,4221,4221,0,4221,4221,4221,0,0,0,0,4497,5058,4638,0,0,0,4673,0,0,0,0,0,0,0,0,0,0,0,0,0,0,0,0,4675,4675,4675,4675,0,0,4533,4534,4534,5094,4533,4534,5094,4533,4534,5094,4533,4534,5094,0,0,0,0,0,
0,0,0,0,0,0,0,4675,5093,4534,4534,4534,4534,4534,4534,4534,5094,4673,0,0,0,0,0,0,0,0,0,0,0,0,0,0,0,0,0,0,0,0,5093,4534,4535,0,0,4221,4221,4221,4221,4221,4221,4221,0,0,0,0,4638,4638,0,0,0,4673,0,0,0,0,0,0,0,0,0,0,0,0,0,0,0,0,4675,4675,4675,5093,4534,4534,5094,0,0,4533,5094,4533,4534,5094,0,4533,5094,0,0,0,0,0,0,0
</data>
 </layer>
 <layer id="3" name="Layer 3" width="100" height="79">
  <data encoding="csv">
0,0,0,0,0,0,0,0,0,0,0,0,0,0,0,0,0,0,0,0,0,0,0,0,0,0,0,0,0,0,0,0,0,0,0,0,0,0,0,0,0,0,0,0,0,0,0,0,0,0,0,4639,0,0,0,0,0,0,0,0,0,0,0,0,0,0,0,0,0,0,0,0,0,0,0,0,0,0,0,0,0,0,0,0,0,0,0,0,0,0,0,0,0,0,0,0,0,0,0,0,
0,0,0,0,0,0,0,0,0,0,0,0,0,0,0,0,0,0,0,0,0,0,0,0,0,0,0,0,0,0,0,0,0,0,0,0,0,0,0,0,0,0,0,0,0,0,0,0,0,0,0,5057,4499,0,0,0,0,0,0,0,0,0,0,0,0,0,0,0,0,0,0,0,0,0,0,0,0,0,0,0,0,0,0,0,0,0,0,0,0,0,0,0,0,0,0,0,0,0,0,0,
0,0,0,0,0,0,0,0,0,0,0,0,0,0,0,0,0,0,0,0,0,0,0,0,0,0,0,0,0,0,0,0,0,0,0,0,0,0,0,0,0,0,0,0,0,0,0,0,0,0,0,0,5057,0,0,0,0,0,0,0,0,0,0,0,0,0,0,0,0,0,0,0,0,0,0,0,0,0,0,0,0,0,0,0,0,0,0,0,0,0,0,0,0,0,0,0,0,0,0,0,
0,0,0,0,0,0,0,0,0,0,0,0,0,0,0,0,0,0,0,0,0,0,0,0,0,0,0,0,0,0,0,0,0,0,0,0,0,0,0,0,0,0,0,0,0,0,0,0,0,0,0,0,0,0,0,0,0,0,0,0,0,0,0,0,0,0,23405,23406,23407,0,0,0,0,0,0,0,0,0,0,0,0,0,0,0,0,0,0,0,0,0,0,0,0,0,0,0,0,0,0,0,
0,0,0,0,0,0,0,0,0,0,0,0,0,0,0,0,0,0,0,0,0,0,0,0,0,0,0,0,0,0,0,0,0,0,0,0,0,0,0,0,0,0,0,0,0,0,0,0,0,0,0,0,0,23533,0,0,0,0,0,0,0,0,0,0,0,23326,23437,23438,23439,0,0,0,0,0,0,0,0,0,0,0,0,0,0,0,0,0,0,0,0,0,0,0,0,0,0,0,0,0,0,0,
0,0,0,0,0,0,0,0,0,0,0,0,0,0,0,0,0,0,0,0,0,0,0,0,0,0,0,0,0,0,0,0,0,0,0,0,0,0,0,0,0,0,0,0,0,0,0,0,0,0,0,0,0,23565,0,0,0,0,0,0,0,0,0,0,0,23358,23359,0,0,0,0,0,0,0,0,0,0,0,0,0,0,0,0,0,0,0,0,0,0,0,0,0,0,0,0,0,0,0,0,0,
0,0,0,0,0,0,0,0,0,0,0,0,0,0,0,0,0,0,0,0,0,0,0,0,0,0,0,0,0,0,0,0,0,0,0,0,0,0,0,0,0,0,0,0,0,0,0,0,23533,0,0,0,0,0,0,0,0,0,0,0,0,0,0,0,0,0,0,0,0,0,0,0,0,0,0,0,0,0,0,0,0,0,0,0,0,0,0,0,0,0,0,0,0,0,0,0,0,0,0,0,
0,0,0,0,0,0,0,0,0,0,0,0,0,0,0,0,0,0,0,0,0,0,0,0,0,0,0,0,0,0,0,0,0,0,0,0,0,0,0,0,0,0,0,0,0,0,0,0,23565,0,0,0,0,0,0,0,0,0,0,0,0,0,0,0,22824,22889,22889,22826,0,0,0,0,0,0,0,0,0,0,0,0,0,0,0,0,0,0,0,0,0,0,0,0,0,0,0,0,0,0,0,0,
0,0,0,0,0,0,0,0,0,0,0,0,0,0,0,0,0,0,0,0,0,0,0,0,0,0,0,0,0,0,0,0,0,0,0,0,0,0,0,0,0,0,0,0,0,0,0,0,0,0,0,0,0,0,0,0,0,0,0,0,0,0,0,0,22856,0,0,22858,0,0,0,0,0,0,0,0,0,0,0,0,0,0,0,0,0,0,0,0,0,0,0,0,0,0,0,0,0,0,0,0,
0,0,0,0,0,0,0,0,0,0,0,0,0,0,0,0,0,0,0,0,0,0,0,0,0,0,0,0,0,0,0,0,0,0,0,0,0,0,0,0,0,0,0,0,0,0,0,0,0,0,0,0,0,0,0,0,0,0,0,0,0,0,0,0,22856,0,0,22858,0,0,0,0,0,0,0,0,0,0,0,0,0,0,0,0,0,0,0,0,0,0,0,0,0,0,0,0,0,0,0,0,
0,0,0,0,0,0,0,0,0,0,0,0,0,0,0,0,0,0,0,0,0,0,0,0,0,0,0,0,0,0,0,0,0,0,0,0,0,0,0,0,0,0,0,0,0,0,0,0,0,0,0,0,0,0,0,0,0,0,0,0,0,0,0,0,22856,0,0,22858,0,0,0,0,0,0,0,0,0,0,0,0,0,0,0,0,0,0,0,0,0,0,0,0,0,0,0,0,0,0,0,0,
0,0,0,0,0,0,0,0,0,0,0,0,0,0,0,0,0,0,0,0,0,0,0,0,0,0,2805,0,0,0,0,0,0,0,0,0,0,0,0,0,0,0,0,0,0,0,0,0,0,0,0,0,0,0,0,0,0,0,0,0,0,0,0,0,22856,0,0,22858,0,0,0,0,0,0,0,0,0,0,0,0,0,0,0,0,0,0,0,0,0,0,0,0,0,0,0,0,0,0,0,0,
0,0,0,0,0,0,0,0,0,0,0,0,0,0,0,0,0,0,0,0,0,0,0,0,0,0,0,0,0,0,0,0,0,0,0,0,0,0,0,0,0,0,0,0,0,0,0,0,0,0,0,0,0,0,0,0,0,0,0,0,0,0,0,0,22856,0,0,22892,22826,0,0,0,0,0,0,0,0,0,0,0,0,0,0,0,0,0,0,0,0,0,0,0,0,0,0,0,0,0,0,0,
0,0,0,0,0,0,0,0,0,0,0,0,0,0,0,0,0,0,0,0,0,0,0,0,0,0,0,0,0,0,0,0,0,0,0,0,0,0,0,0,0,0,0,0,0,0,0,0,0,0,0,0,0,0,0,0,0,0,0,0,0,0,0,0,22856,0,0,0,22858,0,0,0,0,0,0,0,0,0,0,0,0,0,0,0,0,0,0,0,0,0,0,0,0,0,0,0,0,0,0,0,
0,0,0,0,0,0,0,0,0,0,0,0,0,0,0,0,0,0,0,0,0,0,0,0,0,0,0,0,0,0,0,0,0,0,0,0,0,0,0,0,0,0,0,0,0,0,0,0,0,0,0,0,0,0,0,0,0,0,0,0,0,0,0,0,22888,22826,0,0,22892,22826,0,0,0,0,0,0,0,0,0,0,0,0,0,0,0,0,0,0,0,0,0,0,0,0,0,0,0,0,0,0,
0,0,0,0,0,0,0,0,0,0,0,0,0,0,0,0,0,0,0,0,0,0,0,0,0,0,0,0,0,0,0,0,0,0,0,0,0,0,0,0,0,0,0,0,0,0,0,0,0,0,0,0,0,0,0,0,0,0,0,0,0,0,0,0,0,22858,0,0,0,22858,0,0,0,0,1299,1300,1301,0,0,0,0,0,0,0,0,0,0,0,0,0,0,0,0,0,0,0,0,0,0,0,
0,0,0,0,0,0,0,0,0,0,0,0,0,0,0,0,0,0,0,0,0,0,0,0,0,0,0,0,0,0,0,0,0,0,0,0,0,0,0,0,0,0,0,0,0,0,0,0,0,0,0,0,0,0,0,0,0,0,0,0,0,0,0,0,0,22858,0,0,0,22858,0,0,0,0,1439,1440,1441,0,0,0,0,0,0,0,0,0,0,0,0,0,0,0,0,0,0,0,0,0,0,0,
0,0,0,0,0,0,0,0,0,0,0,0,0,0,0,0,0,0,0,0,0,0,0,0,0,0,0,0,0,0,0,0,0,0,0,0,4519,5359,0,0,0,0,0,0,0,0,0,0,0,0,0,0,0,0,0,0,0,0,0,0,0,0,0,0,0,22892,0,0,22827,22890,0,0,0,0,1579,1580,1581,0,0,0,0,0,0,0,0,0,0,0,0,0,0,0,0,0,0,0,0,0,0,0,
0,0,0,0,0,0,0,0,0,0,0,0,0,0,0,0,0,0,0,0,0,0,0,0,0,0,0,0,0,0,0,0,0,0,0,0,0,0,0,0,0,0,0,0,0,0,0,0,0,23326,23327,0,0,0,0,0,0,0,0,0,0,0,0,0,0,0,0,0,0,0,0,0,0,0,0,0,0,0,0,0,0,0,0,0,0,0,0,0,0,0,0,0,0,0,0,0,0,0,0,0,
0,0,0,0,0,0,0,0,0,0,0,0,0,0,0,0,0,0,0,0,0,0,0,0,0,0,0,0,0,0,0,0,0,0,0,0,0,0,0,0,0,0,0,0,0,0,0,0,0,23358,23359,0,0,0,0,0,0,0,0,0,0,0,0,0,0,0,0,0,0,0,0,0,0,0,0,0,0,0,0,0,0,0,0,0,0,0,0,0,0,0,0,0,0,0,0,0,0,0,0,0,
0,0,0,0,0,0,0,0,0,0,0,0,0,0,0,0,0,0,0,0,0,0,0,0,0,0,0,0,0,0,0,0,0,0,0,4798,5079,0,0,0,0,0,0,0,23326,23327,0,0,0,0,0,0,0,0,0,0,0,0,0,0,0,0,0,0,0,0,0,0,0,0,0,0,0,0,0,0,0,0,0,0,0,0,0,0,0,0,0,0,0,0,0,0,0,0,0,0,0,0,0,0,
0,0,0,0,0,0,0,0,0,0,0,0,0,0,2805,2946,0,0,0,0,0,0,0,0,0,0,0,0,0,0,0,0,0,0,0,4938,0,0,0,0,0,0,0,0,23358,23359,0,0,0,0,0,0,0,0,0,0,0,0,0,0,0,0,0,0,0,0,0,0,0,0,0,0,0,0,0,0,0,0,0,0,0,0,0,0,0,0,0,0,0,0,0,0,0,0,0,0,0,0,0,0,
0,0,0,0,0,0,0,0,0,0,0,0,0,0,0,0,0,0,0,0,0,0,0,0,0,0,0,0,0,0,0,0,0,0,0,0,0,0,0,0,0,0,0,0,0,0,0,0,0,0,0,0,0,0,0,0,0,0,0,0,0,0,0,0,0,0,0,0,0,0,0,0,0,0,0,0,0,0,0,0,0,0,0,0,0,0,0,0,0,0,0,0,0,0,0,0,0,0,0,0,
0,0,0,0,0,0,0,0,0,0,0,0,0,0,0,0,0,0,0,0,0,0,0,0,0,0,0,0,0,0,0,0,0,0,0,0,0,0,0,0,0,0,0,0,0,0,0,0,0,0,0,0,1299,1300,1301,0,0,0,0,0,0,0,0,0,0,0,0,0,0,0,0,0,0,0,0,0,0,0,0,0,0,0,0,0,0,0,0,0,0,0,0,0,0,0,0,0,0,0,0,0,
0,0,0,0,0,0,0,0,0,0,0,0,0,0,0,0,0,0,2946,0,0,0,0,0,0,0,0,0,0,0,0,0,0,0,0,0,0,0,0,0,0,0,0,0,0,0,0,0,0,0,0,0,1439,1440,1441,0,0,0,0,0,0,0,0,0,0,0,0,0,0,0,0,0,0,0,0,0,0,0,0,0,0,0,0,0,0,0,0,0,0,0,0,0,0,0,0,0,0,0,0,0,
0,0,0,0,0,0,0,0,0,0,0,0,0,0,0,0,0,0,0,0,0,0,0,0,0,0,0,0,0,0,0,0,0,0,0,0,0,0,0,0,0,0,0,0,0,0,0,0,0,0,0,0,1579,1580,1581,0,0,0,0,0,0,0,0,0,0,0,0,0,0,0,0,0,0,0,0,0,0,0,0,0,0,0,0,0,0,0,0,0,0,0,0,0,0,0,0,0,0,0,0,0,
0,0,0,0,0,0,0,0,0,0,0,0,0,0,0,0,0,0,0,0,0,0,0,0,0,0,0,0,0,0,0,0,0,0,0,0,0,0,0,0,0,0,0,0,0,0,0,0,0,0,0,0,0,0,0,0,0,0,0,0,0,0,0,0,0,0,0,0,0,0,0,0,0,0,0,0,0,0,0,0,0,0,0,0,0,0,0,0,0,0,0,0,0,0,0,0,0,0,0,0,
0,0,0,0,0,0,0,0,0,0,0,0,0,0,0,0,0,0,0,0,0,0,0,0,0,0,0,0,0,0,0,0,0,0,0,0,0,0,0,0,0,0,0,0,0,0,3194,0,0,3194,0,0,0,0,0,0,0,0,0,0,0,0,0,0,0,0,0,0,0,0,0,0,0,0,0,0,0,0,0,0,0,0,0,0,0,0,0,0,0,0,0,0,0,0,0,0,0,0,0,0,
0,0,0,0,0,0,0,0,0,0,0,0,0,0,0,0,0,0,0,0,0,0,0,0,0,0,0,0,0,0,0,0,0,0,0,0,0,0,0,0,0,0,0,0,0,0,3194,0,0,0,0,0,0,0,0,0,0,0,0,0,0,0,0,0,0,0,0,0,0,0,0,0,0,0,0,0,0,0,0,0,0,0,0,0,0,0,0,0,0,0,0,0,0,0,0,0,0,0,0,0,
0,0,0,0,0,0,0,0,0,0,0,0,0,0,0,0,0,0,0,0,0,0,0,0,0,0,0,0,0,0,0,0,0,0,0,0,0,0,0,0,0,0,0,0,0,0,0,0,0,0,0,0,0,0,0,0,0,0,0,0,0,0,0,0,0,0,0,0,0,0,0,0,0,0,0,0,0,0,1299,1300,1301,0,0,0,0,0,0,0,0,0,0,0,0,0,0,0,0,0,0,0,
0,0,0,0,0,0,0,0,0,0,0,0,0,0,0,0,0,0,0,0,0,0,0,0,0,0,0,0,0,0,0,0,0,0,0,0,0,0,0,0,0,0,0,0,0,0,0,0,0,3194,0,0,0,0,0,0,0,0,0,0,0,0,0,0,1305,1306,1307,1308,1309,0,0,0,0,0,0,0,0,0,1439,1440,1441,0,0,0,0,0,0,0,0,0,0,0,0,0,0,0,0,0,0,0,
0,0,0,0,0,0,0,0,0,0,0,0,2946,0,0,0,0,0,0,0,0,0,0,0,0,0,23390,23391,0,0,0,0,0,0,0,0,0,0,0,0,0,0,0,0,0,0,3194,0,3194,0,0,3194,0,0,0,0,0,0,0,0,0,0,0,0,1445,1446,1447,1448,1449,0,0,0,0,0,0,0,0,0,1579,1580,1581,0,0,0,0,0,0,0,0,0,0,0,0,0,0,0,0,0,0,0,
0,0,0,0,0,0,0,0,0,0,0,0,0,0,0,0,0,0,0,0,0,0,0,0,0,0,23422,23423,0,0,0,0,0,0,0,0,0,0,0,0,0,0,0,0,0,3194,0,0,0,0,0,0,0,0,0,0,0,0,0,0,0,0,0,0,1585,1586,1587,1588,1589,0,0,0,0,0,0,0,0,0,0,0,0,0,0,0,0,0,0,0,0,0,0,0,0,0,0,0,0,0,0,0,
0,0,0,0,0,0,0,0,0,0,0,0,0,0,0,2946,0,0,0,0,0,0,0,0,0,0,0,0,0,0,0,0,0,0,0,0,0,0,0,0,0,0,0,0,0,0,0,0,0,0,0,0,0,0,0,0,0,0,0,0,0,0,0,0,1725,1726,1727,1728,1729,0,0,0,0,0,0,0,0,0,0,0,1299,1300,1301,0,0,0,0,0,0,0,0,0,0,0,0,0,0,0,0,0,
0,0,0,0,0,0,0,0,0,0,0,0,0,0,0,2946,0,0,0,0,0,0,0,0,0,0,0,0,0,0,0,0,0,0,0,0,0,0,0,0,0,0,0,0,0,0,0,0,0,0,0,0,0,0,0,0,0,0,0,0,0,0,0,0,1865,1866,1867,1868,1869,0,0,0,0,0,23390,23391,0,0,0,0,1439,1440,1441,0,0,0,0,0,0,0,0,0,0,0,0,0,0,0,0,0,
0,0,0,0,0,0,0,0,0,0,0,0,0,0,0,0,0,23390,23391,0,0,0,0,0,0,0,0,0,0,0,0,0,0,0,0,0,0,0,0,0,0,0,0,0,0,0,0,0,0,0,0,0,0,0,0,0,0,0,0,23135,0,0,0,0,0,0,0,0,0,0,0,0,0,0,23422,23423,0,0,0,0,1579,1580,1581,0,0,0,0,0,0,0,0,0,0,0,0,0,0,0,0,0,
0,0,0,0,0,0,0,0,0,0,0,0,0,0,0,0,0,23422,23423,0,0,0,0,0,0,0,0,0,0,0,0,0,0,0,0,0,0,0,0,0,0,0,1299,1300,1301,0,0,0,1302,1303,1304,0,1302,1303,1304,0,0,0,0,23167,0,0,0,0,0,0,0,0,0,0,0,0,0,0,0,0,0,0,0,0,0,0,0,0,0,0,0,0,0,0,0,0,0,0,0,0,0,0,0,0,
0,0,0,0,0,0,0,0,0,0,0,0,0,0,0,0,0,0,0,0,0,0,0,0,0,0,0,0,0,0,0,0,0,0,0,0,0,0,0,1293,1294,1295,1439,1440,1441,0,0,0,1858,1859,1860,1861,1862,1863,1444,0,0,0,0,0,0,0,0,0,0,0,0,0,0,0,0,0,0,0,0,0,0,0,0,0,0,0,0,0,0,0,0,0,0,0,0,0,0,0,0,0,0,0,0,0,
0,0,0,0,0,0,0,0,0,0,0,0,0,0,0,0,0,0,0,0,0,0,0,0,0,0,0,0,0,0,0,0,0,0,0,0,0,0,0,1433,1434,1435,1579,1580,1581,0,0,0,1998,1999,2000,2001,2002,2003,1584,0,0,0,0,0,0,0,0,0,0,0,0,0,0,0,0,0,0,0,0,0,0,0,0,0,0,0,0,0,0,0,0,0,0,0,0,0,0,0,0,0,0,0,0,0,
0,0,0,0,0,0,0,0,0,0,0,0,0,0,0,0,0,0,0,2946,0,0,0,0,0,0,0,0,0,0,0,0,0,0,0,0,0,0,0,1573,1574,1575,0,0,0,0,0,0,1722,1723,1724,0,1722,1723,1724,0,0,0,0,0,0,23135,0,0,0,0,0,0,0,0,0,0,0,0,0,0,0,0,0,0,0,0,0,0,0,0,0,0,0,0,0,0,0,0,0,0,0,0,0,0,
0,0,0,0,0,0,0,0,0,0,0,0,0,0,0,0,0,0,0,0,0,0,0,0,0,0,0,0,0,0,0,0,0,0,0,0,0,0,0,1713,1714,1715,0,0,0,0,0,0,0,0,0,0,0,0,0,0,0,0,0,0,0,23167,23135,0,0,0,0,0,0,0,0,0,0,0,0,0,0,0,0,0,0,0,0,0,0,0,0,0,0,0,0,0,0,0,0,0,0,0,0,0,
0,0,0,0,0,0,0,0,0,0,0,0,0,0,0,0,0,0,0,0,0,0,0,0,0,0,0,0,0,0,0,0,0,0,0,0,0,0,0,0,0,0,0,0,0,0,0,0,0,0,0,0,0,0,0,0,0,0,0,0,0,0,23167,0,0,0,0,0,0,0,0,0,0,0,0,0,0,0,0,0,0,0,0,0,0,0,0,0,0,0,0,0,0,0,0,0,0,0,0,0,
0,0,0,0,0,0,0,0,0,0,0,0,0,0,0,0,0,0,0,0,0,0,0,0,0,0,0,0,0,0,0,0,0,0,0,0,0,0,0,0,0,0,0,0,0,0,0,0,0,0,0,0,0,0,0,0,0,0,0,0,0,0,0,0,0,0,0,0,0,0,0,0,0,0,0,0,0,0,0,0,0,0,0,0,0,0,0,0,0,0,0,0,0,0,0,0,0,0,0,0,
0,0,0,0,0,0,0,0,0,0,0,0,0,0,0,0,0,0,0,0,0,0,0,0,0,0,0,0,0,0,0,0,0,0,0,0,0,0,0,0,0,0,0,0,0,0,0,0,0,0,0,0,0,0,1299,1300,1301,0,0,0,0,0,0,0,0,0,0,0,0,0,0,0,0,0,0,0,0,0,0,0,0,0,0,0,0,0,0,0,0,0,0,0,0,0,0,0,0,0,0,0,
0,0,0,0,0,0,0,0,0,0,0,0,0,0,0,0,0,0,0,0,0,0,0,0,0,0,0,0,0,0,0,0,0,0,0,0,0,0,0,0,0,0,0,0,0,0,0,0,0,0,0,0,0,0,1439,1440,1441,0,0,0,0,0,0,0,0,0,0,0,0,0,0,0,0,0,0,0,0,0,0,0,0,0,0,0,0,0,0,0,0,0,0,0,0,0,0,0,0,0,0,0,
0,0,0,0,0,0,0,0,0,0,0,0,0,0,0,0,0,0,0,0,0,0,0,0,0,0,0,0,0,0,0,0,0,0,0,0,0,0,0,0,0,0,0,0,0,0,0,0,0,0,0,0,0,0,1579,1580,1581,0,0,0,0,0,0,0,0,0,0,0,0,0,0,0,0,0,0,0,0,0,0,0,0,0,0,0,0,0,0,0,0,0,0,0,0,0,0,0,0,0,0,0,
0,0,0,0,0,0,0,0,0,0,0,0,0,0,0,0,0,0,0,0,0,0,0,0,0,0,0,0,0,0,0,0,0,0,0,0,0,0,0,0,1299,1300,1301,0,0,0,0,0,0,0,0,23135,0,0,0,0,0,0,0,0,0,1305,1306,1307,1308,1309,0,0,0,0,0,0,0,0,0,0,0,0,0,0,0,0,0,0,0,0,0,0,0,0,0,0,0,0,0,0,0,0,0,0,
0,0,0,0,0,0,0,0,0,0,0,0,0,0,0,0,0,0,0,0,0,0,0,0,0,0,0,0,0,0,0,0,0,0,0,0,0,0,0,0,1439,1440,1441,0,0,0,0,0,0,23135,0,23167,0,0,0,0,0,0,0,0,0,1445,1446,1447,1448,1449,0,0,0,0,0,0,0,0,0,0,0,0,0,0,0,0,0,0,0,0,0,0,0,0,0,0,0,0,0,0,0,0,0,0,
0,0,0,0,0,0,0,0,0,0,0,0,0,0,0,0,0,0,0,0,0,0,0,0,0,0,0,0,0,0,0,0,0,0,0,0,0,0,0,0,1579,1580,1581,0,0,0,0,0,0,23167,0,0,0,0,0,0,0,0,0,0,0,1585,1586,1587,1588,1589,0,0,0,0,0,0,0,0,0,0,0,0,0,0,0,0,0,0,0,0,0,0,0,0,0,0,0,0,0,0,0,0,0,0,
0,0,0,0,0,0,0,0,0,0,0,0,0,0,0,0,0,0,0,0,0,0,0,0,0,0,0,0,0,0,0,0,0,0,0,0,0,0,0,0,0,0,0,0,0,0,0,0,0,0,0,0,0,0,0,0,0,0,0,0,0,1725,1726,1727,1728,1729,0,0,0,0,0,0,0,0,0,0,0,0,0,0,0,0,0,0,0,0,0,0,0,0,0,0,0,0,0,0,0,0,0,0,
0,0,0,0,0,0,0,0,0,0,0,0,0,0,0,0,0,0,0,0,0,0,0,0,0,0,0,0,0,0,0,0,0,0,0,0,0,0,0,0,0,0,0,0,0,0,0,0,0,0,0,0,0,0,0,0,0,0,0,0,0,1865,1866,1867,1868,1869,0,0,0,0,0,0,0,0,0,0,0,0,0,0,0,0,0,0,0,0,0,0,0,0,0,0,0,0,0,0,0,0,0,0,
0,0,0,0,0,0,0,0,0,0,0,0,0,0,0,0,0,0,0,0,0,0,0,0,0,0,0,0,0,0,0,0,0,0,0,0,0,0,0,0,0,0,0,0,0,0,0,0,0,0,0,0,0,0,0,0,0,0,0,0,0,0,0,0,0,0,0,0,0,0,0,1299,1300,1301,0,0,0,0,0,0,0,0,0,0,0,0,0,0,0,0,0,0,0,0,0,0,0,0,0,0,
0,0,0,0,0,0,0,0,0,0,0,0,0,0,0,0,0,0,0,0,0,0,0,0,0,0,0,0,0,0,0,0,0,0,0,0,0,0,0,0,0,0,0,0,0,0,0,0,0,0,0,0,0,0,0,0,0,0,0,0,0,0,0,0,0,0,0,0,0,0,0,1439,1440,1441,0,0,0,0,0,0,0,0,0,0,0,0,0,0,0,0,0,0,0,0,0,0,0,0,0,0,
0,0,0,0,0,0,0,0,0,0,0,0,0,0,0,0,0,0,0,0,0,0,0,0,0,0,0,0,0,0,0,0,0,0,0,0,1293,1294,1295,0,0,0,0,0,0,0,0,0,0,0,0,0,0,0,0,0,0,0,0,0,0,0,0,0,0,0,0,0,0,0,0,1579,1580,1581,0,0,0,0,0,0,0,0,0,0,0,0,0,0,0,0,0,0,0,0,0,0,0,0,0,0,
0,0,0,0,0,0,0,0,0,0,0,0,0,0,0,0,0,0,0,0,0,0,0,0,0,0,0,0,0,0,0,0,0,0,0,0,1433,1434,1435,0,0,0,0,0,0,0,0,0,0,0,0,0,0,0,0,0,0,0,0,0,0,0,0,0,0,0,0,0,0,0,0,0,0,0,0,0,0,0,0,0,0,0,0,0,0,0,0,0,0,0,0,0,0,0,0,0,0,0,0,0,
0,0,0,0,0,0,0,0,0,0,0,0,0,0,0,0,0,0,0,0,0,0,0,0,0,0,0,0,0,0,0,0,0,0,0,0,1573,1574,1575,0,0,0,0,0,0,0,0,0,0,0,0,0,0,0,0,0,0,0,0,8549,0,0,0,0,0,0,0,0,0,0,0,0,0,0,0,0,0,0,0,0,0,0,0,0,0,0,0,0,0,0,0,0,0,0,0,0,0,0,0,0,
0,0,0,0,0,0,0,0,0,0,0,0,0,0,0,0,0,0,0,0,0,0,0,0,0,0,0,0,0,0,0,0,0,0,0,0,1713,1714,1715,0,0,0,0,0,0,0,0,0,0,0,0,0,0,0,0,0,0,0,0,0,8549,0,0,0,0,0,0,0,0,0,0,0,0,0,0,0,0,0,0,0,0,0,0,0,0,0,0,0,0,0,0,0,0,0,0,0,0,0,0,0,
0,0,0,0,0,26648,26649,0,0,0,0,0,0,0,0,0,0,0,0,0,0,0,0,0,0,0,0,0,0,0,0,0,0,0,0,0,0,0,0,0,0,0,0,0,0,0,0,0,0,0,0,0,0,0,0,0,0,0,0,26192,26193,0,0,0,0,0,0,0,0,0,0,0,0,0,0,0,0,0,0,0,0,0,0,0,0,0,0,0,0,0,0,0,0,0,0,0,0,0,0,0,
0,0,0,0,0,26708,26709,0,0,0,0,0,0,0,0,0,0,0,0,0,0,0,0,0,0,0,0,0,0,0,0,0,0,0,0,0,0,0,0,0,0,0,0,0,0,0,0,0,0,0,0,0,0,0,0,0,0,0,0,26252,26253,0,0,0,0,0,0,0,0,0,0,0,0,0,0,0,0,0,0,0,0,0,0,0,0,0,0,0,0,0,0,0,0,0,0,0,0,0,0,0,
0,0,0,0,0,0,0,0,0,0,0,0,0,0,0,0,0,0,0,0,0,0,0,0,0,0,0,0,0,0,0,0,0,0,0,0,0,0,0,0,0,0,0,0,0,0,0,0,0,0,0,0,0,0,0,0,0,0,0,0,0,0,0,0,0,0,0,0,0,0,0,0,0,0,0,0,0,0,0,0,0,0,0,0,0,0,0,0,0,0,0,0,0,0,0,0,0,0,0,0,
0,0,0,0,0,0,0,0,0,0,0,0,0,0,0,0,0,0,0,0,0,0,0,0,0,0,0,0,0,0,0,0,0,0,0,0,0,0,0,0,0,0,0,0,0,0,0,0,0,0,0,0,0,0,0,0,0,0,0,0,0,0,0,0,0,0,0,0,0,0,0,0,0,0,0,0,0,0,0,0,0,0,0,0,0,0,0,0,0,0,0,0,0,0,0,0,0,0,0,0,
0,0,0,0,0,0,0,0,0,0,0,0,0,0,0,0,0,0,0,0,0,0,0,0,0,0,0,0,0,0,0,0,0,0,0,0,0,0,0,0,0,0,0,0,0,0,0,0,0,0,0,0,0,0,0,0,0,0,0,0,0,0,0,0,0,0,0,0,0,0,0,0,0,0,0,0,0,0,0,0,0,0,0,0,0,0,0,0,0,0,0,0,0,0,0,0,0,0,0,0,
0,0,0,0,0,0,0,0,0,0,0,0,0,0,0,0,0,0,0,0,0,0,0,0,0,0,0,0,0,0,0,0,0,0,0,0,0,0,0,0,0,0,0,0,0,0,0,0,0,0,0,0,0,0,0,0,0,0,0,0,0,0,0,0,0,0,0,0,0,0,0,0,0,0,0,0,0,0,0,0,0,0,0,0,0,0,0,0,0,0,0,0,0,0,0,0,0,0,0,0,
0,0,0,0,0,0,0,0,0,0,0,0,0,0,0,0,0,0,0,0,0,0,0,0,0,0,0,0,0,0,0,0,0,0,0,0,0,0,0,0,0,0,0,0,0,0,0,0,0,0,0,0,0,0,0,0,0,0,0,0,0,0,0,0,0,0,0,0,0,0,0,0,0,0,0,0,0,0,0,0,0,0,0,0,0,0,0,0,0,0,0,0,0,0,0,0,0,0,0,0,
0,0,0,0,4534,4535,23179,23181,4533,0,0,0,0,0,0,0,0,0,0,0,0,0,0,0,0,0,0,0,0,0,0,0,0,0,0,0,0,0,0,0,0,0,0,0,0,0,0,0,0,0,0,0,0,0,0,0,0,0,0,0,0,0,0,0,0,0,0,0,0,0,0,0,0,0,0,0,0,0,0,0,0,0,0,0,0,0,0,0,0,0,0,0,0,0,0,0,0,0,0,0,
0,0,0,0,0,4815,0,0,4813,0,0,0,0,0,0,0,0,0,0,0,0,0,0,0,0,0,0,0,0,0,0,0,0,0,0,23326,23327,0,0,0,0,0,0,0,0,0,0,0,0,0,0,0,0,0,0,0,0,0,0,0,0,0,0,0,0,0,0,0,0,0,0,0,0,0,0,0,0,0,0,0,0,0,0,0,0,0,0,0,0,0,0,0,0,0,0,0,0,0,0,0,
0,0,0,0,0,0,23211,23213,0,0,0,0,0,0,0,0,0,0,0,0,0,0,0,0,0,0,0,0,0,0,0,0,0,0,0,23358,23359,0,0,0,0,0,0,0,0,0,0,0,0,0,0,0,0,0,0,0,0,0,0,0,0,0,0,0,0,0,0,0,0,0,0,0,0,0,0,0,0,0,0,0,0,0,0,0,0,0,0,0,0,0,0,0,0,0,0,0,0,0,0,0,
0,0,0,0,0,0,0,0,0,0,0,0,0,0,0,0,0,0,0,0,0,0,0,0,0,0,0,0,0,0,0,0,0,0,0,0,0,0,0,0,0,0,0,0,0,0,0,0,0,0,0,0,0,0,0,0,0,0,0,0,0,0,0,0,0,0,0,0,0,0,0,0,0,0,0,0,0,0,0,0,0,0,0,0,0,0,0,0,0,0,0,0,0,0,0,0,0,0,0,0,
0,0,0,0,0,0,0,0,0,0,0,0,0,0,0,0,0,0,0,0,0,0,0,0,0,0,0,0,0,0,0,0,0,0,0,0,0,0,0,0,0,0,0,0,0,0,0,0,0,0,0,0,0,0,0,0,0,0,0,0,0,0,0,0,0,0,0,0,0,0,0,0,0,0,0,0,0,0,0,0,0,0,0,0,0,0,0,0,0,0,0,0,0,0,0,0,0,0,0,0,
0,0,0,0,0,0,0,0,0,0,0,0,0,0,0,0,0,0,0,0,0,0,0,0,0,0,0,0,0,0,0,0,0,0,0,0,0,0,0,0,0,0,0,0,0,0,0,0,0,0,0,0,0,0,0,0,0,0,0,0,0,0,0,0,0,0,0,0,0,0,0,0,0,0,0,0,0,0,0,0,0,0,0,0,0,0,0,0,0,0,0,0,0,0,0,0,0,0,0,0,
0,0,0,0,0,0,0,0,0,0,0,0,0,0,0,0,0,0,0,0,0,0,0,0,0,0,0,0,0,0,0,0,0,0,0,0,0,0,0,0,0,0,0,0,0,0,0,0,0,0,0,0,0,0,0,0,0,0,0,0,0,0,0,0,0,0,0,0,0,0,0,0,0,0,0,0,0,0,0,0,0,0,0,0,0,0,0,0,0,29084,29085,0,0,0,0,0,0,0,0,0,
0,0,0,0,0,0,0,0,0,0,0,0,0,0,0,0,0,0,0,0,0,0,0,0,0,0,0,0,0,0,0,0,0,0,0,0,0,0,0,0,0,0,0,0,0,0,0,0,0,0,0,0,0,0,0,0,0,0,0,0,0,0,0,0,0,0,0,0,0,0,0,0,0,0,0,0,0,0,0,0,0,0,0,0,0,0,0,0,0,29144,29145,0,0,0,0,0,0,0,0,0,
0,0,0,0,0,0,0,0,0,0,0,0,0,0,0,0,0,0,0,0,0,0,0,0,0,0,0,0,0,0,0,0,0,0,0,0,0,0,0,0,0,0,0,0,0,0,0,0,0,0,0,0,0,0,0,0,0,0,0,0,0,0,0,0,0,0,0,0,0,0,0,0,0,0,0,0,0,0,0,0,0,0,0,0,0,0,0,0,0,0,0,0,0,0,0,0,0,0,0,0,
0,0,0,0,0,0,0,0,0,0,0,0,0,0,0,0,0,0,0,0,0,0,0,0,0,0,0,0,0,0,0,0,0,0,0,0,0,0,0,0,0,0,0,0,0,0,0,0,0,0,0,0,0,0,0,0,0,0,0,0,0,0,0,0,0,0,0,0,0,0,0,0,0,0,0,0,0,0,0,0,0,0,0,0,0,0,0,0,0,0,0,0,0,0,0,0,0,0,0,0,
0,0,0,0,0,0,0,0,0,0,0,0,0,0,0,0,0,0,0,0,0,0,0,0,0,0,0,0,0,0,0,0,0,0,0,0,0,0,0,0,0,0,0,0,0,0,0,0,0,0,0,0,0,0,0,0,0,0,0,0,0,0,0,0,0,0,0,0,0,0,0,0,0,0,0,0,0,0,0,0,0,0,0,0,0,0,0,0,0,0,0,0,0,0,0,0,0,0,0,0,
0,0,0,0,0,0,0,0,0,0,0,0,0,0,0,0,0,0,0,0,0,0,0,0,0,0,0,0,0,0,0,0,0,0,0,0,0,0,0,0,0,0,0,0,0,0,0,0,0,0,0,0,0,0,0,0,0,0,0,0,0,0,0,0,0,0,0,0,0,0,0,0,0,0,0,0,0,0,0,0,0,0,0,0,0,0,0,0,0,0,0,0,0,0,0,0,0,0,0,0,
0,0,0,0,0,0,0,0,0,0,0,0,0,0,0,0,0,0,0,0,0,0,0,0,0,0,0,0,0,0,0,0,0,0,0,0,0,0,0,0,0,0,0,0,0,0,0,0,0,0,0,0,0,0,0,0,0,0,0,0,0,0,0,0,0,0,0,0,0,0,0,0,0,0,0,0,0,0,0,0,0,0,0,0,0,0,0,0,0,0,0,0,0,0,0,0,0,0,0,0,
0,0,0,0,0,0,0,0,0,0,0,0,0,0,0,0,0,0,0,0,0,0,0,0,0,0,0,0,0,0,0,0,0,0,0,0,0,0,0,0,0,0,0,0,0,0,0,0,0,0,0,0,0,0,0,0,0,0,0,0,0,0,0,0,0,0,0,0,0,0,0,0,0,0,0,0,0,0,0,0,0,0,0,0,0,0,0,0,0,0,0,0,0,0,0,0,0,0,0,0,
0,0,0,0,0,0,0,0,0,0,0,0,0,0,0,0,0,0,0,0,0,0,0,0,0,0,0,0,0,0,0,0,0,0,0,0,0,0,0,0,0,0,0,0,0,0,0,0,0,0,0,0,0,0,0,0,0,0,0,0,0,0,0,0,0,0,0,0,0,0,0,0,0,0,0,0,0,0,0,0,0,0,0,0,0,0,0,0,0,0,0,0,0,0,0,0,0,0,0,0
</data>
 </layer>
 <layer id="4" name="Layer 4" width="100" height="79">
  <data encoding="csv">
0,0,0,0,0,0,0,0,0,0,0,0,0,0,0,0,0,0,0,0,0,0,0,0,0,0,0,0,0,0,0,0,0,0,0,0,0,0,0,0,0,0,0,4675,4675,4675,0,0,0,9747,9748,9749,9750,9751,0,0,0,0,0,0,0,0,0,0,0,0,0,0,10021,10022,10023,10024,10025,10026,0,0,0,0,0,0,0,0,4813,4814,4814,4954,4673,4673,0,0,0,0,0,0,0,0,0,0,0,0,
0,0,0,0,0,0,0,0,0,0,0,0,0,0,0,0,0,0,0,0,0,0,0,0,0,0,0,0,0,0,0,0,0,0,0,0,0,0,0,0,0,0,0,4675,4675,5093,4535,0,0,9887,9888,9889,9890,9891,0,0,0,0,0,0,0,0,0,0,0,0,0,0,10161,10162,10163,10164,10165,10166,18509,18510,18511,18512,18513,0,0,0,0,0,0,4673,4673,4673,0,0,0,0,0,0,0,0,0,0,0,0,
0,0,0,0,0,0,0,0,0,0,0,0,0,0,0,0,0,0,0,0,0,0,0,0,0,0,0,0,0,0,0,0,0,0,0,0,0,0,0,0,0,0,0,4675,5093,4535,4675,0,0,10027,10028,10029,10030,10031,0,0,0,0,0,0,23679,0,0,0,0,0,0,0,10301,10302,10303,10304,10305,10306,18649,18650,18651,18652,18653,0,0,0,0,0,0,4673,4673,4673,0,0,0,0,0,0,0,0,0,0,0,0,
0,0,0,0,0,0,0,0,0,0,0,0,0,0,0,0,0,0,0,0,0,0,0,0,0,0,0,0,0,0,0,0,0,0,0,0,0,0,0,0,0,0,0,5093,4535,4675,5093,4535,0,10167,10168,10169,10170,10171,0,0,0,0,0,23679,0,0,0,0,0,0,0,0,10441,10442,10443,10444,10445,10446,18789,18790,18791,18792,18793,0,0,0,0,0,0,4673,4673,4673,0,0,0,0,0,0,0,0,0,0,0,0,
0,0,0,0,0,0,0,0,0,0,0,0,4953,4814,4814,4814,4814,4814,4814,4814,4814,4814,4814,4814,4814,4814,4814,4954,0,0,0,0,0,0,0,0,0,0,0,0,0,0,0,0,4675,4675,0,4675,0,10307,10308,10309,10310,10311,0,0,0,0,0,23679,0,0,0,0,0,0,23327,0,10581,10582,10583,10584,10585,10586,18929,18930,18931,18932,18933,23679,0,0,0,0,0,4673,4673,4673,0,0,0,0,0,0,0,0,0,0,0,0,
0,0,0,0,0,0,0,0,0,0,0,4953,4815,4953,4814,4814,4814,4814,4814,4814,4814,4814,4814,4814,4814,4814,4954,4813,4814,4954,0,0,0,0,0,0,0,0,0,0,0,0,0,4953,4815,4675,4953,4815,0,10447,10448,10449,10450,10451,0,0,0,0,23679,0,0,0,0,0,0,0,0,0,10721,10722,10723,10724,10725,10726,19069,19070,19071,19072,19073,0,0,0,0,0,0,4673,4673,4673,0,0,0,0,0,0,0,0,0,0,0,0,
0,0,0,0,0,0,0,0,0,0,0,4675,4953,4815,4953,4814,4814,4814,4814,4814,4814,4814,4814,4814,4814,4954,4813,4814,4954,4813,4814,4954,0,0,0,0,0,0,0,0,0,0,4953,4815,4953,4815,4675,0,0,10587,10588,10589,10590,10591,0,0,0,0,0,0,0,0,0,0,0,0,0,0,0,18509,18510,18511,18512,18513,19209,19210,19211,19212,19213,0,0,0,0,0,0,4673,4673,4673,0,0,0,0,0,0,0,0,0,0,0,0,
0,0,0,0,0,0,0,0,0,0,0,4675,4675,4953,4815,0,0,0,0,0,0,0,0,0,0,4813,4814,4954,4813,4814,4954,4813,4954,0,0,0,0,0,0,0,0,0,4675,4953,4815,4953,4815,0,0,0,0,23679,26198,26199,0,0,0,0,0,0,0,0,0,0,0,0,0,0,0,18649,18650,18651,18652,18653,19349,19350,19351,19352,19353,0,0,0,0,0,4533,5094,4673,4673,0,0,0,0,0,0,0,0,0,0,0,0,
0,0,0,0,0,0,0,0,0,0,0,4675,4675,4675,0,0,0,0,0,0,0,0,0,0,0,0,0,4813,4814,4954,4813,4954,4673,0,0,0,0,0,0,0,0,0,4675,4675,4953,4815,0,0,0,0,0,0,26258,26259,0,0,0,0,0,0,0,0,0,0,0,0,0,0,0,18789,18790,18791,18792,18793,0,0,0,0,0,0,0,0,0,0,4673,4533,5094,4673,0,0,0,0,0,0,0,0,0,0,0,0,
0,0,0,0,0,0,0,0,0,0,0,4675,4675,4675,0,0,0,0,0,0,0,0,0,0,0,0,0,0,0,4813,4954,4673,4813,4954,0,0,0,0,0,0,0,0,4675,4675,4675,0,0,0,0,0,0,0,0,0,0,0,23326,23327,0,0,0,0,0,0,0,0,0,0,0,18929,18930,18931,18932,18933,0,0,0,0,0,0,0,0,0,4533,5094,4673,4533,5094,0,0,0,0,0,0,0,0,0,0,0,0,
0,0,0,0,0,0,0,0,0,0,0,4675,4675,4675,0,0,0,0,0,0,0,0,0,0,0,0,0,0,0,0,4954,4813,4954,4813,4954,0,0,0,0,0,0,0,4675,4675,4675,4675,0,0,0,0,0,0,0,0,0,0,23358,23359,0,0,0,0,0,0,0,0,0,0,0,19069,19070,19071,19072,19073,0,0,0,0,0,0,0,0,0,4673,4533,5094,4673,0,0,0,0,0,0,0,0,0,0,0,0,0,
0,0,0,0,0,0,0,0,0,0,0,4675,4675,4675,0,0,0,0,0,0,0,0,1299,1300,1301,0,0,0,0,0,4813,4954,4813,4954,4813,4954,0,0,0,0,0,0,4675,4675,4675,4675,0,0,0,0,0,0,0,0,0,0,0,0,0,0,0,0,0,0,0,0,0,0,0,19209,19210,19211,19212,19213,0,0,0,0,0,0,0,0,0,4673,4673,4533,5094,0,0,0,0,0,0,0,0,0,0,0,0,0,
0,0,0,0,0,0,0,0,0,0,0,4675,4675,4675,0,0,0,0,0,0,0,0,1439,1440,1441,0,0,0,0,0,0,4813,4954,4813,4954,4813,4954,0,0,0,0,4953,4815,4675,4675,4675,0,0,0,0,0,0,0,0,0,0,0,0,0,0,0,0,0,0,0,0,0,0,0,19349,19350,19351,19352,19353,0,0,0,0,0,0,0,0,4533,5094,4673,4673,0,0,0,0,0,0,0,0,0,0,0,0,0,0,
0,0,0,0,0,0,0,0,0,0,0,4675,4675,4675,0,0,0,0,0,0,0,0,1579,1580,1581,0,0,0,0,0,0,0,4813,4954,4813,4954,4813,4814,4814,4814,4814,4815,4953,4815,4675,0,0,0,0,0,0,0,0,0,0,0,0,0,0,0,0,0,0,0,0,0,0,0,0,0,0,0,0,0,0,0,0,0,0,0,0,0,4673,4533,5094,4673,0,0,0,0,0,0,0,0,0,0,0,0,0,0,
0,0,0,0,0,0,0,0,0,0,0,4675,4675,5093,4535,0,0,0,0,0,0,0,0,0,0,0,0,0,0,0,0,0,0,4813,4954,4813,4814,4814,4814,4814,4814,4814,4815,4953,4815,0,0,0,0,0,0,0,0,0,0,0,0,0,0,0,0,0,0,0,0,0,0,0,0,0,0,0,0,0,0,0,0,0,0,0,0,0,4673,4673,4533,5094,0,0,0,0,0,0,0,0,0,0,0,0,0,0,
0,0,0,0,0,0,0,0,0,0,0,4675,5093,4535,4675,0,0,0,0,0,0,0,0,0,0,0,0,0,0,0,0,0,0,0,4813,4814,4814,4814,4814,4814,4954,0,4953,4815,0,0,0,0,0,0,0,0,0,0,0,0,0,0,0,0,0,0,0,0,0,0,0,0,0,0,0,0,0,0,0,0,0,0,0,0,0,0,4673,4673,4673,0,0,0,0,0,0,0,0,0,0,0,0,0,0,0,
0,0,0,0,0,0,0,0,0,0,0,5093,4535,4675,5093,4535,0,0,0,0,0,0,0,0,0,0,0,0,0,0,0,0,0,0,0,0,0,4518,4519,4520,4813,4814,4815,0,0,0,0,0,0,0,0,0,0,0,0,0,0,0,0,0,0,0,0,0,0,0,0,0,0,0,0,0,0,0,0,0,0,0,0,0,0,0,4673,4673,4673,0,0,0,0,0,0,0,0,0,0,0,0,0,0,0,
0,0,0,0,0,0,0,0,0,0,4953,4814,4815,5093,4535,5093,4535,0,0,0,0,0,0,0,0,0,0,0,0,0,0,0,0,0,0,38,39,40,5353,5358,4520,0,0,0,0,0,0,0,0,0,0,0,0,0,0,0,0,0,0,0,0,0,0,0,0,0,0,0,0,0,0,0,0,0,0,0,0,0,0,0,0,0,4673,4673,4813,4954,0,0,0,0,0,0,0,0,0,0,0,0,0,0,
0,0,0,0,0,0,0,4953,4814,4814,4815,4953,4814,4814,4815,0,5093,4535,0,0,0,0,0,0,0,0,0,0,0,0,0,0,0,0,0,178,179,180,0,5078,4800,0,0,0,0,0,0,0,0,0,0,0,0,0,0,0,0,0,0,0,0,0,0,0,0,0,0,0,0,0,0,0,0,0,0,0,0,0,0,0,0,0,4673,4813,4954,4673,0,0,0,0,0,0,0,0,0,0,0,0,0,0,
0,0,0,0,0,0,4953,4815,4953,4814,4814,4815,4953,4814,4814,4814,4814,4815,0,0,0,0,0,0,0,0,0,0,0,0,0,0,0,0,0,318,319,320,0,5218,4940,0,0,0,0,0,0,0,0,0,0,0,0,0,0,0,0,1299,1300,1301,0,0,0,0,0,0,0,0,0,0,0,0,0,0,0,0,0,0,0,0,0,0,4813,4954,4673,4813,4954,0,0,0,0,0,0,0,0,0,0,0,0,0,
0,0,0,0,0,0,4675,4953,4815,4953,4814,4814,4815,0,0,0,0,0,0,0,0,0,0,0,0,0,0,0,0,0,0,0,0,0,0,458,459,460,5078,4800,0,0,0,0,0,0,0,0,0,0,0,0,0,0,0,0,0,1439,1440,1441,0,0,0,0,0,0,0,0,0,0,0,0,0,23679,0,0,0,0,0,0,0,0,0,4673,4813,4954,4673,0,0,0,0,0,0,0,0,0,0,0,0,0,
0,0,0,0,0,0,4675,4675,4953,4815,0,0,0,0,0,0,0,0,0,0,0,0,0,0,0,0,0,0,0,0,1299,1300,1301,0,0,4935,5219,0,5218,4940,0,0,0,0,0,0,0,0,0,0,0,0,0,0,0,0,0,1579,1580,1581,0,0,0,0,0,0,0,0,23679,0,0,0,25846,25847,0,0,0,0,0,0,0,0,0,4813,4954,4673,4813,4954,0,0,0,0,0,0,0,0,0,0,0,0,
0,0,0,0,0,0,4675,4675,0,0,0,0,0,0,0,0,0,0,0,0,0,0,0,0,0,0,0,0,0,0,1439,1440,1441,0,0,0,4798,4799,4800,0,0,0,0,0,0,0,0,0,0,0,0,0,0,0,0,0,0,0,0,0,0,0,0,0,0,0,0,0,23679,0,0,0,25906,25907,0,0,0,0,0,0,0,0,0,0,4673,4813,4954,4673,0,0,0,0,0,0,0,0,0,0,0,0,
0,0,0,0,0,0,4675,4675,0,0,0,0,0,0,0,0,0,0,0,0,0,0,0,0,0,0,0,0,0,0,1579,1580,1581,0,0,0,4938,4939,4940,0,0,0,0,0,0,0,0,0,0,0,0,0,0,0,0,0,0,0,0,0,0,0,23326,23327,0,0,0,0,0,0,0,0,0,0,0,0,0,0,0,0,0,0,0,0,4813,4954,4673,4813,4954,0,0,0,0,0,0,0,0,0,0,0,
0,0,0,0,0,0,4675,4675,0,0,0,0,0,0,0,0,0,0,0,0,0,0,0,0,0,0,0,0,0,0,0,0,0,0,0,0,0,0,0,0,0,0,0,0,0,24672,0,0,24652,0,0,1299,1300,1301,0,0,0,0,0,0,0,0,23358,23359,0,0,0,0,0,0,0,0,0,0,0,0,0,0,0,0,0,0,0,0,0,4673,4813,4954,4813,4954,0,0,0,0,0,0,0,0,0,0,
0,0,0,0,0,0,4675,4675,0,0,0,0,0,0,0,0,0,0,0,0,0,0,0,0,0,0,0,0,0,0,0,0,0,0,0,0,0,0,25724,25725,0,0,0,0,0,24670,0,0,0,0,0,1439,1440,1441,0,0,0,0,0,0,0,0,0,0,0,0,0,0,0,0,0,0,0,0,0,0,0,0,0,0,0,0,0,0,0,4813,4954,4813,4954,4673,0,0,0,0,0,0,0,0,0,0,
0,0,0,0,0,0,4675,4675,4675,0,0,0,0,0,0,0,0,0,0,0,0,0,0,0,0,0,0,0,0,0,0,0,0,0,0,0,0,0,25784,25785,0,0,0,0,0,0,0,0,0,0,0,1579,1580,1581,0,0,0,0,0,0,0,0,0,0,0,0,0,0,0,0,0,0,0,0,0,0,0,0,0,0,0,0,0,0,0,0,4813,4954,4673,4813,4954,0,0,0,0,0,0,0,0,0,
0,0,0,0,0,0,4675,4675,4675,0,0,0,0,0,0,0,0,0,0,0,0,0,0,0,0,0,0,0,0,0,0,0,0,0,0,0,0,0,0,0,0,0,0,0,0,0,0,0,24650,0,0,0,0,0,0,0,0,0,0,0,0,0,0,0,0,0,0,0,0,0,0,0,0,0,0,0,0,0,0,0,0,0,0,0,0,0,0,4673,4813,4954,4673,0,0,0,0,0,0,0,0,0,
0,0,0,0,0,0,4675,4675,5093,4535,0,0,0,0,0,0,0,0,0,0,0,0,0,0,0,0,0,0,0,0,0,0,0,0,0,23679,0,0,0,0,0,0,0,0,0,24652,0,24648,0,0,24652,0,0,0,0,0,0,0,0,0,0,0,0,0,0,0,0,0,0,0,0,0,0,0,0,0,0,0,0,0,0,0,0,0,0,0,0,4813,4954,4673,4813,4954,0,0,0,0,0,0,0,0,
0,0,0,0,0,0,4675,4675,4953,4815,0,0,0,0,0,0,0,0,0,0,0,0,0,0,0,0,0,0,0,0,0,0,0,0,25718,25719,0,0,0,0,0,0,0,0,24674,0,0,0,0,0,0,0,0,0,0,0,0,0,0,0,0,0,0,0,0,0,0,0,0,0,0,0,0,0,0,0,0,0,0,0,0,0,0,0,0,0,0,0,4673,4813,4954,4673,0,0,0,0,0,0,0,0,
0,0,0,0,0,0,4675,4675,4675,0,0,0,0,0,0,0,0,0,0,0,0,0,0,0,0,0,0,0,0,0,0,0,0,0,25778,25779,0,0,0,0,0,0,0,0,0,0,0,0,0,0,0,0,0,0,0,0,0,0,0,0,0,0,0,0,0,0,0,0,0,0,0,0,0,0,0,0,0,0,0,0,0,0,0,0,0,0,0,0,4813,4954,4673,4673,0,0,0,0,0,0,0,0,
0,0,0,0,0,0,4675,4675,4675,0,0,0,0,0,0,0,0,0,0,0,0,0,0,0,0,0,0,0,0,0,0,0,0,0,0,0,0,0,0,0,0,0,0,0,0,0,0,0,0,0,0,0,0,0,0,0,0,0,0,0,0,0,0,0,0,0,0,0,0,0,0,0,0,0,0,0,0,0,0,0,0,0,0,0,0,0,0,0,0,4673,4673,4673,0,0,0,0,0,0,0,0,
0,0,0,0,0,0,4675,4675,4675,0,0,0,0,0,0,0,0,0,0,0,0,0,0,0,0,0,0,0,0,0,0,0,0,0,0,0,0,0,0,0,0,0,0,0,0,0,0,0,0,0,0,0,0,0,0,0,0,0,0,0,0,1299,1300,1301,0,0,0,0,0,0,0,0,0,0,0,0,0,0,0,0,0,0,0,0,0,0,0,0,0,4673,4673,4673,0,0,0,0,0,0,0,0,
0,0,0,0,0,0,4675,4675,4675,0,0,0,0,0,0,0,0,0,0,0,0,0,0,0,0,0,0,0,0,0,0,0,0,0,0,0,0,0,0,0,0,0,0,0,0,0,0,0,0,0,0,0,0,0,0,0,0,0,0,0,0,1439,1440,1441,0,0,0,0,0,0,0,0,0,0,0,0,0,0,0,0,0,0,0,0,0,0,0,0,0,4673,4673,4673,0,0,0,0,0,0,0,0,
0,0,0,0,0,0,4675,4675,5093,4535,0,0,0,0,0,0,0,0,0,0,0,0,0,0,0,0,0,0,0,0,0,0,0,0,23679,0,0,0,0,0,0,0,0,0,0,0,0,0,0,0,0,0,0,0,0,0,0,0,0,0,0,1579,1580,1581,0,0,0,0,0,0,0,0,0,0,0,0,0,0,0,0,0,0,0,0,0,0,0,0,0,4673,4673,4673,0,0,0,0,0,0,0,0,
0,0,0,0,0,0,4675,5093,4535,5093,4535,0,0,0,0,0,0,0,0,0,0,0,0,0,0,0,0,0,0,0,0,0,0,0,0,0,0,0,0,0,0,0,0,0,0,0,0,0,0,0,0,0,0,0,0,0,0,0,0,0,0,0,0,0,0,0,0,0,0,0,0,0,0,0,0,23326,23327,0,0,0,0,0,0,0,0,0,0,0,0,4673,4673,4673,0,0,0,0,0,0,0,0,
0,0,0,0,0,0,5093,4535,5093,4535,5093,4535,0,0,0,0,0,0,0,0,0,0,0,0,0,0,0,0,0,0,0,0,0,0,0,0,0,0,0,0,0,0,0,0,0,0,0,0,1302,0,0,0,0,0,0,0,0,0,0,0,0,0,0,0,0,0,0,0,0,0,0,0,0,0,0,23358,23359,0,0,0,0,0,0,0,0,0,0,0,0,4673,4673,4673,0,0,0,0,0,0,0,0,
0,0,0,0,0,0,0,5093,4535,5093,4535,5093,4535,0,0,0,0,0,0,0,0,0,0,0,0,0,0,0,0,0,0,0,0,0,0,0,0,0,0,0,0,0,0,0,0,0,0,4917,0,0,0,0,0,0,0,0,0,0,0,0,0,0,0,0,0,0,0,0,0,0,0,0,0,0,0,0,0,0,0,0,0,0,0,0,0,0,0,0,0,4673,4673,4673,0,0,0,0,0,0,0,0,
0,0,0,0,0,0,0,0,5093,4535,5093,4535,5093,4535,0,0,0,0,0,0,0,0,0,0,0,0,0,0,0,0,0,0,0,0,0,0,0,0,0,0,0,0,0,0,0,4917,23135,0,0,0,0,0,0,1302,1303,1304,0,0,0,0,0,0,0,0,0,0,0,0,0,0,0,0,0,0,0,0,0,0,0,0,0,0,0,0,4533,4535,0,0,0,4673,4673,4673,0,0,0,0,0,0,0,0,
0,0,0,0,0,0,0,0,0,5093,4535,5093,4535,5093,4535,0,0,0,0,0,0,0,0,0,0,0,0,0,0,0,0,0,0,0,0,0,0,0,0,0,0,0,0,0,4917,0,23167,0,0,0,0,0,0,1442,1443,1444,0,0,0,0,0,0,0,0,0,0,0,0,0,0,0,0,0,0,0,0,0,0,0,0,0,0,0,0,4673,4675,0,0,0,4673,4673,4673,0,0,0,0,0,0,0,0,
0,0,0,0,0,0,0,0,0,0,5093,4535,5093,4535,5093,4535,0,0,0,0,0,0,0,0,0,0,0,0,0,0,0,0,0,0,0,0,0,0,0,0,0,0,0,0,4639,0,0,0,0,0,0,0,0,1582,1583,1584,0,0,0,0,0,0,0,0,0,0,0,0,0,0,0,0,0,0,0,0,0,0,0,0,0,0,0,0,4673,4675,0,0,0,4673,4673,4673,0,0,0,0,0,0,0,0,
0,0,0,0,0,0,0,0,0,0,0,5093,4535,5093,4535,5093,4535,0,0,0,0,0,0,0,0,0,0,0,0,0,0,0,0,0,0,0,0,0,0,0,0,0,0,0,4639,0,0,0,0,0,0,0,0,1722,1723,1724,0,1302,1303,1304,0,0,0,0,0,0,0,0,0,0,0,0,0,0,0,0,0,0,0,0,0,0,0,0,4813,4815,0,0,0,4673,4673,4673,0,0,0,0,0,0,0,0,
0,0,0,0,0,0,0,0,0,0,0,0,5093,4535,5093,4535,5093,4534,4535,0,0,0,0,0,0,0,0,0,0,0,0,0,0,0,0,0,0,0,0,0,0,0,0,0,4639,0,0,0,0,1305,1306,1307,1308,1309,0,0,0,1442,1443,1444,0,0,0,0,0,0,0,0,0,0,0,0,0,0,0,0,0,0,0,0,0,0,0,0,0,0,0,0,0,4673,4673,4673,0,0,0,0,0,0,0,0,
0,0,0,0,0,0,0,0,0,0,0,0,0,5093,4535,5093,4534,4535,5093,4535,0,0,0,0,0,0,0,0,0,0,0,0,0,0,0,1299,1300,1301,0,0,0,0,0,0,4639,0,0,0,0,1445,1446,1447,1448,1449,0,0,0,1582,1583,1584,0,0,0,0,0,0,0,0,0,0,0,0,0,0,0,0,0,0,0,0,0,0,0,0,0,0,0,0,0,4673,4673,4673,0,0,0,0,0,0,0,0,
0,0,0,0,0,0,0,0,0,0,0,0,0,0,5093,4534,4535,5093,4535,5093,4535,0,0,0,0,0,0,0,0,0,0,0,0,0,0,1439,1440,1441,0,0,0,0,0,4917,0,0,0,0,0,1585,1586,1587,1588,1589,0,0,0,1722,1723,1724,0,0,0,0,0,0,0,0,0,0,0,0,0,0,0,0,0,0,0,0,0,0,0,23326,23327,0,0,0,0,4673,4673,4673,0,0,0,0,0,0,0,0,
0,0,0,0,0,0,0,0,0,0,0,0,0,0,0,0,5093,4535,5093,4535,5093,4535,0,0,0,23679,0,0,0,0,0,0,0,0,0,1579,1580,1581,0,0,0,0,4917,0,1302,1303,1304,0,0,1725,1726,1727,1728,1729,0,0,0,0,0,0,0,0,0,0,0,0,0,0,0,0,0,0,0,0,0,0,0,0,0,0,0,0,0,23358,23359,0,0,0,4533,5094,4673,4673,0,0,0,0,0,0,0,0,
0,0,0,0,0,0,0,0,0,0,0,0,0,0,0,0,0,5093,4535,5093,4535,4675,0,0,0,0,0,0,0,0,0,0,0,0,0,0,0,0,0,0,0,1300,0,0,1442,1443,1444,0,0,1865,1866,1867,1868,1869,0,0,0,0,0,0,0,0,0,0,0,0,1299,1300,1301,0,0,25608,25609,0,0,0,0,0,0,0,0,0,0,0,0,0,0,0,4673,4533,5094,4673,0,0,0,0,0,0,0,0,
0,0,0,0,0,0,0,0,0,0,0,0,0,0,0,0,0,0,4675,4953,4815,4675,0,0,0,0,0,0,0,0,0,0,0,0,0,0,0,0,0,0,0,0,0,0,1582,1583,1584,0,0,0,0,0,0,0,0,0,0,0,0,0,0,0,0,0,0,0,1439,1440,1441,0,0,25668,25669,0,0,0,0,0,0,0,0,0,0,0,0,0,0,0,4673,4673,4533,5094,0,0,0,0,0,0,0,0,
0,0,0,0,0,0,0,0,0,0,0,0,0,0,0,0,0,0,4675,4675,4953,4815,0,0,0,0,0,0,0,0,0,0,0,0,0,25602,25603,0,0,0,0,0,0,0,1722,1723,1724,0,0,0,0,0,0,0,0,0,0,0,0,0,0,0,0,0,0,0,1579,1580,1581,0,0,0,0,0,0,0,0,0,0,0,0,0,0,0,25840,25841,0,0,4673,4673,4673,0,0,0,0,0,0,0,0,0,
0,0,0,0,0,0,0,0,0,0,0,0,0,0,0,0,0,4953,4815,4675,4675,0,0,0,0,0,0,0,0,0,0,0,4515,4516,4517,25662,25663,0,0,0,0,0,0,0,0,0,0,0,0,0,0,0,0,0,0,0,0,0,0,0,0,0,0,0,0,0,0,0,0,0,0,0,0,0,0,0,0,0,0,0,0,0,0,0,25900,25901,0,0,4673,4673,4673,0,0,0,0,0,0,0,0,0,
0,0,0,0,0,0,0,0,0,0,0,0,0,0,0,0,0,4675,4953,4815,4675,0,0,0,0,0,0,0,0,0,0,0,4655,4656,4657,0,0,0,0,0,0,0,0,0,0,0,0,0,0,0,0,0,0,0,0,0,0,0,0,0,0,0,0,0,0,0,0,0,0,0,0,0,0,0,0,0,0,0,0,0,0,0,0,0,0,0,0,0,4673,4673,4673,0,0,0,0,0,0,0,0,0,
0,0,0,0,0,0,0,0,0,0,0,0,0,0,0,0,0,4675,4675,4953,4815,0,0,0,0,0,0,0,0,0,0,0,4795,4796,4797,0,0,0,0,0,0,0,0,0,0,0,0,0,0,0,0,0,0,0,0,0,0,0,0,0,0,0,0,0,0,0,0,0,0,0,0,0,0,0,0,0,0,0,0,0,0,0,0,0,0,0,0,0,4673,4673,4673,0,0,0,0,0,0,0,0,0,
0,0,0,0,0,0,0,0,0,0,0,0,0,0,0,0,0,4675,4675,4675,0,0,0,0,0,0,0,0,0,0,0,0,4935,4936,4937,0,0,0,0,0,0,0,0,0,0,0,0,0,0,0,0,0,0,0,0,0,0,0,0,0,0,0,0,0,0,0,0,0,0,0,1299,1300,1301,0,0,0,0,0,0,0,0,0,0,0,0,0,0,4533,5094,4673,4673,0,0,0,0,0,0,0,0,0,
0,0,0,0,0,0,0,0,0,0,0,0,0,0,0,0,0,4675,4675,4675,0,0,0,0,0,0,0,0,0,0,0,0,0,0,0,0,0,0,0,0,0,0,0,0,0,0,0,0,0,0,0,0,4533,4535,0,0,0,0,0,0,0,0,0,0,0,0,0,0,0,0,1439,1440,1441,0,0,0,0,0,0,0,0,0,0,0,0,0,0,4673,4533,5094,4673,0,0,0,0,0,0,0,0,0,
0,0,0,0,0,0,0,0,0,0,0,0,0,0,0,0,0,4675,4675,4675,0,0,0,0,0,0,0,0,0,0,0,0,0,0,0,0,0,0,0,0,0,0,0,0,0,0,0,0,0,0,0,4533,5094,4675,0,0,0,0,0,0,0,0,0,0,0,0,0,0,0,0,1579,1580,1581,0,0,0,0,0,0,0,0,0,0,0,0,0,0,4673,4673,4533,5094,0,0,0,0,0,0,0,0,0,
0,0,0,0,0,0,0,0,0,0,0,0,0,0,0,0,0,4675,4675,4675,0,0,0,0,0,0,0,0,0,0,0,0,0,0,0,0,0,0,0,0,0,0,0,0,0,0,0,0,0,0,0,4813,4814,4815,0,0,0,0,0,0,0,0,0,0,0,0,0,0,0,0,0,0,0,0,0,0,0,0,0,0,0,0,0,0,0,0,4533,5094,4673,4673,0,0,0,0,0,0,0,0,0,0,
0,0,0,0,0,0,1299,1300,1301,0,0,0,0,0,0,0,0,4675,4675,4675,0,0,0,0,0,0,0,0,0,0,0,0,0,0,0,0,0,0,0,0,0,0,0,0,0,0,0,0,0,0,0,0,0,0,0,0,0,0,0,0,0,0,0,0,0,0,0,0,0,0,0,0,0,0,0,0,0,0,0,0,0,0,0,0,0,4533,5094,4533,5094,4673,0,0,0,0,0,0,0,0,0,0,
0,0,0,0,0,0,1439,1440,1441,0,0,0,0,0,0,0,0,4675,4675,4675,0,0,0,0,0,0,0,0,0,0,0,0,0,0,0,0,0,0,0,0,0,0,0,0,0,0,0,0,0,0,0,0,0,0,0,0,0,0,0,0,26210,26211,0,0,0,0,0,0,0,0,0,0,0,0,0,0,0,0,0,0,0,0,0,0,0,4673,4533,5094,4533,5094,0,0,0,0,0,0,0,0,0,0,
0,0,0,0,0,0,1579,1580,1581,0,0,0,0,0,0,0,0,4675,4675,5093,4535,0,0,0,0,0,0,0,0,0,0,0,0,0,0,0,0,0,0,26326,26327,0,0,0,0,0,0,0,0,0,0,0,0,0,0,0,0,0,0,0,26270,26271,0,0,0,0,0,0,0,0,0,0,0,0,0,0,0,0,0,0,0,0,0,4533,4534,5094,4673,4533,5094,0,0,0,0,0,0,0,0,0,0,0,
0,0,0,0,0,0,0,0,0,0,0,0,0,0,0,0,0,4675,5093,4535,4675,0,0,0,0,0,0,0,0,0,0,0,0,0,0,0,0,0,0,26386,26387,0,0,0,0,0,0,0,0,0,0,1299,1300,1301,0,0,0,0,0,0,0,0,0,0,0,0,0,0,0,0,0,0,0,0,0,0,0,0,0,0,0,0,4533,5094,4533,4534,5094,4673,0,0,0,0,0,0,0,0,0,0,0,0,
0,0,0,0,0,0,0,0,0,0,0,0,0,0,0,0,0,5093,4535,4675,5093,4535,0,0,0,0,0,0,0,0,0,0,0,0,0,0,0,0,0,0,0,0,0,0,0,0,0,0,0,0,0,1439,1440,1441,0,23326,23327,0,0,0,0,0,0,0,0,0,0,0,0,0,0,0,0,0,0,0,0,0,0,0,4533,4534,5094,4533,5094,4533,4534,5094,0,0,0,0,0,0,0,0,0,0,0,0,
0,0,0,0,0,23018,23019,0,0,0,0,0,0,0,0,0,0,0,4675,5093,4535,5093,4535,0,0,0,0,0,0,0,0,0,0,0,0,0,0,0,0,0,0,0,0,0,0,0,0,0,0,0,0,1579,1580,1581,0,23358,23359,0,0,0,0,0,0,0,0,0,0,0,0,0,0,0,0,0,0,0,0,0,4533,4534,5094,4533,4534,5094,4533,5094,0,0,0,0,0,0,0,0,0,0,0,0,0,0,
0,0,0,0,0,23050,23051,0,0,0,0,0,0,0,0,0,0,0,5093,4535,5093,4535,4675,0,0,0,0,0,0,0,0,0,0,0,0,0,0,0,0,0,0,0,0,0,0,0,0,0,0,0,0,0,0,0,0,0,0,0,0,0,0,0,0,0,0,0,0,0,0,0,0,0,0,0,0,0,4533,4534,5094,4533,4534,5094,4533,4534,5094,0,0,0,0,0,0,0,0,0,0,0,0,0,0,0,
0,0,0,0,0,0,0,0,0,0,0,0,0,0,0,0,0,0,0,5093,4535,4675,5093,4535,0,0,0,0,0,0,0,0,0,0,0,0,0,0,0,0,0,0,0,0,0,0,0,0,0,0,0,0,0,0,0,0,0,0,0,0,0,0,0,0,0,0,0,0,0,0,0,0,0,0,0,4533,5094,4533,4534,5094,4533,4534,5094,0,0,0,0,0,0,0,0,0,0,0,0,0,0,0,0,0,
0,0,0,0,0,0,0,0,0,0,0,0,0,0,0,0,0,0,0,0,4675,5093,4535,5093,4534,4535,0,0,0,0,0,0,0,0,0,0,0,0,0,0,0,0,0,0,0,0,0,0,0,0,0,0,0,0,0,0,0,0,0,0,0,0,0,0,0,0,0,0,0,0,0,0,0,4533,4534,5094,4533,5094,4533,4534,5094,0,0,0,0,0,0,0,0,0,0,0,0,0,0,0,0,0,0,0,
0,0,0,0,0,0,0,0,0,0,0,0,0,0,0,0,0,0,0,0,5093,4535,5093,4534,4535,5093,4534,4535,0,0,0,0,0,0,0,0,0,0,0,0,0,0,0,0,0,0,0,0,0,0,0,0,0,0,0,0,0,0,0,0,0,0,0,0,0,0,0,0,0,0,0,4533,4534,5094,4533,4534,5094,4533,5094,0,0,0,0,0,0,0,0,0,0,0,18509,18510,18511,18512,18513,0,0,0,0,0,
0,0,0,0,0,0,0,0,0,0,0,0,0,0,0,0,0,0,0,0,0,5093,4534,4535,5093,4534,4535,5093,4535,0,0,0,0,0,0,0,0,0,0,0,0,0,0,0,0,0,0,0,0,0,0,0,0,0,0,0,0,0,0,0,0,0,0,0,0,0,0,0,0,0,4533,5094,4533,4534,5094,4533,4534,5094,0,0,0,0,0,0,0,0,0,0,0,0,18649,18650,18651,18652,18653,0,0,0,0,0,
0,0,0,0,0,0,0,0,1299,1300,1301,0,0,0,0,0,0,0,0,0,0,0,0,5093,4534,4535,5093,4535,5093,4535,0,0,0,0,0,0,0,0,0,0,0,0,0,0,0,0,0,0,0,0,0,0,0,0,0,0,0,0,0,0,0,0,0,0,0,0,0,0,0,4533,5094,4533,5094,4533,4534,5094,0,0,0,0,0,0,0,0,0,0,0,0,0,0,18789,18790,18791,18792,18793,0,0,0,0,0,
0,0,0,0,0,0,0,0,1439,1440,1441,0,0,0,0,0,0,0,0,0,0,0,0,0,0,5093,4535,5093,4535,5093,4535,0,0,0,0,0,0,0,0,0,0,0,0,0,0,0,0,0,0,0,0,0,0,0,0,0,0,0,0,0,0,0,0,0,0,0,0,0,4533,5094,4533,5094,4533,5094,0,0,0,0,0,0,0,0,0,0,0,0,0,0,0,0,18929,18930,18931,18932,18933,0,0,0,0,0,
0,0,0,0,0,0,0,0,1579,1580,1581,0,0,0,0,0,0,0,0,0,0,0,0,0,0,0,5093,4535,5093,4535,5093,4535,0,0,0,0,0,0,0,0,0,0,0,0,0,0,0,0,0,0,0,0,0,0,0,0,0,0,0,0,0,0,0,0,0,0,4533,4534,5094,4533,5094,4533,5094,0,0,0,0,0,0,0,0,0,0,0,0,0,0,0,0,23018,23019,19070,19071,19072,19073,0,0,0,0,0,
0,0,0,0,0,0,0,0,0,0,0,0,0,0,0,0,0,0,0,0,0,0,0,0,0,0,0,5093,4535,5093,4535,5093,4535,0,0,0,0,0,0,0,0,0,0,0,0,0,0,0,0,0,0,0,0,0,0,0,0,0,0,0,0,0,0,0,0,4533,5094,4533,4534,5094,4533,5094,0,0,0,0,0,0,0,0,0,0,0,0,0,0,0,1299,1300,1301,23111,19210,19211,19212,19213,0,0,0,0,0,
0,0,0,0,0,0,0,0,0,0,0,0,0,1299,1300,1301,0,0,0,0,0,0,0,0,0,0,0,0,5093,4535,5093,4535,5093,4535,0,0,0,0,0,0,0,0,0,0,0,0,0,0,0,0,0,0,0,0,0,0,0,0,0,0,0,0,0,0,4533,5094,4533,5094,4533,4534,5094,0,0,0,0,0,0,0,0,0,0,0,21843,21844,0,0,0,1439,1440,1441,19349,19350,19351,19352,19353,0,0,0,0,0,
0,0,0,0,0,0,0,0,0,0,0,0,0,1439,1440,1441,0,0,0,0,0,0,0,0,0,0,0,0,0,5093,4535,5093,4535,5093,4534,4534,4535,0,0,0,0,0,0,0,0,0,0,0,0,0,0,0,0,0,0,0,0,0,0,0,0,0,0,4533,5094,4533,5094,4533,5094,0,0,0,0,0,0,0,0,0,0,0,0,0,21847,21848,0,0,0,1579,1580,1581,0,0,0,0,0,0,0,0,0,0,
0,0,0,0,0,0,0,0,0,0,0,0,0,1579,1580,1581,0,0,0,0,0,0,0,0,0,0,0,0,0,0,5093,4535,5093,4534,4534,4535,4675,0,0,0,0,0,0,0,0,0,0,0,0,0,0,0,0,0,0,0,0,0,0,0,0,0,4533,5094,4533,5094,4533,5094,0,0,0,0,0,0,0,0,0,0,0,0,0,0,21851,4814,0,0,0,0,0,0,0,0,0,0,0,0,0,0,0,0,
0,0,0,0,0,0,0,0,0,0,0,23018,23019,0,0,0,0,0,0,0,0,0,0,0,0,0,0,0,0,0,0,5093,4534,4534,4535,4675,4675,0,0,0,0,0,0,0,0,0,0,0,0,0,0,0,0,0,0,0,0,0,0,0,0,4533,5094,4533,5094,4533,5094,0,0,0,0,0,0,0,0,0,0,0,0,0,0,0,0,0,0,0,0,0,0,0,0,0,0,0,0,0,0,0,0,0,
0,0,0,0,0,0,0,0,0,0,0,23050,23051,0,0,0,0,0,0,0,0,0,0,0,0,0,0,0,0,0,0,0,0,0,4675,4675,5093,4535,0,0,0,0,0,0,0,0,0,0,0,0,0,0,0,0,0,0,0,0,0,0,0,4673,4533,5094,4533,5094,0,0,0,0,0,0,0,0,0,0,0,0,0,0,0,0,0,0,0,0,0,0,0,0,0,0,0,0,0,0,0,0,0,0,
0,0,0,0,0,0,0,0,0,0,0,0,0,0,0,0,0,0,0,0,0,0,0,0,0,0,0,0,0,0,0,0,0,0,4675,5093,4535,4675,0,0,0,0,0,0,0,0,0,0,0,0,0,0,0,0,0,0,0,0,0,0,4533,5094,4673,4533,5094,0,0,0,0,0,0,0,0,0,0,0,0,0,0,0,23018,23019,0,0,0,0,0,0,0,0,0,0,0,0,0,0,0,0,0,0,
0,0,0,0,0,0,0,0,0,0,0,0,0,0,0,0,0,0,0,0,0,0,0,0,0,0,0,0,0,0,0,0,0,0,5093,4535,4675,4675,0,0,0,0,0,0,0,0,0,0,0,0,0,0,0,0,0,0,0,0,0,0,4673,4533,5094,4673,0,0,0,0,0,0,0,0,0,0,0,0,0,0,0,0,23050,23051,0,0,0,0,0,0,0,0,0,0,0,0,0,0,0,0,0,0,
0,0,0,0,0,0,0,0,0,0,0,0,0,0,0,0,0,0,0,0,0,0,0,0,0,0,0,0,0,0,0,0,0,0,0,4675,4675,4675,0,0,0,0,0,0,0,0,0,0,0,0,0,0,0,0,0,0,0,0,0,0,4673,4673,4533,5094,0,0,0,0,0,0,0,0,0,0,0,0,0,0,0,0,0,0,0,0,0,0,0,0,0,0,0,0,0,0,0,0,0,0,0,0
</data>
 </layer>
</map>
