<?xml version="1.0" encoding="UTF-8"?>
<map version="1.10" tiledversion="1.11.2" orientation="orthogonal" renderorder="right-down" width="100" height="75" tilewidth="32" tileheight="32" infinite="0" nextlayerid="6" nextobjectid="1">
 <tileset firstgid="1" name="Pro all tiles" tilewidth="32" tileheight="32" tilecount="1024" columns="32">
  <image source="Tiles/Pro all tiles.png" width="1024" height="1024"/>
 </tileset>
 <tileset firstgid="1025" name="tile group" tilewidth="32" tileheight="32" tilecount="21000" columns="140">
  <image source="Tiles/tile group.png" width="4480" height="4800"/>
 </tileset>
 <tileset firstgid="22025" name="Pro all tiles ash" tilewidth="32" tileheight="32" tilecount="1024" columns="32">
  <image source="Tiles/Pro all tiles.png" width="1024" height="1024"/>
 </tileset>
 <tileset firstgid="23049" name="Jotho pokémon sprite overworld" tilewidth="32" tileheight="32" tilecount="1232" columns="22">
  <image source="Tiles/Jotho pokémon sprite overworld.png" width="704" height="1792"/>
 </tileset>
 <tileset firstgid="24281" name="Sinoh Pokémon overworld" tilewidth="32" tileheight="32" tilecount="0" columns="22">
  <image source="Tiles/Sinoh Pokémon overworld.png" width="704" height="1728"/>
 </tileset>
 <tileset firstgid="25034" name="Hoen pokémon overworld 2.0" tilewidth="32" tileheight="32" tilecount="1170" columns="26">
  <image source="Tiles/Hoen pokémon overworld 2.0.png" width="832" height="1450"/>
 </tileset>
 <layer id="1" name="Layer 1" width="100" height="75">
  <data encoding="csv">
253,253,253,253,253,253,253,253,253,253,253,253,253,253,253,253,253,253,253,253,253,253,253,253,254,250,250,250,250,250,250,250,250,250,250,250,250,250,250,250,250,250,250,250,50,50,50,50,50,50,50,50,50,50,50,50,50,50,50,50,50,50,50,50,50,50,50,250,250,250,250,250,250,250,250,250,250,250,250,250,250,250,250,250,250,250,252,253,253,253,253,253,253,253,253,253,253,253,253,253,
253,253,253,253,253,253,253,253,253,253,253,253,253,253,253,253,253,253,253,253,253,253,253,253,254,250,250,250,250,250,250,250,250,250,250,250,250,250,250,250,250,250,50,50,50,50,50,50,50,50,50,50,50,50,50,50,50,50,50,50,50,50,50,50,50,50,50,250,250,250,250,250,250,250,250,250,250,250,250,250,250,250,250,250,250,250,284,409,253,253,253,253,253,253,253,253,253,253,253,253,
253,253,253,253,253,253,253,253,253,253,253,253,253,253,253,253,253,253,253,253,253,253,253,410,286,250,250,250,250,250,250,250,250,250,250,250,250,250,250,250,50,50,50,50,50,50,50,50,50,50,50,50,50,50,50,50,50,50,50,50,50,50,50,50,50,50,50,50,50,50,250,250,250,250,250,250,250,250,250,250,250,250,250,250,250,250,250,284,409,253,253,253,253,253,253,253,253,253,253,253,
253,253,253,253,253,253,253,253,253,253,253,253,253,253,253,253,253,253,253,253,253,410,285,286,250,250,250,250,250,250,250,250,250,250,250,250,250,50,50,50,50,50,50,50,50,50,50,50,50,50,50,50,50,50,50,50,50,50,50,50,50,50,50,50,50,50,50,50,50,50,50,50,50,250,250,250,250,250,250,250,250,250,250,250,250,250,250,250,252,253,253,253,253,253,253,253,253,253,253,253,
253,253,253,253,253,253,253,253,253,253,253,253,253,253,253,253,253,253,253,253,410,286,250,250,250,250,250,250,250,250,250,250,250,250,250,50,50,50,50,50,50,50,50,50,50,50,50,50,50,50,50,50,50,50,50,50,50,50,50,50,50,50,50,50,50,50,50,50,50,50,50,50,50,50,50,250,250,250,250,250,250,250,250,250,250,250,250,250,284,409,253,253,253,253,253,253,253,253,253,253,
253,253,253,253,253,253,253,253,253,253,253,253,253,253,253,253,253,253,253,410,286,250,250,250,250,250,250,250,250,250,250,250,250,250,50,50,50,50,50,50,50,50,50,50,50,50,50,50,50,50,50,50,50,50,50,50,50,50,50,50,50,50,50,50,50,50,50,50,50,50,50,50,50,50,50,50,250,250,250,250,250,250,250,250,250,250,250,250,250,252,253,253,253,253,253,253,253,253,253,253,
253,253,253,253,253,253,253,253,253,253,253,253,253,253,253,253,253,410,285,286,250,250,250,250,250,250,250,250,250,250,250,250,250,50,50,50,50,50,50,50,50,50,50,50,50,50,50,50,50,50,50,50,50,50,50,50,50,50,50,50,50,50,50,50,50,50,50,50,50,50,50,50,50,50,50,50,50,250,250,250,250,250,250,250,250,250,250,250,250,252,253,253,253,253,253,253,253,253,253,253,
253,253,253,253,253,253,253,253,253,253,253,253,253,253,410,285,285,286,250,250,250,250,250,250,250,250,250,250,250,250,250,50,50,50,50,50,50,50,50,50,50,50,50,50,50,50,50,50,50,50,50,50,50,50,50,50,50,50,50,50,50,50,50,50,50,50,50,50,50,50,50,50,50,50,50,50,50,50,250,250,250,250,250,250,250,250,250,250,250,284,409,253,253,253,253,253,253,253,253,253,
253,253,253,253,253,253,253,253,253,253,253,410,285,285,286,250,250,250,250,250,250,250,250,250,250,250,250,250,250,50,50,50,50,50,50,50,50,50,50,50,50,50,50,50,50,50,50,50,50,50,50,50,50,50,50,50,50,50,50,50,50,50,50,50,50,50,50,50,50,50,50,50,50,50,50,50,50,50,50,250,250,250,250,250,250,250,250,250,250,250,284,409,253,253,253,253,253,253,253,253,
253,253,253,253,253,253,253,253,410,285,285,286,250,250,250,250,250,250,250,250,250,250,250,250,250,250,250,250,50,50,50,50,50,50,50,50,50,50,50,50,50,50,50,50,50,50,50,50,50,50,50,50,50,50,50,50,50,50,50,50,50,50,50,50,50,50,50,50,50,50,50,50,50,50,50,50,50,50,50,50,250,250,250,250,250,250,250,250,250,250,250,284,409,253,253,253,253,253,253,253,
253,253,253,253,253,253,410,285,286,250,250,250,250,250,250,250,250,250,250,250,250,250,250,250,250,250,250,50,50,50,50,50,50,50,50,50,50,50,50,50,50,50,50,50,50,50,50,50,50,50,50,50,50,50,50,50,50,50,50,50,50,50,50,50,50,50,50,50,50,50,50,50,50,50,50,50,50,50,50,50,50,250,250,250,250,250,250,250,250,250,250,250,284,409,253,253,253,253,253,253,
253,253,253,253,410,285,286,250,250,250,250,250,250,250,250,250,250,250,250,250,250,250,250,250,250,50,50,50,50,50,50,50,50,50,50,50,50,50,50,50,50,50,50,50,50,50,50,50,50,50,50,50,50,50,50,50,50,50,50,50,50,50,50,50,50,50,50,50,50,50,50,50,50,50,50,50,50,50,50,50,50,250,250,250,250,250,250,250,250,250,250,250,250,284,409,253,253,253,253,253,
253,253,253,410,286,250,250,250,250,250,250,250,250,250,250,250,250,250,250,250,250,250,250,250,50,50,50,50,50,50,50,50,50,50,50,50,50,50,50,50,50,50,50,50,50,50,50,50,50,50,50,50,50,50,50,50,50,50,50,50,50,50,50,50,50,50,50,50,50,50,50,50,50,50,50,50,50,50,50,50,50,50,250,250,250,250,250,250,250,250,250,250,250,250,284,285,409,253,253,253,
253,253,410,286,250,250,250,250,250,250,250,250,250,250,250,250,250,250,250,250,250,250,250,50,50,50,50,50,50,50,50,50,50,50,50,50,50,50,50,50,50,50,50,50,50,50,50,50,50,50,50,50,50,50,50,50,50,50,50,50,50,50,50,50,50,50,50,50,50,50,50,50,50,50,50,50,50,50,50,50,50,50,250,250,250,250,250,250,250,250,250,250,250,250,250,250,284,285,285,285,
253,410,286,250,250,250,250,250,250,250,250,250,250,250,250,250,250,250,250,250,250,50,50,50,50,50,50,50,50,50,50,50,50,50,50,50,50,50,50,50,50,50,50,50,50,50,50,50,50,50,50,50,50,50,50,50,50,50,50,50,50,50,50,50,50,50,50,50,50,50,50,50,50,50,50,50,50,50,50,50,50,50,250,250,250,250,250,250,250,250,250,250,250,250,250,250,250,250,250,250,
285,286,250,250,250,250,250,250,250,250,250,250,250,250,250,250,250,250,250,50,50,50,50,50,50,50,50,50,50,50,50,50,50,50,50,50,50,50,50,50,50,50,50,50,50,50,50,50,4728,4728,4728,4728,4728,4728,4728,4728,4728,4728,4728,50,50,50,50,50,50,50,50,50,50,50,50,50,50,50,50,50,50,50,50,50,50,50,50,250,250,250,250,250,250,250,250,250,250,250,250,250,250,250,250,250,
250,250,250,250,250,250,250,250,250,250,250,250,250,250,250,250,50,50,50,50,50,50,50,50,50,50,50,50,50,50,50,50,50,50,50,50,50,50,50,50,50,50,50,50,50,50,4728,4728,5698,5698,4728,4728,4728,4728,4728,4728,4728,4728,4728,4728,4728,50,50,50,50,50,50,50,50,50,50,50,50,50,50,50,50,50,50,50,50,50,50,250,250,250,250,250,250,250,250,250,250,250,250,250,250,250,250,250,
250,250,250,250,250,250,250,250,250,250,250,250,50,50,50,50,50,50,50,50,50,50,50,50,50,50,50,50,50,50,50,50,50,50,50,50,50,50,50,50,50,50,50,50,4728,4728,4728,4728,5698,5698,4728,4728,4728,4728,4728,4728,4728,4728,4728,4728,4728,4728,4728,50,50,50,50,50,50,50,50,50,50,50,50,50,50,50,50,50,50,50,50,250,250,250,250,250,250,250,250,250,250,250,250,250,250,250,250,250,
250,250,250,250,250,250,250,250,250,50,50,50,50,50,50,50,50,50,50,50,50,50,50,50,50,50,50,50,50,50,50,50,50,50,50,50,50,50,50,50,50,50,50,4728,4728,4728,4728,4728,50,50,50,50,50,50,50,50,50,50,4728,4728,4728,4728,4728,50,50,50,50,50,50,50,50,50,50,50,50,50,50,50,50,50,50,50,50,50,50,50,50,50,50,50,50,250,250,250,250,250,250,250,250,250,
250,250,250,250,250,250,250,50,50,50,50,50,50,50,50,50,50,50,50,50,50,50,50,50,50,50,50,50,50,50,50,50,50,50,50,50,50,50,50,50,50,50,50,4728,4728,4728,50,50,50,50,50,50,50,0,0,0,0,50,50,50,4728,4728,4728,4728,50,50,50,50,50,50,50,50,50,50,50,50,50,50,50,50,50,50,50,50,50,50,50,50,50,50,50,50,50,250,250,250,250,250,250,250,
250,250,250,250,250,250,50,50,50,50,50,50,50,50,50,50,50,50,50,50,50,50,50,50,50,50,50,50,50,50,50,50,50,50,50,50,50,50,50,50,50,50,50,4728,4728,0,50,50,0,5794,50,50,50,50,0,0,50,50,50,50,50,4728,4728,4728,50,50,50,50,50,50,50,50,50,50,50,50,50,50,50,50,50,50,50,50,50,50,50,50,50,50,50,50,50,50,50,250,250,250,250,250,
250,250,250,250,250,50,50,50,50,50,50,50,50,50,50,50,50,50,50,50,50,50,50,50,50,50,50,50,50,50,50,50,50,50,50,50,50,50,50,50,50,50,50,50,50,50,50,50,5794,50,50,50,50,50,50,0,0,50,50,50,50,50,50,4728,4728,50,50,50,50,50,50,50,50,50,50,50,50,50,50,50,50,50,50,50,50,50,50,50,50,50,50,50,50,50,50,50,50,50,250,250,
250,250,250,250,50,50,50,50,50,50,50,50,50,50,50,50,50,50,50,50,50,50,50,50,50,50,50,50,50,50,50,50,50,50,50,50,50,50,50,50,50,50,50,50,50,50,50,50,50,50,50,50,50,50,50,50,50,50,50,50,50,50,50,50,50,50,50,50,50,50,50,50,50,50,50,50,50,50,50,50,50,50,50,50,50,50,50,50,50,50,50,50,50,50,50,50,50,50,50,250,
250,250,250,250,50,50,50,50,50,50,50,50,50,50,50,50,50,50,50,50,50,50,50,50,50,50,50,50,50,50,50,50,50,50,50,50,50,50,50,50,50,50,50,50,50,50,50,50,50,50,50,50,50,50,50,50,50,50,50,50,50,50,50,50,50,50,50,50,50,50,50,50,50,50,50,50,50,50,50,50,50,50,50,50,50,50,50,50,50,50,50,50,50,50,50,50,50,50,50,50,
250,250,250,50,50,50,50,50,50,50,50,50,50,50,50,50,50,50,50,50,50,50,50,50,50,50,50,50,50,50,50,50,50,50,50,50,50,50,50,50,50,50,50,50,50,50,50,50,50,50,50,50,4728,4728,4728,50,50,50,50,50,50,50,50,50,50,50,50,50,50,50,50,50,50,50,50,50,50,50,50,50,50,50,50,50,50,50,50,50,50,50,50,50,50,50,50,50,50,50,50,50,
250,250,250,50,50,50,50,50,50,50,50,50,50,50,50,50,50,50,50,50,50,50,50,50,50,50,50,50,50,50,50,50,22762,22762,22762,50,50,50,50,50,50,50,50,50,50,50,50,50,50,50,50,4728,4728,4728,4728,4728,50,50,50,50,50,50,50,50,50,50,50,50,50,50,50,50,50,50,50,50,50,50,50,50,50,50,50,50,50,50,50,50,50,50,50,50,50,50,50,50,50,50,50,50,
250,250,50,50,50,50,50,50,50,50,50,50,50,50,50,50,50,50,50,50,50,50,50,50,50,50,50,50,50,50,50,50,22762,22762,22762,22762,22762,22762,22762,22762,22762,50,50,50,50,50,50,50,50,4728,4728,4728,4728,4728,4728,4728,4728,50,50,50,50,50,50,50,50,50,50,50,50,50,50,50,50,50,50,50,50,50,50,50,50,50,50,50,50,50,50,50,50,50,50,50,50,50,50,50,50,50,50,50,
250,250,50,50,50,50,50,50,50,50,50,50,50,50,50,50,50,50,50,50,50,50,50,50,50,50,50,50,50,50,50,50,22762,22762,22762,22762,22762,22762,22762,22762,22762,50,4728,4728,4728,4728,4728,4728,4728,4728,4728,50,50,50,50,50,50,50,50,50,4728,4728,4728,4728,4728,50,50,50,50,50,50,50,50,50,50,50,50,50,50,50,50,50,50,50,50,50,50,50,50,50,50,50,50,50,50,50,50,50,50,50,
250,50,50,50,50,50,50,50,50,50,50,50,50,50,50,50,50,50,50,50,50,50,50,50,50,50,5698,5698,50,50,50,50,50,22762,22762,22762,22762,22762,22762,22762,50,50,4728,50,50,50,50,50,50,50,50,50,50,50,50,50,50,50,50,50,50,4728,4728,4728,4728,50,50,50,50,50,50,50,50,50,50,50,50,50,50,50,50,50,50,50,50,50,50,50,50,50,50,50,50,50,50,50,50,50,50,50,
250,50,50,50,50,50,50,50,50,50,50,50,50,50,50,50,50,50,50,50,50,50,50,50,50,50,5698,5698,50,50,50,50,50,50,50,50,50,22762,22762,22762,50,50,50,50,50,50,50,50,50,50,50,50,50,50,50,50,50,50,50,50,50,50,4728,5704,5704,50,50,50,50,50,50,50,50,50,50,50,50,50,50,50,50,50,50,50,50,50,50,50,50,50,50,50,50,50,50,50,50,50,50,50,
50,50,50,50,50,50,50,50,50,50,50,50,50,50,50,50,50,50,50,50,50,50,50,50,50,5698,5698,6381,5698,5698,5698,5698,5698,5698,5698,5698,50,50,22762,22762,50,50,50,50,50,50,50,50,50,50,50,50,50,50,50,50,50,50,50,50,50,50,50,5704,5704,50,50,50,50,50,50,50,50,50,50,50,50,50,50,50,50,50,50,50,50,50,50,50,50,50,50,50,50,50,50,50,50,50,50,50,
50,50,50,50,50,50,50,50,50,50,50,50,50,50,50,50,50,50,50,50,50,50,50,50,5698,5698,5698,5698,5698,5698,5698,5698,5698,5698,5698,5698,5698,50,50,50,50,50,50,50,50,50,50,50,50,50,50,50,50,50,50,50,50,50,50,50,50,50,50,50,4728,4728,4728,50,50,50,50,50,50,50,50,50,50,50,50,50,50,50,50,50,50,50,50,50,50,50,50,50,50,50,50,50,50,50,50,50,
50,50,50,50,50,50,50,50,50,50,50,50,50,50,50,50,50,50,50,50,50,50,50,50,5698,5698,5698,5698,50,50,50,50,50,50,50,5698,5698,5698,5698,5698,5698,5698,5698,5698,5698,5698,5698,5698,5698,5698,5698,5698,50,50,50,50,50,50,50,50,50,50,50,50,50,50,50,50,50,50,50,50,4728,4728,4728,4728,4728,4728,4728,4728,4728,4728,50,50,50,50,50,50,50,50,50,50,50,50,50,50,50,50,50,50,
50,50,50,50,50,50,50,50,50,50,50,50,50,50,50,50,50,50,50,50,50,50,50,50,5698,5698,5698,5698,50,50,50,50,50,50,50,50,50,50,5698,5698,5698,5698,5698,5698,5698,5698,5698,5698,5698,5698,5698,5698,50,50,50,50,50,50,50,50,50,50,50,50,50,50,50,50,50,50,50,50,50,50,50,50,50,50,50,50,4728,4728,4728,4728,50,50,50,50,50,50,50,50,50,50,50,50,50,50,50,50,
50,50,50,50,50,50,50,50,50,50,50,50,50,50,50,50,50,50,50,50,50,50,50,5698,5698,5698,5698,5698,50,50,50,50,50,50,50,50,50,50,50,50,50,50,5698,5698,50,50,50,50,50,50,50,50,50,50,50,50,50,50,50,50,50,50,50,50,50,50,50,50,50,50,50,50,50,50,50,50,50,50,50,50,50,4728,4728,4728,4728,4728,50,50,50,50,50,50,50,50,50,50,50,50,50,50,
50,50,50,50,50,50,50,50,50,50,50,50,50,50,50,50,50,50,50,50,50,50,50,5698,5698,5698,5698,5698,50,50,50,50,50,50,50,50,50,50,50,50,50,50,5698,5698,50,50,50,50,50,50,50,50,50,50,50,50,50,50,5698,5698,5698,5698,5698,5698,5698,5698,5698,50,50,50,50,50,50,50,50,50,50,50,50,50,50,4728,4728,4728,4728,4728,50,50,50,50,50,50,50,50,50,50,50,50,50,50,
50,50,50,50,50,50,50,50,50,50,50,50,50,50,50,5698,5698,50,50,50,50,50,50,5698,5698,5698,5698,50,50,50,50,50,50,50,50,50,50,50,50,50,50,50,5698,5698,50,50,50,50,50,50,50,50,50,50,50,50,50,50,5698,5701,5701,5701,5701,5701,5701,5701,5698,5698,50,50,50,50,50,250,250,250,250,50,50,50,50,50,4728,4728,4728,4728,4728,50,50,50,50,50,50,50,50,50,50,50,50,50,
50,50,50,50,50,50,50,50,50,50,50,50,50,50,50,5698,5698,50,50,50,50,50,50,5698,5698,5698,5698,50,50,50,50,50,50,50,50,50,50,50,50,50,50,50,5698,5698,50,50,50,50,50,50,50,50,50,50,50,50,50,50,5698,5701,5701,5701,5701,5701,5701,5701,5701,5698,50,50,50,50,250,250,250,250,250,250,50,50,50,50,50,50,50,50,4728,50,50,50,50,50,50,50,50,50,50,50,50,50,
50,50,50,50,50,50,50,50,50,50,50,50,50,50,50,5698,5698,50,50,50,50,50,50,5698,5698,5698,50,50,50,50,50,50,50,50,50,50,50,50,50,50,50,50,5698,5698,5698,5698,5698,5698,5698,5698,5698,5698,5698,5698,5698,5698,5698,5698,5701,5701,5701,5701,5701,5701,5701,5701,5701,5698,50,50,50,50,250,250,250,250,250,250,250,250,50,50,50,50,50,50,4728,50,50,50,50,50,50,50,50,50,50,50,50,50,
50,50,50,50,50,50,50,50,50,50,50,50,50,50,50,50,50,50,50,50,50,50,50,5698,6381,5698,50,50,50,50,50,50,50,50,50,50,50,50,50,50,50,50,5698,5698,50,50,50,50,50,50,50,50,50,50,50,50,50,5698,5701,5701,5701,5701,5701,5701,5701,5701,5701,5698,50,50,50,50,250,250,250,250,250,250,250,250,250,50,50,50,50,50,50,50,50,50,50,50,50,50,50,50,50,50,50,50,
50,50,50,50,50,50,50,50,50,50,50,50,50,50,50,50,50,50,50,50,50,50,50,5698,5698,50,50,50,22762,22762,50,50,50,50,50,50,50,50,50,50,50,50,5698,5698,50,50,50,50,50,50,50,50,50,50,50,50,50,5698,5701,5701,5701,5701,5701,5701,5701,5701,5698,5698,50,50,50,50,250,250,250,250,250,250,250,250,250,250,250,50,50,50,50,50,50,50,50,50,50,50,50,50,50,50,50,50,
50,50,50,50,50,50,50,50,50,50,50,50,50,50,50,50,50,50,50,50,50,50,50,50,50,50,50,22762,22762,22762,50,50,50,50,5698,5698,5698,5698,5698,5698,5698,5698,5698,5698,50,50,50,50,50,50,50,50,50,50,50,50,50,5698,5701,5701,5701,5701,5701,5701,5701,5701,5698,50,50,50,50,50,250,250,250,250,253,253,253,253,253,250,250,250,50,50,50,50,50,50,50,50,50,50,50,50,50,50,50,50,
50,50,50,50,50,50,50,50,50,50,50,50,50,50,50,50,50,50,50,50,50,50,50,50,50,50,22762,22762,22762,22762,50,50,50,50,5698,5698,5698,5698,5698,5698,5698,5698,5698,5698,50,50,50,50,50,50,50,50,50,50,50,50,50,5698,5701,5701,5701,5701,5701,5701,5701,5701,5698,50,50,50,50,250,250,250,250,253,253,253,253,250,250,250,250,50,50,50,50,50,50,50,50,50,50,50,50,50,50,50,50,50,
50,50,50,50,50,50,50,50,50,50,50,50,50,50,50,50,50,50,50,50,50,50,50,50,22762,22762,22762,22762,22762,22762,22762,50,50,50,50,50,50,50,50,50,50,50,50,50,50,50,50,50,50,50,50,50,50,50,50,50,50,5698,5698,5698,5701,5701,5701,5701,5698,5698,5698,50,50,50,50,250,250,250,250,253,250,250,250,250,250,250,50,50,50,50,50,50,50,50,50,50,50,50,50,50,50,50,50,50,
250,50,50,50,50,50,50,50,50,50,50,50,50,50,50,50,50,50,50,50,50,50,50,50,22762,22762,22762,22762,22762,22762,22762,50,50,50,50,50,50,50,50,50,50,50,50,50,50,50,50,50,50,50,50,50,50,50,50,50,50,50,50,5698,5698,5698,5698,5698,5698,50,50,50,50,50,50,250,250,250,250,250,250,250,250,250,50,50,50,50,50,50,50,50,50,50,50,50,50,50,50,50,50,50,50,50,
250,250,50,50,50,50,50,50,50,50,50,50,50,50,50,50,50,50,50,50,50,50,50,50,50,22762,22762,22762,22762,22762,22762,50,50,50,50,50,50,50,50,50,50,50,50,50,22388,50,22390,50,50,50,50,50,50,50,50,50,50,50,50,50,50,50,50,50,50,50,50,50,50,50,50,50,50,250,250,250,50,50,50,50,50,50,50,50,50,50,50,50,50,50,50,50,50,50,50,50,50,50,50,50,
250,250,50,50,50,50,50,50,50,50,50,50,50,50,50,50,50,50,50,50,50,50,50,50,50,22762,22762,22762,22762,22762,22762,50,50,50,50,50,50,50,50,50,50,50,50,50,50,50,50,50,50,50,50,50,50,50,50,50,50,50,50,50,50,50,50,50,50,50,50,50,50,50,50,50,50,50,50,50,50,50,50,50,50,50,50,50,50,50,50,50,50,50,50,50,50,50,50,50,50,50,50,50,
250,250,250,50,50,50,50,50,50,50,50,50,50,50,50,50,50,50,50,50,50,50,50,50,50,22762,22762,22762,22762,50,50,50,4728,4728,50,50,50,50,50,50,50,50,50,50,50,50,50,50,50,50,50,50,50,50,50,50,50,50,50,50,50,50,50,50,50,50,50,50,50,50,50,50,50,50,50,50,50,50,50,50,50,50,50,50,50,50,50,50,50,50,50,50,50,50,50,50,50,50,50,50,
250,250,250,250,50,50,50,50,50,50,50,50,50,50,50,50,50,50,50,50,50,50,50,50,50,50,22762,22762,22762,50,4728,4728,4728,4728,4728,4728,4728,50,50,50,50,50,50,50,50,50,50,50,50,50,50,50,50,22387,50,50,50,50,50,250,250,250,250,250,50,50,50,50,50,50,50,50,50,50,50,50,50,50,50,50,50,50,50,50,50,50,50,50,50,50,50,50,50,50,50,50,50,50,50,50,
250,250,250,250,250,50,50,50,50,50,50,50,50,50,50,50,50,50,50,50,50,50,50,50,50,50,50,22762,22762,50,4728,4728,4728,4728,4728,4728,4728,4728,50,50,50,50,50,50,50,50,50,50,50,50,50,50,50,22419,50,50,50,50,250,250,250,250,250,50,50,50,50,50,50,50,50,50,50,50,50,50,50,50,50,50,50,50,50,50,50,50,50,50,50,50,50,50,50,50,50,50,50,50,50,50,
250,250,250,250,250,250,50,50,50,50,50,50,50,50,50,50,50,50,50,50,50,50,50,50,50,50,50,50,50,50,4728,4728,4728,4728,4728,4728,4728,4728,50,50,50,50,50,50,50,50,50,50,50,50,50,50,50,50,50,50,50,250,250,250,250,250,50,50,50,50,50,50,50,50,50,50,50,50,50,50,50,50,50,50,50,50,50,50,50,50,50,50,50,50,50,50,50,50,50,50,50,50,50,50,
250,250,250,250,250,250,50,50,50,50,50,50,50,50,50,50,50,50,50,50,50,50,50,50,50,50,50,50,5450,4728,4728,4728,4728,4728,4728,4728,4728,4728,4728,4728,50,50,50,50,50,50,50,50,50,50,50,50,50,50,50,50,250,250,250,250,250,250,50,50,50,50,50,50,50,50,50,50,50,50,50,50,50,50,50,50,50,50,50,50,50,50,50,50,50,50,50,50,50,50,50,50,50,50,50,50,
250,250,250,250,250,250,250,50,50,50,50,50,50,50,50,50,50,50,50,50,50,50,50,50,50,50,50,50,4728,4728,4728,4728,4728,4728,4728,4728,4728,4728,4728,4728,4728,4728,4728,50,50,50,50,50,50,50,50,50,50,50,50,250,250,250,250,250,250,250,250,50,50,50,50,50,50,50,50,50,50,50,50,50,50,50,50,50,50,50,50,50,50,50,50,50,50,50,50,50,50,50,50,50,50,50,50,50,
250,250,250,250,250,250,250,50,50,50,50,50,50,50,50,50,50,50,50,50,50,50,50,50,50,50,50,50,4728,4728,4728,4728,4728,4728,4728,4728,4728,4728,4728,4728,4728,4728,4728,4728,50,50,50,50,50,50,50,50,50,50,250,250,250,250,250,250,250,250,50,50,50,50,50,50,50,50,50,50,50,50,50,50,50,50,50,50,50,50,50,50,50,50,50,50,50,50,50,50,50,50,50,50,50,50,250,250,
250,250,250,250,250,250,250,50,50,50,50,50,50,50,50,50,50,50,50,50,50,50,50,50,50,50,50,50,50,4728,4728,4728,4728,4728,4728,4728,4728,4728,4728,4728,4728,4728,4728,4728,4728,4728,50,50,50,50,50,50,250,250,250,250,250,250,250,250,250,250,50,50,50,50,50,50,50,50,50,50,50,50,50,50,50,50,50,50,50,50,50,50,50,50,50,50,50,50,50,50,50,50,50,50,50,250,250,250,
250,250,250,250,250,250,250,50,50,50,50,50,50,50,50,50,50,50,50,50,50,50,50,50,50,50,50,50,50,50,4728,4728,4728,4728,4728,4728,4728,50,50,50,50,4728,4728,4728,4728,4728,4728,50,50,50,50,250,250,250,250,250,250,250,250,250,250,250,50,50,50,50,50,50,50,50,50,50,50,50,50,50,50,50,50,50,50,50,50,50,50,50,50,50,50,50,50,50,50,50,50,50,250,250,250,250,
250,250,250,250,250,250,250,50,50,50,50,50,50,50,50,50,50,50,50,50,50,50,50,50,50,50,50,50,50,50,50,4728,4728,4728,4728,4728,50,50,50,50,50,50,4728,4728,4728,4728,50,50,50,50,50,250,250,250,250,250,250,250,250,250,250,250,50,50,50,50,50,50,50,50,50,50,50,50,50,50,50,50,50,50,50,50,50,50,50,50,50,50,50,50,50,50,50,50,50,250,250,250,250,250,
250,250,250,250,250,250,250,50,50,50,50,50,50,50,50,50,50,50,50,50,50,50,50,4728,4728,4728,50,50,50,50,50,50,4728,4728,4728,50,50,50,50,50,50,50,50,50,50,50,50,50,50,50,250,250,250,250,250,250,250,250,250,250,250,50,50,50,50,50,50,50,50,50,50,50,50,50,50,50,50,50,50,50,50,50,50,50,50,50,50,50,50,50,50,50,50,250,250,250,250,250,250,250,
250,250,250,250,250,250,250,50,50,50,50,50,50,50,50,50,50,50,50,50,50,50,4728,4728,4728,4728,4728,50,50,50,50,50,50,4728,4728,50,50,50,50,50,50,50,50,50,50,50,50,50,50,50,250,250,250,250,250,250,250,250,250,250,250,50,50,50,50,50,50,50,50,50,50,50,50,50,50,50,50,50,50,50,50,50,50,50,50,50,50,50,50,50,250,250,250,250,250,250,250,250,250,250,
250,250,250,250,250,250,250,50,50,50,50,50,50,50,50,50,50,50,50,50,50,50,4728,4728,4728,4728,4728,4728,4728,50,50,50,50,50,50,50,50,50,50,50,50,50,50,50,50,50,50,50,50,50,250,250,250,250,250,250,250,250,50,50,50,50,50,50,50,50,50,50,50,50,50,50,50,50,50,50,50,50,50,50,50,50,50,50,50,50,50,250,250,250,250,250,250,250,250,250,250,250,250,250,
250,250,250,250,250,250,250,50,50,50,50,50,50,50,50,50,50,50,50,50,50,4728,4728,4728,4728,4728,5441,50,4728,50,50,50,50,50,50,50,50,50,50,50,50,50,50,50,50,50,50,50,50,50,50,50,50,50,50,50,50,50,50,50,50,50,50,50,50,50,50,50,50,50,50,50,50,50,50,50,50,50,50,50,50,50,50,50,250,250,250,250,250,250,250,250,250,250,250,250,250,250,220,221,
250,250,250,250,250,250,250,50,50,50,50,50,50,50,50,50,50,50,50,50,4728,4728,4728,4728,50,50,50,50,4728,50,50,50,50,50,50,50,50,50,50,50,50,50,50,50,50,50,50,50,50,50,50,50,50,50,50,50,50,50,50,50,50,50,50,50,50,50,50,50,50,50,50,50,50,50,50,50,50,50,50,50,50,250,250,250,250,250,250,250,250,250,250,250,250,250,220,221,221,221,377,253,
250,250,250,250,250,250,250,50,50,50,50,50,50,50,50,50,50,50,50,50,50,50,50,50,50,50,50,50,50,50,50,50,50,50,50,50,50,50,50,50,50,50,50,50,50,50,50,50,50,50,50,50,50,50,50,50,50,50,50,50,50,50,50,50,50,50,50,50,50,50,50,50,50,50,50,50,50,50,50,250,250,250,250,250,250,250,250,250,250,250,250,220,221,221,377,253,253,253,253,253,
250,250,250,250,250,250,250,50,50,50,50,50,50,50,50,50,50,50,50,50,50,50,50,50,50,50,50,50,50,50,50,50,50,50,50,50,50,50,50,50,50,50,50,50,50,50,50,50,50,50,50,50,50,50,50,50,50,50,50,50,50,50,50,50,50,50,50,50,50,50,50,50,50,50,50,50,50,50,250,250,250,250,250,250,250,250,250,250,250,220,221,377,253,253,253,253,253,253,253,253,
250,250,250,250,250,250,250,50,50,50,50,50,50,50,50,50,50,50,50,50,50,50,50,50,50,50,50,50,50,50,50,50,50,50,50,50,50,50,50,50,50,50,50,50,50,50,50,50,50,50,50,50,50,50,50,50,50,50,50,50,50,50,50,50,50,50,50,50,50,50,50,50,50,50,50,50,50,250,250,250,250,250,250,250,250,250,250,250,220,377,253,253,253,253,253,253,253,253,253,253,
250,250,250,250,250,250,250,50,50,50,50,50,50,50,50,50,50,50,50,50,50,50,50,50,50,50,50,50,50,50,50,50,50,50,50,50,50,50,50,50,50,50,50,50,50,50,50,50,50,50,50,50,50,50,50,50,50,50,50,50,50,50,50,50,50,50,50,50,50,50,50,50,50,50,50,50,50,250,250,250,250,250,250,250,250,250,250,220,377,253,253,253,253,253,253,253,253,253,253,253,
250,250,250,250,250,250,250,50,50,50,50,50,50,50,50,50,50,50,50,50,5668,5668,5668,50,50,50,50,50,50,50,50,50,50,50,50,50,50,50,50,50,50,50,50,50,50,50,50,50,50,50,50,50,50,50,50,50,50,50,50,50,50,50,50,50,50,50,50,50,50,50,50,50,50,50,50,50,250,250,250,250,250,250,250,250,250,250,220,377,253,253,253,253,253,253,253,253,253,253,253,253,
250,250,250,250,250,250,250,250,50,50,50,50,50,50,50,50,50,50,50,50,5668,5668,5668,50,50,50,50,50,50,50,50,50,50,50,50,50,50,50,50,50,50,50,50,50,50,50,50,50,50,50,50,50,50,50,50,50,50,50,50,50,50,50,50,50,50,50,50,50,50,50,50,50,50,50,50,50,250,250,250,250,250,250,250,250,250,220,377,253,253,253,253,253,253,253,253,253,253,253,253,253,
250,250,250,250,250,250,250,250,250,250,50,50,50,50,50,50,50,50,50,50,5668,5668,50,5668,50,50,50,50,50,50,50,50,50,50,50,50,50,50,50,50,50,50,50,50,50,50,50,50,50,50,50,50,50,50,50,50,50,50,50,50,50,50,50,50,50,50,50,50,50,50,50,50,50,50,50,50,250,250,250,250,250,250,250,250,220,377,253,253,253,253,253,253,253,253,253,253,253,253,253,253,
250,250,250,250,250,250,250,250,250,250,250,250,50,50,50,50,50,50,50,50,50,50,50,50,50,50,50,50,50,50,50,50,50,50,50,50,50,50,50,50,50,50,50,50,50,50,50,50,50,50,50,50,50,50,50,50,50,50,50,50,50,50,50,50,50,50,50,50,50,50,50,50,50,50,50,250,250,250,250,250,250,250,250,220,377,253,253,253,253,253,253,253,253,253,253,253,253,253,253,253,
253,250,250,250,250,250,250,250,250,250,250,250,250,250,250,250,250,50,50,50,50,50,50,50,50,50,50,50,50,50,50,50,50,50,50,50,50,50,50,50,50,50,50,50,50,50,50,50,50,50,50,50,50,50,50,50,50,50,50,50,50,50,50,50,50,50,50,50,50,50,50,50,50,50,50,250,250,250,250,250,250,250,220,377,253,253,253,253,253,253,253,253,253,253,253,253,253,253,253,253,
253,253,253,250,250,250,250,250,250,250,250,250,250,250,250,250,250,250,250,50,50,50,50,50,50,50,50,50,50,50,50,50,50,50,50,50,50,50,50,50,50,50,50,50,50,50,50,50,50,50,50,50,50,50,50,50,50,50,50,50,50,50,50,50,50,50,50,50,50,50,50,50,50,50,50,250,250,250,250,250,250,220,377,253,253,253,253,253,253,253,253,253,253,253,253,253,253,253,253,253,
253,253,253,253,250,250,250,250,250,250,250,250,250,250,250,250,250,250,250,250,250,50,50,50,50,50,50,50,50,50,50,50,50,50,50,50,50,50,50,50,50,50,50,50,50,50,50,50,50,50,50,50,50,50,50,50,50,50,50,50,50,50,50,50,50,50,50,50,50,50,50,50,50,50,250,250,250,250,250,250,220,377,253,253,253,253,253,253,253,253,253,253,253,253,253,253,253,253,253,253,
253,253,253,253,253,250,250,250,250,250,250,250,250,250,250,250,250,250,250,250,250,250,50,50,50,50,50,50,50,50,50,50,50,50,50,50,50,50,50,50,50,50,50,50,50,50,50,50,50,50,50,50,50,50,50,50,50,50,50,50,50,50,50,50,50,50,50,50,50,50,50,50,50,50,250,250,250,250,250,250,252,253,253,253,253,253,253,253,253,253,253,253,253,253,253,253,253,253,253,253,
253,253,253,253,253,250,250,250,250,250,250,250,250,250,250,250,250,250,250,250,250,250,250,250,50,50,50,50,50,50,50,50,50,50,50,50,50,50,50,50,50,50,50,50,50,50,50,50,50,50,50,50,50,50,50,50,50,50,50,50,50,50,50,50,50,50,50,50,50,50,50,50,50,250,250,250,250,250,250,250,252,253,253,253,253,253,253,253,253,253,253,253,253,253,253,253,253,253,253,253
</data>
 </layer>
 <layer id="2" name="Layer 2" width="100" height="75">
  <data encoding="csv">
0,0,0,0,0,0,0,0,0,0,0,0,0,0,0,0,0,0,0,0,0,0,0,0,0,0,0,0,0,0,0,0,0,0,0,0,0,0,0,0,0,0,0,0,251,0,0,0,0,3858,3859,0,0,0,0,0,0,0,0,0,3858,3859,0,0,0,0,249,0,0,0,0,0,0,0,0,0,0,0,0,0,0,0,0,0,0,0,0,0,0,0,0,0,0,0,0,0,0,0,0,0,
0,0,0,0,0,0,0,0,0,0,0,0,0,0,0,0,0,0,0,0,0,0,0,0,0,0,0,0,0,0,0,0,0,0,0,0,0,0,0,0,0,0,346,282,283,0,0,3858,3859,3998,3999,0,0,0,0,0,4135,0,3858,3859,3998,3999,0,0,0,0,249,0,0,0,0,0,0,0,0,0,0,0,4112,4112,0,0,0,0,0,0,0,0,0,0,0,0,0,0,0,0,0,0,0,0,
0,0,0,0,0,0,0,0,0,0,0,0,0,0,0,6510,0,0,0,0,0,0,0,0,0,0,0,0,0,0,0,0,0,0,0,0,0,0,0,0,346,282,283,0,0,0,0,3998,3999,4138,4139,0,0,0,0,0,4275,0,3998,3999,4138,4139,0,0,0,0,281,282,282,345,0,0,0,0,0,0,0,0,4112,0,0,0,0,0,0,0,0,0,0,0,0,0,0,0,6510,0,0,0,0,0,
0,0,0,6649,0,0,0,6510,0,0,0,0,6511,6512,0,0,0,0,0,6510,0,0,0,0,0,4112,0,3993,3994,4112,4112,0,0,0,0,0,0,346,282,282,283,0,0,0,0,0,0,4138,4139,0,0,0,0,0,0,0,0,0,4138,4139,0,0,0,0,0,0,0,0,0,281,282,282,345,0,0,0,0,0,4112,0,0,0,0,0,0,0,0,0,0,0,0,0,0,0,0,0,6509,0,0,0,
0,0,0,0,0,0,0,0,0,0,0,0,6651,6652,0,0,0,0,0,0,0,0,0,0,0,4112,0,4133,4134,4112,0,4112,0,0,0,346,282,283,0,0,0,0,0,0,0,0,0,0,0,0,0,0,0,0,0,0,0,0,0,0,0,0,0,0,0,0,0,0,0,0,0,0,281,282,345,0,0,0,0,0,0,4112,4112,4112,0,0,0,0,0,0,0,0,0,0,0,0,0,0,0,0,
0,0,0,0,0,0,0,0,0,0,0,0,0,0,0,0,0,0,0,0,0,0,0,0,0,4112,0,0,4112,0,4112,0,0,0,346,283,0,0,0,0,0,17,18,18,18,18,18,18,18,18,18,18,18,18,18,18,18,18,18,18,18,18,18,18,18,19,0,0,0,0,0,0,3996,3997,281,345,0,0,0,0,0,4112,4112,0,0,0,0,0,0,0,0,0,0,0,0,0,0,0,0,0,
0,0,0,6511,6512,0,0,0,0,0,0,0,0,0,0,0,0,3858,3859,0,0,0,0,0,0,0,4112,4112,4112,4112,0,0,0,346,283,0,0,0,0,17,18,56,17,18,18,18,18,18,18,18,18,18,18,18,18,18,18,18,18,18,18,18,18,18,19,55,18,18,19,0,0,0,4136,4137,0,281,345,0,0,0,0,0,4112,4112,0,0,0,0,0,0,0,0,0,0,0,6510,6509,6509,0,0,
0,0,0,6651,6652,0,0,0,6649,0,0,0,0,0,0,0,0,3998,3999,0,0,0,0,0,0,0,0,0,4112,0,0,346,282,283,0,0,0,17,18,56,17,18,56,17,18,18,18,18,18,18,18,18,18,18,18,18,18,18,18,18,18,18,18,19,55,18,18,19,0,0,0,0,0,0,0,0,281,345,0,0,0,0,0,0,0,0,0,0,0,0,0,0,0,0,0,0,0,0,0,0,
0,0,0,0,0,0,0,0,0,0,0,0,0,0,0,0,0,4138,4139,3993,3994,4273,0,4275,0,0,0,0,0,346,282,283,0,0,0,0,17,56,17,18,56,17,18,56,17,18,18,18,18,18,18,18,18,18,18,18,18,18,18,18,18,18,19,55,18,18,19,0,55,18,18,19,0,0,0,0,0,281,345,0,0,0,0,0,0,0,0,0,0,0,0,0,0,0,0,0,0,0,0,0,
0,0,0,6649,0,0,0,0,0,0,0,0,0,0,0,0,4275,0,23882,4133,4134,0,0,0,3834,0,0,0,346,283,0,0,0,0,0,17,56,17,56,17,18,56,17,18,56,17,18,18,18,18,18,18,18,18,18,18,18,18,18,18,18,19,55,18,18,19,0,55,18,18,19,51,0,0,0,0,0,0,281,345,0,0,0,0,0,0,0,0,0,0,0,0,0,0,0,0,6509,0,6370,0,
0,0,0,0,0,0,0,0,0,0,0,3993,3994,0,0,0,0,3996,3997,4273,23904,0,0,0,0,0,0,346,283,0,0,0,0,0,0,49,17,56,17,56,17,18,56,17,18,56,5512,5513,5513,5513,5513,5513,5513,5513,5513,5513,18,18,18,5513,5514,55,18,18,19,0,55,18,18,19,51,55,18,19,0,0,0,0,0,281,345,0,0,0,0,6819,0,3834,0,0,0,0,0,0,0,0,0,0,0,0,
0,0,0,0,0,0,0,0,0,0,0,4133,4134,0,4112,4112,0,4136,4137,0,4276,0,0,0,0,346,282,283,0,0,0,0,0,17,18,56,49,17,56,17,56,17,18,56,5512,5513,6073,0,0,0,0,0,0,0,0,0,0,0,0,0,6072,5513,5513,5514,51,55,18,18,19,51,55,18,19,51,0,0,0,0,0,0,249,0,0,0,0,0,0,0,0,0,0,0,0,0,0,0,0,0,0,0,
0,0,0,0,0,0,0,0,0,0,0,0,0,4112,4112,0,0,4275,0,0,0,0,0,0,346,283,0,0,0,0,0,0,0,49,17,18,56,49,17,56,17,56,5512,5513,6073,0,0,0,0,0,0,0,0,0,0,0,0,0,0,0,0,0,0,5654,55,18,18,19,51,55,18,19,51,55,19,0,0,0,0,0,281,345,0,0,0,0,0,0,0,0,0,0,0,0,0,0,0,0,0,0,
0,0,0,0,0,0,0,0,0,0,4112,4112,4112,4112,0,0,0,0,0,0,0,0,0,346,283,0,0,0,0,0,0,17,18,56,49,17,18,56,49,17,56,5512,0,0,0,0,23,82,82,82,82,82,82,82,82,82,82,82,82,82,24,0,0,6072,5513,5513,5514,51,55,18,19,51,55,19,51,0,0,0,0,0,0,249,0,0,0,0,6819,0,0,0,0,0,0,0,0,0,0,0,0,0,
0,0,0,0,0,0,0,6819,0,0,0,0,4112,4112,0,0,0,0,0,0,0,346,282,283,0,0,0,0,0,0,0,49,17,18,56,49,17,18,56,49,5512,0,0,0,23,82,83,4587,4588,4588,4588,4588,4588,4588,4588,4588,4588,4588,4588,4589,81,82,24,0,0,0,5654,55,18,19,51,55,19,51,55,19,0,0,0,0,0,249,0,0,0,0,0,0,0,0,3858,3859,0,0,0,0,0,0,0,0,
0,0,0,0,0,0,0,0,0,0,0,0,0,0,0,0,0,0,0,346,282,283,0,0,0,0,0,0,0,0,0,49,49,17,18,56,49,17,18,56,5652,0,23,82,83,4587,4588,5148,0,0,0,0,0,0,0,0,0,0,0,5147,4588,4589,81,82,24,0,6072,5513,5514,51,55,19,51,55,19,51,0,0,0,0,0,281,345,0,0,0,0,0,0,0,3998,3999,0,0,0,0,0,0,0,0,
0,0,0,0,0,0,0,0,0,0,0,0,0,0,0,0,346,282,282,283,0,0,0,0,0,0,0,0,0,0,0,49,49,49,17,18,56,49,5512,5513,6073,23,83,4587,4588,5148,0,0,0,0,0,0,0,0,0,0,5287,0,0,0,0,5147,4588,4589,49,0,0,0,5654,55,19,51,55,19,51,51,0,3996,3997,0,0,0,249,0,0,0,0,0,0,0,4138,4139,0,4112,0,4112,4112,4112,0,0,
0,0,0,0,0,0,0,0,0,0,0,0,346,282,282,282,283,0,0,0,0,0,0,17,18,18,18,18,18,18,18,56,49,49,49,17,18,56,5652,0,0,51,4587,5148,0,0,5009,0,0,0,0,0,0,0,0,0,0,0,0,0,0,0,0,4729,81,24,0,0,0,5514,51,55,19,51,51,51,0,4136,4137,0,3996,3997,249,0,0,0,0,0,0,0,0,0,0,0,4112,4112,4112,0,0,0,
0,0,0,0,0,0,0,0,0,346,282,282,283,0,0,0,0,0,0,0,0,17,18,56,17,18,18,18,18,18,18,18,56,49,49,49,0,5512,0,0,0,51,4727,0,0,0,0,0,5007,4868,4868,4868,4868,4868,4868,4868,4868,5008,0,0,0,0,0,5147,4589,49,0,0,0,5654,55,19,51,51,51,51,0,0,0,0,4136,4137,281,282,282,282,282,282,282,282,345,0,0,0,0,0,0,0,0,0,
0,0,0,0,0,0,0,346,282,283,0,0,0,0,0,0,0,0,0,0,0,49,17,18,56,17,18,18,18,18,18,18,18,56,49,49,0,5652,0,0,0,51,4727,0,0,0,5007,4868,4869,5932,5793,5793,5793,5793,5793,5793,5933,4867,4868,5008,0,0,5288,0,4729,81,24,0,0,5654,0,51,51,51,51,51,0,0,0,3858,3859,0,0,0,0,0,0,0,0,0,281,282,345,0,0,0,0,0,0,0,
0,0,0,0,0,0,346,283,0,0,0,0,0,0,0,0,0,0,0,17,18,56,49,17,18,56,17,18,18,18,18,18,18,18,56,49,0,5792,5933,0,0,51,4727,0,0,5007,4869,0,5932,0,5932,5793,5793,5793,5793,5933,5792,5793,5933,4867,5008,0,0,0,5147,4589,49,0,0,5654,0,51,51,51,51,51,0,0,0,3998,3999,0,0,0,0,0,0,0,0,0,0,0,281,282,345,0,0,0,0,0,
0,0,0,0,0,346,283,0,0,0,0,0,0,0,0,0,0,0,0,49,17,18,56,49,17,18,56,17,18,18,18,18,18,18,18,56,0,0,5652,0,0,51,4867,4868,4868,4869,0,5932,0,5932,5794,5932,5793,5793,5933,5792,5793,5933,5792,5933,4867,4868,5008,0,0,4729,49,0,0,5654,0,51,51,51,51,51,0,0,0,4138,4139,0,0,0,0,0,0,0,0,0,0,0,0,0,281,282,282,345,0,0,
0,0,0,0,346,283,0,0,0,0,0,0,0,0,0,0,0,0,17,56,49,17,18,56,49,17,18,56,0,0,5374,5374,5374,5374,5374,5374,5374,5374,5792,82,82,83,0,0,0,5932,5793,5794,5932,5794,5932,5794,4587,4589,5792,5793,5933,5792,5933,5792,5793,5933,4867,4868,4868,4869,81,82,82,5794,7050,51,51,51,51,55,19,0,0,0,0,0,0,0,0,0,0,0,0,0,0,0,0,0,0,3996,3997,281,345,0,
0,0,0,0,251,0,0,0,0,0,0,0,0,0,0,0,0,17,56,17,56,49,17,18,56,49,0,0,23,82,82,82,82,82,82,82,82,24,23,82,82,5793,5793,5793,5793,5794,5932,5793,5794,5932,5794,0,0,0,0,0,5792,5933,5792,5933,0,5792,5793,5793,5793,5793,82,82,82,24,0,51,51,51,55,19,55,18,18,18,18,18,18,18,18,18,18,18,18,18,18,19,0,0,0,4136,4137,0,281,345,
0,0,0,346,283,0,0,0,0,0,0,0,0,0,0,0,0,49,17,56,17,56,49,17,18,56,23,82,83,23,82,82,82,82,82,82,24,81,83,23,82,82,82,5793,5793,5793,5794,5932,5793,5794,0,0,0,0,0,0,0,5792,5933,5792,5793,5793,5793,5793,5793,5793,5793,82,24,49,0,51,51,55,19,55,18,18,18,18,18,18,18,18,18,18,18,18,18,18,19,55,18,19,0,0,0,0,0,281,
0,0,0,251,0,0,0,0,0,0,0,0,0,0,0,0,0,49,49,17,56,17,56,49,0,0,51,23,82,83,23,82,82,82,82,24,81,82,82,83,23,82,5793,5793,5793,5793,5793,5794,0,0,0,0,0,0,0,0,0,0,5792,5793,5793,5793,5793,5793,5793,5793,5793,24,49,49,0,51,55,19,55,18,18,18,18,18,18,18,18,18,18,18,18,18,18,19,55,18,19,55,18,19,0,0,0,0,
0,0,346,283,0,0,0,0,0,0,0,0,0,0,0,0,17,56,49,49,17,56,17,56,23,82,83,51,23,82,83,0,0,0,23026,81,82,82,82,82,83,0,0,0,0,0,0,0,0,0,0,0,0,5009,0,0,0,0,0,0,0,0,0,0,0,0,0,49,49,49,0,55,19,55,18,18,18,18,18,18,18,18,18,18,18,18,18,18,19,55,18,19,55,18,19,51,0,0,0,0,
0,0,251,0,0,0,0,0,0,0,0,0,0,0,0,0,49,17,56,49,49,17,56,0,51,23,82,83,51,0,0,0,0,0,1001,23026,1001,1001,23026,23026,1001,0,0,0,0,0,5287,5288,0,0,0,0,0,0,0,0,0,0,0,0,0,0,0,0,0,0,17,56,49,81,24,0,55,18,18,18,18,18,18,18,18,18,18,18,18,18,18,19,55,18,19,55,18,19,51,55,19,0,3834,0,
0,346,283,0,0,0,0,0,0,0,0,0,0,0,0,0,49,49,17,56,49,49,0,23,83,51,23,82,6538,0,0,0,0,0,1001,1001,23026,23026,1001,1001,0,0,0,0,0,0,0,0,0,0,0,0,0,0,0,0,0,0,0,0,0,0,5287,5288,0,0,49,0,81,24,81,82,82,82,82,82,82,82,82,82,82,82,82,82,82,24,0,55,18,19,55,18,19,51,55,19,51,0,0,0,
0,251,0,0,0,0,0,0,0,0,0,0,0,0,0,0,49,49,49,17,56,49,23,83,23,83,51,0,6813,6537,6537,6537,6537,6537,6537,6537,6538,1001,23026,23026,0,0,0,0,0,0,0,0,0,0,0,0,0,0,22103,22136,22167,0,0,0,0,0,0,5007,5008,0,81,82,24,81,82,82,82,82,82,82,82,82,82,82,82,82,82,82,24,81,82,24,0,55,18,19,51,55,19,51,51,0,0,0,
282,283,0,0,0,0,0,0,0,0,0,0,0,0,0,0,49,49,49,49,17,56,51,23,83,23,83,0,0,0,0,0,0,0,0,0,6813,0,1001,1001,0,0,0,0,0,0,0,0,0,0,0,0,0,0,0,22103,0,0,0,0,0,0,0,5147,5148,0,0,0,81,82,82,82,82,82,82,82,82,82,82,82,82,82,82,24,81,82,24,81,82,24,0,51,55,19,51,51,51,0,0,0,
0,0,0,0,0,0,0,0,0,0,0,0,0,0,0,0,49,49,49,49,49,0,51,51,23,83,0,0,0,0,0,0,0,0,0,0,0,6813,6537,6537,6537,6537,6537,6537,6537,6537,6537,6537,6537,6537,6537,6537,6538,0,22167,22263,0,22263,0,0,0,0,0,0,0,0,0,0,0,0,0,0,0,0,0,0,0,0,0,0,0,0,0,81,82,24,81,82,24,49,0,55,19,51,51,51,51,0,0,0,
0,0,0,0,0,0,0,0,0,0,0,0,0,0,0,0,49,49,49,49,49,23,83,51,51,0,0,0,6533,6534,6534,6534,6534,6534,6535,0,0,0,0,0,0,0,0,0,0,0,0,0,0,0,0,0,6678,0,0,0,0,0,0,0,0,0,0,0,0,0,0,0,0,0,0,0,0,0,0,0,0,0,0,0,0,0,0,0,0,81,82,24,49,81,24,0,51,51,51,51,51,0,0,0,
0,0,0,0,0,0,0,0,0,0,0,0,0,0,0,0,49,49,49,49,49,51,23,83,51,0,0,0,6673,0,0,0,0,0,6816,6534,6534,6535,0,0,0,0,0,0,0,0,0,0,0,0,0,0,6678,0,0,0,0,0,0,0,0,0,0,0,0,0,0,0,0,0,0,0,0,0,0,0,0,0,0,0,0,0,0,0,0,0,0,49,81,24,49,0,51,51,51,51,51,0,0,0,
0,0,0,0,0,0,0,0,0,0,0,0,0,0,0,0,49,49,49,49,49,51,51,23,83,0,0,0,6673,23019,23020,0,0,0,0,0,0,6816,6534,6534,6534,6535,6956,6956,6533,6817,6817,6817,6817,6817,6817,6817,6818,0,0,0,0,6536,6537,6537,6537,6537,6537,6537,6537,6537,6537,6538,0,0,0,0,0,0,0,0,0,0,0,0,0,0,0,0,0,0,0,81,24,49,49,0,51,51,51,51,51,0,0,0,
0,0,0,0,0,0,0,0,0,0,0,0,0,0,6536,6537,6537,49,49,49,49,51,51,51,0,0,0,0,6673,0,0,0,0,0,0,0,0,0,0,0,0,6675,0,0,6673,0,0,0,0,0,0,0,0,0,0,0,0,6675,0,0,0,0,0,0,0,0,0,6813,6538,0,0,0,217,218,218,218,218,219,0,0,0,0,0,0,0,0,0,0,49,49,49,0,51,51,51,51,51,0,0,0,
0,0,0,0,0,0,0,0,0,0,0,0,0,6536,6815,0,49,49,49,49,49,51,51,51,0,0,0,6533,6818,0,0,0,0,0,0,0,0,0,0,0,0,6675,0,0,6673,0,0,0,0,0,0,0,0,0,0,0,0,6675,0,6533,6817,6817,6535,6533,6534,6535,0,0,6678,0,0,217,313,0,0,0,0,314,219,0,0,0,0,0,0,0,0,0,49,49,49,0,51,51,51,51,51,0,0,0,
0,0,0,0,0,0,0,0,0,0,0,0,0,6816,6535,0,49,49,49,49,49,51,51,51,0,0,0,6673,0,0,0,0,0,0,0,0,0,0,0,0,0,6675,0,0,6813,6814,6814,6814,6814,6814,6814,6814,6814,6814,6814,6814,6814,6815,0,6673,0,0,6816,6818,0,6816,6535,0,6678,0,0,249,0,0,0,0,0,0,314,218,219,0,0,0,0,0,0,0,49,49,49,0,51,51,51,51,51,0,0,0,
0,0,0,0,0,0,0,0,0,0,0,0,0,0,6676,0,49,49,49,49,49,51,51,51,0,0,6533,6818,0,0,0,0,0,0,0,0,0,0,0,0,0,6675,0,0,5136,0,0,0,0,0,0,0,0,0,0,0,0,0,6533,6818,0,0,0,0,0,0,6675,0,6678,0,0,249,0,0,0,0,0,0,0,0,314,219,0,0,0,0,0,0,49,49,49,0,51,51,51,51,51,0,0,0,
0,0,0,0,0,0,0,0,0,0,0,0,0,0,6816,6817,6817,49,49,49,49,51,51,51,0,0,6673,0,22797,22797,22640,0,0,0,0,0,0,0,0,0,0,6675,0,0,6533,6534,6534,6534,6534,6534,6534,6534,6534,6534,6534,6534,6535,6256,6813,6538,0,0,0,0,0,6536,6815,0,6678,0,0,249,0,0,0,0,0,0,0,0,0,314,218,219,0,0,0,0,49,49,49,0,51,51,51,51,51,0,0,0,
0,0,0,0,0,0,0,0,0,0,0,23358,23359,0,0,0,49,49,49,49,49,51,51,55,19,6533,6818,0,23026,23026,22764,0,0,6536,6537,6537,6537,6537,6537,6537,6537,6815,0,0,6673,0,0,0,0,0,0,0,0,0,0,0,6676,0,6533,6818,3835,4111,0,0,0,6676,0,0,6678,0,0,249,0,0,0,220,221,221,221,221,221,222,0,314,219,0,0,17,56,49,49,0,51,51,51,51,51,0,0,0,
0,0,0,0,0,0,0,0,0,0,0,0,0,0,0,0,182,49,49,49,49,51,55,19,6534,6818,22798,23026,23026,23026,22764,0,0,6676,0,0,0,0,0,0,0,0,0,0,6673,0,0,0,0,0,0,0,0,0,0,0,6676,0,6678,0,4111,24282,3835,0,0,6676,0,6533,6818,0,217,313,0,0,220,377,24527,0,0,0,0,254,0,0,251,0,0,49,17,56,49,0,51,51,51,51,51,0,0,0,
0,0,0,0,0,0,0,0,0,23363,0,0,0,0,0,0,49,49,49,49,49,55,19,51,22797,22798,23026,23026,1001,23026,22796,22640,0,6676,0,0,0,0,0,0,0,0,0,0,6673,0,0,0,22103,0,0,0,0,0,0,0,6676,0,6813,6537,6538,3976,4111,6536,6537,6815,0,6678,0,0,249,0,0,0,252,0,0,0,0,410,285,286,0,346,283,0,0,49,49,17,56,0,51,51,51,51,51,0,0,0,
218,219,0,0,0,0,0,0,0,0,0,0,0,0,0,0,49,49,49,49,49,0,51,51,51,23026,23026,1001,23026,1001,23026,22764,0,6816,6817,6817,6817,6817,6817,6817,6817,6817,6817,6817,6818,22325,22326,22103,0,0,0,0,0,0,0,0,6676,0,0,0,6813,6537,6537,6815,0,0,0,6678,0,0,249,0,0,0,252,0,410,285,285,286,0,0,346,283,0,0,17,56,49,49,0,23,83,51,51,51,51,0,0,0,
0,314,219,0,0,0,0,0,0,0,0,0,0,0,0,0,49,49,49,49,81,24,51,51,51,23026,23026,1001,23025,23026,1001,22764,0,0,0,0,0,0,0,0,0,0,22449,22450,22356,22357,22358,22154,22155,22103,0,0,0,0,0,0,6816,6817,6535,0,0,0,0,0,0,6533,6817,6818,0,0,249,0,0,0,284,285,286,0,0,0,346,282,283,0,0,17,56,17,56,49,0,51,23,83,51,51,51,0,0,0,
0,0,0,0,0,0,0,0,0,0,0,0,0,0,0,0,49,49,49,81,24,49,51,51,55,19,23026,23026,1001,1001,5512,22764,5513,5513,5513,5514,0,0,22103,0,0,0,22481,22482,22483,22389,22057,22186,22187,23022,22130,22131,0,0,0,0,0,0,6816,6817,6817,6817,6817,6817,6817,6818,0,0,0,0,281,282,345,0,0,0,346,282,282,282,283,0,0,0,17,56,17,56,17,56,0,51,51,23,83,51,51,0,0,0,
0,0,314,219,0,0,0,0,0,0,0,0,0,0,0,0,49,49,81,24,49,49,51,55,19,51,1001,23026,5512,5513,6073,0,0,0,0,6072,5513,5513,5514,23022,22452,22453,22513,22514,22515,22354,22089,22090,22091,22161,22162,22163,22322,22323,0,22103,0,0,0,0,0,0,0,0,0,0,0,0,0,0,0,0,281,282,282,282,283,0,0,0,0,0,17,18,56,17,56,17,56,0,23,83,51,51,23,83,51,0,0,0,
0,0,0,314,219,0,0,0,0,0,0,0,0,0,0,0,49,81,24,49,49,49,55,19,51,55,19,1001,5652,0,0,0,0,0,0,0,0,0,6072,5514,22484,22485,22486,22157,22385,22386,22387,22409,22410,22193,22194,22195,22354,22355,22130,22131,23019,23020,217,218,218,218,218,218,219,0,0,0,0,0,0,0,0,0,0,0,17,18,18,18,18,18,56,17,18,56,17,56,0,23,83,23,83,51,51,23,83,0,0,0,
0,0,0,0,314,219,0,0,0,0,0,23903,0,0,0,0,81,24,49,49,49,81,24,51,55,19,55,19,5652,0,0,0,0,0,0,0,0,0,0,5654,22516,22517,22518,22189,22417,22418,22419,22220,22221,22222,22130,22385,22386,22161,22162,22163,0,217,313,0,0,0,0,0,251,0,0,0,0,0,17,18,18,18,18,18,56,17,18,18,18,18,18,56,17,18,56,0,23,83,23,83,23,83,51,51,0,0,0,0,
0,0,0,0,3993,3994,219,0,0,0,0,0,0,0,0,0,0,49,49,49,81,24,49,55,19,55,19,55,6073,0,0,0,0,0,0,0,0,0,0,6072,22548,22549,22550,22221,22222,22162,22100,22252,22253,22254,22162,22417,22418,22193,22194,22195,217,313,0,0,0,0,0,346,283,0,0,17,18,18,56,17,18,18,18,18,18,56,17,18,18,18,18,18,56,0,23,82,83,23,83,23,83,23,51,51,0,3996,3997,0,
0,0,0,0,4133,4134,251,0,0,0,0,0,0,3993,3994,0,0,49,49,81,24,49,49,0,55,19,55,19,4587,0,0,0,0,0,5287,5288,0,0,0,0,0,6072,22473,22474,22254,22194,22195,22321,22322,22323,22194,22195,22196,22197,22198,217,313,0,0,0,0,0,346,283,0,0,17,56,17,18,18,56,17,18,18,18,18,18,56,0,0,0,0,0,23,82,83,23,82,83,23,83,23,83,23,83,0,4136,4137,0,
0,0,0,0,0,0,314,219,0,0,0,0,0,4133,4134,4112,0,49,81,24,49,49,81,24,0,55,19,4588,5148,181,0,0,0,0,0,0,0,0,0,0,0,0,0,0,6072,5514,23022,22353,22354,22355,22103,0,0,0,217,313,0,0,0,0,0,0,314,219,0,17,56,17,56,17,18,18,56,0,0,0,0,0,0,23,82,82,82,82,83,23,82,83,23,82,83,23,83,23,83,0,0,0,0,0,
0,0,0,0,0,0,0,251,0,0,0,0,0,4112,4112,0,0,81,24,49,49,81,24,81,24,0,51,55,19,181,181,0,0,0,0,0,0,0,0,0,0,0,0,0,0,6072,5513,22385,22386,22387,0,0,0,217,313,0,9095,0,0,0,0,0,0,251,0,49,17,56,17,56,0,0,0,23,82,82,82,82,82,83,23,82,82,82,82,83,23,82,83,23,82,83,23,83,0,0,0,217,218,218,
0,0,0,0,0,0,0,251,0,0,0,0,4112,4112,4112,0,0,0,49,49,81,24,81,24,81,24,55,19,55,19,181,181,0,0,0,0,0,0,0,0,0,0,0,0,0,0,0,22417,22418,22419,23022,217,218,313,0,0,9235,0,0,0,0,0,346,283,0,49,49,17,56,0,23,82,82,83,23,82,82,82,82,82,83,23,82,82,82,82,83,23,82,83,23,82,83,0,0,0,217,313,0,0,
0,0,0,0,0,0,0,251,0,0,0,0,0,4112,0,0,5512,5513,6073,5652,5095,81,24,81,24,49,0,55,19,55,19,181,181,0,0,0,0,0,0,0,0,0,0,0,0,0,0,0,5654,0,217,313,0,0,10317,0,9095,0,0,0,0,0,251,0,0,49,49,49,0,23,83,23,82,82,83,23,82,82,82,82,82,83,23,82,82,82,82,83,23,82,83,0,0,0,0,217,313,0,0,0,
0,0,0,0,0,0,0,251,0,0,0,0,0,0,0,0,5652,5512,5513,6073,5512,5513,6073,7487,49,81,24,0,55,19,55,19,181,181,0,0,0,0,0,0,0,0,0,0,5009,0,0,0,5654,0,249,8813,0,10177,0,0,9235,0,0,0,0,0,251,0,0,49,49,49,23,83,23,83,23,82,82,83,23,82,82,82,82,82,83,23,82,82,82,82,83,0,0,0,0,0,217,313,0,0,0,0,
0,0,0,0,0,0,0,251,0,0,0,0,0,0,5512,5513,6073,5652,5512,5513,6073,7487,7487,7487,4588,4588,81,24,0,55,19,55,19,181,181,0,0,0,1001,1001,0,0,0,0,0,0,0,0,5654,217,313,0,10177,0,0,0,9792,0,0,0,0,0,251,0,0,49,49,49,51,23,83,23,83,23,82,82,83,23,82,82,82,82,82,83,0,0,0,0,0,0,0,0,217,218,313,0,0,0,0,0,
0,0,0,0,3834,0,0,251,0,0,0,0,5512,5513,56,5512,5513,6073,5652,0,7487,7487,7487,7487,7487,81,24,81,24,0,55,19,55,19,181,181,181,1001,1001,1001,1001,0,0,0,0,0,0,5932,5794,249,0,0,0,0,0,0,0,0,0,0,0,346,283,0,0,49,49,49,51,51,23,83,23,83,23,82,82,83,0,0,0,0,0,0,0,0,0,0,0,217,218,218,313,0,0,0,3996,3997,0,0,
0,0,0,0,0,0,0,251,0,0,0,0,5652,5512,5513,6073,5512,5513,6073,0,0,7487,7487,7487,7487,7487,81,24,81,24,0,55,19,55,18,4729,19,1001,1001,1001,1001,23,82,82,82,82,82,5794,0,249,0,0,0,0,0,0,0,0,0,0,0,251,0,0,17,56,49,49,51,51,51,23,83,23,83,0,0,0,0,0,0,0,0,0,0,0,217,218,218,313,0,0,0,0,0,0,4136,4137,0,0,
0,0,0,0,0,0,0,251,0,0,0,0,5652,5652,5512,5513,6073,0,0,0,0,7487,7487,7487,7487,7487,7487,81,24,81,24,0,55,18,18,19,55,19,1001,1001,181,51,0,0,0,0,0,0,0,249,0,0,0,0,0,0,0,0,346,282,282,283,0,0,49,17,56,49,51,51,51,51,23,83,0,0,0,0,0,0,0,0,0,217,218,218,313,0,4135,0,0,0,0,0,0,0,0,0,0,0,
0,0,0,0,3858,3859,0,251,0,0,0,0,5652,5652,5652,0,0,0,0,0,0,0,7487,7487,7487,7487,7487,7487,81,4729,81,24,0,0,0,55,19,55,18,18,19,55,18,18,19,0,0,0,0,281,282,282,282,282,282,282,282,282,283,0,0,0,0,24460,49,49,17,56,51,51,51,51,51,0,0,0,0,0,0,0,217,218,218,313,0,0,0,0,4275,0,3834,0,0,0,0,0,0,0,0,0,
0,0,0,0,3998,3999,0,251,0,0,0,0,5652,5652,5652,0,0,0,0,0,0,0,0,7487,7487,7487,7487,7487,7487,4729,24,81,82,82,24,0,55,18,18,19,55,18,18,19,55,18,18,18,19,0,0,0,0,0,0,0,0,0,0,0,17,18,18,18,56,49,49,0,51,51,51,51,51,0,0,0,0,0,217,218,313,0,0,0,0,3858,3859,0,0,0,0,0,8922,8923,8924,0,0,0,0,0,
0,0,3858,3859,4138,4139,0,251,0,0,0,0,5652,5652,5792,5793,5933,0,0,0,0,0,0,0,7487,7487,7487,7487,7487,7487,5792,82,82,24,81,24,0,0,0,55,18,18,19,55,18,18,18,19,55,18,18,18,18,18,18,18,18,18,18,18,56,17,18,18,18,56,49,23,83,51,51,51,51,0,0,0,0,217,313,0,0,0,0,0,0,3998,3999,0,4112,0,0,0,9062,9063,9064,0,0,0,0,0,
0,0,3998,3999,0,0,0,251,0,0,0,0,5652,5792,5793,5933,5792,5793,5793,5793,5793,5793,5793,5793,5793,5793,5933,7487,7487,5932,82,82,24,81,24,81,82,82,24,0,0,0,55,18,18,18,19,55,18,18,18,18,18,18,18,18,18,18,18,18,18,56,17,18,18,18,56,51,23,83,51,51,51,0,0,0,217,313,0,0,0,3858,3859,4112,4112,4138,4139,4112,0,9479,9480,0,9202,9203,9204,0,0,0,0,0,
0,0,4138,4139,0,0,0,251,0,0,0,0,5792,5793,5933,5792,5793,5793,5793,5793,5793,5793,5793,5793,5793,5933,5792,5793,5793,5794,5097,5097,81,24,81,82,82,24,81,82,82,24,0,0,0,0,55,18,18,18,18,18,18,18,18,18,18,18,18,18,18,18,56,0,0,0,0,51,51,23,83,51,51,0,0,0,249,0,0,0,4135,3998,3999,3858,3859,4112,4112,4112,0,9619,9620,0,9342,9343,9344,0,0,0,6370,0,
0,0,0,0,0,0,0,251,0,0,0,0,0,0,5792,5793,5793,5793,5793,5793,5793,5793,5793,5793,5933,5792,5793,5793,5933,5097,5097,5097,5097,81,82,82,24,81,82,82,24,81,82,82,82,24,0,0,0,0,0,0,0,0,0,0,0,0,0,0,0,0,0,23,82,82,82,83,51,51,23,83,51,0,0,217,313,0,0,0,4275,4138,4139,3998,3999,0,0,0,0,9759,9760,0,0,0,0,0,6649,0,0,0,
0,0,0,0,0,0,0,314,219,0,0,0,0,0,0,0,0,0,0,0,0,0,0,0,5792,5793,5933,0,5652,0,5097,5097,5097,5097,5097,5097,81,82,82,24,81,82,82,82,24,81,82,82,82,82,82,82,82,82,82,82,82,82,82,82,82,82,82,83,23,82,82,82,83,51,51,23,83,0,0,249,0,0,0,0,0,0,0,4138,4139,0,0,0,0,9899,9900,0,0,6233,6234,0,0,0,0,0,
0,0,0,0,0,0,0,0,314,218,219,0,0,0,0,0,0,0,0,0,0,0,0,0,0,0,5652,0,5792,5793,5793,5793,5793,5793,5793,5793,82,82,24,81,82,82,82,24,81,82,82,82,82,82,82,82,82,82,82,82,82,82,82,82,82,82,82,82,83,23,82,82,82,83,51,51,0,0,0,249,0,0,0,0,4112,0,0,0,0,0,0,0,0,0,0,0,0,6373,6374,0,0,0,0,0,
0,0,0,0,0,0,0,0,0,0,314,218,219,0,0,0,0,0,0,0,0,0,0,0,0,0,5792,5793,5793,5793,5793,5793,5793,5793,5793,82,82,24,81,82,82,82,24,81,82,82,82,82,82,82,82,82,82,82,82,82,82,82,82,82,82,82,82,82,82,83,23,82,82,82,83,51,0,0,217,313,0,0,0,4112,4112,0,0,0,0,0,0,0,0,0,0,0,0,0,0,0,0,0,6649,0,
221,222,0,0,0,0,0,0,0,0,3993,3994,314,218,218,218,218,219,0,0,0,0,0,0,0,0,0,0,0,0,0,0,0,0,0,0,0,81,82,82,82,24,81,82,82,82,82,82,82,82,82,82,82,82,82,82,82,82,82,82,82,82,82,82,82,82,83,23,82,82,82,83,0,0,249,0,0,0,0,0,0,0,0,0,0,0,0,6370,0,0,0,0,0,0,6511,6512,0,0,0,0,
0,378,221,222,0,0,0,0,0,0,4133,4134,3858,3859,0,0,0,314,218,219,0,0,0,0,0,0,0,0,0,0,0,0,0,0,0,0,0,0,0,0,0,81,82,82,82,82,82,82,82,82,82,82,82,82,82,82,82,82,82,82,82,82,82,82,82,82,82,83,0,0,0,0,0,0,249,0,0,0,0,0,0,0,0,0,0,0,0,0,0,0,0,0,0,24922,6651,6652,0,0,0,0,
0,6649,0,378,222,0,0,0,0,0,0,0,3998,3999,0,0,0,0,0,314,218,219,0,0,0,0,0,0,0,3834,0,0,0,0,0,3858,3859,0,0,0,0,0,0,0,0,0,0,0,0,0,0,0,0,0,0,0,0,0,0,0,0,0,0,0,0,0,0,0,0,0,0,0,0,217,313,0,0,0,3996,3997,0,0,0,0,0,0,6511,6512,0,0,0,24922,0,24922,0,0,24944,24922,24922,0,
0,6511,6512,0,378,222,0,0,0,0,3834,0,4138,4139,0,0,4112,4112,0,0,0,314,219,0,0,0,0,0,0,0,0,0,0,3858,3859,3998,3999,0,0,0,4135,0,0,0,0,0,0,0,0,0,4135,0,0,0,0,0,0,0,0,0,0,0,0,24552,0,0,0,0,0,0,0,0,0,249,0,0,3834,0,4136,4137,0,0,0,6511,6512,0,6651,6652,0,0,0,0,0,24944,0,6370,0,0,0,0,
0,6651,6652,0,0,254,0,0,0,0,0,0,4138,4139,0,0,0,4112,4112,0,0,0,314,218,219,0,0,0,0,0,0,0,0,3998,3999,4138,4139,0,0,0,4275,0,0,0,0,0,0,0,0,0,4275,0,0,0,24552,0,0,0,0,3834,0,0,0,0,0,0,0,0,0,0,0,0,217,313,0,0,0,0,0,0,0,0,0,6651,6652,0,0,0,0,0,0,0,6649,0,0,24944,0,24922,0,0,
0,0,0,0,0,254,0,0,0,0,0,0,0,0,0,0,0,0,4112,4112,0,0,0,0,251,0,0,0,0,0,0,0,0,4138,4139,0,0,0,0,0,0,0,0,0,0,0,0,0,0,0,0,0,0,0,0,0,0,0,0,0,0,0,0,0,0,0,0,0,0,0,0,0,249,0,0,0,0,0,0,0,0,0,0,0,0,0,0,0,0,0,0,0,0,0,0,0,0,0,0,0
</data>
 </layer>
 <layer id="3" name="Layer 3" width="100" height="75">
  <data encoding="csv">
53,53,53,53,53,53,53,53,53,53,53,53,53,53,53,53,53,53,53,53,53,53,53,53,53,53,53,53,53,53,53,53,53,53,53,53,53,53,53,53,53,53,53,53,53,53,53,53,53,53,53,53,53,53,53,53,53,53,53,53,53,53,53,53,53,53,53,53,53,53,53,53,53,53,53,53,53,53,53,53,53,53,53,53,53,53,53,53,53,53,53,53,53,53,53,53,53,53,53,53,
53,53,53,53,53,53,53,53,53,53,53,53,53,53,53,53,53,53,53,53,53,53,53,53,53,53,53,53,53,53,53,53,53,53,53,53,53,53,53,53,53,53,53,53,53,53,53,53,53,53,53,53,53,53,53,53,53,53,53,53,53,53,53,53,53,53,53,53,53,53,53,53,53,53,53,53,53,53,53,53,53,53,53,53,53,53,53,53,53,53,53,53,53,53,53,53,53,53,53,53,
53,53,53,53,53,53,53,53,53,53,53,53,53,53,53,53,53,53,53,53,53,53,53,53,53,53,53,53,53,53,53,53,53,53,53,53,53,53,53,53,53,53,53,53,53,53,53,53,53,53,53,53,53,53,53,53,53,53,53,53,53,53,53,53,53,53,53,53,53,53,53,53,53,53,53,53,53,53,53,53,53,53,53,53,53,53,53,53,53,53,53,53,53,53,53,53,53,53,53,53,
53,53,53,53,53,53,53,53,53,53,53,53,53,53,53,53,53,53,53,53,53,53,53,53,53,53,53,53,53,53,53,53,53,53,53,53,53,53,53,53,53,53,53,53,53,53,53,53,53,53,53,53,53,53,53,53,53,53,53,53,53,53,53,53,53,53,53,53,53,53,53,53,53,53,53,53,53,53,53,53,53,53,53,53,53,53,53,53,53,53,53,53,53,53,53,53,53,53,53,53,
53,53,53,53,53,53,53,53,53,53,53,53,53,53,53,53,53,53,53,53,53,53,53,53,53,53,53,53,53,53,53,53,53,53,53,53,53,53,53,53,184,85,85,85,85,85,85,85,85,85,85,85,85,85,85,85,85,85,85,85,85,85,85,85,85,85,183,53,53,53,53,53,53,53,53,53,53,53,53,53,53,53,53,53,53,53,53,53,53,53,53,53,53,53,53,53,53,53,53,53,
53,53,53,53,53,53,53,53,53,53,53,53,53,53,53,53,53,53,53,53,53,53,53,53,53,53,53,53,53,53,53,53,53,53,53,53,53,53,184,85,86,0,0,0,0,0,0,0,0,0,0,0,0,0,0,0,0,0,0,0,0,0,0,0,0,0,84,85,85,183,53,53,53,53,53,53,53,53,53,53,53,53,53,53,53,53,53,53,53,53,53,53,53,53,53,53,53,53,53,53,
53,53,53,53,53,53,53,53,53,53,53,53,53,53,53,53,53,53,53,53,53,53,53,53,53,53,53,53,53,53,53,53,53,53,53,53,184,85,86,0,0,0,0,0,0,0,0,0,0,0,0,0,0,0,0,0,0,0,0,0,0,0,0,0,0,0,0,0,0,52,53,53,53,53,53,53,53,53,53,53,53,53,53,53,53,53,53,53,53,53,53,53,53,53,53,53,53,53,53,53,
53,53,53,53,53,53,53,53,53,53,53,53,53,53,53,53,53,53,53,53,53,53,53,53,53,53,53,53,53,53,53,53,53,53,53,184,86,0,0,0,0,0,0,0,0,0,0,0,0,0,0,0,0,0,0,0,0,0,0,0,0,0,0,0,0,0,0,0,51,84,85,85,183,53,53,53,53,53,53,53,53,53,53,53,53,53,53,53,53,53,53,53,53,53,53,53,53,53,53,53,
53,53,53,53,53,53,53,53,53,53,53,53,53,53,53,53,53,53,53,53,53,53,53,53,53,53,53,53,53,53,53,53,53,53,184,86,0,0,0,0,0,0,0,0,0,0,0,0,0,0,0,0,0,0,0,0,0,0,0,0,0,0,0,0,0,0,0,51,0,0,0,0,52,53,53,53,53,53,53,53,53,53,53,53,53,53,53,53,53,53,53,53,53,53,53,53,53,53,53,53,
53,53,53,53,53,53,53,53,53,53,53,53,53,53,53,53,53,53,53,53,53,53,53,53,53,53,53,53,53,53,53,53,53,53,54,0,0,0,0,0,0,0,0,0,0,0,0,0,0,2349,2350,2351,0,0,0,0,0,0,0,0,0,0,0,0,0,0,51,0,0,0,0,0,84,85,183,53,53,53,53,53,53,53,53,53,53,53,53,53,53,53,53,53,53,53,53,53,53,53,53,53,
53,53,53,53,53,53,53,53,53,53,53,53,53,53,53,53,53,53,53,53,53,53,53,53,53,53,53,53,53,53,53,53,184,85,86,0,0,0,0,0,0,0,0,0,0,0,0,0,0,2489,2490,2491,0,0,0,0,0,0,0,0,2310,2311,2312,0,0,51,0,0,0,0,0,0,0,0,52,53,53,53,53,53,53,53,53,53,53,53,53,53,53,53,53,53,53,53,53,53,53,53,53,53,
53,53,53,53,53,53,53,53,53,53,53,53,53,53,53,53,53,53,53,53,53,53,53,53,53,53,53,53,53,53,53,53,54,0,0,0,0,0,0,0,0,0,2310,2311,2312,0,0,0,0,2629,2630,2631,0,0,0,0,0,0,0,0,2450,2451,2452,2349,2350,2351,0,0,0,0,0,0,0,0,84,183,53,53,53,53,53,53,53,53,53,53,53,53,53,53,53,53,53,53,53,53,53,53,53,53,
53,53,53,53,53,53,53,53,53,53,53,53,53,53,53,53,53,53,53,53,53,53,53,53,53,53,53,53,53,53,184,85,86,0,0,0,0,0,0,0,0,0,2450,2451,2452,0,0,0,0,2769,2770,2771,0,0,0,0,0,0,0,0,2590,2591,2592,2489,2490,2491,0,0,0,0,0,0,0,0,0,52,53,53,53,53,53,53,53,53,53,53,53,53,53,53,53,53,53,53,53,53,53,53,53,53,
53,53,53,53,53,53,53,53,53,53,53,53,53,53,53,53,53,53,53,53,53,53,53,53,53,53,53,53,53,53,54,0,0,0,0,0,0,0,0,0,0,0,2590,2591,2592,0,0,0,0,0,0,0,0,0,0,0,0,0,0,0,0,0,0,2629,2630,2631,0,0,0,0,0,0,0,0,0,84,183,53,53,53,53,53,53,53,53,53,53,53,53,53,53,53,53,53,53,53,53,53,53,53,
53,53,53,53,53,53,53,53,53,53,53,53,53,53,53,53,53,53,53,53,53,53,53,53,53,53,53,53,53,53,54,0,0,0,0,0,0,0,0,0,0,0,0,0,0,0,0,0,0,0,0,0,0,0,0,0,0,0,0,0,0,0,0,2769,2770,2771,0,0,0,0,0,0,0,0,0,0,52,53,53,53,53,53,53,53,53,53,53,53,53,53,53,53,53,53,53,53,53,53,53,53,
53,53,53,53,53,53,53,53,53,53,53,53,53,53,53,53,53,53,53,53,53,53,53,53,53,53,53,53,53,53,54,0,0,0,0,0,0,0,0,0,0,0,0,0,0,0,0,0,0,0,0,0,0,0,0,0,0,0,0,0,0,0,0,0,0,0,0,0,0,0,0,0,0,0,0,0,52,53,53,53,53,53,53,53,53,53,53,53,53,53,53,53,53,53,53,53,53,53,53,53,
53,53,53,53,53,53,53,53,53,53,53,53,53,53,53,53,53,53,53,53,53,53,184,85,85,85,85,85,85,85,86,0,0,0,0,0,0,2352,2353,2354,2355,0,0,0,0,0,0,0,5007,5008,0,0,0,0,0,0,0,0,0,0,0,0,0,0,0,0,0,0,0,0,0,0,0,0,0,0,52,53,53,53,53,53,53,53,53,53,53,53,53,53,53,53,53,53,53,53,53,53,53,53,
53,53,53,53,53,53,53,53,53,53,53,53,53,53,53,53,53,53,53,53,184,85,86,0,0,0,0,0,0,0,0,0,0,0,0,0,0,2492,2493,2494,2495,0,0,0,0,0,0,0,5147,5148,0,0,0,0,0,0,0,0,0,6235,6236,0,0,0,0,0,911,912,0,0,0,0,0,0,0,0,52,53,53,53,53,53,53,53,53,53,53,53,53,53,53,53,53,53,53,53,53,53,53,53,
53,53,53,53,53,53,53,53,53,53,53,53,53,53,53,53,53,53,53,53,54,0,0,0,0,0,0,0,0,0,0,0,0,0,0,0,0,2632,2633,2634,2635,0,0,0,0,0,0,0,0,0,0,5235,4584,4586,5095,5095,5095,0,0,6375,6376,0,0,0,0,0,847,848,0,0,0,0,0,0,0,0,52,53,53,53,53,53,53,53,53,53,53,53,53,53,53,53,53,53,53,53,53,53,53,53,
53,53,53,53,53,53,53,53,53,53,53,53,53,53,53,53,53,53,184,85,86,0,0,0,0,0,0,0,0,0,0,0,0,0,2349,2350,2351,2772,2773,2774,2775,0,0,0,0,0,0,0,0,0,0,5235,4724,4726,5095,5095,5095,0,0,0,0,0,0,0,0,0,0,0,0,0,0,0,0,0,0,0,52,53,53,53,53,53,53,53,53,53,53,53,53,53,53,53,53,53,53,53,53,53,53,53,
53,53,53,53,53,53,53,53,53,53,53,53,53,53,53,53,53,53,54,0,0,0,0,0,0,0,0,0,0,2349,2350,2351,0,0,2489,2490,2491,2912,2913,2914,2915,0,0,0,0,0,0,0,0,0,0,5235,4864,4866,5095,5095,5095,0,0,0,0,0,0,0,0,0,0,0,0,0,0,0,0,0,0,0,52,53,53,53,53,53,53,53,53,53,53,53,53,53,53,53,53,53,53,53,53,53,53,53,
53,53,53,53,53,53,53,53,53,53,53,53,53,53,53,53,53,184,86,0,0,0,0,0,0,0,0,0,0,2489,2490,2491,0,0,2629,2630,2631,0,0,0,0,0,0,0,0,0,0,0,0,0,0,5235,5004,5006,5095,5095,5095,0,0,0,0,0,0,0,0,0,0,0,0,0,0,0,0,0,0,0,84,183,53,53,53,53,53,53,53,53,53,53,53,53,53,53,53,53,53,53,53,53,53,53,
53,53,53,53,53,53,53,53,53,53,53,53,53,53,53,53,184,86,0,0,0,0,0,0,0,0,0,0,0,2629,2630,2631,0,0,2769,2770,2771,0,0,0,0,0,0,0,0,0,0,0,0,0,0,5235,5144,5146,5095,5095,5095,0,0,0,0,0,0,0,0,0,0,0,0,0,0,0,0,0,0,0,0,84,85,85,85,85,85,85,85,85,85,85,85,85,85,85,183,53,53,53,53,53,53,53,
53,53,53,53,53,53,53,53,53,53,53,53,53,53,53,53,54,0,0,0,0,0,0,0,0,0,0,0,0,2769,2770,2771,0,0,0,0,0,0,0,0,0,0,0,0,0,0,0,0,0,0,0,4587,5148,5147,4588,4589,0,0,0,0,0,0,0,0,0,0,0,0,0,2352,2353,2354,2355,0,0,0,0,0,0,0,0,0,0,0,0,0,0,0,0,0,0,0,84,85,183,53,53,53,53,53,
53,53,53,53,53,53,53,53,53,53,53,53,53,53,53,53,54,0,0,0,0,0,0,0,0,0,0,0,0,10625,10626,10627,10628,10629,10630,0,0,0,0,0,0,0,0,0,0,0,0,0,0,0,4587,5148,0,0,0,5147,4589,0,0,0,0,0,0,0,0,0,0,0,0,2492,2493,2494,2495,0,0,0,0,0,0,0,2310,2311,2312,0,0,0,0,0,0,0,0,0,0,0,84,85,183,53,53,53,
53,53,53,53,53,53,53,53,53,53,53,53,53,53,53,184,86,0,0,0,0,0,0,0,0,0,0,0,0,10765,10766,10767,10768,10769,10770,0,0,0,0,0,0,0,0,0,0,0,0,0,4587,4588,5148,0,0,0,0,0,5147,4589,0,0,0,0,0,0,0,0,0,0,0,2632,2633,2634,2635,0,0,0,0,0,0,0,2450,2451,2452,0,0,0,0,0,0,0,0,0,0,0,0,0,52,53,53,53,
53,53,53,53,53,53,53,53,53,53,53,53,53,53,53,54,0,0,0,0,0,0,0,0,0,0,0,0,0,10905,10906,10907,10908,10909,10910,0,0,0,0,0,0,22764,4588,4588,4588,4588,4588,4588,5148,0,0,0,0,0,0,0,0,5147,4588,4588,4588,4588,4588,4588,4588,4589,0,0,0,2772,2773,2774,2775,0,0,0,0,0,0,0,2590,2591,2592,0,0,0,0,0,0,0,0,0,0,0,0,0,84,183,53,53,
53,53,53,53,53,53,53,53,53,53,53,53,53,53,53,54,0,0,0,0,0,0,0,0,0,0,0,0,0,11045,11046,11047,11048,11049,11050,0,0,0,0,0,0,22764,0,0,0,0,0,0,0,0,0,5007,4868,4868,4868,4868,4868,4868,4868,5008,0,0,0,0,0,4729,0,0,0,2912,2913,2914,2915,0,0,0,0,0,0,0,0,0,0,911,912,0,0,0,0,0,0,0,0,0,0,0,0,52,53,53,
53,53,53,53,53,53,53,53,53,53,53,53,53,53,53,54,0,0,0,0,0,0,0,0,0,0,0,0,5794,11185,11186,11187,11188,11189,11190,0,0,0,0,0,22732,22672,0,14786,4868,4868,4868,4868,4868,4868,4868,4869,0,0,0,0,0,0,0,4867,5008,0,0,0,0,4729,0,0,0,0,0,0,0,0,0,0,0,0,0,0,0,0,0,847,848,0,0,0,0,0,0,0,0,0,0,0,0,52,53,53,
53,53,53,53,53,53,53,53,53,53,53,53,53,53,53,54,0,0,0,0,0,0,0,0,0,0,0,0,0,11325,11326,11327,11328,22733,22733,22733,22734,0,0,0,22764,4868,4868,4869,0,0,0,0,0,0,0,0,0,0,0,0,0,0,22191,22192,4867,5008,0,0,0,4729,0,0,0,0,0,0,0,0,0,0,0,0,0,0,0,0,0,0,0,0,0,0,0,0,0,0,0,0,0,0,0,52,53,53,
53,53,53,53,53,53,53,53,53,53,53,53,53,53,53,54,0,0,0,0,0,0,0,0,0,0,0,0,0,11465,11466,11467,11468,11469,11470,0,22671,22734,0,0,22764,0,0,0,0,0,0,0,0,0,0,0,0,0,0,0,0,0,0,0,0,4867,5008,0,0,5147,4588,4589,0,0,0,0,0,0,0,0,0,0,0,0,0,0,0,0,0,0,0,0,0,0,0,0,0,0,0,0,0,52,53,53,
53,53,53,53,53,53,53,53,53,53,53,53,53,53,53,54,0,0,0,0,0,0,0,0,0,0,0,0,0,11605,11606,11607,11608,11609,11610,0,0,22671,22733,22733,22672,0,0,0,0,0,0,0,0,0,0,0,0,0,0,0,0,0,0,0,0,0,4867,5008,0,0,0,5147,4588,4588,4588,4588,4588,4588,4588,4588,4588,4588,4588,4588,4588,4588,4589,0,0,0,0,0,0,0,0,0,0,0,0,0,0,52,53,53,
53,53,53,53,53,53,53,53,53,53,53,53,53,53,53,54,0,0,0,0,0,0,0,0,0,9095,0,0,6256,6256,6256,6256,6256,6256,6256,0,0,0,0,0,0,0,0,0,0,0,0,0,0,0,0,0,9096,0,0,0,0,0,0,0,0,0,0,4867,4868,4868,4868,4868,4868,4868,4868,5008,4161,4161,4161,4161,4161,4161,4161,4161,0,0,5147,4588,4589,0,0,0,0,0,0,0,0,0,0,0,0,52,53,53,
53,53,53,53,53,53,53,53,53,53,184,85,85,85,85,86,182,0,0,0,0,0,0,0,0,9235,0,0,6256,0,0,0,0,0,6256,6256,6256,6256,6256,0,0,0,0,0,0,0,0,0,0,0,0,0,9236,0,0,0,0,0,0,0,0,8809,8810,8811,8812,0,0,0,0,0,0,4867,4868,4868,4868,4868,4868,4868,4868,5008,0,0,0,0,5147,4588,4589,0,0,0,0,0,0,0,0,0,0,52,53,53,
53,53,53,53,53,53,53,184,85,85,86,0,0,0,0,0,0,0,0,0,0,0,0,0,0,0,0,0,6256,0,0,0,0,0,0,0,0,6256,6256,6256,6256,6256,6256,6256,6256,0,0,0,0,0,0,0,0,0,0,0,0,0,0,0,0,8949,8950,8951,8952,0,0,0,0,0,0,0,0,0,0,0,0,0,0,4867,5008,0,0,0,0,0,4729,0,0,0,0,0,0,0,0,0,0,52,53,53,
53,53,53,53,53,53,53,54,0,0,0,0,0,0,0,0,5652,0,0,0,0,0,0,0,9095,0,0,6256,6256,0,0,0,0,0,0,0,0,0,0,0,0,6256,6256,0,6256,0,0,0,0,0,0,0,0,0,0,0,0,0,8080,8081,8082,8083,8084,0,0,0,0,0,0,0,0,0,0,0,0,0,0,0,0,0,4727,0,0,0,0,0,5147,4589,0,0,2349,2350,2351,0,0,0,0,52,53,53,
53,53,53,53,53,53,53,54,0,0,0,0,0,0,0,0,0,0,0,0,0,0,0,0,9235,0,0,9742,6256,0,0,0,0,0,0,14652,0,0,0,0,0,6256,0,0,6256,7547,7548,7549,7552,7547,7548,7829,7550,7547,7548,7549,0,0,8220,8221,8222,8223,2110,2111,2112,2113,2114,2115,0,0,0,0,0,0,0,0,0,0,0,0,4867,5008,0,0,0,0,0,4729,0,0,2489,2490,2491,0,0,0,0,52,53,53,
53,53,53,53,53,53,53,54,0,0,0,0,0,0,0,0,0,0,0,0,0,0,0,0,0,0,0,6256,0,0,0,0,0,0,0,0,0,0,0,14796,0,6256,0,6256,6256,7687,7688,7689,7692,7687,7688,7969,7690,7687,7688,7689,0,0,8360,8361,8362,8363,8364,2251,2252,2253,2254,2255,0,0,0,636,0,0,0,6227,0,0,0,0,0,4867,4868,4868,4868,5008,0,4729,0,0,2629,2630,2631,0,0,0,0,52,53,53,
53,53,53,53,53,53,53,152,22,0,0,0,0,0,0,0,0,0,0,0,0,0,0,0,0,0,0,6256,0,0,0,0,0,0,0,0,0,0,0,0,0,6256,0,6256,6256,0,0,0,0,0,0,0,0,0,0,0,0,0,8500,8501,8502,8503,2390,2391,2392,2393,2394,2395,0,0,0,668,0,0,0,0,0,0,0,0,0,0,0,0,0,4727,0,4729,0,0,2769,2770,2771,0,0,0,0,52,53,53,
53,53,53,53,53,53,53,53,54,0,0,0,0,0,0,0,5652,0,0,0,0,0,0,0,0,0,6256,22639,0,0,0,0,0,0,0,0,0,0,0,0,0,6256,0,0,6256,0,0,0,0,0,0,9742,0,0,0,0,0,0,8640,8641,8642,8643,8644,0,0,0,0,0,0,0,0,700,0,0,0,0,0,0,0,0,0,0,0,0,0,4867,4868,4869,0,0,0,0,0,0,0,0,0,52,53,53,
53,53,53,53,53,53,53,53,54,0,0,0,0,0,0,0,0,0,0,0,0,0,0,0,0,0,22639,22798,0,0,0,0,0,6256,6256,6256,6256,6256,6256,6256,6256,6256,0,0,6256,0,0,0,0,0,0,0,0,0,0,0,0,0,0,0,0,0,0,0,0,0,0,0,0,0,0,732,0,0,0,0,0,508,509,510,0,0,0,0,0,0,0,0,0,0,0,0,0,0,0,0,0,52,53,53,
53,53,53,53,53,53,53,53,54,0,0,20,21,21,21,22,49,0,0,0,0,0,0,0,51,22639,0,0,0,0,0,0,0,6256,0,0,0,0,0,0,0,0,0,0,6256,0,0,0,0,0,0,0,0,0,0,0,0,0,0,0,0,0,0,0,0,0,0,0,0,0,0,0,0,0,0,0,0,0,0,0,0,0,0,6227,0,0,0,0,0,0,0,0,0,0,0,0,0,52,53,53,
53,53,53,53,53,53,53,53,54,0,20,151,53,53,53,54,0,0,0,0,0,0,0,0,51,0,0,0,0,0,0,0,0,6256,0,0,0,0,0,0,0,0,0,0,9742,0,0,0,0,0,22321,22322,22323,0,0,0,9095,0,0,0,24347,0,0,0,0,0,0,0,0,0,0,0,0,0,0,6409,0,0,0,0,0,0,0,0,0,0,0,0,0,0,0,0,0,0,0,0,0,52,53,53,
53,53,53,53,53,53,53,53,152,21,151,53,53,53,53,54,0,0,0,0,0,0,0,0,0,0,0,0,0,0,0,0,0,6256,6256,6256,6256,6256,6256,22156,22157,22158,6256,6256,22321,0,0,0,0,0,22353,22354,22355,0,0,0,9235,0,0,0,0,0,0,0,0,0,0,0,0,0,0,0,0,0,0,0,0,0,0,0,0,0,0,0,0,0,0,0,0,0,0,0,0,0,0,0,0,52,53,53,
53,53,53,53,53,53,53,53,53,53,53,53,53,53,53,54,0,0,0,0,0,0,0,0,0,0,0,0,0,0,0,0,0,0,0,0,0,6256,6256,22188,22189,22190,0,0,22451,0,22025,0,0,0,22385,22386,22387,0,0,0,0,0,0,0,0,0,0,0,0,0,0,0,0,0,0,0,0,0,0,0,0,0,0,0,0,0,0,0,0,0,0,0,0,0,0,0,0,0,0,0,0,52,53,53,
53,53,53,53,53,53,53,53,53,53,53,53,53,53,53,54,0,0,0,0,0,0,0,0,0,0,0,0,0,0,0,18,0,0,0,0,0,0,0,22220,22221,22222,0,0,22321,22322,22323,0,0,22129,22417,22418,22419,0,0,0,0,0,0,0,0,0,0,0,0,0,0,0,0,0,0,0,0,0,6227,0,0,0,0,0,0,0,0,0,0,0,0,0,0,0,0,0,0,0,0,0,0,52,53,53,
53,53,53,53,53,53,53,53,53,53,53,53,53,53,53,54,0,0,0,0,0,0,0,0,0,0,0,0,0,0,0,4587,4588,4588,4589,0,0,0,0,22252,22253,22254,22454,0,22353,0,22355,22377,22378,22158,0,22321,0,0,0,0,0,0,0,0,0,0,0,0,0,0,0,0,0,0,0,0,0,0,0,0,0,0,0,0,0,0,0,0,0,0,0,0,0,0,0,0,0,0,0,0,0,52,53,53,
53,53,53,53,53,53,53,53,53,53,53,53,53,53,53,54,0,0,0,0,0,0,0,0,0,0,0,0,0,4587,4588,5148,0,0,5147,4588,4588,4589,23854,0,0,0,22156,0,22158,0,22129,22130,22131,22190,0,22353,0,22036,0,0,0,0,0,0,508,509,510,0,0,0,0,0,0,0,0,0,0,0,0,0,0,0,0,0,0,0,0,0,0,0,0,0,0,0,0,0,0,0,0,0,0,52,53,53,
53,53,53,53,53,53,53,53,53,53,53,53,53,53,53,54,0,0,0,0,0,0,0,0,0,0,0,0,0,4727,0,0,0,0,0,0,0,5147,4589,0,0,0,22188,0,22036,0,22038,22069,22070,22129,0,22038,22132,22133,22134,0,0,0,0,0,0,0,0,0,0,0,0,0,0,0,0,0,0,0,0,0,0,0,0,0,0,0,0,0,0,0,0,0,0,0,0,0,0,0,0,0,20,151,53,53,
53,53,53,53,53,53,53,53,53,53,53,53,53,53,53,152,22,0,0,0,0,0,0,0,0,0,0,0,0,4727,0,6235,6236,0,0,0,0,0,4729,0,5513,5514,22220,0,22068,0,22070,22101,22102,22161,0,22070,22164,22165,22166,0,0,0,0,0,0,0,0,0,0,0,0,0,0,2349,2350,2351,0,0,0,0,0,2310,2311,2312,0,0,0,0,0,0,0,0,0,0,0,0,0,0,0,0,52,53,53,53,
53,53,53,53,53,53,53,53,53,53,53,53,53,53,53,53,54,0,0,0,0,0,0,0,0,0,0,0,181,5148,4023,6375,6376,0,0,0,0,0,5147,4588,4589,0,5513,5513,5514,0,0,0,0,22100,0,22449,22450,22451,0,0,0,0,0,0,0,0,0,0,0,0,0,0,0,2489,2490,2491,0,0,0,0,0,2450,2451,2452,0,0,0,0,0,0,0,0,0,0,0,0,0,0,0,0,52,53,53,53,
53,53,53,53,53,53,53,53,53,53,53,53,53,53,53,53,54,0,0,0,0,0,0,0,0,0,0,5654,0,0,4023,4023,0,0,0,0,0,0,0,0,5147,4588,4588,4589,6072,0,0,0,0,0,0,22481,22482,22483,0,0,0,0,0,0,0,0,0,0,0,0,0,0,0,2629,2630,2631,0,0,0,0,0,2590,2591,2592,0,0,0,0,0,0,0,0,0,0,0,0,0,0,0,20,151,53,53,53,
53,53,53,53,53,53,53,53,53,53,53,53,53,53,53,53,54,0,0,0,0,0,0,0,0,0,0,0,0,0,0,4023,4023,0,0,0,0,0,0,0,0,0,0,5147,4589,0,0,5514,0,0,0,22513,22514,22515,0,0,0,0,0,0,0,0,6227,0,0,0,0,0,0,2769,2770,2771,0,0,0,0,0,0,0,0,0,0,0,0,0,0,0,0,0,0,0,0,0,0,20,151,53,53,53,53,
53,53,53,53,53,53,53,53,53,53,53,53,53,53,53,184,86,0,0,0,0,0,0,0,0,0,0,0,0,0,0,0,4023,6516,0,0,0,0,0,0,0,0,6516,0,5147,4588,4589,6072,5514,0,0,22545,22546,22547,0,0,0,0,0,0,0,0,0,0,0,0,0,0,0,0,0,0,0,0,0,0,0,0,0,0,0,0,0,0,0,0,0,0,0,0,0,0,0,20,151,53,53,53,53,53,
53,53,53,53,53,53,53,53,53,53,53,53,53,53,53,54,0,0,0,0,0,0,0,0,0,0,0,0,0,0,0,0,0,4023,4023,0,0,0,0,0,0,0,0,0,0,0,5147,4589,0,0,0,0,0,0,0,0,0,0,0,0,0,0,0,0,0,0,0,0,0,0,0,0,0,0,0,0,0,0,0,0,0,0,0,0,0,0,0,0,0,0,0,20,21,151,53,53,53,53,53,53,
53,53,53,53,53,53,53,53,53,53,53,53,53,184,85,86,0,0,0,0,0,0,0,0,0,0,0,0,0,0,0,0,0,0,4023,4023,0,5007,4868,4868,5008,0,0,0,0,0,0,4729,0,0,0,0,0,0,0,0,0,0,0,0,0,0,0,0,0,0,0,0,0,0,0,0,0,0,0,0,0,0,0,0,0,0,0,0,0,0,0,0,0,20,21,151,53,53,53,53,53,53,53,53,
53,53,53,53,53,53,53,53,53,53,53,184,85,86,0,0,0,0,0,0,0,5024,4587,4588,5792,5933,0,0,0,0,0,0,0,0,0,4023,5007,4869,4023,0,4867,5008,0,0,0,0,5007,4869,0,0,0,0,0,0,0,0,0,0,0,0,0,0,0,0,0,0,0,0,0,0,0,0,0,0,0,0,0,0,0,0,0,0,0,0,20,21,21,21,21,151,53,53,53,53,53,53,53,53,53,53,
53,53,53,53,53,53,53,53,53,53,53,54,0,0,0,0,0,0,0,0,0,4587,5148,0,0,0,0,0,0,0,0,0,0,0,0,5007,4869,5444,5444,5444,5444,4867,4868,4868,4868,4868,4869,0,0,0,0,0,0,0,0,0,0,0,0,0,0,0,0,0,0,0,0,0,0,0,0,0,0,0,0,0,0,0,20,21,21,21,21,21,151,53,53,53,53,53,53,53,53,53,53,53,53,53,53,53,
53,53,53,53,53,53,53,53,53,53,53,54,0,0,0,0,0,0,0,0,0,4727,0,0,0,0,0,0,0,0,0,0,0,0,0,5513,0,0,0,0,0,636,0,0,0,0,0,0,0,0,0,0,0,0,0,0,0,0,0,0,0,0,0,0,0,0,0,0,0,0,0,0,0,0,0,20,21,21,151,53,53,53,53,53,53,53,53,53,53,53,53,53,53,53,53,53,53,53,53,53,
53,53,53,53,53,53,53,53,53,53,53,54,0,0,0,0,0,0,0,0,4587,5148,0,0,6516,0,0,0,0,0,0,0,0,0,0,0,0,0,0,0,0,700,0,0,0,0,0,0,0,0,0,0,0,0,0,0,0,0,0,0,0,0,0,0,0,0,0,0,0,0,0,0,0,0,20,151,53,53,53,53,53,53,53,53,53,53,53,53,53,53,53,53,53,53,53,53,53,53,53,53,
53,53,53,53,53,53,53,53,53,53,53,54,0,0,0,0,0,0,0,4587,5148,0,0,0,0,0,5007,5008,0,5933,0,0,0,0,0,0,0,0,0,0,0,0,0,0,0,0,0,0,0,0,0,0,0,476,477,478,0,0,0,0,0,0,0,0,0,0,0,0,0,0,0,0,0,20,151,53,53,53,53,53,53,53,53,53,53,53,53,53,53,53,53,53,53,53,53,53,53,53,53,53,
53,53,53,53,53,53,53,53,53,53,53,54,0,0,0,0,0,0,0,4727,0,0,0,0,5007,4868,4869,4727,0,5792,0,0,0,0,0,0,0,0,0,0,0,0,0,0,0,0,0,0,0,0,0,0,0,0,0,0,0,0,0,0,0,0,0,0,0,0,0,0,0,0,0,0,0,52,53,53,53,53,53,53,53,53,53,53,53,53,53,53,53,53,53,53,53,53,53,53,53,53,53,53,
53,53,53,53,53,53,53,53,53,53,53,54,0,0,0,0,0,0,0,4867,4868,4868,4868,4868,4869,0,0,4867,4868,4869,0,0,0,0,0,0,0,0,0,911,912,0,0,0,0,0,0,0,0,0,0,0,0,0,0,0,0,0,0,0,0,0,0,0,0,0,0,0,0,0,0,0,0,52,53,53,53,53,53,53,53,53,53,53,53,53,53,53,53,53,53,53,53,53,53,53,53,53,53,53,
53,53,53,53,53,53,53,53,53,53,53,54,0,0,0,0,0,0,0,0,0,0,0,0,0,0,0,0,0,0,0,0,0,0,0,0,0,0,0,847,848,0,0,0,0,0,0,0,0,0,0,0,0,0,0,0,0,0,0,0,0,0,0,0,784,0,0,0,0,0,0,0,0,52,53,53,53,53,53,53,53,53,53,53,53,53,53,53,53,53,53,53,53,53,53,53,53,53,53,53,
53,53,53,53,53,53,53,53,53,53,53,54,0,0,0,0,0,0,0,0,0,0,0,0,0,0,0,0,0,0,0,0,0,0,0,0,0,0,0,0,0,0,0,0,0,0,0,0,0,0,0,0,0,0,0,0,0,0,0,0,0,0,0,0,0,0,0,0,0,0,0,0,0,52,53,53,53,53,53,53,53,53,53,53,53,53,53,53,53,53,53,53,53,53,53,53,53,53,53,53,
53,53,53,53,53,53,53,53,53,53,53,152,21,22,0,0,0,0,0,0,0,0,0,0,0,0,0,0,0,0,0,0,0,0,0,0,0,0,0,0,0,0,0,0,0,0,0,0,0,0,0,0,0,0,0,0,0,0,0,0,0,0,0,0,0,0,0,0,0,0,0,0,0,52,53,53,53,53,53,53,53,53,53,53,53,53,53,53,53,53,53,53,53,53,53,53,53,53,53,53,
53,53,53,53,53,53,53,53,53,53,53,53,53,152,21,21,21,21,21,21,21,21,21,22,0,0,0,0,0,0,0,0,0,0,0,0,0,0,0,0,0,0,0,0,0,0,0,0,0,0,0,0,0,0,0,0,0,0,0,0,0,0,0,0,0,0,0,0,0,0,0,0,0,52,53,53,53,53,53,53,53,53,53,53,53,53,53,53,53,53,53,53,53,53,53,53,53,53,53,53,
53,53,53,53,53,53,53,53,53,53,53,53,53,53,53,53,53,53,53,53,53,53,53,152,21,22,0,0,0,0,0,0,0,0,0,0,0,0,0,0,0,0,0,0,0,0,0,0,0,0,0,0,0,0,0,0,0,0,0,0,0,0,0,0,0,0,0,0,0,0,0,0,20,151,53,53,53,53,53,53,53,53,53,53,53,53,53,53,53,53,53,53,53,53,53,53,53,53,53,53,
53,53,53,53,53,53,53,53,53,53,53,53,53,53,53,53,53,53,53,53,53,53,53,53,53,54,0,0,0,0,0,0,0,0,0,0,0,0,0,0,0,0,0,0,0,0,0,0,0,0,0,0,0,0,0,0,0,0,0,0,0,0,0,0,0,0,0,0,0,0,0,0,52,53,53,53,53,53,53,53,53,53,53,53,53,53,53,53,53,53,53,53,53,53,53,53,53,53,53,53,
53,53,53,53,53,53,53,53,53,53,53,53,53,53,53,53,53,53,53,53,53,53,53,53,53,152,21,21,21,21,21,21,21,21,21,21,22,0,0,0,0,0,0,0,0,0,0,0,0,0,0,0,0,0,0,0,0,0,0,0,0,0,0,0,0,0,0,0,0,0,0,0,52,53,53,53,53,53,53,53,53,53,53,53,53,53,53,53,53,53,53,53,53,53,53,53,53,53,53,53,
53,53,53,53,53,53,53,53,53,53,53,53,53,53,53,53,53,53,53,53,53,53,53,53,53,53,53,53,53,53,53,53,53,53,53,53,152,21,21,21,22,0,0,0,0,0,0,0,0,0,0,0,0,0,0,0,0,0,0,0,0,0,0,0,0,0,0,0,20,21,21,21,151,53,53,53,53,53,53,53,53,53,53,53,53,53,53,53,53,53,53,53,53,53,53,53,53,53,53,53,
53,53,53,53,53,53,53,53,53,53,53,53,53,53,53,53,53,53,53,53,53,53,53,53,53,53,53,53,53,53,53,53,53,53,53,53,53,53,53,53,152,21,21,21,21,21,21,21,21,21,21,21,21,21,21,21,21,21,21,21,21,21,21,21,21,21,21,21,151,53,53,53,53,53,53,53,53,53,53,53,53,53,53,53,53,53,53,53,53,53,53,53,53,53,53,53,53,53,53,53,
53,53,53,53,53,53,53,53,53,53,53,53,53,53,53,53,53,53,53,53,53,53,53,53,53,53,53,53,53,53,53,53,53,53,53,53,53,53,53,53,53,53,53,53,53,53,53,53,53,53,53,53,53,53,53,53,53,53,53,53,53,53,53,53,53,53,53,53,53,53,53,53,53,53,53,53,53,53,53,53,53,53,53,53,53,53,53,53,53,53,53,53,53,53,53,53,53,53,53,53,
53,53,53,53,53,53,53,53,53,53,53,53,53,53,53,53,53,53,53,53,53,53,53,53,53,53,53,53,53,53,53,53,53,53,53,53,53,53,53,53,53,53,53,53,53,53,53,53,53,53,53,53,53,53,53,53,53,53,53,53,53,53,53,53,53,53,53,53,53,53,53,53,53,53,53,53,53,53,53,53,53,53,53,53,53,53,53,53,53,53,53,53,53,53,53,53,53,53,53,53,
53,53,53,53,53,53,53,53,53,53,53,53,53,53,53,53,53,53,53,53,53,53,53,53,53,53,53,53,53,53,53,53,53,53,53,53,53,53,53,53,53,53,53,53,53,53,53,53,53,53,53,53,53,53,53,53,53,53,53,53,53,53,53,53,53,53,53,53,53,53,53,53,53,53,53,53,53,53,53,53,53,53,53,53,53,53,53,53,53,53,53,53,53,53,53,53,53,53,53,53
</data>
 </layer>
 <layer id="4" name="Layer 4" width="100" height="75">
  <data encoding="csv">
0,0,0,0,0,0,0,0,0,0,0,0,0,0,0,0,0,0,0,0,0,0,0,0,0,0,0,0,0,0,0,0,0,0,0,0,0,0,0,0,0,0,0,0,0,0,0,0,0,0,0,0,6507,6508,0,0,0,0,0,0,0,0,0,0,0,0,0,0,0,0,0,0,0,0,0,0,0,0,0,0,0,0,0,0,0,0,0,0,0,0,0,0,0,0,0,0,0,0,0,0,
0,0,0,0,0,0,0,0,0,0,0,0,0,0,0,0,0,0,0,0,0,0,0,0,0,0,0,0,0,0,0,0,0,0,0,0,0,0,0,0,0,0,0,0,0,0,0,0,0,0,0,0,6647,6648,0,0,0,0,0,0,0,0,0,0,0,0,0,0,0,0,0,0,0,0,0,0,0,0,0,0,0,0,0,0,0,0,0,0,0,0,0,0,0,0,0,0,0,0,0,0,
0,0,0,0,0,0,0,0,0,0,0,0,0,0,0,0,0,0,0,0,0,0,0,0,0,0,0,0,0,0,0,0,0,0,0,0,0,0,0,0,0,0,0,6507,6508,0,0,0,0,0,0,0,0,0,0,0,0,0,0,0,0,0,6507,6508,0,0,0,0,0,0,0,0,0,0,0,0,0,0,0,0,0,0,0,0,0,0,0,0,0,0,0,0,0,0,0,0,0,0,0,0,
0,0,0,0,0,0,0,0,0,0,0,0,0,0,0,0,0,0,0,0,0,0,0,0,0,0,0,0,0,0,0,0,0,0,0,0,0,0,0,0,0,0,0,6647,6648,0,0,0,0,0,0,0,0,0,0,0,0,0,0,0,0,0,6647,6648,0,0,0,0,0,0,0,0,0,0,0,0,0,0,0,0,0,0,0,0,0,0,0,0,0,0,0,0,0,0,0,0,0,0,0,0,
0,0,0,0,0,0,0,0,0,0,0,0,0,0,0,0,0,0,0,0,0,0,0,0,0,0,0,0,0,0,0,0,0,0,0,0,0,0,0,0,0,0,0,0,0,0,0,0,0,0,0,0,0,0,0,0,0,0,0,0,0,0,0,0,0,0,0,0,0,0,0,0,0,0,0,0,0,0,0,0,0,0,0,0,0,0,0,0,0,0,0,0,0,0,0,0,0,0,0,0,
0,0,0,0,0,0,0,0,0,0,0,0,0,0,0,0,0,0,0,0,0,0,0,0,0,0,0,0,0,0,0,0,0,0,0,0,0,0,0,0,0,0,0,0,0,0,0,0,0,0,0,0,0,0,0,0,0,0,0,0,0,0,0,0,0,0,0,0,0,0,0,0,0,0,0,0,0,0,0,0,0,0,0,0,0,0,0,0,0,0,0,0,0,0,0,0,0,0,0,0,
0,0,0,0,0,0,0,0,0,0,0,0,0,0,0,0,0,0,0,0,0,0,0,0,0,0,0,0,0,0,0,0,0,0,0,0,0,0,0,0,0,0,0,0,0,0,0,0,0,0,0,0,0,0,0,0,0,0,0,0,0,0,0,0,0,0,0,0,0,0,0,0,0,0,0,0,0,0,0,0,0,0,0,0,0,0,0,0,0,0,0,0,0,0,0,0,0,0,0,0,
0,0,0,0,0,0,0,0,0,0,0,0,0,0,0,0,0,0,0,0,0,0,0,0,0,0,0,0,0,0,0,0,0,0,0,0,0,0,0,0,0,0,0,0,0,0,0,0,0,0,4111,0,0,0,0,0,3983,0,0,0,0,0,0,0,0,0,0,0,0,0,0,0,0,0,0,0,0,0,0,0,0,0,0,0,0,0,0,0,0,0,0,0,0,0,0,0,0,0,0,0,
0,0,0,0,0,0,0,0,0,0,0,0,0,0,0,0,0,0,0,0,0,0,0,0,0,0,0,0,0,0,0,0,0,0,0,0,0,0,0,0,4111,0,0,0,0,0,0,0,0,0,0,0,0,0,0,0,0,0,0,0,0,0,0,0,0,0,0,0,0,0,0,0,0,0,0,0,0,0,0,0,0,0,0,0,0,0,0,0,0,0,0,0,0,0,0,0,0,0,0,0,
0,0,0,0,0,0,0,0,0,0,0,0,0,0,0,0,0,0,0,0,0,0,0,0,0,0,0,0,0,0,0,0,0,0,0,0,0,0,0,0,0,0,0,0,0,0,0,0,0,0,0,0,0,0,0,0,0,0,0,0,0,0,0,0,0,0,0,0,0,0,0,0,0,0,0,0,0,0,0,0,0,0,0,0,0,0,0,0,0,0,0,0,0,0,0,0,0,0,0,0,
0,0,0,0,0,0,0,0,0,0,0,0,0,0,0,0,0,0,0,0,0,0,0,0,0,0,0,0,0,0,0,0,0,0,0,0,0,0,0,0,0,0,0,0,0,4111,0,0,0,0,0,0,0,0,0,0,0,0,0,0,0,0,0,0,0,0,0,0,0,0,0,0,0,0,0,0,0,0,0,0,0,0,0,0,0,0,0,0,0,0,0,0,0,0,0,0,0,0,0,0,
0,0,0,0,0,0,0,0,0,0,0,0,0,0,0,0,0,0,0,0,0,0,0,0,0,0,0,0,0,0,0,0,0,0,0,0,0,0,0,0,0,0,0,0,0,0,0,0,0,0,0,0,0,0,0,0,0,0,0,0,0,0,0,0,0,0,0,0,0,0,0,0,0,0,0,0,0,0,0,0,0,0,0,0,0,0,0,0,0,0,0,0,0,0,0,0,0,0,0,0,
0,0,0,0,0,0,0,0,0,0,0,0,0,0,0,0,0,0,0,0,0,0,0,0,0,0,0,0,0,0,0,0,0,0,0,0,0,0,0,0,0,0,0,0,0,0,0,0,0,0,0,0,0,0,0,0,0,0,0,0,0,0,0,0,0,0,0,0,0,0,0,0,0,0,0,0,0,0,0,0,0,0,0,0,0,0,0,0,0,0,0,0,0,0,0,0,0,0,0,0,
0,0,0,0,0,0,0,0,0,0,0,0,0,0,0,0,0,0,0,0,0,0,0,0,0,0,0,0,6259,6260,0,0,4111,0,0,0,0,0,0,0,0,0,0,0,0,0,0,0,0,0,0,0,0,0,0,0,0,0,0,0,0,0,0,0,0,0,0,0,0,0,0,0,0,0,0,0,0,0,0,0,0,0,0,0,0,0,0,0,0,0,0,0,0,0,0,0,0,0,0,0,
0,0,0,0,0,0,0,0,0,0,0,0,0,0,0,0,0,0,0,0,0,0,0,0,0,0,0,0,6399,6400,0,0,0,0,0,0,0,0,0,0,0,0,0,0,0,0,0,0,0,0,0,0,0,0,0,0,0,0,0,0,0,0,0,0,0,0,0,0,0,0,0,0,0,0,0,0,0,0,0,6507,6508,0,0,0,0,0,0,0,0,0,0,0,0,0,0,0,0,0,0,0,
0,0,0,0,0,0,0,0,0,0,0,0,0,0,0,0,0,0,0,0,0,0,0,0,0,0,0,0,0,0,0,0,0,0,0,0,0,0,0,0,0,0,0,0,0,0,0,0,0,0,0,0,0,0,0,0,0,0,0,0,0,0,0,0,0,0,0,0,0,0,0,0,0,4111,0,0,0,0,0,6647,6648,0,0,0,0,0,0,0,0,0,0,0,0,0,0,0,0,0,0,0,
0,0,0,0,0,0,0,0,0,0,0,0,0,0,0,0,0,0,0,0,0,0,0,0,0,0,0,0,0,0,0,0,0,0,0,0,0,0,0,0,0,0,0,0,0,0,0,0,0,0,0,0,0,0,0,0,0,0,0,0,0,0,0,0,0,0,0,0,0,0,0,0,0,0,0,0,0,0,0,0,0,0,0,0,0,0,0,0,0,0,0,0,0,0,0,0,0,0,0,0,
0,0,0,0,0,0,0,0,0,0,0,0,0,0,0,0,0,0,0,0,0,0,0,0,0,0,0,0,0,0,0,0,0,0,0,0,0,0,0,0,0,0,0,0,0,0,0,0,0,0,0,0,0,0,0,0,0,0,0,24988,0,0,0,0,0,0,0,0,0,0,0,0,0,0,0,0,0,0,0,0,0,0,0,0,0,0,0,0,0,0,0,0,0,0,0,0,0,0,0,0,
0,0,0,0,0,0,0,0,0,0,0,0,0,0,0,0,0,0,0,0,0,0,0,0,0,0,0,0,0,0,0,4111,0,0,0,0,0,0,0,0,0,0,0,0,0,0,0,0,0,0,0,0,0,0,0,0,0,0,0,0,0,0,0,0,0,0,0,0,0,0,0,0,0,0,0,0,0,0,0,0,0,0,0,0,0,0,0,0,0,0,0,0,0,0,0,0,0,0,0,0,
0,0,0,0,0,0,0,0,0,0,0,0,0,0,0,0,0,0,0,0,0,0,0,4111,0,0,0,0,0,0,0,0,0,0,0,0,0,0,0,0,0,0,0,0,0,0,0,0,0,0,0,0,0,0,0,0,0,0,0,0,0,0,0,0,0,0,0,0,0,0,0,0,0,0,0,0,0,0,0,0,0,0,0,0,6259,6260,0,0,0,6507,6508,0,0,0,0,0,0,0,0,0,
0,0,0,0,0,0,0,0,0,0,6259,6260,0,0,0,0,0,0,0,0,0,0,0,0,0,0,0,0,0,0,0,0,0,4111,0,0,0,0,0,0,0,0,0,0,0,0,0,0,0,0,0,0,0,0,0,0,0,0,0,0,0,0,0,0,0,0,0,0,0,0,0,0,0,0,0,0,0,0,0,0,0,0,0,0,6399,6400,0,0,0,6647,6648,0,0,0,0,0,0,0,0,0,
0,0,0,0,0,0,0,0,0,0,6399,6400,0,0,0,0,0,0,0,0,0,0,0,0,0,0,0,0,0,0,0,0,3829,0,0,0,0,0,0,0,0,0,0,0,0,0,0,0,0,0,0,0,0,0,0,0,0,0,0,0,0,0,0,0,0,0,0,0,0,0,0,0,0,0,0,0,0,0,0,0,0,0,0,0,0,0,0,0,0,0,0,0,0,0,0,0,0,0,0,0,
0,0,0,0,0,0,6507,6508,0,0,0,0,0,0,0,0,0,0,0,0,0,0,0,0,0,0,0,0,0,0,0,0,0,0,0,0,0,3829,0,0,0,0,0,0,0,0,0,0,0,0,0,0,0,0,0,0,0,0,0,0,0,0,0,0,0,0,0,0,0,0,0,0,0,0,0,0,0,0,0,0,0,0,0,0,0,0,0,0,0,0,0,0,0,0,0,0,0,0,0,0,
0,0,0,0,0,0,6647,6648,0,0,0,0,0,0,0,0,0,0,0,0,0,0,0,0,0,0,0,0,0,0,0,0,0,0,8166,0,0,0,0,0,0,0,0,0,0,0,0,0,0,0,0,0,0,0,0,0,0,0,0,0,0,0,0,25720,0,25718,0,0,0,0,0,0,0,0,0,0,0,0,0,0,0,0,0,0,0,0,0,0,0,0,0,0,0,0,0,0,0,0,0,0,
0,0,0,0,0,6507,6508,0,6507,6508,0,6507,6508,0,0,0,0,0,0,0,0,0,0,0,0,0,0,0,0,0,0,0,0,0,8306,0,0,0,0,0,0,0,0,0,0,0,0,0,0,0,0,0,0,0,0,0,0,0,0,0,0,0,25744,0,0,0,0,0,0,0,0,0,0,4111,0,0,3976,0,0,0,0,0,0,0,0,0,0,0,0,0,0,0,0,0,0,0,0,0,0,0,
0,0,0,0,0,6647,6648,0,6647,6648,0,6647,6648,0,0,0,0,0,0,0,0,0,0,0,0,0,0,0,0,0,0,0,0,0,8306,0,0,0,0,0,0,0,0,0,0,0,0,0,0,0,0,0,0,0,0,0,0,0,0,25720,0,25718,0,0,25746,0,0,0,0,0,0,0,0,0,0,0,0,0,0,0,0,0,0,0,0,0,0,0,0,0,0,0,0,0,0,0,0,0,0,0,
0,0,0,0,0,6507,6508,0,0,6507,6508,0,0,0,0,0,0,0,0,0,0,0,0,0,0,0,0,0,0,0,0,0,0,0,0,0,0,0,0,0,0,4587,14505,14506,14507,14508,14509,14510,14499,14500,14501,14502,14503,14504,0,0,0,0,25744,0,0,0,25720,25720,4358,25718,4358,0,0,0,0,0,0,0,0,0,0,0,3983,0,0,0,0,0,0,0,0,0,0,0,0,0,0,0,0,0,0,0,0,0,
0,0,0,6507,6508,6647,6648,0,0,6647,6648,0,0,0,0,0,0,0,0,0,0,0,0,0,0,0,0,0,0,0,0,0,0,0,0,0,0,0,0,0,0,4727,14645,14646,14647,14648,14649,14650,14639,14640,14641,14642,14643,14644,0,0,0,0,0,0,25746,0,25744,25033,0,0,0,0,0,0,0,0,0,0,0,0,0,0,0,0,0,0,0,0,0,0,0,0,0,0,0,0,0,0,0,0,0,0,0,0,
0,0,0,6647,6648,0,0,0,0,0,0,0,0,0,0,0,0,0,0,4111,0,0,0,0,0,0,0,2718,2719,0,0,0,0,0,0,0,0,0,0,0,4587,5148,14785,24777,14787,14788,14789,14790,14779,14780,14781,14782,14783,14784,0,0,0,0,25720,0,4358,0,4358,0,25746,4358,0,0,0,0,0,0,0,0,0,0,0,0,0,0,0,0,0,0,0,0,0,0,0,0,0,0,0,0,0,0,0,0,0,0,
0,6507,6508,0,0,0,0,0,0,0,0,0,0,0,0,0,0,0,0,0,0,0,0,0,0,0,0,2858,2859,0,0,0,11328,11329,11330,0,0,0,0,0,4867,0,14925,14926,14927,14928,14929,14930,14919,14920,14921,14922,14923,14924,0,0,0,0,0,4358,0,0,25720,4358,4358,0,4358,0,0,0,0,0,0,0,0,0,0,0,0,0,0,0,0,0,0,0,0,0,0,0,0,0,0,0,0,0,0,0,0,0,
0,6647,6648,0,6507,6508,0,0,25720,0,25718,0,0,0,0,0,0,0,0,0,0,0,0,0,0,0,0,2998,2999,0,0,0,0,0,0,0,0,0,0,0,0,0,15065,15066,15067,15068,15069,15070,15059,15060,15061,15062,15063,15064,0,0,0,0,0,0,0,4358,0,4358,0,0,0,0,0,0,0,0,0,0,0,0,0,0,0,0,0,0,0,0,0,0,0,0,0,0,0,0,0,0,0,0,0,0,0,0,
0,0,0,0,6647,6648,0,25744,0,0,0,0,0,0,0,0,0,0,0,0,0,0,0,0,0,0,0,0,0,0,0,0,0,0,0,0,0,0,0,0,0,0,15205,15206,15207,15208,15209,15210,15199,15200,15201,15202,15203,15204,0,0,0,0,0,4358,0,0,0,0,0,4358,0,0,0,0,0,0,0,0,0,0,0,0,0,0,0,0,0,0,0,0,0,0,0,0,0,0,0,0,0,0,0,0,0,0,
9239,9240,9241,9242,9243,9244,25033,0,0,25746,0,0,0,0,0,0,0,0,0,0,0,0,0,0,0,0,0,0,0,0,0,0,0,0,0,0,0,0,0,0,0,0,15345,15346,15347,15348,15349,15350,15339,15340,15341,15342,15343,15344,0,0,0,0,0,0,0,0,0,4358,0,0,0,0,0,0,0,0,0,0,0,0,0,0,0,0,0,0,0,0,0,0,0,0,0,0,0,0,0,0,0,0,0,0,0,0,
9379,9380,9381,9382,9383,9384,0,25720,0,4358,0,4358,0,0,0,0,0,0,0,0,0,0,0,0,0,0,0,0,0,0,0,0,0,0,0,0,0,0,0,0,0,0,15485,15486,15487,15488,15489,15490,15479,15480,15481,15482,15483,15484,0,0,0,0,0,0,0,0,0,0,0,0,0,0,0,0,3829,0,0,0,0,0,0,0,0,0,0,0,0,0,0,0,0,0,0,0,0,0,0,0,0,0,0,0,0,0,
9519,9520,9521,9522,9523,9524,0,0,4358,0,0,0,0,0,0,0,0,0,0,0,0,0,0,0,0,0,0,9462,0,0,0,0,0,0,0,0,0,0,0,0,0,0,15625,15626,15627,15628,15629,15630,15619,15620,15621,15622,15623,15624,0,0,0,0,0,0,0,0,0,0,0,0,0,0,0,0,0,0,0,0,0,0,0,0,0,0,0,0,0,0,0,0,0,0,0,0,0,0,0,0,0,0,0,0,0,0,
0,0,8900,8901,8902,8902,8902,8902,0,0,4358,0,0,0,0,0,6503,6504,0,0,0,0,6505,6506,0,0,0,9602,0,0,0,0,0,0,14511,14512,14513,14514,14515,14516,14517,14518,14519,0,0,0,0,0,0,0,0,0,0,0,0,0,0,0,0,0,0,0,0,0,0,0,0,0,0,0,0,0,0,0,0,0,0,0,0,0,0,0,0,0,0,0,0,0,0,0,0,0,0,0,0,0,0,0,0,0,
0,0,9040,9041,9042,9042,9042,9042,4358,0,0,0,0,0,0,0,6643,6644,0,0,0,0,6645,6646,0,0,0,0,0,0,0,0,0,0,14651,24322,14653,14654,14655,14656,14657,14658,14659,0,0,0,0,0,0,0,0,0,0,0,0,0,0,0,23350,0,0,23371,8224,0,0,0,0,0,0,0,0,0,0,0,0,0,0,0,0,0,0,0,0,0,0,0,0,0,0,0,0,0,0,0,0,0,0,0,0,0,
0,0,9180,9181,9182,9182,9182,9182,0,0,0,0,0,0,0,0,6783,6784,0,0,0,0,6785,6786,0,0,0,0,0,0,0,0,0,0,14791,14792,14793,14794,14795,24344,14797,14798,14799,0,0,0,0,0,0,0,0,9463,9464,0,0,0,0,0,0,0,0,8080,8081,8082,8083,8084,0,0,0,0,0,0,0,0,0,0,0,0,0,0,0,0,0,0,0,0,0,0,0,0,0,0,0,0,0,0,0,0,0,0,
0,0,8602,0,8602,0,0,0,0,0,0,0,0,0,0,0,6923,6924,0,0,0,0,6925,6926,0,0,0,0,0,0,0,0,0,0,14931,14932,14933,14934,14935,14936,14937,14938,14939,0,0,0,0,0,0,0,0,9603,9604,0,0,0,0,1966,1967,1968,1969,8220,8221,8222,8223,8224,0,0,0,0,0,0,0,0,0,0,0,0,0,0,0,0,0,0,0,0,0,0,0,0,0,0,0,0,0,0,0,0,0,0,
0,0,0,0,0,0,0,0,0,0,0,0,0,0,0,0,0,0,0,0,0,0,0,0,0,0,0,0,0,0,0,0,0,0,15071,15072,15073,15074,15075,15076,15077,15078,15079,0,0,0,0,0,0,0,0,0,0,0,0,0,0,2106,2107,2108,2109,8360,8361,8362,8363,8364,0,0,0,0,0,0,0,0,0,0,0,0,0,0,0,0,0,0,0,0,0,0,0,0,0,0,0,0,0,0,0,0,0,0,
0,0,0,0,0,0,0,0,0,0,0,0,0,0,0,0,0,0,0,0,0,0,0,0,0,0,0,0,0,0,0,0,0,0,15211,15212,15213,15214,15215,15216,15217,15218,15219,9465,9466,0,0,0,0,0,0,0,0,0,0,0,0,2246,2247,2248,2249,8500,8501,8502,8503,8504,0,0,0,0,0,0,0,0,0,0,0,0,0,0,0,0,0,0,0,0,0,0,0,0,0,0,0,0,0,0,0,0,0,0,
0,0,0,0,0,0,0,0,0,0,0,0,0,0,0,0,0,0,0,0,0,0,0,0,0,0,0,0,0,0,0,0,0,0,15351,15352,15353,15354,15355,15356,15357,15358,15359,9605,9606,0,0,0,0,0,0,0,0,0,0,0,0,2386,2387,2388,2389,8640,8641,8642,8643,8644,0,0,0,0,0,0,0,0,0,0,0,0,0,0,0,0,0,0,0,0,0,0,0,0,0,0,0,0,0,0,0,0,0,0,
0,0,0,0,0,0,0,0,0,0,0,0,0,0,0,0,0,0,0,0,0,0,0,0,0,0,0,0,0,0,0,0,0,0,15491,15492,15493,15494,15495,15496,15497,15498,15499,0,0,0,0,0,0,0,0,0,0,0,0,0,0,0,0,0,0,0,0,0,0,0,0,0,0,0,0,0,0,0,0,0,0,0,0,0,0,0,0,0,0,0,0,0,0,0,0,0,0,0,0,0,0,0,0,0,
0,0,0,0,0,0,0,0,0,0,0,0,0,0,0,0,0,0,0,0,0,0,0,0,0,0,0,0,0,0,0,0,0,0,0,0,0,0,0,0,0,0,0,0,0,0,0,0,0,0,0,0,0,0,0,0,0,0,0,0,0,0,0,0,0,2718,2719,0,0,0,0,0,0,0,0,0,0,0,0,0,0,0,0,0,0,0,0,0,0,0,0,0,0,0,0,0,0,0,0,0,
0,0,0,0,0,0,0,0,0,0,0,0,0,0,0,0,0,0,0,0,0,0,0,0,0,0,0,0,0,0,0,3829,0,0,0,0,0,0,0,0,0,0,0,0,0,0,0,0,0,0,0,0,0,0,0,0,0,0,0,0,0,0,0,0,0,2858,2859,0,0,0,0,0,0,0,0,0,0,0,0,0,0,0,0,0,0,0,0,0,0,0,0,0,0,0,0,0,0,0,0,0,
0,0,0,0,0,0,0,0,0,0,0,0,0,0,0,0,0,0,0,0,0,0,0,0,0,0,0,0,0,0,0,0,0,0,0,0,0,0,0,0,0,0,0,0,0,0,0,0,0,0,0,0,0,0,0,0,0,0,0,0,0,0,0,0,0,2998,2999,0,0,0,0,0,0,0,0,0,0,0,0,0,0,0,0,0,0,0,0,0,0,0,0,0,0,0,0,0,0,0,0,0,
0,0,0,0,0,0,0,0,0,0,0,0,0,0,0,0,0,0,0,0,0,0,0,0,0,0,0,0,0,0,0,0,0,0,0,0,0,0,0,0,22452,22453,0,0,0,0,0,0,0,0,0,0,0,0,0,0,0,0,0,0,0,0,0,0,0,0,0,0,0,0,0,0,0,0,0,0,0,0,0,0,0,0,0,0,0,0,0,0,0,0,0,0,0,0,0,0,0,0,6507,6508,
0,0,0,0,0,0,0,0,0,0,0,0,0,0,0,0,0,0,0,0,0,0,0,0,0,0,0,0,0,0,0,0,0,0,0,0,0,0,0,0,0,0,0,0,0,0,0,0,0,0,0,0,0,0,0,0,0,0,0,0,0,0,0,0,0,0,0,0,0,0,0,0,0,0,3829,0,0,0,0,0,0,0,0,0,0,0,0,0,0,0,0,0,0,0,0,0,0,0,6647,6648,
0,0,0,0,0,0,0,0,0,0,0,0,0,0,0,0,0,0,0,0,0,0,0,0,0,0,0,0,0,0,0,0,0,0,0,0,0,0,0,0,0,0,0,0,22190,22130,22161,0,0,0,0,0,0,0,0,0,0,0,0,0,0,0,0,0,0,0,0,0,0,0,0,0,0,0,0,0,0,0,0,0,0,0,0,0,0,0,0,0,0,0,0,0,0,0,0,0,0,0,0,0,
0,0,0,0,0,0,0,0,0,0,0,0,0,0,0,0,0,0,0,0,0,0,0,2352,2353,2354,2355,0,0,0,0,0,23897,0,0,0,0,0,0,0,0,0,0,0,0,0,0,0,0,0,0,0,0,0,0,0,0,0,0,0,0,0,0,0,0,0,0,0,0,0,0,0,0,0,0,0,0,0,0,0,0,0,0,0,0,0,0,0,0,0,0,0,0,0,0,0,0,0,0,0,
0,0,0,0,0,0,0,0,0,0,0,0,0,0,0,0,0,0,0,0,0,0,0,2492,2493,2494,2495,0,0,0,0,0,0,0,0,0,0,0,0,0,0,0,0,0,22193,0,0,0,0,0,0,0,0,0,0,0,0,0,0,0,0,0,0,0,0,0,0,0,0,0,0,0,0,0,0,0,0,0,0,0,0,0,0,0,0,0,0,0,0,0,0,0,0,0,0,0,0,0,0,0,
0,0,0,0,0,0,0,0,0,0,0,0,0,0,0,0,0,0,0,0,0,0,0,2632,2633,2634,2635,0,0,0,0,0,0,0,0,0,0,0,0,0,0,0,0,0,0,0,0,0,0,0,0,0,0,0,0,0,0,0,0,0,0,0,0,0,0,0,0,0,0,0,0,0,0,0,0,0,0,0,0,0,0,0,0,0,0,0,0,0,0,0,0,0,0,0,0,0,0,0,0,0,
0,0,0,0,0,0,0,0,0,0,0,0,0,0,0,0,0,0,0,0,0,0,0,2772,2773,2774,2775,0,0,0,0,0,0,0,0,0,0,0,0,0,0,0,0,0,0,0,0,0,0,0,0,0,9456,9457,9458,9459,0,0,0,0,0,0,0,0,0,0,0,0,0,0,0,0,0,0,0,0,0,0,0,0,0,0,0,0,0,0,0,0,0,0,0,0,0,0,0,0,0,0,0,0,
0,0,0,0,0,0,0,0,0,0,0,0,0,0,0,0,0,0,0,0,0,0,0,2912,2913,2914,2915,0,0,0,0,0,0,0,0,0,0,0,0,0,0,0,0,0,0,0,0,0,0,0,0,0,9596,9597,9598,9599,0,0,0,0,0,0,0,0,0,0,0,0,0,0,0,0,0,0,0,0,0,0,0,0,0,0,0,0,0,0,0,0,0,0,0,0,0,0,0,0,0,0,0,0,
0,0,0,0,0,0,0,0,0,0,0,0,0,0,0,0,0,4111,0,0,0,0,0,0,0,0,0,0,0,0,0,0,0,0,0,0,0,0,0,0,0,0,25720,0,25718,0,0,0,0,0,0,0,9736,9737,9738,9739,0,0,0,0,0,0,0,0,0,0,0,0,0,0,0,0,0,0,0,0,0,0,0,0,0,0,0,0,0,0,0,0,0,0,0,0,0,0,0,0,0,0,0,0,
0,0,0,0,0,0,0,0,0,0,0,0,0,0,0,0,0,0,0,0,0,0,0,0,0,0,0,0,0,0,0,0,0,0,0,0,0,0,0,0,0,25744,0,0,0,0,0,0,0,3829,0,0,9876,9877,9878,9879,0,0,0,0,0,0,0,0,0,0,0,0,0,0,0,0,0,0,0,0,0,0,0,0,0,0,0,0,0,0,0,0,0,0,0,0,0,0,0,0,0,0,0,0,
0,0,0,0,0,0,0,0,0,0,0,0,0,0,0,0,0,0,0,0,0,0,0,0,0,0,0,0,0,0,0,0,0,0,0,0,0,0,0,0,0,0,0,25746,0,25033,0,0,0,0,0,0,0,0,0,0,0,0,0,0,0,0,0,0,0,0,0,0,0,0,0,0,0,0,0,0,0,0,0,0,0,0,0,0,0,0,0,0,0,0,0,0,0,0,0,0,0,0,0,0,
0,0,0,0,0,0,0,0,0,0,0,0,0,0,0,0,0,0,0,0,0,0,0,0,0,0,0,0,0,0,0,0,2352,2353,2354,2355,0,0,0,0,0,25720,0,4358,0,4358,0,0,0,0,24982,0,0,0,0,0,0,0,0,0,0,0,0,0,0,0,0,0,0,0,0,0,0,0,0,0,0,0,0,0,0,0,0,0,0,0,0,0,0,0,0,0,0,0,0,0,0,0,0,0,
0,0,0,0,0,0,0,0,6507,6508,0,0,0,0,0,0,0,0,0,0,0,0,0,0,0,0,0,0,0,0,0,0,2492,2493,2494,2495,0,0,0,0,0,0,4358,0,0,0,0,0,0,0,0,0,0,0,0,0,0,0,0,0,0,0,0,0,0,0,0,0,0,0,0,0,0,0,0,0,0,0,0,0,0,0,0,0,0,0,0,0,0,0,0,0,0,0,0,0,0,0,0,0,
0,0,0,0,0,0,0,0,6647,6648,0,0,0,0,0,0,0,0,0,0,0,0,0,0,0,0,0,0,0,0,0,0,2632,2633,2634,2635,0,0,0,0,0,0,0,0,4358,0,0,0,0,0,0,0,0,0,0,0,0,0,0,0,0,0,0,0,0,0,2349,2350,2351,0,0,0,0,0,0,0,6259,6260,0,0,0,0,0,0,0,0,0,0,0,0,0,0,0,0,0,0,0,0,0,0,
0,0,0,0,0,0,0,0,0,0,0,0,0,0,0,0,0,0,0,0,0,0,0,0,0,0,0,0,0,0,0,0,2772,2773,2774,2775,0,0,0,0,0,0,4358,0,0,0,0,0,0,0,0,0,0,0,0,0,0,0,0,0,0,0,0,0,0,0,2489,2490,2491,0,0,0,0,0,0,0,6399,6400,0,0,0,0,0,0,0,0,0,0,0,0,0,0,0,0,0,0,0,0,0,0,
0,0,0,0,0,0,0,0,0,0,0,0,0,0,0,0,0,0,0,0,0,0,0,0,0,23874,0,0,0,0,0,0,2912,2913,2914,2915,0,0,0,0,0,0,0,0,0,0,0,0,0,0,0,0,0,0,0,0,0,0,0,0,0,0,0,4111,0,0,2629,2630,2631,0,0,0,0,0,6507,6508,0,0,0,0,0,0,0,0,0,0,0,0,0,0,0,0,0,0,0,0,0,0,0,0,
0,0,0,0,0,0,0,0,0,0,0,0,0,0,0,0,0,0,0,0,4584,4585,4586,0,0,0,0,0,0,0,0,0,0,0,0,0,0,0,0,0,0,0,0,0,0,0,0,0,0,0,0,0,0,0,0,0,0,0,0,2352,2353,2354,2355,0,0,0,2769,2770,2771,0,0,0,0,0,6647,6648,0,0,0,0,0,0,0,0,0,0,0,0,0,0,0,0,0,0,0,0,0,0,0,0,
0,0,0,0,0,0,0,0,0,0,0,0,0,0,0,0,0,0,0,0,4724,4725,4726,0,0,0,0,0,0,0,0,0,0,0,0,0,0,0,0,0,0,0,0,0,0,0,0,0,0,0,0,0,0,0,0,0,0,0,0,2492,2493,2494,2495,0,0,0,0,0,0,0,0,0,0,0,0,0,0,0,0,0,0,0,0,0,0,0,0,0,0,0,0,0,0,0,0,0,0,0,0,0,
0,0,0,0,0,0,0,0,0,0,0,0,0,0,0,0,0,0,0,0,4864,4865,4866,0,0,0,0,0,0,0,0,0,0,0,0,0,0,0,0,0,0,0,0,0,0,0,4111,0,0,0,0,0,0,0,0,0,0,0,0,2632,2633,2634,2635,0,0,0,0,0,0,0,0,0,0,0,0,0,0,0,0,0,0,0,0,0,0,0,0,0,0,0,0,0,0,0,0,0,0,0,0,0,
0,0,0,0,0,0,0,0,0,0,0,0,0,0,0,0,0,0,0,0,5004,5005,5006,0,0,0,0,0,0,0,0,0,0,0,0,0,0,0,0,0,0,0,0,0,0,0,0,0,0,0,0,0,0,0,3983,0,0,0,0,2772,2773,2774,2775,0,0,0,0,0,0,0,0,0,0,0,0,0,0,0,0,0,0,0,0,0,0,0,0,0,0,0,0,0,0,0,0,0,0,0,0,0,
0,0,0,0,0,0,0,0,0,0,0,0,0,0,0,0,0,0,0,0,5144,5145,5146,0,0,0,0,0,0,0,0,0,0,0,4111,0,0,0,0,0,0,0,0,0,0,0,0,0,0,0,0,0,0,0,0,0,0,0,0,2912,2913,2914,2915,0,0,0,0,0,0,0,0,0,0,0,0,0,0,0,0,0,0,0,0,0,0,0,0,0,0,0,0,0,0,0,0,0,0,0,0,0,
0,0,0,0,0,0,0,0,0,0,0,0,0,0,0,0,0,0,0,0,0,0,0,0,0,0,0,0,0,0,0,0,0,0,0,0,0,0,0,0,0,0,0,0,0,0,0,0,0,0,0,0,0,0,0,0,0,0,0,0,0,0,0,0,0,0,0,0,0,0,0,0,0,0,0,0,0,0,0,0,0,0,0,0,0,0,0,0,0,0,0,0,0,0,0,0,0,0,0,0,
0,0,0,0,0,0,0,0,0,0,0,0,0,0,0,0,0,0,0,0,0,0,0,0,0,0,0,0,0,0,0,0,0,0,0,0,0,0,0,0,0,0,0,0,0,0,0,0,0,0,0,0,0,0,0,0,0,0,0,0,0,0,0,0,0,0,0,0,0,0,0,0,0,0,0,0,0,0,0,0,0,0,0,0,0,0,0,0,0,0,0,0,0,0,0,0,0,0,0,0,
0,0,0,0,0,0,0,0,0,0,0,0,0,0,0,0,0,0,0,0,0,0,0,0,0,0,0,0,0,0,0,0,0,0,0,0,0,0,0,0,0,0,0,0,0,0,0,0,0,0,0,0,0,0,0,0,0,0,0,0,0,0,0,0,0,0,0,0,0,0,0,0,0,0,0,0,0,0,0,0,0,0,0,0,0,0,0,0,0,0,0,0,0,0,0,0,0,0,0,0,
0,0,0,0,0,0,0,0,0,0,0,0,0,0,0,0,0,0,0,0,0,0,0,0,0,0,0,0,0,0,0,0,0,0,0,0,0,0,0,0,0,0,0,0,0,0,0,0,0,0,0,0,0,0,0,0,0,0,0,0,0,0,0,0,0,0,0,0,0,0,0,0,0,0,0,0,0,0,0,0,0,0,0,0,0,0,0,0,0,0,0,0,0,0,0,0,0,0,0,0,
0,0,0,0,0,0,0,0,0,0,0,0,0,0,0,0,0,0,0,0,0,0,0,0,0,0,0,0,0,0,0,0,0,0,0,0,0,0,0,0,0,0,0,0,0,0,0,0,0,0,0,0,0,0,0,0,0,0,0,0,0,0,0,0,0,0,0,0,0,0,0,0,0,0,0,0,0,0,0,0,0,0,0,0,0,0,0,0,0,0,0,0,0,0,0,0,0,0,0,0,
0,0,0,0,0,0,0,0,0,0,0,0,0,0,0,0,0,0,0,0,0,0,0,0,0,0,0,0,0,0,0,0,0,0,0,0,0,0,0,0,0,0,0,0,6259,6260,0,0,0,0,0,0,0,0,0,0,0,0,0,0,0,0,0,0,0,0,0,0,0,0,0,0,0,0,0,0,0,0,0,0,0,0,0,0,0,0,0,0,0,0,0,0,0,0,0,0,0,0,0,0,
0,0,0,0,0,0,0,0,0,0,0,0,0,0,0,0,0,0,0,0,0,0,0,0,0,6507,6508,0,0,0,0,0,0,0,0,0,0,0,0,0,0,0,0,0,6399,6400,0,0,0,0,0,0,0,0,0,0,0,0,0,0,0,0,0,0,0,0,0,0,0,0,0,0,0,0,0,0,0,0,0,0,0,0,0,0,0,0,0,0,0,0,0,0,0,0,0,0,0,0,0,0,
0,0,0,0,0,0,0,0,0,0,0,0,0,0,0,0,0,0,0,0,0,0,0,0,0,6647,6648,0,0,0,0,0,0,0,0,0,0,0,0,0,0,0,0,0,0,0,0,0,0,0,0,0,0,0,0,0,0,0,0,0,0,0,0,0,0,0,0,0,0,0,0,0,0,0,0,0,0,0,0,0,0,0,0,0,0,0,0,0,0,0,0,0,0,0,0,0,0,0,0,0
</data>
 </layer>
 <layer id="5" name="Cloud layer (not related to final fantasy)" width="100" height="75">
  <data encoding="csv">
0,0,0,0,0,0,0,0,0,0,0,0,0,0,0,0,0,0,0,0,0,0,0,0,0,0,0,0,0,0,0,0,0,0,0,0,0,0,0,0,0,0,0,0,0,0,0,0,0,0,0,0,0,0,0,0,0,0,0,0,0,0,0,0,0,0,0,0,0,0,0,0,0,0,0,0,0,0,0,0,0,0,0,0,0,0,0,0,0,0,0,0,0,0,0,0,0,0,0,0,
0,0,0,0,0,0,0,0,0,0,0,0,0,0,0,0,0,0,0,0,0,0,0,0,0,0,0,0,0,0,0,0,0,0,0,0,0,0,0,0,0,0,0,0,0,0,0,0,0,0,0,0,0,0,0,0,0,0,0,0,0,0,0,0,0,0,0,0,0,0,0,0,0,0,0,0,0,0,0,0,0,0,0,0,0,0,0,0,0,0,0,0,0,0,0,0,0,0,0,0,
0,0,0,0,0,0,0,0,0,0,0,0,0,0,0,0,0,0,0,0,0,0,0,0,0,0,0,0,0,0,0,0,0,0,0,0,0,0,0,0,0,0,0,0,0,0,0,0,0,0,0,0,0,0,0,0,0,0,0,0,0,0,0,0,0,0,0,0,0,0,0,0,0,0,0,0,0,0,0,0,0,0,0,0,0,0,0,0,0,0,0,0,0,0,0,0,0,0,0,0,
0,0,0,0,0,0,0,0,0,0,0,0,0,0,0,0,0,0,0,0,0,0,0,0,0,0,0,0,0,0,0,0,0,0,0,0,0,0,0,0,0,0,0,0,0,0,0,0,0,0,0,0,0,0,0,0,0,0,0,0,0,0,0,0,0,0,0,0,0,0,0,0,0,0,0,0,0,0,0,0,0,0,0,0,0,0,0,0,0,0,0,0,0,0,0,0,0,0,0,0,
0,0,0,0,0,0,0,0,0,0,0,0,0,0,0,0,0,0,0,0,0,0,0,0,0,0,0,0,0,0,0,0,0,0,0,0,0,0,0,0,0,0,0,0,0,0,0,0,0,0,0,0,0,0,0,0,0,0,0,0,0,0,0,0,0,0,0,0,0,0,0,0,0,0,0,0,0,0,0,0,0,0,0,0,0,0,0,0,0,0,0,0,0,0,0,0,0,0,0,0,
0,0,0,0,0,0,0,0,0,0,0,0,0,0,0,0,0,0,0,0,0,0,0,0,0,0,0,0,0,0,0,0,0,0,0,0,0,0,0,0,0,0,0,0,0,0,0,0,0,0,0,0,0,0,0,0,0,0,0,0,0,0,0,0,0,0,0,0,0,0,0,0,0,0,0,0,0,0,0,0,0,0,0,0,0,0,0,0,0,0,0,0,0,0,0,0,0,0,0,0,
0,0,0,0,0,0,0,0,0,0,0,0,0,0,0,0,0,0,0,0,0,0,0,0,0,0,0,0,0,0,0,0,0,0,0,0,0,0,0,0,0,0,0,0,0,0,0,0,0,0,0,0,0,0,0,0,0,0,0,0,0,0,0,0,0,0,0,0,0,0,0,0,0,0,0,0,0,0,0,0,0,0,0,0,0,0,0,0,0,0,0,0,0,0,0,0,0,0,0,0,
0,0,0,0,0,0,0,0,0,0,0,0,0,0,0,0,0,0,0,0,0,0,0,0,0,0,0,0,0,0,0,0,0,0,0,0,0,0,0,0,0,0,0,0,0,0,0,0,0,0,0,0,0,0,0,0,0,0,0,0,0,0,0,0,0,0,0,0,0,0,0,0,0,0,0,0,0,0,0,0,0,0,0,0,0,0,0,0,0,0,0,0,0,0,0,0,0,0,0,0,
0,0,0,0,0,0,0,0,0,0,0,0,0,0,0,0,0,0,0,0,0,0,0,0,0,0,0,0,0,0,0,0,0,0,0,0,0,0,0,0,0,0,0,0,0,0,0,0,0,0,0,0,0,0,0,0,0,0,0,0,0,0,0,0,0,0,0,0,0,0,0,0,0,0,0,0,0,0,0,0,0,0,0,0,0,0,0,0,0,0,0,0,0,0,0,0,0,0,0,0,
0,0,0,0,0,0,0,0,0,0,0,0,0,0,0,0,0,0,0,0,0,0,0,0,0,0,0,0,0,0,0,0,0,0,0,0,0,0,0,0,0,0,0,0,0,0,0,0,0,0,0,0,0,0,0,0,0,0,0,0,0,0,0,0,0,0,0,0,0,0,0,0,0,0,0,0,0,0,0,0,0,0,0,0,0,0,0,0,0,0,0,0,0,0,0,0,0,0,0,0,
0,0,0,0,0,0,0,0,0,0,0,0,0,0,0,0,0,0,0,0,0,0,0,0,0,0,0,0,0,0,0,0,0,0,0,0,0,0,0,0,0,0,0,0,0,0,0,0,0,0,0,0,0,0,0,0,0,0,0,0,0,0,0,0,0,0,0,0,0,0,0,0,0,0,0,0,0,0,0,0,0,0,0,0,0,0,0,0,0,0,0,0,0,0,0,0,0,0,0,0,
0,0,0,0,0,0,0,0,0,0,0,0,0,0,0,0,0,0,0,0,0,0,0,0,0,0,0,0,0,0,0,0,0,0,0,0,0,0,0,0,0,0,0,0,0,0,0,0,0,0,0,3806,3663,3663,3663,3808,0,0,0,0,0,0,0,0,0,0,0,0,0,0,0,0,0,0,0,0,0,0,0,0,0,0,0,0,0,0,0,0,0,0,0,0,0,0,0,0,0,0,0,0,
0,0,0,0,0,0,0,0,0,0,0,0,0,0,0,0,0,0,0,0,0,0,0,0,0,0,0,0,0,0,0,0,0,0,0,0,0,0,0,0,0,0,0,0,0,0,0,0,0,3806,3663,3664,4784,4784,4784,3662,3663,3808,0,0,0,0,0,0,0,0,0,0,0,0,0,0,0,0,0,0,0,0,0,0,0,0,0,0,0,0,0,0,0,0,0,0,0,0,0,0,0,0,0,0,
0,0,0,0,0,0,0,0,0,0,0,0,0,0,0,0,0,0,0,0,0,0,0,0,0,0,0,0,0,0,0,0,0,0,0,0,0,0,0,0,0,0,0,0,0,0,0,0,3806,3664,4784,4784,4784,4784,4784,4784,4784,3662,3808,0,0,0,0,0,0,0,0,0,0,0,0,0,0,0,0,0,0,0,0,0,0,0,0,0,0,0,0,0,0,0,0,0,0,0,0,0,0,0,0,0,
0,0,0,0,0,0,0,0,0,0,0,0,0,0,0,0,0,0,0,0,0,0,0,0,0,0,0,0,0,0,0,0,0,0,0,0,0,0,0,0,0,0,0,0,0,0,0,0,3524,3382,3383,3384,4784,4784,4784,4784,4784,4784,3522,0,0,0,0,0,0,0,0,0,0,0,0,0,0,0,0,0,0,0,0,0,0,0,0,0,0,0,0,0,0,0,0,0,0,0,0,0,0,0,0,0,
0,0,0,0,0,0,0,0,0,0,0,0,0,0,0,0,0,0,0,0,0,0,0,0,0,0,0,0,0,0,0,0,0,0,0,0,0,0,0,0,0,0,0,0,0,0,0,3806,3664,3522,3523,3524,4784,3382,3383,3383,3383,3383,4088,0,0,0,0,0,0,0,0,0,0,0,0,0,0,0,0,0,0,0,0,0,0,0,0,0,0,0,0,0,0,0,0,0,0,0,0,0,0,0,0,0,
0,0,0,0,0,0,0,0,0,0,0,0,0,0,0,0,0,0,0,0,0,0,0,0,0,0,0,0,0,0,0,0,0,0,0,0,0,0,0,0,0,0,0,0,0,0,3806,3664,4784,3662,3663,3664,3382,4088,0,0,0,0,0,0,0,0,0,0,0,0,0,0,0,0,0,0,0,0,0,0,0,0,0,0,0,0,0,0,0,0,0,0,0,0,0,0,0,0,0,0,0,0,0,0,
0,0,0,0,0,0,0,0,0,3806,3663,3663,3663,3663,3808,0,0,0,0,0,0,0,0,0,0,0,0,0,0,0,0,0,0,0,0,0,0,0,0,0,0,0,0,3806,3663,3663,3664,4784,4784,4784,4784,3382,4088,0,0,0,0,0,0,0,0,0,0,0,0,0,0,0,0,0,0,0,0,0,0,0,0,0,0,0,0,0,0,0,0,0,0,0,0,0,0,0,0,0,0,0,0,0,0,0,
0,0,0,0,0,0,0,0,0,3524,4784,4784,4784,4784,3662,3663,3663,3663,3808,0,0,0,0,0,0,0,0,0,0,0,0,0,0,0,0,0,0,0,0,0,0,0,0,3524,4784,4784,4784,4784,3382,3383,3383,4088,0,0,0,0,0,0,0,0,0,0,0,0,0,0,0,0,0,0,0,0,0,0,0,0,0,0,0,0,0,0,0,0,0,0,0,0,0,0,0,0,0,0,0,0,0,0,0,0,
0,0,0,0,0,0,0,0,0,3524,4784,4784,4784,4784,4784,4784,4784,4784,3662,3663,3808,0,0,0,0,0,0,0,0,0,0,0,0,0,0,0,0,0,0,0,0,0,0,4086,3383,3383,3383,3383,4088,0,0,0,0,0,0,0,0,0,0,0,0,0,0,0,0,0,0,0,0,0,0,0,0,0,0,0,0,0,0,0,0,0,0,0,0,0,0,0,0,0,0,0,0,0,0,0,0,0,0,0,
0,0,0,0,0,0,0,0,0,4086,3383,3383,3384,4784,4784,4784,4784,4784,4784,4784,3662,3663,3663,3663,3808,0,0,0,0,0,0,0,0,0,0,0,0,0,0,0,0,0,0,0,0,0,0,0,0,0,0,0,0,0,0,0,0,0,0,0,0,0,0,0,0,0,0,0,0,0,0,0,0,0,0,0,0,0,0,0,0,0,0,0,0,0,0,0,0,0,0,0,0,0,0,0,0,0,0,0,
0,0,0,0,0,0,0,0,0,0,0,0,4086,3383,3383,3384,4784,4784,4784,4784,4784,4784,4784,4784,3662,3808,0,0,0,0,0,0,0,0,0,0,0,0,0,0,0,0,0,0,0,0,0,0,0,0,0,0,0,0,0,0,0,0,0,0,0,0,0,0,0,0,0,0,0,0,0,0,0,0,0,0,0,0,0,0,0,0,0,0,0,0,0,0,0,0,0,0,0,0,0,0,0,0,0,0,
0,0,0,0,0,0,0,0,0,0,0,0,0,0,0,4086,3383,3384,4784,4784,4784,4784,4784,4784,4784,3662,3663,3663,3808,0,0,0,0,0,0,0,0,0,0,0,0,0,0,0,0,0,0,0,0,0,0,0,0,0,0,0,0,0,0,0,0,0,0,0,0,0,0,0,0,0,0,0,0,0,0,0,0,0,0,0,0,0,0,0,0,0,0,0,0,0,0,0,0,0,0,0,0,0,0,0,
0,0,0,0,0,0,0,0,0,0,0,0,0,0,0,0,0,4086,3383,3383,3383,3384,4784,4784,4784,4784,4784,4784,3662,3663,3663,3808,0,0,0,0,0,0,0,0,0,0,0,0,0,0,0,0,0,0,0,0,0,0,0,0,0,0,0,0,0,0,0,0,0,0,0,0,0,0,0,0,0,0,0,0,0,0,0,0,0,0,0,0,0,0,0,0,0,0,0,0,0,0,0,0,0,0,0,0,
0,0,0,0,0,0,0,0,0,0,0,0,0,0,0,0,0,0,0,0,0,4086,3383,3383,3384,4784,4784,4784,4784,4784,4784,3522,0,0,0,0,0,0,0,0,0,0,0,0,0,0,0,0,0,0,0,0,0,0,0,0,0,0,0,0,0,0,0,0,0,0,0,0,0,0,0,0,0,0,0,0,0,0,0,0,0,0,0,0,0,0,0,0,0,0,0,0,0,0,0,0,0,0,0,0,
0,0,0,0,0,0,0,0,0,0,0,0,0,0,0,0,0,0,0,0,0,0,0,0,4086,3383,3383,3383,3383,3383,3383,4088,0,0,0,0,0,0,0,0,0,0,0,0,0,0,0,0,0,0,0,0,0,0,0,0,0,0,0,0,0,0,0,0,0,0,0,0,0,0,0,0,0,0,0,0,0,0,0,0,0,0,0,0,0,0,0,0,0,0,0,0,0,0,0,0,0,0,0,0,
0,0,0,0,0,0,0,0,0,0,0,0,0,0,0,0,0,0,0,0,0,0,0,0,0,0,0,0,0,0,0,0,0,0,0,0,0,0,0,0,0,0,0,0,0,0,0,0,0,0,0,0,0,0,0,0,0,0,0,0,0,0,0,0,0,0,0,0,0,0,0,0,0,0,0,0,3806,3663,3663,3808,0,0,0,0,0,0,0,0,0,0,0,0,0,0,0,0,0,0,0,0,
0,0,0,0,0,0,0,0,0,0,0,0,0,0,0,0,0,0,0,0,0,0,0,0,0,0,0,0,0,0,0,0,0,0,0,0,0,0,0,0,0,0,0,0,0,0,0,0,0,0,0,0,0,0,0,0,0,0,0,0,0,0,0,0,0,0,0,0,0,0,0,0,0,0,0,3806,3664,4784,4784,3522,0,0,0,0,0,0,0,0,0,0,0,0,0,0,0,0,0,0,0,0,
0,0,0,0,0,0,0,0,0,0,0,0,0,0,0,0,0,0,0,0,0,0,0,0,0,0,0,0,0,0,0,0,0,0,0,0,0,0,0,0,0,0,0,0,0,0,0,0,0,0,0,0,0,0,0,0,0,0,0,0,0,0,0,0,0,0,0,0,0,0,0,0,0,0,3806,3664,4784,4784,4784,3522,0,0,0,0,0,0,0,0,0,0,0,0,0,0,0,0,0,0,0,0,
0,0,0,0,0,0,0,0,0,0,0,0,0,0,0,0,0,0,0,0,0,0,0,0,0,0,0,0,0,0,0,0,0,0,0,0,0,0,0,0,0,0,0,0,0,0,0,0,0,0,0,0,0,0,0,0,0,0,0,0,0,0,0,0,0,0,0,0,0,0,0,0,0,3806,3664,4784,4784,4784,4784,3522,0,0,0,0,0,0,0,0,0,0,0,0,0,0,0,0,0,0,0,0,
0,0,0,0,0,0,0,0,0,0,0,0,0,0,0,0,0,0,0,0,0,0,0,0,0,0,0,0,0,0,0,0,0,0,0,0,0,0,0,0,0,0,0,0,0,0,0,0,0,0,0,0,0,0,0,0,0,0,0,0,0,0,0,0,0,0,0,0,0,0,0,0,3806,3664,3382,3383,3384,4784,4784,3522,0,0,0,0,0,0,0,0,0,0,0,0,0,0,0,0,0,0,0,0,
0,0,0,0,0,0,0,0,0,0,0,0,0,0,0,0,0,0,0,0,0,0,0,0,0,0,0,0,0,0,0,0,0,0,0,0,0,0,0,0,0,0,0,0,0,0,0,0,0,0,0,0,0,0,0,0,0,0,0,0,0,0,0,0,0,0,0,0,0,0,0,3806,3664,4784,3522,3523,3524,4784,3382,4088,0,0,0,0,0,0,0,0,0,0,0,0,0,0,0,0,0,0,0,0,
0,0,0,0,0,0,0,0,0,0,0,0,0,0,0,0,0,0,0,0,0,0,0,0,0,0,0,0,0,0,0,0,0,0,0,0,0,0,0,0,0,0,0,0,0,0,0,0,0,0,0,0,0,0,0,0,0,0,0,0,0,0,0,0,0,0,0,0,0,0,3806,3664,4784,4784,3662,3663,3664,3382,4088,0,0,0,0,0,0,0,0,0,0,0,0,0,0,0,0,0,0,0,0,0,
0,0,0,0,0,0,0,0,0,0,0,0,0,0,0,0,0,0,0,0,0,0,0,0,0,0,0,0,0,0,0,0,0,0,0,0,0,0,0,0,0,0,0,0,0,0,0,0,0,0,0,0,0,0,0,0,0,0,0,0,0,0,0,0,0,0,0,0,0,3806,3664,4784,4784,4784,4784,4784,3382,4088,0,0,0,0,0,0,0,0,0,0,0,0,0,0,0,0,0,0,0,0,0,0,
0,0,0,0,0,0,0,0,0,0,0,0,0,0,0,0,0,0,0,0,0,0,0,0,0,0,0,0,0,0,0,0,0,0,0,0,0,0,0,0,0,0,0,0,0,0,0,0,0,0,0,0,0,0,0,0,0,0,0,0,0,0,0,0,0,3806,3663,3663,3663,3664,4784,4784,4784,4784,4784,3382,4088,0,0,0,0,0,0,0,0,0,0,0,0,0,0,0,0,0,0,0,0,0,0,0,
0,0,0,0,0,0,0,0,0,0,0,0,0,0,0,0,0,0,0,0,0,0,0,0,0,0,0,0,0,0,0,0,0,0,0,0,0,0,0,0,0,0,0,0,0,0,0,0,0,0,0,0,0,0,0,0,0,0,0,0,0,0,0,0,0,3524,4784,4784,4784,4784,4784,4784,4784,4784,3382,4088,0,0,0,0,0,0,0,0,0,0,0,0,0,0,0,0,0,0,0,0,0,0,0,0,
0,0,0,0,0,0,0,0,0,0,0,0,0,0,0,0,0,0,0,0,0,0,0,0,0,0,0,0,0,0,0,0,0,0,0,0,0,0,0,0,0,0,0,0,0,0,0,0,0,0,0,0,0,0,0,0,0,0,0,0,0,0,0,0,0,3524,4784,4784,4784,4784,4784,4784,3382,3383,4088,0,0,0,0,0,0,0,0,0,0,0,0,0,0,0,0,0,0,0,0,0,0,0,0,0,
0,0,0,0,0,0,0,0,0,0,0,0,0,0,0,0,0,0,0,0,0,0,0,0,0,0,0,0,0,0,0,0,0,0,0,0,0,0,0,0,0,0,0,0,0,0,0,0,0,0,0,0,0,0,0,0,0,0,0,0,0,0,0,0,0,3524,4784,4784,4784,4784,4784,3382,4088,0,0,0,0,0,0,0,0,0,0,0,0,0,0,0,0,0,0,0,0,0,0,0,0,0,0,0,
0,0,0,0,0,0,0,0,0,0,0,0,0,0,0,0,0,0,0,0,0,0,0,0,0,0,0,0,0,0,0,0,0,0,0,0,0,0,0,0,0,0,0,0,0,0,0,0,0,0,0,0,0,0,0,0,0,0,0,0,0,0,0,0,0,4086,3383,3383,3383,3383,3383,4088,0,0,0,0,0,0,0,0,0,0,0,0,0,0,0,0,0,0,0,0,0,0,0,0,0,0,0,0,
0,0,0,0,0,0,0,0,0,0,0,0,0,0,0,0,0,0,0,0,0,0,0,0,0,0,0,0,0,0,0,0,0,0,0,0,0,0,0,0,0,0,0,0,0,0,0,0,0,0,0,0,0,0,0,0,0,0,0,0,0,0,0,0,0,0,0,0,0,0,0,0,0,0,0,0,0,0,0,0,0,0,0,0,0,0,0,0,0,0,0,0,0,0,0,0,0,0,0,0,
0,0,0,0,0,0,0,0,0,0,0,0,0,0,0,0,0,0,0,0,0,0,0,0,0,0,0,0,0,0,0,0,0,0,0,0,0,0,0,0,0,0,0,0,0,0,0,0,0,0,0,0,0,0,0,0,0,0,0,0,0,0,0,0,0,0,0,0,0,0,0,0,0,0,0,0,0,0,0,0,0,0,0,0,0,0,0,0,0,0,0,0,0,0,0,0,0,0,0,0,
0,0,0,0,0,0,0,0,0,0,0,0,0,0,0,0,0,0,0,0,0,0,0,0,0,0,0,0,0,0,0,0,0,0,0,0,0,0,0,0,0,0,0,0,0,0,0,0,0,0,0,0,0,0,0,0,0,0,0,0,0,0,0,0,0,0,0,0,0,0,0,0,0,0,0,0,0,0,0,0,0,0,0,0,0,0,0,0,0,0,0,0,0,0,0,0,0,0,0,0,
0,0,0,0,0,0,0,0,0,0,0,0,0,0,0,0,0,0,0,0,0,0,0,0,0,0,0,0,0,0,0,0,0,0,0,0,0,0,0,0,0,0,0,0,0,0,0,0,0,0,0,3806,3807,3807,3808,0,0,0,0,0,0,0,0,0,0,0,0,0,0,0,0,0,0,0,0,0,0,0,0,0,0,0,0,0,0,0,0,0,0,0,0,0,0,0,0,0,0,0,0,0,
0,0,0,0,0,0,0,0,0,0,0,0,0,0,0,0,0,0,0,0,0,0,0,0,0,0,0,0,0,0,0,0,0,0,0,0,0,0,0,0,0,0,0,0,0,0,0,0,0,0,0,3524,4784,4784,3662,3807,3807,3808,0,0,0,0,0,0,0,0,0,0,0,0,0,0,0,0,0,0,0,0,0,0,0,0,0,0,0,0,0,0,0,0,0,0,0,0,0,0,0,0,0,0,
0,0,0,0,0,0,0,0,0,0,0,0,0,0,0,0,0,0,0,0,0,0,0,0,0,0,0,0,0,0,0,0,0,0,0,0,0,0,0,0,0,0,0,0,0,0,0,0,0,0,0,4086,3384,4784,4784,4784,4784,3662,3807,3808,0,0,0,0,0,0,0,0,0,0,0,0,0,0,0,0,0,0,0,0,0,0,0,0,0,0,0,0,0,0,0,0,0,0,0,0,0,0,0,0,
0,0,0,0,0,0,0,0,0,0,0,0,0,0,0,0,0,0,0,0,0,0,0,0,0,0,0,0,0,0,0,0,0,0,0,0,0,0,0,0,0,0,0,0,0,0,0,0,0,0,0,0,4086,3383,3383,3384,4784,4784,4784,3662,3807,3808,0,0,0,0,0,0,0,0,0,0,0,0,0,0,0,0,0,0,0,0,0,0,0,0,0,0,0,0,0,0,0,0,0,0,0,0,0,0,
0,0,0,0,0,0,0,0,0,0,0,0,0,0,0,0,0,0,0,0,0,0,0,0,0,0,0,0,0,0,0,0,0,0,0,0,0,0,0,0,0,0,0,0,0,0,0,0,0,0,0,0,0,0,0,4086,3384,4784,4784,4784,4784,3662,3807,3808,0,0,0,0,0,0,0,0,0,0,0,0,0,0,0,0,0,0,0,0,0,0,0,0,0,0,0,0,0,0,0,0,0,0,0,0,
0,0,0,0,0,0,0,0,0,0,0,0,0,0,0,0,0,0,0,0,0,0,0,0,0,0,0,0,0,0,0,0,0,0,0,0,0,0,0,0,0,0,0,0,0,0,0,0,0,0,0,0,0,0,0,0,4086,3384,4784,4784,4784,4784,4784,3662,3808,0,0,0,0,0,0,0,0,0,0,0,0,0,0,0,0,0,0,0,0,0,0,0,0,0,0,0,0,0,0,0,0,0,0,0,
0,0,0,0,0,0,0,0,0,0,0,0,0,0,0,0,0,0,0,0,0,0,0,0,0,0,0,0,3806,3807,3807,3807,3807,3808,0,0,0,0,0,0,0,0,0,0,0,0,0,0,0,0,0,0,0,0,0,0,0,4086,3384,4784,4784,4784,4784,4784,3522,0,0,0,0,0,0,0,0,0,0,0,0,0,0,0,0,0,0,0,0,0,0,0,0,0,0,0,0,0,0,0,0,0,0,0,
0,0,0,0,0,0,0,0,0,0,0,0,0,0,0,0,0,0,0,0,0,0,0,0,0,0,3806,3663,3664,4784,4784,4784,4784,3662,3807,3808,0,0,0,0,0,0,0,0,0,0,0,0,0,0,0,0,0,0,0,0,0,0,4086,4087,4087,4087,4087,4087,4088,0,0,0,0,0,0,0,0,0,0,0,0,0,0,0,0,0,0,0,0,0,0,0,0,0,0,0,0,0,0,0,0,0,0,0,
0,0,0,0,0,0,0,0,0,0,0,0,0,0,0,0,0,0,0,0,0,0,0,0,0,0,3524,4784,4784,3382,3383,3384,4784,4784,4784,3522,0,0,0,0,0,0,0,0,0,0,0,0,0,0,0,0,0,0,0,0,0,0,0,0,0,0,0,0,0,0,0,0,0,0,0,0,0,0,0,0,0,0,0,0,0,0,0,0,0,0,0,0,0,0,0,0,0,0,0,0,0,0,0,0,
0,0,0,0,0,0,0,0,0,0,0,0,0,0,0,0,0,0,0,0,0,0,0,0,0,0,4086,3384,4784,3522,3523,3524,4784,4784,4784,3662,3808,0,0,0,0,0,0,0,0,0,0,0,0,0,0,0,0,0,0,0,0,0,0,0,0,0,0,0,0,0,0,0,0,0,0,0,0,0,0,0,0,0,0,0,0,0,0,0,0,0,0,0,0,0,0,0,0,0,0,0,0,0,0,0,
0,0,0,0,0,0,0,0,0,0,0,0,0,0,0,0,0,0,0,0,0,0,0,0,0,0,0,4086,3384,3662,3663,3664,4784,4784,4784,4784,3522,0,0,0,0,0,0,0,0,0,0,0,0,0,0,0,0,0,0,0,0,0,0,0,0,0,0,0,0,0,0,0,0,0,0,0,0,0,0,0,0,0,0,0,0,0,0,0,0,0,0,0,0,0,0,0,0,0,0,0,0,0,0,0,
0,0,0,0,0,0,0,0,0,0,0,0,0,0,0,0,0,0,0,0,0,0,0,0,0,0,0,0,4086,4087,4087,3384,4784,4784,4784,4784,3662,3808,0,0,0,0,0,0,0,0,0,0,0,0,0,0,0,0,0,0,0,0,0,0,0,0,0,0,0,0,0,0,0,0,0,0,0,0,0,0,0,0,0,0,0,0,0,0,0,0,0,0,0,0,0,0,0,0,0,0,0,0,0,0,
0,0,0,0,0,0,0,0,0,0,0,0,0,0,0,0,0,0,0,0,0,0,0,0,0,0,0,0,0,0,0,3946,4784,4784,4784,4784,4784,3662,3808,0,0,0,0,0,0,0,0,0,0,0,0,0,0,0,0,0,0,0,0,0,0,0,0,0,0,0,0,0,0,0,0,0,0,0,0,0,0,0,0,0,0,0,0,0,0,0,0,0,0,0,0,0,0,0,0,0,0,0,0,0,
0,0,0,0,0,0,0,0,0,0,0,0,0,0,0,0,0,0,0,0,0,0,0,0,0,0,0,0,0,0,0,4086,3384,4784,4784,4784,4784,4784,3948,0,0,0,0,0,0,0,0,0,0,0,0,0,0,0,0,0,0,0,0,0,0,0,0,0,0,0,0,0,0,0,0,0,0,0,0,0,0,0,0,0,0,0,0,0,0,0,0,0,0,0,0,0,0,0,0,0,0,0,0,0,
0,0,0,0,0,0,0,0,0,0,0,0,0,0,0,0,0,0,0,0,0,0,0,0,0,0,0,0,0,0,0,0,4086,3384,4784,4784,4784,4784,3948,0,0,0,0,0,0,0,0,0,0,0,0,0,0,0,0,0,0,0,0,0,0,0,0,0,0,0,0,0,0,0,0,0,0,0,0,0,0,0,0,0,0,0,0,0,0,0,0,0,0,0,0,0,0,0,0,0,0,0,0,0,
0,0,0,0,0,0,0,0,0,0,0,0,0,0,0,0,0,0,0,0,0,0,0,0,0,0,0,0,0,0,0,0,0,4086,4087,4087,4087,4087,4088,0,0,0,0,0,0,0,0,0,0,0,0,0,0,0,0,0,0,0,0,0,0,0,0,0,0,0,0,0,0,0,0,0,0,0,0,0,0,0,0,0,0,0,0,0,0,0,0,0,0,0,0,0,0,0,0,0,0,0,0,0,
0,0,0,0,0,0,0,0,0,0,0,0,0,0,0,0,0,0,0,0,0,0,0,0,0,0,0,0,0,0,0,0,0,0,0,0,0,0,0,0,0,0,0,0,0,0,0,0,0,0,0,0,0,0,0,0,0,0,0,0,0,0,0,0,0,0,0,0,0,0,0,0,0,0,0,0,0,0,0,0,0,0,0,0,0,0,0,0,0,0,0,0,0,0,0,0,0,0,0,0,
0,0,0,0,0,0,0,0,0,0,0,0,0,0,0,0,0,0,0,0,0,0,0,0,0,0,0,0,0,0,0,0,0,0,0,0,0,0,0,0,0,0,0,0,0,0,0,0,0,0,0,0,0,0,0,0,0,0,0,0,0,0,0,0,0,0,0,0,0,0,0,0,0,0,0,0,0,0,0,0,0,0,0,0,0,0,0,0,0,0,0,0,0,0,0,0,0,0,0,0,
0,0,0,0,0,0,0,0,0,0,0,0,0,0,0,0,0,0,0,0,0,0,0,0,0,0,0,0,0,0,0,0,0,0,0,0,0,0,0,0,0,0,0,0,0,0,0,0,0,0,0,0,0,0,0,0,0,0,0,0,0,0,0,0,0,0,0,0,0,0,0,0,0,0,0,0,0,0,0,0,0,0,0,0,0,0,0,0,0,0,0,0,0,0,0,0,0,0,0,0,
0,0,0,0,0,0,0,0,0,0,0,0,0,0,0,0,0,0,0,0,0,0,0,0,0,0,0,0,0,0,0,0,0,0,0,0,0,0,0,0,0,0,0,0,0,0,0,0,0,0,0,0,0,0,0,0,0,0,0,0,0,0,0,0,0,0,0,0,0,0,0,0,0,0,0,0,0,0,0,0,0,0,0,0,0,0,0,0,0,0,0,0,0,0,0,0,0,0,0,0,
0,0,0,0,0,0,0,0,0,0,0,0,0,0,0,0,0,0,0,0,0,0,0,0,0,0,0,0,0,0,0,0,0,0,0,0,0,0,0,0,0,0,0,0,0,0,0,0,0,0,0,0,0,0,0,0,0,0,0,0,0,0,0,0,0,0,0,0,0,0,0,0,0,0,0,0,0,0,0,0,0,0,0,0,0,0,0,0,0,0,0,0,0,0,0,0,0,0,0,0,
0,0,0,0,0,0,0,0,0,0,0,0,0,0,0,0,0,0,0,0,0,0,0,0,0,0,0,0,0,0,0,0,0,0,0,0,0,0,0,0,0,0,0,0,0,0,0,0,0,0,0,0,0,0,0,0,0,0,0,0,0,0,0,0,0,0,0,0,0,0,0,0,0,0,0,0,0,0,0,0,0,0,0,0,0,0,0,0,0,0,0,0,0,0,0,0,0,0,0,0,
0,0,0,0,0,0,0,0,0,0,0,0,0,0,0,0,0,0,0,0,0,0,0,0,0,0,0,0,0,0,0,0,0,0,0,0,0,0,0,0,0,0,0,0,0,0,0,0,0,0,0,0,0,0,0,0,0,0,0,0,0,0,0,0,0,0,0,0,0,0,0,0,0,0,0,0,0,0,0,0,0,0,0,0,0,0,0,0,0,0,0,0,0,0,0,0,0,0,0,0,
0,0,0,0,0,0,0,0,0,0,0,0,0,0,0,0,0,0,0,0,0,0,0,0,0,0,0,0,0,0,0,0,0,0,0,0,0,0,0,0,0,0,0,0,0,0,0,0,0,0,0,0,0,0,0,0,0,0,3806,3663,3663,3663,3663,3663,3808,0,0,0,0,0,0,0,0,0,0,0,0,0,0,0,0,0,0,0,0,0,0,0,0,0,0,0,0,0,0,0,0,0,0,0,
0,0,0,0,0,0,0,0,0,0,0,0,0,0,0,0,0,0,0,0,0,0,0,0,0,0,0,0,0,0,0,0,0,0,0,0,0,0,0,0,0,0,0,0,0,0,0,0,0,0,0,0,0,0,0,0,0,3806,3664,4784,4784,4784,4784,4784,3522,0,0,0,0,0,0,0,0,0,0,0,0,0,0,0,0,0,0,0,0,0,0,0,0,0,0,0,0,0,0,0,0,0,0,0,
0,0,0,0,0,0,0,0,0,0,0,0,0,0,0,0,0,0,0,0,0,0,0,0,0,0,0,0,0,0,0,0,0,0,0,0,0,0,0,0,0,0,0,0,0,0,0,0,0,3806,3663,3663,3663,3663,3663,3663,3663,3664,4784,4784,4784,4784,4784,4784,3522,0,0,0,0,0,0,0,0,0,0,0,0,0,0,0,0,0,0,0,0,0,0,0,0,0,0,0,0,0,0,0,0,0,0,0,
0,0,0,0,0,0,0,0,0,0,0,0,0,0,0,0,0,0,0,0,0,0,0,0,0,0,0,0,0,0,0,0,0,0,0,0,0,0,0,0,0,0,0,0,0,0,0,0,3806,3664,4784,4784,4784,4784,4784,4784,4784,4784,4784,4784,4784,4784,4784,4784,3522,0,0,0,0,0,0,0,0,0,0,0,0,0,0,0,0,0,0,0,0,0,0,0,0,0,0,0,0,0,0,0,0,0,0,0,
0,0,0,0,0,0,0,0,0,0,0,0,0,0,0,0,0,0,0,0,0,0,0,0,0,0,0,0,0,0,0,0,0,0,0,0,0,0,0,0,0,0,0,0,0,0,0,0,3524,4784,4784,4784,4784,4784,4784,4784,4784,4784,4784,4784,4784,4784,3382,3383,4088,0,0,0,0,0,0,0,0,0,0,0,0,0,0,0,0,0,0,0,0,0,0,0,0,0,0,0,0,0,0,0,0,0,0,0,
0,0,0,0,0,0,0,0,0,0,0,0,0,0,0,0,0,0,0,0,0,0,0,0,0,0,0,0,0,0,0,0,0,0,0,0,0,0,0,0,0,0,0,0,0,0,0,0,3524,4784,4784,4784,4784,4784,4784,4784,4784,4784,4784,3382,3383,3383,4088,0,0,0,0,0,0,0,0,0,0,0,0,0,0,0,0,0,0,0,0,0,0,0,0,0,0,0,0,0,0,0,0,0,0,0,0,0,
0,0,0,0,0,0,0,0,0,0,0,0,0,0,0,0,0,0,0,0,0,0,0,0,0,0,0,0,0,0,0,0,0,0,0,0,0,0,0,0,0,0,0,0,0,0,0,0,4086,3383,3383,3383,3383,3383,3383,3383,3383,3383,3383,4088,0,0,0,0,0,0,0,0,0,0,0,0,0,0,0,0,0,0,0,0,0,0,0,0,0,0,0,0,0,0,0,0,0,0,0,0,0,0,0,0,
0,0,0,0,0,0,0,0,0,0,0,0,0,0,0,0,0,0,0,0,0,0,0,0,0,0,0,0,0,0,0,0,0,0,0,0,0,0,0,0,0,0,0,0,0,0,0,0,0,0,0,0,0,0,0,0,0,0,0,0,0,0,0,0,0,0,0,0,0,0,0,0,0,0,0,0,0,0,0,0,0,0,0,0,0,0,0,0,0,0,0,0,0,0,0,0,0,0,0,0,
0,0,0,0,0,0,0,0,0,0,0,0,0,0,0,0,0,0,0,0,0,0,0,0,0,0,0,0,0,0,0,0,0,0,0,0,0,0,0,0,0,0,0,0,0,0,0,0,0,0,0,0,0,0,0,0,0,0,0,0,0,0,0,0,0,0,0,0,0,0,0,0,0,0,0,0,0,0,0,0,0,0,0,0,0,0,0,0,0,0,0,0,0,0,0,0,0,0,0,0,
0,0,0,0,0,0,0,0,0,0,0,0,0,0,0,0,0,0,0,0,0,0,0,0,0,0,0,0,0,0,0,0,0,0,0,0,0,0,0,0,0,0,0,0,0,0,0,0,0,0,0,0,0,0,0,0,0,0,0,0,0,0,0,0,0,0,0,0,0,0,0,0,0,0,0,0,0,0,0,0,0,0,0,0,0,0,0,0,0,0,0,0,0,0,0,0,0,0,0,0
</data>
 </layer>
</map>
