<?xml version='1.0' encoding='UTF-8'?>
<map version="1.10" tiledversion="1.10.1" orientation="orthogonal" renderorder="right-down" width="64" height="64" tilewidth="16" tileheight="16" infinite="0" nextlayerid="2" nextobjectid="1">
  <tileset firstgid="1" source="tileset_pokemon_sdk.tsx"/>
  <layer id="1" name="Calque de base" width="64" height="64">
    <data encoding="csv">300,300,300,300,300,300,300,300,300,300,300,300,300,300,300,300,300,300,300,300,300,300,300,300,300,300,300,300,300,300,300,300,20,189,20,189,700,189,20,189,20,189,20,189,660,189,20,189,20,189,20,189,20,189,20,189,20,189,20,189,20,189,20,700,300,300,300,300,300,300,300,300,300,300,300,300,300,300,300,300,300,300,300,300,300,300,300,300,300,300,300,300,300,300,300,300,189,20,189,20,189,700,189,650,189,20,189,20,189,20,189,20,189,20,189,20,189,20,189,20,189,20,189,20,189,20,189,20,300,300,300,300,300,300,300,300,300,300,300,300,300,300,300,300,300,300,300,300,300,300,300,300,300,300,300,300,300,300,300,300,20,189,20,189,20,650,20,650,660,189,20,189,20,189,20,189,650,189,20,189,20,189,20,650,20,189,20,189,20,189,20,660,300,300,300,300,300,300,300,300,300,300,300,300,300,300,300,300,300,300,300,300,300,300,300,300,300,300,300,300,300,300,300,300,189,700,700,20,189,20,189,20,189,20,189,20,189,20,189,20,189,20,189,20,189,20,189,20,189,20,189,20,189,20,189,20,300,300,300,300,300,300,300,300,300,300,300,300,300,300,300,300,300,300,300,300,300,300,300,300,300,300,300,300,300,300,300,300,20,660,20,650,20,189,20,189,20,189,20,189,20,189,20,189,20,189,20,189,20,189,20,189,20,189,650,189,700,189,20,189,300,300,300,300,300,300,300,300,300,300,300,300,300,300,300,300,300,300,300,300,300,300,300,300,300,300,300,300,300,300,300,300,189,20,189,20,189,20,189,20,189,20,700,700,189,20,660,20,189,20,660,20,189,20,189,20,189,700,189,20,189,660,189,20,300,300,300,300,300,300,300,300,300,300,300,300,300,300,300,300,300,300,300,300,300,300,300,300,300,300,300,300,300,300,300,300,20,189,20,189,20,189,20,189,700,189,20,189,20,189,20,189,20,189,20,189,20,189,20,189,20,189,660,189,20,660,20,189,300,300,300,300,300,300,300,300,300,300,300,300,300,300,300,300,300,300,300,300,300,300,300,300,300,300,300,300,300,300,300,300,189,20,189,20,189,20,650,20,189,20,189,20,189,20,189,20,189,20,660,20,189,20,700,20,189,20,189,20,700,20,660,660,300,300,300,300,300,300,300,300,300,300,300,300,300,300,300,300,300,300,300,300,300,300,300,300,300,300,300,300,300,300,300,300,20,189,20,189,660,189,20,189,20,700,650,189,20,189,20,189,700,189,20,189,20,650,20,189,20,189,660,189,20,189,20,189,300,300,300,300,300,300,300,300,300,300,300,300,300,300,300,300,300,300,300,300,300,300,300,300,300,300,300,300,300,300,300,300,189,20,189,20,189,20,189,20,700,20,189,20,189,20,189,20,189,20,189,20,189,20,189,20,660,20,189,20,189,20,189,20,300,300,300,300,300,300,300,300,300,300,300,300,300,300,300,300,300,300,300,300,300,300,300,300,300,300,300,300,300,300,300,300,20,189,20,189,20,189,700,189,20,189,20,700,650,189,20,189,650,700,20,189,700,700,20,189,20,189,20,189,700,189,20,189,300,300,300,300,300,300,300,300,300,300,300,300,300,300,300,300,300,300,300,300,300,300,300,300,300,300,300,300,300,300,300,300,650,20,189,20,189,20,189,20,189,20,189,20,189,20,189,20,189,20,189,20,189,20,189,20,189,20,189,20,189,20,650,20,300,300,300,300,300,300,300,300,300,300,300,300,300,300,300,300,300,300,300,300,300,300,300,300,300,300,300,300,300,300,300,300,20,189,20,189,20,189,20,189,20,189,20,189,20,189,650,189,20,189,20,189,20,189,20,189,20,189,20,189,20,189,20,189,300,300,300,300,300,300,300,300,300,300,300,300,300,300,300,300,300,300,300,300,300,300,300,300,300,300,300,300,300,300,300,300,189,20,189,20,650,20,189,20,189,20,189,20,189,20,189,20,189,20,700,660,189,20,189,20,650,20,189,20,189,20,189,20,300,300,300,300,300,300,300,300,300,300,300,300,300,300,300,300,300,300,300,300,300,300,300,300,300,300,300,300,300,300,300,300,20,189,20,189,20,700,20,189,650,189,20,189,20,189,20,189,20,189,660,189,20,189,20,189,20,189,20,189,20,189,20,189,300,300,300,300,300,300,300,300,300,300,300,300,300,300,300,300,300,300,300,300,300,300,300,300,300,300,300,300,300,300,300,300,189,20,189,650,189,660,650,20,189,20,189,20,700,20,189,20,189,700,189,20,189,20,189,20,189,20,660,20,189,20,189,660,300,300,300,300,300,300,300,300,300,300,300,300,300,300,300,300,300,300,300,300,300,300,300,300,300,300,300,300,300,300,300,300,650,189,20,189,20,189,20,189,20,700,700,189,650,189,20,189,700,189,20,189,660,189,20,189,20,189,20,189,20,189,20,189,300,300,300,300,300,300,300,300,300,300,300,300,300,300,300,300,300,300,300,300,300,300,300,300,300,300,300,300,300,300,300,300,189,20,189,20,189,20,650,20,189,20,189,20,189,20,189,20,189,20,189,20,189,20,189,660,189,20,189,20,189,20,189,20,300,300,300,300,300,300,300,300,300,300,300,300,300,300,300,300,300,300,300,300,300,300,300,300,300,300,300,300,300,300,300,300,20,700,20,189,660,189,20,189,20,650,700,189,20,189,20,189,20,189,20,189,20,189,650,189,20,189,20,189,20,189,20,700,300,300,300,300,300,300,300,300,300,300,300,300,300,300,300,300,300,300,300,300,300,300,300,300,300,300,300,300,300,300,300,300,189,20,189,20,189,20,189,20,189,20,189,20,189,20,189,20,189,660,660,20,189,20,189,20,189,20,189,650,189,20,189,20,300,300,300,300,300,300,300,300,300,300,300,300,300,300,300,300,300,300,300,300,300,300,300,300,300,300,300,300,300,300,300,300,20,189,20,189,20,189,660,189,20,189,20,650,20,189,20,700,660,189,20,700,20,189,20,189,660,189,20,189,20,189,20,189,300,300,300,300,300,300,300,300,300,300,300,300,300,300,300,300,300,300,300,300,300,300,300,300,300,300,300,300,300,300,300,300,189,20,189,20,189,700,660,20,189,20,189,20,189,20,189,20,189,20,189,20,189,20,189,20,189,20,189,20,660,20,189,20,300,300,300,300,300,300,300,300,300,300,300,300,300,300,300,300,300,300,300,300,300,300,300,300,300,300,300,300,300,300,300,300,20,189,20,189,660,189,20,189,20,189,20,189,20,189,660,189,20,189,20,189,660,189,20,660,20,189,650,189,20,189,20,189,300,300,300,300,300,300,300,300,300,300,300,300,300,300,300,300,300,300,300,300,300,300,300,300,300,300,300,300,300,300,300,300,189,20,189,20,700,20,660,20,189,20,189,20,189,20,189,700,189,20,189,20,189,20,189,20,189,20,189,20,700,20,189,650,300,300,300,300,300,300,300,300,300,300,300,300,300,300,300,300,300,300,300,300,300,300,300,300,300,300,300,300,300,300,300,300,650,189,20,700,20,189,650,189,20,189,650,650,700,189,20,189,20,189,20,189,20,189,20,189,20,189,20,189,20,189,20,189,300,300,300,300,300,300,300,300,300,300,300,300,300,300,300,300,300,300,300,300,300,300,300,300,300,300,300,300,300,300,300,300,189,20,660,660,189,660,700,650,189,20,189,20,189,20,189,20,189,20,189,20,189,700,189,20,189,20,189,660,189,20,189,20,300,300,300,300,300,300,300,300,300,300,300,300,300,300,300,300,300,300,300,300,300,300,300,300,300,300,300,300,300,300,300,300,20,189,700,189,20,189,20,189,20,189,20,700,20,189,20,660,20,189,20,189,700,660,20,189,660,700,20,189,20,189,20,189,300,300,300,300,300,300,300,300,300,300,300,300,300,300,300,300,300,300,300,300,300,300,300,300,300,300,300,300,300,300,300,300,189,20,189,20,189,20,189,20,189,20,189,20,189,20,189,20,650,20,189,20,189,20,189,20,189,20,189,20,189,20,189,20,300,300,300,300,300,300,300,300,300,300,300,300,300,300,300,300,300,300,300,300,300,300,300,300,300,300,300,300,300,300,300,300,20,189,700,660,20,189,20,189,20,189,20,650,20,189,20,189,20,189,20,189,20,189,20,189,660,660,20,189,20,189,20,189,300,300,300,300,300,300,300,300,300,300,300,300,300,300,300,300,300,300,300,300,300,300,300,300,300,300,300,300,300,300,300,300,189,20,189,20,189,20,189,20,189,20,189,20,189,700,189,20,189,20,189,20,189,20,189,20,189,20,189,20,660,20,650,700,300,300,300,300,300,300,300,300,300,300,300,300,300,300,300,300,300,300,300,300,300,300,300,300,300,300,300,300,300,300,300,300,20,189,20,189,20,189,20,189,20,189,20,660,20,189,20,189,20,189,20,189,20,189,20,189,20,189,20,189,20,700,20,189,300,300,300,300,300,300,300,300,300,300,300,300,300,300,300,300,300,300,300,300,300,300,300,300,300,300,300,300,300,300,300,300,650,20,189,20,189,20,189,20,660,20,189,20,189,660,660,20,189,20,189,20,189,20,189,20,189,20,189,20,189,700,189,20,93,93,93,93,720,93,93,93,93,93,93,93,93,93,93,93,720,93,93,93,93,93,93,93,93,93,93,93,93,93,660,93,300,300,300,300,300,300,300,300,300,300,300,300,300,300,300,300,300,300,300,300,300,300,300,300,300,300,300,300,300,300,300,300,93,720,93,93,93,93,93,93,93,93,720,93,93,720,93,93,93,93,93,93,93,93,93,93,93,93,93,93,93,93,93,93,300,300,300,300,300,300,300,300,300,300,300,300,300,300,300,300,300,300,300,300,300,300,300,300,300,300,300,300,300,300,300,300,93,93,93,660,93,93,93,93,93,93,93,93,93,93,93,93,660,720,93,93,93,93,93,93,93,93,93,93,93,93,93,93,300,300,300,300,300,300,300,300,300,300,300,300,300,300,300,300,300,300,300,300,300,300,300,300,300,300,300,300,300,300,300,300,93,93,93,93,93,93,93,93,93,93,660,93,93,93,93,93,93,93,93,720,93,93,93,93,93,660,93,93,93,93,93,93,300,300,300,300,300,300,300,300,300,300,300,300,300,300,300,300,300,300,300,300,300,300,300,300,300,300,300,300,300,300,300,300,93,660,93,93,93,93,93,93,93,93,93,93,93,93,93,93,93,93,93,93,93,93,720,93,93,93,93,93,93,93,93,93,300,300,300,300,300,300,300,300,300,300,300,300,300,300,300,300,300,300,300,300,300,300,300,300,300,300,300,300,300,300,300,300,720,93,720,93,93,93,93,93,93,93,93,93,93,93,93,93,93,93,93,93,93,93,93,93,93,93,93,93,93,93,93,93,300,300,300,300,300,300,300,300,300,300,300,300,300,300,300,300,300,300,300,300,300,300,300,300,300,300,300,300,300,300,300,300,93,93,720,93,93,93,93,93,93,93,93,93,93,93,93,93,93,93,93,93,93,93,93,93,93,93,93,93,93,93,93,93,300,300,300,300,300,300,300,300,300,300,300,300,300,300,300,300,300,300,300,300,300,300,300,300,300,300,300,300,300,300,300,300,93,93,93,660,93,93,93,93,93,93,93,93,660,93,93,93,93,93,93,93,93,93,93,93,93,93,93,93,93,93,93,660,300,300,300,300,300,300,300,300,300,300,300,300,300,300,300,300,300,300,300,300,300,300,300,300,300,300,300,300,300,300,300,300,93,93,93,93,93,93,93,93,93,93,93,93,93,93,93,93,93,93,93,93,93,93,93,93,93,93,93,93,660,93,93,93,300,300,300,300,300,300,300,300,300,300,300,300,300,300,300,300,300,300,300,300,300,300,300,300,300,300,300,300,300,300,300,300,93,93,93,93,93,93,93,93,93,93,93,720,93,93,93,93,93,720,93,93,720,93,93,93,93,93,93,93,93,93,93,93,300,300,300,300,300,300,300,300,300,300,300,300,300,300,300,300,300,300,300,300,300,300,300,300,300,300,300,300,300,300,300,300,93,93,660,93,93,93,93,93,93,93,93,93,93,93,720,93,93,720,93,93,93,93,660,93,93,93,93,93,93,93,93,93,300,300,300,300,300,300,300,300,300,300,300,300,300,300,300,300,300,300,300,300,300,300,300,300,300,300,300,300,300,300,300,300,93,93,93,93,93,93,93,93,93,93,93,93,93,93,93,93,93,93,93,93,720,93,93,93,93,93,93,93,93,93,93,93,300,300,300,300,300,300,300,300,300,300,300,300,300,300,300,300,300,300,300,300,300,300,300,300,300,300,300,300,300,300,300,300,93,93,720,93,93,93,93,93,93,720,93,93,93,93,93,93,93,93,93,93,93,93,93,93,93,93,93,660,93,93,93,93,300,300,300,300,300,300,300,300,300,300,300,300,300,300,300,300,300,300,300,300,300,300,300,300,300,300,300,300,300,300,300,300,93,93,93,93,93,93,93,93,93,93,93,93,93,93,93,93,720,93,93,93,93,93,93,93,93,93,93,720,660,93,93,93,300,300,300,300,300,300,300,300,300,300,300,300,300,300,300,300,300,300,300,300,300,300,300,300,300,300,300,300,300,300,300,300,93,93,93,93,93,93,93,93,93,93,93,93,93,93,93,93,93,93,93,93,93,93,93,93,93,93,93,93,93,93,93,93,300,300,300,300,300,300,300,300,300,300,300,300,300,300,300,300,300,300,300,300,300,300,300,300,300,300,300,300,300,300,300,300,93,93,93,93,93,93,93,93,660,93,93,93,93,93,93,93,93,93,93,93,93,93,660,93,93,660,93,93,93,93,93,93,300,300,300,300,300,300,300,300,300,300,300,300,300,300,300,300,300,300,300,300,300,300,300,300,300,300,300,300,300,300,300,300,93,93,93,93,93,93,93,93,93,93,93,93,93,93,93,93,93,93,93,93,93,720,93,93,93,93,93,93,93,93,93,93,300,300,300,300,300,300,300,300,300,300,300,300,300,300,300,300,300,300,300,300,300,300,300,300,300,300,300,300,300,300,300,300,720,93,93,93,93,93,93,93,93,93,93,660,93,93,93,93,93,93,93,93,93,93,93,660,93,93,93,93,93,93,93,93,300,300,300,300,300,300,300,300,300,300,300,300,300,300,300,300,300,300,300,300,300,300,300,300,300,300,300,300,300,300,300,300,93,93,720,93,93,93,93,93,93,93,93,93,93,93,93,93,93,93,93,93,93,93,93,93,93,93,93,93,93,720,720,660,300,300,300,300,300,300,300,300,300,300,300,300,300,300,300,300,300,300,300,300,300,300,300,300,300,300,300,300,300,300,300,300,93,93,93,93,93,93,720,93,660,93,93,93,93,720,93,660,93,93,93,93,93,660,93,93,720,93,93,93,93,93,93,93,300,300,300,300,300,300,300,300,300,300,300,300,300,300,300,300,300,300,300,300,300,300,300,300,300,300,300,300,300,300,300,300,93,93,93,93,93,93,93,93,93,93,93,660,93,93,93,93,93,93,93,93,660,720,93,720,93,93,93,93,93,93,93,93,300,300,300,300,300,300,300,300,300,300,300,300,300,300,300,300,300,300,300,300,300,300,300,300,300,300,300,300,300,300,300,300,93,93,93,93,93,93,93,660,720,93,93,93,93,93,93,93,93,93,93,93,93,93,93,93,93,720,93,93,720,93,93,93,300,300,300,300,300,300,300,300,300,300,300,300,300,300,300,300,300,300,300,300,300,300,300,300,300,300,300,300,300,300,300,300,93,93,93,93,93,660,93,93,93,93,93,93,93,93,93,93,93,93,93,93,93,720,93,93,93,93,93,93,93,93,93,93,300,300,300,300,300,300,300,300,300,300,300,300,300,300,300,300,300,300,300,300,300,300,300,300,300,300,300,300,300,300,300,300,93,93,93,93,93,93,93,93,93,93,93,93,93,720,93,93,93,93,93,93,93,93,93,93,93,93,93,93,93,93,93,93,300,300,300,300,300,300,300,300,300,300,300,300,300,300,300,300,300,300,300,300,300,300,300,300,300,300,300,300,300,300,300,300,93,93,93,93,93,93,93,93,93,93,660,660,93,93,93,93,93,720,93,93,93,93,93,93,660,93,93,660,93,93,93,93,300,300,300,300,300,300,300,300,300,300,300,300,300,300,300,300,300,300,300,300,300,300,300,300,300,300,300,300,300,300,300,300,93,93,93,93,720,93,93,660,93,720,93,93,93,93,93,93,720,93,720,93,93,93,93,720,93,93,93,93,93,93,93,93,300,300,300,300,300,300,300,300,300,300,300,300,300,300,300,300,300,300,300,300,300,300,300,300,300,300,300,300,300,300,300,300,93,93,93,93,93,93,93,93,93,720,93,93,93,93,93,93,93,93,93,93,93,93,93,93,93,93,93,93,93,93,93,93,300,300,300,300,300,300,300,300,300,300,300,300,300,300,300,300,300,300,300,300,300,300,300,300,300,300,300,300,300,300,300,300,93,93,93,93,93,93,93,93,93,93,93,93,93,93,93,93,93,93,93,720,93,93,93,93,93,93,93,93,93,93,93,93,300,300,300,300,300,300,300,300,300,300,300,300,300,300,300,300,300,300,300,300,300,300,300,300,300,300,300,300,300,300,300,300,93,93,93,93,93,93,93,93,93,93,660,93,660,93,93,93,93,93,93,93,720,720,93,93,93,93,93,93,93,93,93,93,300,300,300,300,300,300,300,300,300,300,300,300,300,300,300,300,300,300,300,300,300,300,300,300,300,300,300,300,300,300,300,300,93,93,93,93,93,93,93,93,93,93,93,93,93,93,660,93,93,93,720,93,93,93,93,660,93,93,93,93,93,93,93,93,300,300,300,300,300,300,300,300,300,300,300,300,300,300,300,300,300,300,300,300,300,300,300,300,300,300,300,300,300,300,300,300,93,93,93,93,93,93,93,660,93,93,660,93,93,93,93,93,93,93,93,93,93,93,720,93,93,93,720,93,93,93,93,93,300,300,300,300,300,300,300,300,300,300,300,300,300,300,300,300,300,300,300,300,300,300,300,300,300,300,300,300,300,300,300,300,93,93,93,93,660,93,660,93,93,93,660,93,93,93,93,93,93,93,93,93,93,93,93,93,93,93,93,93,93,93,93,93,300,300,300,300,300,300,300,300,300,300,300,300,300,300,300,300,300,300,300,300,300,300,300,300,300,300,300,300,300,300,300,300</data>
  </layer>
</map>
