<?xml version="1.0" encoding="UTF-8"?>
<map version="1.10" tiledversion="1.11.2" orientation="orthogonal" renderorder="right-down" width="94" height="62" tilewidth="32" tileheight="32" infinite="0" nextlayerid="5" nextobjectid="1">
 <tileset firstgid="1" name="Pro all tiles" tilewidth="32" tileheight="32" tilecount="1024" columns="32">
  <image source="Tiles/Pro all tiles.png" width="1024" height="1024"/>
 </tileset>
 <tileset firstgid="1025" name="new tilesert2" tilewidth="32" tileheight="32" tilecount="936" columns="4">
  <image source="Tiles/new tilesert.png" width="128" height="7488"/>
 </tileset>
 <tileset firstgid="1961" name="tile group" tilewidth="32" tileheight="32" tilecount="21000" columns="140">
  <image source="Tiles/tile group.png" width="4480" height="4800"/>
  <wangsets>
   <wangset name="Terrains" type="corner" tile="-1">
    <wangcolor name="Bump" color="#ff0000" tile="-1" probability="1"/>
    <wangcolor name="Bump 2" color="#00ff00" tile="-1" probability="1"/>
    <wangcolor name="Grassy bump 2" color="#0000ff" tile="-1" probability="1"/>
    <wangtile tileid="4493" wangid="0,0,0,1,0,0,0,0"/>
    <wangtile tileid="4494" wangid="0,0,0,1,0,1,0,0"/>
    <wangtile tileid="4495" wangid="0,0,0,0,0,1,0,0"/>
    <wangtile tileid="4532" wangid="0,0,0,2,0,0,0,0"/>
    <wangtile tileid="4533" wangid="0,0,0,2,0,2,0,0"/>
    <wangtile tileid="4534" wangid="0,0,0,0,0,2,0,0"/>
    <wangtile tileid="4535" wangid="0,0,0,3,0,0,0,0"/>
    <wangtile tileid="4536" wangid="0,0,0,3,0,3,0,0"/>
    <wangtile tileid="4537" wangid="0,0,0,0,0,3,0,0"/>
    <wangtile tileid="4633" wangid="0,1,0,1,0,0,0,0"/>
    <wangtile tileid="4634" wangid="0,1,0,1,0,1,0,1"/>
    <wangtile tileid="4635" wangid="0,0,0,0,0,1,0,1"/>
    <wangtile tileid="4672" wangid="0,2,0,2,0,0,0,0"/>
    <wangtile tileid="4673" wangid="0,2,0,2,0,2,0,2"/>
    <wangtile tileid="4674" wangid="0,0,0,0,0,2,0,2"/>
    <wangtile tileid="4675" wangid="0,3,0,3,0,0,0,0"/>
    <wangtile tileid="4676" wangid="0,3,0,3,0,3,0,3"/>
    <wangtile tileid="4677" wangid="0,0,0,0,0,3,0,3"/>
    <wangtile tileid="4773" wangid="0,1,0,0,0,0,0,0"/>
    <wangtile tileid="4774" wangid="0,1,0,0,0,0,0,1"/>
    <wangtile tileid="4775" wangid="0,0,0,0,0,0,0,1"/>
    <wangtile tileid="4812" wangid="0,2,0,0,0,0,0,0"/>
    <wangtile tileid="4813" wangid="0,2,0,0,0,0,0,2"/>
    <wangtile tileid="4814" wangid="0,0,0,0,0,0,0,2"/>
    <wangtile tileid="4815" wangid="0,3,0,0,0,0,0,0"/>
    <wangtile tileid="4816" wangid="0,3,0,0,0,0,0,3"/>
    <wangtile tileid="4817" wangid="0,0,0,0,0,0,0,3"/>
    <wangtile tileid="4913" wangid="0,1,0,0,0,1,0,1"/>
    <wangtile tileid="4914" wangid="0,1,0,1,0,0,0,1"/>
    <wangtile tileid="4952" wangid="0,2,0,0,0,2,0,2"/>
    <wangtile tileid="4953" wangid="0,2,0,2,0,0,0,2"/>
    <wangtile tileid="4955" wangid="0,3,0,0,0,3,0,3"/>
    <wangtile tileid="4956" wangid="0,3,0,3,0,0,0,3"/>
    <wangtile tileid="5053" wangid="0,0,0,1,0,1,0,1"/>
    <wangtile tileid="5054" wangid="0,1,0,1,0,1,0,0"/>
    <wangtile tileid="5092" wangid="0,0,0,2,0,2,0,2"/>
    <wangtile tileid="5093" wangid="0,2,0,2,0,2,0,0"/>
    <wangtile tileid="5095" wangid="0,0,0,3,0,3,0,3"/>
    <wangtile tileid="5096" wangid="0,3,0,3,0,3,0,0"/>
   </wangset>
  </wangsets>
 </tileset>
 <layer id="1" name="Layer 1" width="94" height="62">
  <data encoding="csv">
4762,4762,4762,4762,4762,4762,4762,4762,4762,4202,4204,4762,4762,4762,4762,4762,4762,4762,4762,4762,4762,4762,4762,4762,4762,4762,4762,4762,4762,4763,4762,4762,4762,4762,4762,4762,4762,4762,4762,5184,4762,4762,4762,4762,4762,4762,5184,5184,4762,4762,4762,4762,4762,4762,4762,4762,5184,4762,4762,4762,4762,4762,4763,4762,4762,4762,4762,4762,4762,4762,4762,4762,4762,4762,4762,6634,6634,6634,6634,6634,6634,6634,6634,6634,6634,6634,6634,6634,6631,6631,6631,6631,6631,6634,
4762,4762,4762,4762,4762,4762,4762,6640,6640,6640,6640,6640,6640,6640,6640,6640,6640,6640,6640,6640,6634,6634,4762,4762,4762,4762,4762,4762,4762,4762,4762,4762,4762,4762,4762,4762,4762,4762,4762,5184,4762,4762,4762,4762,4762,4762,5184,4762,4762,5184,4762,4762,4762,4762,4762,5184,4762,4762,4762,4762,4762,4762,4762,4762,4261,4261,4261,4261,4261,4261,4261,4261,4762,4762,4762,4762,6634,6634,6634,6634,6634,6634,6634,6634,6634,6634,6634,6634,6631,6631,6631,6631,6631,6631,
4762,4762,4762,4762,6640,6640,6640,6640,6640,6640,6640,6640,6640,6640,6634,6634,6634,6634,6634,6634,6634,6634,6634,6634,6634,6634,6634,6634,6634,6634,6634,6634,6634,6634,4762,4762,4762,4762,4762,4762,4762,4762,4762,4762,4762,4762,4762,4762,4762,4762,4762,4762,4762,4762,4762,4762,4762,4762,4762,4762,4762,4762,4762,4762,4261,4261,4261,4261,4261,4261,4261,4261,4762,4762,4762,4762,4762,6634,6634,6634,6634,6634,6634,6634,6634,6634,6634,6634,6631,6631,6631,6631,6631,6631,
4762,4762,6640,6640,6640,6640,6640,6640,6640,6640,6640,6640,6640,6634,6634,6634,6634,6634,6634,6634,6634,6634,6634,6634,6634,6634,6634,6634,6634,6634,6634,6634,6634,6634,6634,4762,5184,5184,4762,4762,4762,4762,4762,4261,4261,4261,4261,4261,4261,4261,4261,4261,4261,4261,4261,4261,4261,4261,4261,4261,4261,4261,4261,4261,4261,4261,4261,4261,4261,4261,4261,4261,4261,4762,4762,80,4762,4762,6634,6634,6634,6634,6634,6634,6634,6634,6634,6634,6631,6631,6631,6631,6631,6631,
4762,6640,6640,6640,6640,6640,6640,6640,6634,6634,6634,6634,6634,6634,6634,6634,6634,6634,6634,6634,6634,6634,6634,6634,6634,6634,6634,6634,6634,6634,6634,6634,6634,6634,6634,4762,4762,4762,4762,4762,4762,4762,4762,4261,4261,4261,4261,4261,4261,4261,4261,4261,4261,4261,4261,4261,4261,4261,4261,4261,4261,4261,4261,4261,4261,4261,4261,4261,4261,4261,4261,4261,4261,4762,4762,4762,4762,4762,6634,6634,6634,6634,6634,6634,6634,6634,6634,6634,6631,6631,6631,6631,6631,6631,
6640,6640,6640,6640,6640,6640,6640,6634,6634,6634,6634,6634,6634,6634,6634,6634,6640,6640,6640,6640,6640,6640,6640,6640,6640,6640,6640,6634,6634,6634,6634,6634,6634,6634,6634,4762,4762,4762,4762,4261,4261,4261,4261,4261,4261,4261,4261,4261,4261,4261,4261,4261,4261,4261,4261,4261,4261,4261,4261,4261,4261,4261,4261,4261,4261,4261,4261,4261,4261,4261,4261,4261,4261,80,4762,4762,4762,4762,4762,6634,6634,6634,6634,6634,6634,6634,6634,6634,6634,6631,6631,6631,6631,6631,
6640,6640,6640,6640,6640,6640,6634,6634,6634,6634,6634,6634,6634,6777,6777,6634,6640,6640,6640,6640,6640,6640,6640,6640,6640,6640,6640,6640,6640,6640,6634,6634,6634,6634,6634,6634,4762,4762,4762,4261,4261,4261,4261,4261,4261,4261,4261,4261,4261,4261,4261,4261,4261,4261,4261,4261,4261,4261,4261,4261,4261,4261,4261,4261,4261,4261,4261,4261,4261,4261,4261,4762,4762,80,4762,4762,4762,4762,4762,6634,6634,6634,6634,6634,6634,6634,6634,6634,6631,6631,6631,6631,6631,6631,
6640,6640,6640,6640,6640,6640,6634,6634,6634,6634,6634,6634,6634,6634,6634,6640,6640,6640,6628,6628,6628,6628,6628,6628,6628,6640,6640,6640,6640,6640,6640,6634,6634,6634,6634,6634,6634,4762,4762,4261,4261,4261,4261,4261,4261,4261,4261,4261,4261,4261,4261,4261,4261,4261,4261,4261,4261,4261,4261,4261,4261,4261,4261,4261,4127,4128,4128,4128,4129,4261,4261,4762,4762,80,4762,4762,4762,4762,6634,6634,6634,6634,6634,6634,6634,6634,6634,6634,6631,6631,6631,6631,6631,6631,
6640,6640,6640,6640,6640,6640,6634,6634,6634,6634,6634,6634,6634,6634,6634,6640,6640,6640,6628,6628,6628,6628,6628,6628,6628,6628,6628,6628,6640,6640,6640,6640,6634,6634,6634,6634,6634,6634,4762,4261,4261,4261,4261,4261,4127,4128,4128,4128,4128,4128,4128,4128,4128,4128,4128,4128,4128,4128,4129,4261,4261,4261,4261,4261,4267,4268,4268,4268,4269,4261,4261,4762,4762,4762,4762,4762,4762,6634,6634,6634,6634,6634,6634,6634,6634,6634,6634,6634,6631,6631,6631,6631,6631,6631,
6640,6640,6640,6640,6640,6640,6640,6640,6640,6640,6640,6634,6634,6634,6634,6640,6640,6628,6628,6640,6640,6640,6640,6640,6640,6628,6628,6628,6628,6640,6640,6640,6640,6634,6634,6634,6634,6634,4762,4762,4762,4261,4261,4261,4407,4408,4408,4408,4408,4408,4408,4408,4408,4408,4408,4408,4687,4268,4548,4128,4128,4128,4128,4128,4547,4268,4268,4268,4269,4261,4261,4762,4762,4762,4762,4762,6634,6634,6634,6634,6634,6634,6634,6634,6634,6634,6634,6634,6634,6631,6631,6631,6631,6631,
6631,6631,6631,6631,6640,6640,6640,6640,6640,6640,6640,6634,6634,6640,6640,6640,6628,6628,6640,6640,6640,6640,6640,6640,6640,6640,6640,6628,6628,6628,6640,6640,6640,6634,6634,6634,6634,6634,6634,6634,6634,4260,4261,4261,4261,4261,4261,4261,4261,4261,4261,4261,4261,4261,4261,4261,4267,4268,4688,4408,4408,4408,4687,4688,4408,4408,4408,4408,4409,4261,4261,4762,4762,4762,4762,6634,6634,6634,6634,6634,6634,6634,6634,6634,6634,6634,6634,6634,7059,6634,6631,6631,6631,6631,
6631,6631,6631,6631,6631,6631,6631,6631,6628,6628,6628,6628,6628,6628,6628,6628,6628,6628,6640,6640,6640,6640,6640,6640,6640,6640,6640,6628,6628,6628,6628,6640,6640,6640,6634,6634,6634,6634,6634,6634,6634,4260,4261,4261,4261,4261,4261,4261,4261,4261,4261,4261,4261,4261,4261,4261,4267,4268,4269,4261,4261,4261,4267,4269,4268,4261,4261,4261,4261,4261,4261,4762,4762,4762,4762,6634,6637,6637,6634,6634,6634,6634,6634,6634,6634,6634,6634,6634,6634,7059,6634,6631,6631,6631,
6631,6631,6631,6631,6631,6631,6631,6631,6628,6628,6628,6628,6628,6628,6640,6640,6640,6640,6640,6640,6640,6640,6640,6640,6640,6640,6640,6640,6628,6628,6628,6640,6640,6640,6640,6640,6634,6634,6634,6634,6634,4260,4261,4261,4261,4261,4261,4261,4261,4261,4261,4261,4261,4261,4261,4261,4267,4268,4269,4261,5672,4261,4267,4269,4261,4261,4261,4261,4261,4261,4261,4762,4762,4762,4762,6634,6637,6637,6634,6634,6634,6634,6634,6634,6634,6634,6634,6634,6634,6634,6634,6631,6631,6631,
6640,6640,6640,7059,6640,6640,6640,6640,6640,6640,6637,6637,6640,6640,6637,6640,6640,6640,6640,6640,6640,6640,6640,6640,6640,6640,6640,6640,6640,6628,6628,6640,6640,6640,6640,6640,6634,6634,6634,6634,6634,4260,4261,4261,4261,4261,4261,4261,4261,4261,4261,4261,4261,4261,4261,4261,4267,4268,4269,4261,5672,4261,4267,4269,4261,4261,4261,4261,4261,4261,4261,4762,4762,80,4762,4762,6634,6634,6634,6634,6634,6634,6634,6634,6634,6634,6634,6634,6634,6634,6634,6631,6631,6631,
6640,6640,6640,6640,6640,6640,6640,6640,6640,6640,6634,6634,6634,6634,6634,6640,6640,6634,6634,6634,6640,6640,6640,6640,6640,6640,6640,6640,6640,6628,6628,6640,6640,6640,6640,6640,6640,6634,6634,6634,6634,4260,4261,4261,4261,4261,4261,4261,4261,4261,4261,4261,4261,4261,4261,4261,4267,4268,4269,4261,5672,4261,4267,4269,4261,4261,4261,4261,4261,4261,4261,4762,4762,4762,4762,4762,4762,4762,4762,4762,4762,4762,6634,6634,6634,6634,6634,6634,6634,6634,7059,6634,6631,6631,
6640,6640,6640,6640,6640,6640,6640,6640,6640,6640,6634,6634,6634,6634,6634,6634,6634,6634,6634,6634,6634,6640,6640,6640,6640,6640,6640,6640,6640,6628,6628,6640,6640,6640,6640,6640,6640,6634,6634,6634,6634,4260,4261,4261,4261,4261,4261,4261,4261,4261,4261,4261,4261,4261,4261,4261,4267,4268,4269,4261,5672,4261,4267,4269,4261,4261,4261,4261,4261,4261,4261,4762,4762,4762,4762,4762,4762,4762,4762,4762,4762,4762,4762,4762,6634,6634,6634,6634,6634,6634,6634,6634,6631,6631,
6634,6634,6640,6640,6640,6640,6640,6640,6640,6640,6634,6634,6634,6634,6634,6634,6634,6634,6634,6640,6640,6640,6640,6640,6640,6640,6640,6640,6640,6628,6628,6640,6640,6640,6640,6640,6640,6634,6634,6634,6634,4260,4261,4127,4128,4128,4128,4128,4128,4128,4128,4128,4128,4128,4128,4128,4547,4268,4269,4261,5672,4261,4267,4269,4261,4261,4261,4261,4261,4261,4261,4261,4261,4261,4261,4261,4261,4261,4261,4261,4261,4762,4762,4762,6634,6634,6634,6634,6634,6634,6634,6634,6631,6631,
6634,6634,6634,6634,6640,6640,6640,6640,6640,6640,6634,6634,6634,6634,6634,6634,6634,6634,6640,6640,6640,6640,6640,6640,6640,6640,6640,6628,6628,6628,6628,6640,6640,6640,6640,6640,6640,6634,6634,6634,6634,4260,4261,4407,4408,4408,4408,4408,4408,4408,4408,4408,4408,4408,4408,4408,4408,4408,4409,4261,5672,4261,4267,4261,4128,4128,4128,4128,4128,4128,4128,4128,4261,4128,4128,4128,4128,4128,4128,4129,4261,4762,4762,4762,6634,6634,6634,6634,6634,6634,6634,6634,6631,6631,
4203,4203,4203,4203,4203,4203,4203,4203,4203,6634,6634,6634,6634,6634,6634,6634,6634,6640,6640,6640,6640,6640,6640,6640,6640,6628,6628,6628,6628,6628,6640,6640,6640,6640,6640,6640,6640,6634,6634,6634,6634,4260,4540,4401,4401,4401,4401,4401,4401,4401,4401,4401,4541,4261,4261,4261,4261,4261,4261,5672,5672,4261,4267,4261,4261,4688,4408,4408,4408,4408,4408,4408,4408,4408,4408,4408,4408,4408,4408,4409,4261,4762,4762,4762,6634,6634,6634,6634,6634,6634,6634,6634,6631,6631,
4343,4483,4203,4203,4203,4203,4203,4203,4203,4203,4203,6634,6634,6634,6634,6634,6640,6640,6640,6640,6640,6640,6640,6640,6628,6628,6628,6628,6628,6628,6640,6640,6640,6640,6640,6640,6634,6634,6634,6634,6634,4260,4262,6643,6643,6643,6643,6643,6643,6643,6643,6643,4260,5672,5672,5672,5672,5672,5672,5672,5672,4261,4407,4687,4261,4269,6643,6643,6643,6643,6643,6643,6643,6643,6643,6643,6643,6643,6643,6643,4261,4762,4762,4762,6634,6634,6634,6634,6634,6634,6634,6634,6631,6631,
4762,4342,4343,4343,4343,4483,4203,4203,4203,4203,4203,4203,6634,6634,6634,6640,6640,6640,6640,6640,6640,6640,6628,6628,6628,6628,6628,6628,6640,6640,6640,6640,6640,6634,6634,6634,6634,6634,6634,6634,4762,4260,4262,6643,6643,6643,6643,6643,6643,6643,6643,6643,4260,5672,5672,5672,4261,4261,4261,4261,4261,4261,4261,4267,4261,4269,6643,6643,6643,6643,6643,6643,6643,6643,6643,6643,6643,6643,6643,6643,4261,4762,4762,6634,6634,6634,6634,6634,6634,6634,6634,6631,6631,6631,
4762,4762,4762,4762,4762,4342,4483,4203,4203,4203,4203,4203,6634,6634,6634,6640,6640,6640,6640,6628,6628,6628,6628,6628,6628,6628,6640,6640,6640,6640,6640,6640,6634,6634,6634,6634,6634,6634,6634,6634,4762,4260,4261,4121,4121,4121,4121,4121,4121,4399,4762,4397,4681,5672,5672,5672,4261,4261,4261,4261,4261,4261,4261,4407,4687,4261,4128,4128,4128,4128,4128,4128,4128,4128,4128,4128,4128,4128,4128,4129,4261,4762,4762,6634,6634,6634,6634,6634,6634,6634,6634,6631,6631,6631,
4762,4762,4762,4762,4762,4762,4202,4203,4203,4203,4203,6634,6634,6634,6634,6640,6640,6640,6628,6628,6628,6628,6628,6628,6628,6640,6640,6640,6640,6640,6634,6634,6634,6634,6634,6634,6634,6634,6634,4762,4762,4261,4261,4261,4261,4261,4261,4261,4261,4261,4261,4261,4261,4261,4261,4261,4261,4261,4261,4261,4261,4261,4261,4261,4267,4688,4408,4408,4408,4408,4408,4687,4688,4408,4408,4408,4408,4408,4687,4269,4261,4762,4762,6634,6634,6634,6634,6634,6634,6634,6631,6631,6631,6631,
4762,4762,4762,4762,4762,4062,4623,4203,4203,4203,4203,6634,6634,6634,6634,6640,6640,6628,6628,6628,6628,6628,6628,6628,6640,6640,6640,6640,6634,6634,6634,6634,6634,6634,6634,6634,4762,4762,4762,4762,4762,4762,4762,4762,4762,4762,4762,4762,4762,4762,4762,4762,4762,4762,4762,4762,4762,4261,4261,4261,4261,4261,4261,4261,4267,4269,4261,4261,4261,4261,4261,4267,4269,4261,4261,4261,4261,4261,4267,4269,4261,4762,4762,6634,6634,6634,6634,6634,6634,6634,6631,6631,6631,6631,
4762,4762,4762,4762,4762,4202,4203,4203,4203,6634,6634,6634,6634,6634,6640,6640,6640,6628,6628,6628,6628,6628,6628,6640,6640,6640,6640,6634,6634,6634,6634,6634,6634,6622,4762,4762,4762,4762,4762,4762,4763,4762,4762,4762,4762,4762,4762,4762,4762,4762,4762,4762,4762,4762,5672,4762,4762,4261,4261,4261,4261,4261,4261,4261,4267,4269,4261,6637,6637,6637,4261,4267,4269,4261,4261,4261,4261,4261,4267,4269,4261,4762,4762,6634,6634,6634,6634,6634,6634,6634,6631,6631,6631,6631,
4762,4762,4762,4762,4062,4623,4203,4203,6634,6634,6634,6634,6634,6634,6640,6640,6640,6628,6628,6628,6628,6628,6640,6640,6640,6640,6634,6634,6634,6634,6634,4762,4762,4762,4762,4762,4762,4762,4762,4762,4762,4762,4762,4762,4762,4762,4762,4762,5672,5672,5672,4762,4762,4762,4762,4762,4762,4261,4261,4261,4261,4261,4261,4261,4267,4269,4261,6637,6637,6637,4261,4267,4269,4261,4261,4261,4261,4261,4267,4269,4261,4762,4762,6634,6634,6634,6634,6634,6634,6631,6631,6631,6631,6631,
4762,4762,4762,4762,4202,4203,4203,4203,6634,6634,6634,6634,6634,6640,6640,6640,6628,6628,6628,6628,6628,6640,6640,6640,6640,6634,6634,6634,6634,6634,4762,4762,4762,4762,6634,6634,6634,6634,6634,6634,5672,6634,6634,6634,6634,6640,6640,6640,6640,6640,4762,4762,4762,4762,4762,4762,4762,4261,4261,4261,4261,4261,4261,4261,4267,4269,4261,6637,6637,6637,4261,4267,4269,4261,4261,4261,4261,4261,4267,4269,4261,4762,6634,6634,6634,6634,6634,6634,6634,6631,6631,6631,6631,6631,
4762,4762,4762,4762,4202,4203,4203,4203,4203,6634,6634,6634,6634,6640,6640,6640,6628,6628,6628,6628,6640,6640,6640,6640,6634,6634,6634,6634,6634,4762,4763,4762,4762,6634,6634,6634,6634,6634,6634,6634,6634,6634,6634,6634,6634,6634,6634,6634,6634,4762,4762,4762,4762,4762,4762,4762,4762,4261,4127,4128,4128,4128,4128,4128,4547,4269,4261,4261,4261,4261,4261,4267,4269,4261,4261,4261,4261,4261,4267,4269,4261,4762,6634,6634,6634,6634,6634,6634,6634,6631,6631,6631,6631,6631,
4762,4762,4762,4762,4342,4483,4203,4203,4203,6634,6634,6634,6634,6640,6640,6628,6628,6628,6628,6628,6640,6640,6640,6634,6634,6634,6634,6634,6622,4762,4763,4762,6634,6634,6634,6634,6634,6634,6634,6634,6634,6634,6634,6634,6634,6634,6634,6634,6634,4762,4762,4762,4762,4762,4762,4762,4762,4261,4407,4408,4408,4408,4408,4408,4687,4548,4128,4128,4128,4128,4128,4547,4548,4128,4128,4128,4128,4128,4547,4269,4261,4762,6634,6634,6634,6634,6634,6634,6634,6634,6631,6631,6631,6631,
4762,4762,4762,4762,4762,4202,4203,4203,4203,6634,6634,6634,6634,6640,6640,6640,6631,6631,6631,6640,6640,6640,6634,6634,6634,6634,6634,6634,6634,6634,6634,6634,6634,6634,6634,6634,6640,6640,6640,6640,6640,6640,6640,6640,6640,6640,6640,6640,6634,6634,6634,6634,4762,4762,4762,4762,4762,4261,4261,4261,4261,4261,4261,4261,4267,4688,4408,4687,4268,4688,4408,4408,4408,4408,4408,4408,4408,4408,4408,4409,4261,4762,6634,6634,6634,6634,6634,6634,6634,6634,6634,6631,6631,6631,
4762,4762,4762,4762,4762,4202,4203,4203,4203,6634,6634,6634,6634,6640,6640,6628,6631,6628,6631,6640,6640,6640,6634,6634,6634,6634,6634,6634,6634,6634,6634,6634,6634,6634,6634,6634,6640,6640,6640,6640,6640,6640,6640,6640,6640,6640,6640,6640,6634,6634,4762,6634,4762,4762,4762,4762,4762,4261,4261,4261,4261,4261,4261,4127,4547,4269,4261,4267,4268,4269,4261,4261,4261,4261,4261,4261,4261,4261,4261,4261,4261,4762,6634,6634,6634,6634,6634,6634,6634,6634,6634,6631,6631,6631,
4762,4762,4762,4762,4762,4202,4203,4203,4343,6634,6634,6634,6634,6640,6640,6628,6628,6628,6628,6640,6640,6640,6640,6640,6634,6634,6634,6634,6634,6634,6634,6634,6634,6640,6640,6640,6640,6640,6640,6640,6640,6640,6640,6640,6640,6640,6640,6640,6640,6640,6634,6634,4762,4762,4762,4762,4762,4762,4762,4261,4261,4261,4261,4267,4268,4269,4261,4267,4268,4269,4261,4261,4261,4261,4261,4261,4261,4261,4261,4261,4261,4762,4762,6634,6634,6634,6634,6634,6634,6634,6634,6631,6631,6631,
4762,4762,4762,4762,4762,4202,4482,4344,4762,4762,6634,6634,6634,6640,6640,6628,6628,6628,6628,6640,6640,6640,6640,6640,6640,6640,6634,6640,6640,6640,6640,6640,6640,6640,6640,6640,6640,6640,6628,6628,6628,6628,6628,6628,6628,6640,6640,6640,6640,6640,6640,6640,6640,6640,6640,4762,4762,4762,4762,4261,4261,4261,4261,4267,4268,4269,4261,4267,4261,4269,4261,4261,4261,4261,4261,4261,4261,4261,4261,4762,4762,4762,4762,6634,6634,6634,6634,6634,6634,6634,6634,6631,6631,6631,
4762,4762,4762,4762,4762,4202,4204,4762,4762,4762,6634,6634,6634,6640,6628,6628,6628,6628,6628,6628,6640,6640,6640,6640,6640,6640,6640,6640,6640,6640,6640,6640,6640,6640,6640,6640,6628,6628,6628,6628,6628,6628,6628,6628,6628,6628,6640,6640,6640,6640,6640,6640,6640,6640,6640,4762,4762,4762,4762,4261,4261,4261,4261,4261,4261,4261,4261,4261,4261,4261,4261,4261,4261,4261,4261,4261,4261,4261,4261,4762,4762,4762,4762,6634,6634,6634,6634,6634,6634,6634,6631,6631,6631,6631,
4762,4762,4762,4762,4762,4202,4204,4762,4762,4762,6634,6634,6634,6640,6628,6628,6628,6628,6628,6628,6628,6640,6640,6640,6640,6640,6640,6640,6640,6640,6640,6640,6622,6640,6640,6628,6628,6628,6628,6628,6628,6628,6628,6628,6628,6628,6628,6640,6640,6640,6640,6640,6640,6640,6640,6640,4762,4762,4762,4762,4762,4762,4762,4202,4203,4204,4762,4202,4203,4204,4762,4762,4762,4762,4762,4762,4762,4762,4762,4762,4762,4762,6634,6634,6634,6634,6634,6634,6634,6634,6631,6631,6631,6631,
4762,4762,4762,4762,4762,4202,4622,4063,4063,4063,6634,6634,6634,6640,6640,6640,6628,6628,6628,6628,6628,6628,6628,6640,6640,6640,6640,6640,6640,6640,6628,6640,6622,6628,6628,6628,6628,6628,6628,6628,6628,6628,6628,6628,6628,6628,6628,6640,6640,6640,6640,6640,6640,6640,6640,6640,4762,4762,4762,4762,4762,4762,4762,4202,4203,4204,4762,4202,4203,4204,4762,4762,4762,4762,4762,4762,4762,4762,4762,4762,4762,4762,6634,6634,6634,6634,6634,6634,6634,6631,6631,6631,6631,6631,
4762,4762,4762,4762,4762,4202,4203,4203,4203,6634,6634,6634,6634,6640,6640,6640,6640,6640,6628,6628,6628,6628,6628,6628,6640,6640,6640,6640,6640,6640,6628,6628,6628,6628,6628,6628,6628,6628,6628,6628,6628,6628,6628,6628,6628,6628,6628,6640,6640,6640,6640,6640,6640,6640,6640,6640,4762,4762,4762,4762,4762,4762,4762,4202,4203,4622,4063,4623,4203,4204,4762,4762,4762,4762,4762,4762,4762,4762,4762,4762,4762,6634,6634,6634,6634,6634,6634,6634,6634,6631,6631,6631,6631,6631,
4762,4762,4762,4762,4762,4202,4203,4203,6634,6634,6634,6634,6634,6634,6640,6640,6640,6640,6640,6628,6628,6628,6628,6628,6628,6628,6628,6628,6628,6628,6628,6628,6628,6628,6628,6628,6628,6628,6628,6628,6628,6628,6628,6640,6640,6640,6628,6640,6640,6640,6640,6640,6640,6640,6640,6640,4762,4762,4762,4762,4762,4762,4762,4202,4203,4203,4203,4203,4482,4344,4762,4762,4762,4762,4762,4762,4762,4762,4762,4762,4762,6634,6634,6634,6634,6634,6634,6634,6634,6634,6631,6631,6631,6631,
4762,4762,4762,4762,4762,4342,4483,4203,6634,6634,6634,6634,6634,6634,6634,6634,6640,6640,6640,6640,6640,6628,6628,6628,6628,6628,6628,6628,6628,6628,6628,6628,6628,6628,6628,6628,6640,6640,6640,6640,6640,6640,6640,6640,6640,6640,6628,6640,6640,6640,6640,6640,6640,6640,6640,4762,4762,4762,4762,4762,4762,4762,4062,4623,4203,4203,4203,4203,4204,4762,4762,4762,4762,4762,4762,4762,4762,4762,4762,4762,6634,6634,6634,6634,6634,6634,6634,6634,6634,6631,6631,6631,6631,6631,
4762,4762,4762,4762,4762,4762,4202,4203,4203,6634,6634,6634,6634,6634,6634,6634,6634,6640,6640,6640,6640,6628,6628,6628,6628,6628,6628,6628,6628,6628,6628,6628,6640,6640,6640,6640,6640,6640,6640,6640,6640,6640,6640,6640,6640,6640,6640,6640,6640,6640,6640,6640,6640,6640,6640,4762,4762,4062,4063,4063,4063,4063,4623,4203,4482,4343,4483,4203,4204,4762,4762,4762,4762,4762,4762,4762,4762,6634,6634,6634,6634,6634,6634,6634,6634,6634,6634,6634,6634,6631,6631,6631,6631,6631,
4762,4762,4762,4762,4762,4762,4202,4203,4203,6634,6634,6634,6634,6634,6634,6634,6634,6634,6640,6640,6640,6640,6640,6640,6640,6640,6640,6640,6640,6628,6628,6640,6640,6640,6640,6640,6640,6634,6634,6634,6634,6634,6640,6640,6640,6640,6640,6640,6640,6640,6640,6640,6640,6640,4063,4063,4063,4623,4203,4203,4203,4203,4482,4343,4344,4762,4202,4203,4622,4064,4762,4762,4762,4762,4762,6634,6634,6634,6634,6634,6634,6634,6634,6634,6634,6634,6634,6919,6631,6631,6631,6631,6631,6634,
4762,4762,4762,4762,4762,4762,4202,4203,4203,6640,6634,6634,6634,6634,6634,6634,6634,6634,6634,6640,6640,6640,6640,6640,6640,6640,6640,6640,6640,6640,6640,6640,6640,6640,6640,6634,6634,6634,6634,6634,6634,6634,6640,6640,6640,6640,6640,6640,6640,6640,6640,6640,6640,4203,4203,4203,4482,4343,4343,4343,4343,4343,4344,4762,4762,4762,4202,4203,4203,4204,4762,4762,6634,6634,6634,6634,6634,6634,6634,6634,6634,6634,6634,6634,6634,6634,6634,6634,6631,6631,6631,6631,6631,6634,
4762,4762,4762,4762,4762,4762,4202,4203,4203,4203,6634,6634,6634,6634,6634,6634,6634,6634,6634,6634,6640,6640,6640,6640,6640,6640,6640,6640,6640,6640,6640,6640,6640,6640,6640,6634,6634,6634,6634,6634,6634,6634,6640,6640,6640,6640,6640,6640,4203,4203,4203,4203,4203,4203,4482,4343,4344,4762,4762,4762,4762,2279,2280,4762,4762,4762,4342,4483,4203,4204,4762,6634,6634,6634,6634,6634,6634,6634,6634,6634,6634,6634,6634,6634,6634,6634,6634,6631,6631,6631,6631,6631,6631,6634,
4762,4762,4762,4762,4762,4062,4623,4203,4203,4203,4203,4203,4203,4203,4203,6634,6634,6634,6634,6634,6640,6640,6640,6640,6640,6640,6640,6640,6640,6640,6640,6640,6640,6640,6634,6634,6634,6634,6634,6634,6634,4203,4203,4203,4203,4203,4203,4203,4203,4482,4343,4343,4343,4343,4344,4762,4762,4762,4762,4762,4762,4762,4762,4762,4762,4762,4762,4202,4203,4204,6634,6634,6634,6634,6634,6634,6634,6634,6634,6634,6634,6634,6634,6634,6634,6634,6631,6631,6631,6631,6631,6631,6634,6634,
4762,4762,4762,4762,4762,4342,4343,4343,4203,4203,4203,4203,4203,4203,4203,4203,6634,6634,6634,6634,6634,6640,6640,6640,6640,6640,6640,6640,6634,6634,6634,6634,6634,6634,6634,6634,6634,6634,6634,6634,4203,4203,4203,4203,4203,4203,4203,4203,4203,4344,4762,4762,4762,4762,4762,4762,4762,4762,4762,4762,5184,4762,4762,5184,4762,4762,4762,4202,6634,6634,6634,6634,4268,4268,4269,6634,6634,6634,6634,6634,6634,6634,6634,6634,6634,6631,6631,6631,6631,6631,6631,6631,6634,6634,
4762,4762,4762,4762,4762,4762,4762,4762,4342,4343,4203,4203,4203,4203,4203,4203,4203,6634,6634,6634,6634,6634,6640,6640,6640,6640,6640,6634,6634,6634,6634,6634,6634,6634,6634,6634,6634,6634,6634,4203,4203,4203,4203,4482,4343,4343,4343,4343,4344,4762,4762,4762,2298,4762,4762,4762,4762,4762,4762,4762,5184,4762,4762,4762,4762,6634,6634,6634,6634,6634,6634,6634,4687,4268,4269,6634,6634,6634,6634,6634,6634,6634,6634,6631,6631,6631,6631,6631,6631,6631,6631,6634,6634,6634,
4762,4762,4762,4762,4762,4762,4762,4762,4762,4762,4342,4203,4203,4203,4203,4203,4203,6634,6634,6634,6634,6634,6634,6634,6634,6634,6634,6634,6634,6634,6634,6634,6634,6634,6634,6634,6634,6634,4203,4203,4482,4343,4343,4344,4762,4762,4762,4762,2279,4762,4762,4762,4762,4762,4762,4762,4762,5184,5184,4762,4762,4762,4762,6634,6634,6634,6634,6634,6634,6634,6634,6634,4267,4268,4269,6634,6634,6634,6634,6634,6634,6631,6631,6631,6631,6631,6631,6631,6631,6631,6634,6634,6634,6634,
4762,4762,4762,4762,4762,4762,4762,4762,4762,4762,4762,4342,4483,4203,4203,4203,4203,6634,6634,6634,6634,6634,6634,6634,6634,6634,6634,6634,6634,6634,4203,4203,4203,4203,4203,4203,4203,4203,4203,4203,4204,4762,4762,4762,4762,5184,4762,4762,2419,4762,4762,4762,5184,5184,4762,4762,4762,4762,4762,4762,6634,6634,6634,6634,6634,6634,6634,6634,6634,6634,6634,6634,4267,4268,4269,6634,6634,6634,6634,6634,6631,6631,6631,6631,6631,6631,6631,6631,6631,6634,6634,6634,6634,6634,
4762,4762,4762,4762,4762,4762,4762,4762,4762,4762,4762,4763,4202,4203,4203,4203,4203,6634,6634,6634,6634,6634,6634,6634,6634,6634,6634,6634,6634,4203,4203,4203,4203,4203,4203,4203,4203,4203,4203,4203,4204,4762,4762,4762,4762,4762,5184,4762,4762,4762,5184,5184,4762,4762,4762,4762,4762,4762,6634,6634,6634,6634,6634,6634,6634,6634,6634,6634,6634,6634,6634,6634,4267,4268,4269,6634,6634,6634,6634,6631,6631,6631,6631,6631,6631,6631,6631,6631,6634,6634,6634,6634,6634,6634,
4762,4762,4762,4762,4762,4762,4762,4762,4762,4762,4762,4763,4202,4203,4203,4203,4203,6634,6634,6634,4203,4203,4203,4203,6634,6634,6634,6634,4203,4203,4203,4482,4343,4343,4343,4343,4343,4343,4483,4203,4622,4063,4063,4063,4063,4063,4063,4063,4064,4762,4762,4762,4762,4762,6634,6634,6634,6634,6634,6634,6634,6634,6634,6634,6634,6634,6634,6634,6634,6634,6634,6634,4267,4268,4269,6634,6634,6634,6631,6631,6631,6631,6631,6631,6631,6631,6631,6634,6634,6634,6634,6634,6634,6634,
4762,4762,4762,4762,4762,4762,4762,4762,4762,4762,4762,4763,4342,4343,4483,4203,4203,4203,4203,4203,4203,4203,4203,4203,4203,4203,4203,4203,4203,4482,4343,4344,4762,4762,5184,5184,4762,4762,4342,4483,4482,4343,4343,4343,4343,4343,4343,4483,4204,4762,4762,4762,6622,6634,6634,6634,6634,6634,6634,6634,6634,6634,6634,6634,6634,6634,6634,6634,6634,6634,6634,6634,4267,4268,4269,6634,6634,6631,6631,6631,6631,6631,6631,6631,6631,6631,6634,6634,6634,6634,6634,6634,6634,6634,
4762,4762,4762,4762,4762,4762,4762,4762,4762,4762,4762,4762,4762,4762,4202,4203,4203,4203,4203,4203,4482,4343,4343,4343,4483,4203,4203,4482,4343,4344,5184,4762,4762,4762,4762,5184,4762,4762,4762,4202,4204,4762,4762,4762,4762,4762,4762,4202,4204,4762,4762,4762,6634,6634,6634,6634,6634,6634,6634,6634,6634,6634,6634,6634,6634,6634,6634,6634,6634,6640,6640,6631,4267,4268,4548,4129,6631,6631,6631,6631,6631,6631,6631,6631,6631,6634,6634,6634,6634,6634,6634,6634,6634,6634,
4762,4762,4762,4762,4762,4762,4762,4762,4762,4762,4762,4762,4762,4762,4342,4343,4483,4203,4203,4482,4344,4762,4763,5184,4342,4343,4343,4344,4762,5184,4762,4763,4762,4762,4762,4762,4762,4762,4762,4202,4204,4762,4762,4762,4762,4762,4762,4202,4204,4762,4762,6634,6634,6634,6634,6634,6634,6634,6634,6634,6634,6634,6634,6634,6634,6634,6634,6640,6631,6631,6631,6631,4267,4268,4268,4548,4128,4129,6631,6631,6631,6631,6631,6631,6634,6634,6634,6634,6634,6634,6634,6634,6634,6634,
4762,4762,4762,4762,4762,4762,4762,4762,4762,4762,4762,4762,4762,4762,4762,4762,4342,4343,4343,4344,4762,5184,5184,5184,4762,4762,5184,4762,4763,4763,4763,4763,4762,4762,4762,4762,4762,4762,4762,4202,4204,4762,4762,4762,4762,4762,4762,4202,4204,4762,4762,6634,6634,6634,6634,6634,6634,6634,6634,6634,6634,6634,6634,6634,6634,6634,6634,6631,6781,6631,6631,6631,4407,4408,4408,4408,4408,4409,6631,6631,6631,6631,6634,6634,6634,6634,6634,6634,6634,6634,6634,6634,6634,6634,
4762,4762,4762,4762,4762,4762,4762,4762,4762,4762,4762,4762,4762,4762,4762,4762,4762,4762,4762,4762,4762,5184,4762,4762,4762,4762,4762,4762,4762,4762,4762,4762,4762,4762,4762,4762,4762,4762,4762,4202,4204,4762,4762,4762,4762,4762,4762,4202,4204,4762,4762,6634,6634,6634,6634,6634,6634,6634,6634,6634,6634,6634,6634,6634,6634,6634,6634,6631,6631,6631,6631,6631,6631,6631,6631,6631,6631,6631,6631,6631,6631,6634,6634,6634,6634,6634,6634,6634,6634,6634,6634,6634,6634,6634,
4762,4762,4762,4762,4762,4762,4762,4762,4762,4762,4762,4762,4762,4762,4762,4762,4762,4762,4762,4762,4762,4762,4762,4762,4762,4762,4762,4762,4762,4762,4762,4762,4762,4762,4762,4762,4762,4762,4762,4202,4204,4762,4762,4762,4762,4762,4062,4623,4204,4762,4762,6634,6634,6634,6634,6634,6634,6634,6634,6634,6634,6634,6634,6634,6634,6634,6634,6631,6631,6631,6631,6631,6631,6631,6631,6631,6631,6631,6631,6634,6634,6634,6634,6634,6634,6634,6634,6634,6634,6634,6634,6634,6634,6634,
4762,4762,4762,4762,4762,4762,4762,4762,4762,4762,4762,4762,4762,4762,4762,4762,4762,4762,4762,4762,4762,4762,4762,4762,4762,4762,4762,4762,4762,4762,4762,4762,4762,4762,4762,4762,4762,4762,4762,4202,4622,4063,4063,4063,4063,4063,4623,4482,4344,4762,6634,6634,6634,6634,6634,6634,6634,6634,6634,6634,6634,6634,6634,6634,6634,6634,6634,6631,6631,6631,6631,6631,6631,6631,6631,6631,6631,6631,6634,6634,6634,6634,6634,6634,6634,6634,6634,6634,6634,6634,6634,6634,6634,6634,
4762,4762,4762,4762,4762,4762,4762,4762,4762,4762,4762,4762,4762,4762,4762,4762,4762,4762,4762,4762,4762,4762,4762,4762,4762,4762,4762,4762,4762,4762,4762,4762,4762,4762,4762,4762,4762,4762,4762,4342,4343,4343,4343,4343,4343,4343,4343,4344,4762,4762,6634,6634,6634,6634,6634,6634,6634,6634,6634,6634,6634,6634,6634,6634,6634,6634,6634,6631,6631,6631,6631,6631,6631,6631,6631,6634,6634,6634,6634,6634,6634,6634,6634,6634,6634,6634,6634,6634,6634,6634,6634,6634,6634,6634,
4762,4762,4762,4762,4762,4762,4762,4762,4762,4762,4762,4762,4762,4762,4762,4762,4762,4762,4762,4762,4762,4762,4762,4762,4762,4762,4762,4762,4762,4762,4762,4762,4762,4762,4762,4762,4762,4762,4762,4762,4762,4762,4762,4762,4762,4762,4762,4762,4762,4762,6634,6634,6634,6634,6634,6634,6634,6634,6634,6634,6634,6634,6634,6634,6634,6634,6634,6631,6631,6631,6631,6631,6631,6631,6634,6634,6634,6634,6634,6634,6634,6634,6634,6634,6634,6634,6634,6634,6634,6634,6634,6634,6634,6634,
4762,4762,4762,4762,4762,4762,4762,4762,4762,4762,4762,4762,4762,4762,4762,4762,4762,4762,4762,4762,4762,4762,4762,4762,4762,4762,4762,4762,4762,4762,4762,4762,4762,4762,4762,4762,4762,4762,4762,4762,4762,4762,4762,4762,4762,4762,4762,4762,4762,4762,6634,6634,6634,6634,6634,6634,6634,6634,6634,6634,6634,6634,6634,6634,6634,6634,6634,6634,6631,6631,6631,6631,6631,6634,6634,6634,6634,6634,6634,6634,6634,6634,6634,6634,6634,6634,6634,6634,6634,6634,6634,6634,6634,6634,
4762,4762,4762,4762,4762,4762,4762,4762,4762,4762,4762,4762,4762,4762,4762,4762,4762,4762,4762,4762,4762,4762,4762,4762,4762,4762,4762,4762,4762,4762,4762,4762,4762,4762,4762,4762,4762,4762,4762,4762,4762,4762,4762,4762,4762,4762,4762,4762,4762,4762,6634,6634,6634,6634,6634,6634,6634,6634,6634,6634,6634,6634,6634,6634,6634,6634,6634,6634,6634,6631,6631,6631,6631,6634,6634,6634,6634,6634,6634,6634,6634,6634,6634,6634,6634,6634,6634,6634,6634,6634,6634,6634,6634,6634,
4762,4762,4762,4762,4762,4762,4762,4762,4762,4762,4762,4762,4762,4762,4762,4762,4762,4762,4762,4762,4762,4762,4762,4762,4762,4762,4762,4762,4762,4762,4762,4762,4762,4762,4762,4762,4762,4762,4762,4762,4762,4762,4762,4762,4762,4762,4762,4762,4762,6634,6634,6634,6634,6634,6634,6640,6640,6634,6634,6634,6634,6634,6634,6634,6634,6634,6634,6634,6634,6634,6634,6634,6634,6634,6634,6634,6634,6634,6634,6634,6634,6634,6634,6634,6634,6634,6634,6634,6634,6634,6634,6634,6634,6634
</data>
 </layer>
 <layer id="2" name="Layer 2" width="94" height="62">
  <data encoding="csv">
2260,2261,2262,0,0,0,7472,7473,7473,7473,7750,7750,7750,7750,7750,7750,7750,7750,7750,7750,7750,7750,7474,0,2269,2270,2271,0,0,0,0,0,7472,7474,6071,5045,6071,6071,6071,6071,6071,6071,0,681,682,683,0,364,365,366,650,428,429,430,4912,4912,460,461,462,361,362,363,0,3789,0,193,194,195,0,0,6071,6071,0,0,7611,0,0,6634,6635,0,7053,6495,0,6634,7053,6495,0,6641,0,0,0,6499,7060,0,
0,0,0,7472,7473,7473,7751,0,0,0,0,0,0,0,0,0,0,0,0,0,0,0,7749,7750,7750,7750,7750,7750,7750,7750,7750,7750,7751,7749,7474,6071,393,394,395,6071,6071,6071,0,713,714,715,298,396,397,398,682,460,461,462,106,107,492,493,494,393,394,395,3654,3655,8181,225,226,227,8181,8182,8182,8183,7906,7906,7752,7471,0,6634,7053,6495,0,7053,6494,6495,4790,7053,6495,6641,0,0,0,6779,6920,6919,
0,7472,7473,7751,0,0,6913,6774,6774,6774,6774,6774,6774,6914,0,0,0,0,0,0,0,0,0,0,0,0,0,0,0,0,0,0,0,0,7749,7474,6071,6071,6071,331,713,714,7906,7906,7906,329,330,331,7906,713,714,492,493,494,138,139,7906,7906,7906,161,162,163,3794,3795,8321,6963,6964,8185,8184,7906,7906,8323,15,15,15,7752,7471,0,0,7053,6494,6495,0,7053,6495,0,6635,6641,0,0,0,0,6779,6781,
7472,7751,0,0,0,0,6635,6913,6774,6774,6774,6774,6914,6633,6913,6774,6774,6774,6774,6774,6774,6774,6774,6774,6774,6774,6774,6774,6914,0,0,0,0,0,0,7609,0,0,6071,363,6071,6071,7906,8181,8182,361,362,363,8182,8182,8182,8182,8182,169,170,171,8182,8182,8182,193,194,195,3934,3935,8184,0,0,0,0,0,0,8185,8183,111,15,0,7752,7471,0,0,0,7053,6494,6495,7053,6495,6635,6641,0,0,0,0,0,0,
7751,0,0,0,0,0,6635,6635,0,0,0,0,6633,6633,6635,6913,6774,6774,6774,6774,6774,6774,6774,6774,6774,6774,6774,6914,6773,6774,6774,6914,0,0,0,7609,579,393,394,395,7906,7906,5045,8321,0,393,394,395,13247,0,0,0,0,0,0,0,0,0,0,225,226,227,0,0,0,0,0,0,0,0,0,6071,8323,15,15,15,15,7611,0,0,0,0,0,6635,0,6635,6635,7059,6501,0,0,0,0,0,
0,0,0,0,0,0,6635,6635,0,0,0,0,6633,6773,6778,6635,6913,6774,6774,6774,6774,6774,6774,6774,6774,6774,6914,6773,6774,6774,6914,6773,6914,0,0,7749,7474,0,7906,8181,8182,8182,8182,8184,0,0,0,0,13387,0,0,0,0,0,0,0,0,0,0,0,0,0,0,0,0,0,0,0,0,0,8325,8462,8463,8464,15,15,15,7752,7471,0,0,7317,0,6635,0,6635,6635,0,6641,0,0,0,0,0,
6774,6774,6774,6774,6774,6774,6775,6635,0,0,0,0,6773,6774,6774,6778,6635,6919,6780,6780,6780,6780,6780,6780,6780,6920,6773,6774,6774,6914,6773,6914,6773,6914,0,0,7749,7474,7906,8321,7906,0,6071,6071,6071,0,0,0,13527,0,0,0,0,0,0,0,0,0,0,0,0,0,0,0,0,0,0,0,0,0,8323,8602,8603,8604,15,15,15,7472,7751,0,0,0,0,6635,6913,6775,6635,6919,6781,0,0,0,0,0,
6774,6774,6774,6774,6774,6774,6774,6775,0,0,0,0,0,0,0,6913,6778,6641,5085,5085,5085,5085,5085,5085,5085,6779,6780,6780,6920,6773,6914,6773,6914,6773,6914,0,0,7749,7474,8321,7906,0,6071,6071,6071,0,0,0,0,0,0,0,10678,0,0,0,0,0,0,0,0,0,0,0,0,0,0,0,0,0,8323,8742,8743,8744,47,15,7472,7751,0,0,0,6913,6774,6775,6635,0,6635,6641,0,0,0,0,0,0,
6774,6774,6774,6774,6774,6914,0,0,0,0,0,0,0,0,0,6635,6919,6781,5085,5085,5085,5085,5085,5085,5085,5085,5085,5085,6779,6920,6773,6914,6773,6914,6633,0,0,0,7614,8461,8462,8324,0,6071,6071,6071,0,0,0,0,0,0,0,0,0,0,0,0,0,0,0,0,0,0,0,0,0,0,0,0,8323,15,15,15,15,7472,7751,0,0,0,6913,6775,6913,6774,6775,6913,6775,6641,0,0,0,0,6499,6500,
6780,6780,6780,6780,6920,6773,6774,6774,6774,6774,6774,6774,6774,6774,6774,6778,6641,5085,5085,6499,6500,6500,6500,6500,6501,5085,5085,5085,5085,6779,6920,6773,6914,6633,6773,6914,0,0,7749,8601,8602,8321,0,6071,6071,6071,0,0,0,0,0,0,0,0,0,0,0,0,0,0,0,0,0,0,0,0,0,0,0,0,8323,15,15,15,7472,7751,0,0,0,6913,6775,6913,6775,0,0,7053,6495,7059,6501,0,0,0,6639,6640,
0,0,0,0,6779,6780,6780,6780,6780,6780,6780,6780,6780,6780,6780,6780,6781,5085,6499,7060,0,0,0,0,7059,6500,6501,5085,5085,5085,6779,6920,6633,6773,6914,6773,6774,6914,0,8741,8742,8321,7903,0,6071,6071,0,0,0,0,0,0,0,0,0,0,0,0,0,0,0,0,0,0,0,0,0,0,0,0,8323,15,80,15,7611,0,0,0,0,6635,0,7053,6494,6494,6494,6495,7053,6494,6495,6501,0,0,6761,6762,
0,0,0,0,0,0,0,0,0,0,0,0,0,0,0,0,0,0,6639,0,0,0,0,0,0,0,6641,5085,5085,5085,5085,6639,6773,6914,6773,6774,6914,6633,0,0,0,8321,0,0,0,6071,6071,0,0,0,0,0,0,0,0,0,0,0,0,5531,5532,5533,0,0,10032,0,0,0,0,0,8323,15,15,15,7611,0,7469,7471,0,7053,6494,6494,6494,6494,6495,7053,6494,6495,7053,6495,6501,0,6901,6902,
6500,6500,6500,6501,0,0,0,0,0,0,0,0,0,0,6499,6500,6500,6500,7060,0,0,0,0,0,0,0,7059,6500,6483,5085,5085,6639,9,6773,6774,6914,6633,6773,6914,0,0,8321,0,0,6071,6071,6071,6071,0,0,0,13247,0,0,0,0,0,0,0,5671,0,5673,0,0,10172,0,0,0,0,0,8323,15,47,15,7611,0,7749,7751,0,0,0,0,0,0,7053,6494,6495,7053,6495,6635,6641,0,0,0,
6494,6494,6495,7059,6500,6500,6500,6500,6500,6500,6500,6500,6500,6500,7060,0,6493,6494,6494,6494,6495,0,0,0,7317,0,0,7342,7462,7463,7464,7465,9,0,0,6633,6773,6914,6633,0,0,8321,0,0,0,6071,6071,0,0,0,0,13387,0,0,0,0,0,0,0,5671,6089,5673,0,0,10032,0,0,0,0,0,8323,15,15,15,7752,7471,0,0,0,0,0,0,0,0,0,4790,7053,6495,6635,6635,6641,0,0,0,
6494,6495,7053,6494,6494,6494,6494,6494,6494,6494,6494,6494,6494,6494,6494,6494,7054,6493,6494,6495,7053,6495,0,0,0,0,0,0,7602,7603,7604,7605,9,0,0,6773,6914,6633,6633,0,0,8321,0,0,0,6071,6071,0,0,0,0,13527,0,0,0,0,0,0,0,5671,5957,5673,0,0,10172,0,0,0,0,0,8323,15,47,80,15,7752,7470,7470,7470,7470,7470,7471,0,0,0,0,0,6635,6635,7053,6495,6501,0,0,
0,7053,6494,6494,6494,6494,6494,6494,6494,6494,6494,6494,6494,6494,6494,6494,6494,7054,6913,6775,0,6635,0,0,0,0,0,0,7742,7743,7744,7745,9,0,0,0,6633,6633,6633,0,0,8321,5099,0,0,6071,6071,0,0,0,0,0,0,0,0,10678,0,0,0,5671,5949,5673,0,0,10032,0,0,0,0,0,8323,15,15,15,15,15,15,47,7906,7906,7906,7752,7470,7471,0,0,0,6635,7053,6495,6635,6641,0,0,
6494,6494,6494,6494,6494,6494,6494,6494,6494,6494,6494,6494,6494,6494,6494,6495,0,6913,6775,6913,6774,6775,0,0,0,0,6919,6780,6781,5085,5085,6639,9,0,0,0,6633,6633,6633,0,0,8321,2902,11411,11411,2905,6071,0,0,0,0,0,0,0,0,0,0,0,0,5671,0,5673,0,0,10172,0,0,0,0,9749,8185,8182,8182,8182,8182,8182,8182,8182,8182,8182,8183,7906,7906,7611,0,0,0,6635,0,6635,6635,6641,0,0,
0,0,0,0,0,0,0,0,0,0,0,0,0,0,6913,6775,6913,6775,6913,6775,0,0,0,0,6919,6780,6781,5085,5085,5085,5085,6639,7317,0,0,0,6633,6633,6633,0,0,8321,11411,11411,11411,3045,2902,11411,11411,2905,0,0,0,0,0,0,0,0,0,5671,7761,5673,0,0,0,0,0,0,0,0,0,6071,6071,6071,6071,0,0,0,0,0,8323,7906,7906,7611,0,0,0,6635,0,6635,6635,6641,0,0,
7470,7470,7470,7470,7470,7470,7470,7470,7471,0,0,0,0,6913,6775,6913,6775,6913,6775,0,0,0,0,6919,6781,5085,5085,5085,5085,5085,6499,7060,9,0,0,6493,7054,6633,6633,0,0,8321,3182,3183,3184,3185,4999,11411,11411,3045,0,0,5531,5532,5532,5532,5532,5532,5532,6092,0,5673,0,0,0,0,7356,0,0,6071,6071,6071,6071,6071,6947,6947,0,0,0,0,8323,7906,7906,7611,0,0,0,6635,6913,6775,6635,6641,0,0,
0,0,0,0,0,0,0,0,7752,7470,7471,0,0,6635,6913,6775,6913,6775,0,0,0,6919,6780,6781,5085,5085,5085,5085,5085,5085,6639,9,6493,6494,6494,7054,6493,7054,6633,0,0,8321,3322,4114,3324,3187,3188,3183,4115,4115,4115,4116,5671,0,0,0,0,0,0,0,0,5673,0,0,0,0,7496,4115,8343,4115,4115,4115,4115,4115,4115,4115,4115,4115,4115,4116,8323,7906,7472,7751,0,0,6913,6775,6635,6913,6775,6641,0,0,
11137,0,0,0,0,0,0,0,0,0,7752,7471,0,6635,6635,6913,6775,0,6919,6780,6780,6781,5085,5085,5085,5085,5085,5085,6499,6500,7060,6493,7054,6493,6494,6494,7054,6493,7054,4956,7469,8321,4956,4394,4395,4395,4395,4395,4395,4395,4395,4396,5671,0,0,0,5951,5812,5812,5812,5812,5813,0,0,6071,6071,4394,4395,4395,4395,4395,4395,4395,4395,4395,4395,4395,4395,4395,4396,8323,7906,7611,0,0,0,6635,0,6635,6635,6919,6781,0,0,
11277,15,15,15,15,0,0,0,0,0,7472,7751,0,6635,6635,6635,0,6919,6781,5085,5085,5085,5085,5085,5085,5085,6499,6500,7060,6493,6494,7054,6493,7054,6493,6494,6494,7054,4956,4956,7609,8461,8462,8462,8462,8462,8462,8462,8462,8462,8462,8462,5671,8462,8462,8462,5673,8324,0,0,0,0,0,6071,6071,6071,9016,5100,5100,5100,5100,0,0,11561,11562,11563,11564,11565,11566,10678,8323,7906,7611,0,0,0,6635,6913,6775,6635,6641,0,0,0,
11277,15,15,48,47,15,0,0,0,0,7611,0,6913,6775,6635,6635,6919,6781,5085,5085,5085,5085,5085,5085,5085,6499,7060,6493,6494,7054,6493,6494,7054,6493,7054,4956,4956,4956,4956,7469,7754,8601,8602,8602,8602,8602,8602,8602,8602,8602,8602,8602,8602,8602,8602,8602,8602,8321,0,0,0,0,6071,6071,6071,6071,5100,5100,5100,5100,5100,0,0,11701,11702,11703,11704,11705,11706,0,8323,7906,7611,0,0,6913,6775,6635,6913,6775,6641,0,0,0,
11277,79,15,47,15,0,0,0,7472,7750,7751,0,6635,6913,6775,6635,6641,5085,5085,5085,5085,5085,5085,5085,6499,7060,6493,7054,6493,6494,7054,6493,6494,7054,0,4956,7469,7470,7470,7754,4956,8741,8742,8742,8742,8742,8742,8742,8742,8742,8742,8742,8742,5671,8742,5673,8742,8321,0,0,0,6071,6071,6071,6071,0,4540,4401,4401,4401,4541,0,0,11841,11842,11843,11844,11845,11846,0,8323,7906,7611,0,0,6635,6913,6775,6635,6919,6781,0,0,0,
11277,79,47,15,15,0,0,7472,7751,0,0,6913,6775,6635,6913,6775,6641,5085,5085,5085,5085,5085,5085,6499,7060,6493,7054,6493,7054,6493,6494,7054,0,8018,7469,7470,7754,4956,4956,4956,4956,7906,7906,7906,7906,7906,7906,5531,5532,5532,5532,5532,5532,6092,7904,6091,5533,8321,0,0,0,6071,10031,6071,0,0,4262,4114,4115,4116,4260,0,0,11981,11982,11983,11984,11985,11986,0,8323,7906,7611,0,0,6635,6635,6913,6775,6641,0,0,5949,0,
11277,15,15,47,0,0,0,7611,0,0,0,6635,6913,6775,6635,6919,6781,5085,5085,5085,5085,5085,6499,7060,6493,7054,6493,7054,6493,7054,0,7469,7470,7471,7749,7750,7750,7750,5531,5532,5532,5532,5532,5532,5532,5532,5532,6092,6071,6071,5951,5812,5812,5812,5812,5812,5813,8321,0,0,0,6071,10171,6071,0,0,4262,4254,4255,4256,4260,0,0,12121,12122,12123,12124,12125,12126,0,8323,7472,7751,0,0,6635,6635,6635,6919,6781,0,6229,6089,0,
11277,47,15,48,0,0,0,7611,0,0,0,6635,6635,6913,6775,6641,5085,5085,5085,5085,5085,6499,7060,6493,7054,6493,7054,6493,7054,0,7469,7754,7472,7751,0,4956,4956,4956,5811,5952,4956,5951,5812,5812,5812,5812,5812,5812,5812,5812,5813,15,15,15,15,15,143,8321,0,0,0,6071,0,0,0,0,4262,4394,4395,4396,4260,0,0,12261,12262,12263,12264,12265,12266,0,8323,7611,0,0,6913,6775,6635,6635,6641,0,0,0,0,0,
11277,15,15,48,0,0,0,7752,7471,0,6913,6775,6635,6635,6919,6781,6069,6069,6069,6069,6499,7060,6493,7054,6493,7054,6493,7054,0,7469,7754,7472,7751,0,6913,6774,6774,6774,6774,6774,6774,6774,6774,6774,6774,6774,6774,6774,6914,7609,15,15,15,15,15,15,15,8321,0,6071,6071,6071,0,0,0,0,4680,4121,4121,4121,4681,0,0,12401,12402,12403,12404,12405,12406,0,8323,7611,0,0,6635,6913,6775,6635,6641,0,0,0,0,0,
11277,15,47,15,0,0,0,0,7611,0,6635,6913,6775,6635,6641,6069,6069,6069,6069,6069,6639,6493,7054,6493,7054,6493,7054,0,0,7749,7750,7751,0,0,6635,6913,6774,6774,6774,6774,6774,6774,6774,6774,6774,6774,6774,6914,6633,7749,7473,7473,7474,15,48,15,15,8321,6071,6071,6071,6071,0,0,0,0,0,0,0,0,0,0,0,12541,12542,12543,12544,12545,12546,0,8323,7611,0,6913,6775,6635,0,6635,7059,6501,0,0,0,0,
11277,15,15,15,15,0,0,0,7611,0,6635,6635,0,6635,7059,6501,6069,6069,6069,6499,7060,6633,6493,7054,0,6773,6774,6774,6774,6774,6774,6774,6774,6774,6775,6635,6913,6774,6774,6774,6774,6774,6774,6774,6774,6774,6914,6633,6773,6774,6774,6914,7614,15,15,15,15,8461,8324,6071,6071,6071,0,0,0,0,0,0,0,0,0,0,0,12681,12682,12683,12684,12685,12686,0,8323,7611,0,7053,6495,7053,6495,7053,6495,7059,6501,0,0,0,
11277,15,79,48,15,0,0,0,7611,0,6635,6635,0,7053,6495,6641,8282,6069,6069,6639,9,6633,6773,6774,6914,0,0,0,0,0,0,0,6913,6774,6774,6775,6635,7041,6762,6762,6762,6762,6762,6762,6762,7042,6633,6773,6774,6774,6914,6633,7614,15,15,47,15,8601,8461,8324,6071,0,0,0,0,0,0,0,0,0,0,0,0,0,0,0,0,0,0,0,8323,7611,7906,0,7053,6495,7053,6495,7053,6495,7059,6501,0,0,
11419,11416,11416,11416,11137,0,0,0,7611,0,6635,6635,0,6913,6775,6641,6069,6069,6069,6761,7042,6633,6913,6914,6773,6774,6774,6774,6774,6774,6774,6774,6775,6913,6774,6774,6775,7181,6902,6902,6902,6902,6902,6902,6902,7182,6773,6774,6774,6914,6633,6633,7749,7473,7473,7474,15,8741,8601,8321,6071,0,0,0,0,0,0,0,0,0,0,0,0,0,0,0,0,0,8325,8462,8463,7752,7471,0,0,7053,6495,6635,6913,6775,0,6641,0,0,
2628,2629,2630,0,11277,0,0,0,7752,7471,6635,7053,6495,6635,7041,6763,6069,6069,6069,6901,7182,6773,6778,6773,6774,6914,0,6913,6774,6774,6774,6774,6914,6635,7041,6762,6762,6763,6069,6069,6069,6069,6069,6069,6069,6761,6762,7042,9,6633,6633,6633,0,0,0,7614,47,15,8741,8461,8462,8462,8462,8186,8187,8188,8462,8186,8187,8188,8462,8462,8462,8462,8462,8462,8462,8462,8463,8602,8603,8604,7611,0,0,0,6635,6635,6635,4791,4792,6641,0,0,
2768,2769,2770,0,11277,0,0,48,15,7611,7053,6495,6635,6635,7181,6903,6069,6069,6069,6069,6761,7042,9,7041,7042,6773,6774,6775,0,7041,6762,7042,6773,6775,7181,6902,6902,6903,6069,6069,6481,6482,6483,6069,6069,6901,6902,7182,9,6633,6633,6633,0,0,0,7749,7474,15,5047,8601,8602,8602,8602,8326,8327,8328,8602,8326,8327,8328,8602,8602,8602,8602,8602,8602,8602,8602,8603,8742,8743,7472,7751,7906,7906,0,6635,6635,6635,6919,6780,6781,0,0,
2628,2629,2630,0,11277,0,0,79,47,7611,0,6635,6635,6635,6641,6069,6069,6069,6069,6069,6901,7182,6622,7181,7182,9,0,0,9,7181,6902,7182,6209,7041,6763,6209,6069,6069,6069,6069,6621,6622,6623,6069,6069,6069,6069,6621,6075,6633,6633,6633,0,0,0,0,7614,15,15,8741,8742,8742,8742,8466,8467,8468,8742,8466,8467,8468,8742,8742,8742,8742,8742,8742,8742,8742,8743,8744,7906,7611,7906,7906,0,6913,6775,6635,6635,6641,0,0,0,0,
2768,2769,2770,0,11277,0,0,0,7472,7751,0,6635,6635,6635,7059,6501,6069,6069,6069,6069,6069,6761,6762,6763,6761,6762,6762,6762,6762,6763,6070,6621,6209,7181,6903,6069,6069,6069,6069,6069,6761,6762,6763,6069,6069,6069,6069,6621,6075,6171,6633,6633,0,0,0,0,7614,15,15,48,15,15,15,7906,7906,7906,7906,7906,7906,7906,7906,111,15,15,15,47,15,15,15,15,7472,7751,7906,7906,6913,6775,6913,6775,6635,6641,0,0,0,0,
2628,2629,2630,0,11277,0,0,7472,7751,0,0,6635,6635,7053,6495,7059,6500,6501,6069,6069,6069,6901,6902,6903,6901,6902,6902,6902,6902,6903,6069,6761,6762,6763,6069,6069,6069,6069,6069,6069,6901,6902,6903,6069,6069,6069,6069,6621,6075,6633,6633,6633,0,0,0,0,7614,15,15,47,47,5047,15,7906,7906,7906,7906,7906,7906,7906,112,15,15,79,15,15,47,15,15,48,7612,7906,7906,0,6635,0,6635,6913,6775,6641,0,5949,0,6229,
2768,2769,2770,0,11277,0,0,7611,0,0,0,6635,7053,6495,7053,6494,6495,7059,6501,6069,6069,6069,6069,6069,6069,6069,6069,6069,6069,6069,6069,6901,6902,6903,6069,6069,6069,6069,6499,6501,6069,6069,6499,6500,6500,6501,6481,7322,6075,6633,6633,6633,0,0,0,0,7614,15,15,15,15,15,15,0,0,0,5188,0,0,0,15,48,79,15,79,15,15,15,15,7472,7751,0,0,0,6635,6913,6775,6635,0,7059,6501,0,6227,6228,
2628,2629,2630,0,11277,0,0,7611,0,0,0,7053,6495,7053,6494,6495,7053,6495,7059,6500,6501,6069,6069,6069,6069,6069,6069,6069,6069,6069,6069,6069,6069,6069,6069,6499,6500,6500,7060,7059,6500,6500,7060,0,0,7059,7322,6493,6494,7054,6633,6633,0,0,0,7469,7754,15,15,15,15,15,0,2391,2391,2391,2525,0,0,15,15,79,4912,15,15,15,7472,7473,7473,7751,0,0,0,0,6635,6635,6913,6775,0,6919,6781,0,6089,0,
2768,2769,2770,0,11277,15,0,7752,7471,0,0,0,7053,6494,6495,7053,6495,7053,6495,0,7059,6501,6069,6069,6069,6069,6069,6069,6069,6069,6069,6069,6499,6500,6500,7060,6493,6494,6494,6494,6494,6494,6494,6494,6494,6494,6494,7054,6493,6494,7054,6633,0,0,0,7609,15,0,0,0,0,0,0,2391,2391,2391,2391,0,0,15,47,15,15,15,7472,7473,7751,0,0,0,0,0,6913,6774,6775,6635,6635,0,6919,6781,0,0,0,0,
2628,2629,2630,0,11277,47,0,0,7611,0,0,0,0,0,7053,6495,7053,6495,7053,6495,0,7059,6500,6500,6500,6500,6500,6500,6501,6069,6069,6499,7060,0,6493,6494,7054,6493,6494,6494,6494,6494,6494,6494,6494,6494,6494,6494,7054,7755,6493,7054,0,0,7469,7754,0,2007,2008,2009,1998,1999,2000,2391,2391,2391,2391,0,0,0,15,7472,7473,7473,7751,0,0,0,0,0,6913,6774,6775,6913,6774,6775,6635,0,6781,0,0,0,0,6499,
2768,2769,2770,0,11277,48,0,0,7611,0,0,0,0,815,816,7053,6495,7053,6495,7053,6495,0,0,0,0,0,0,0,7059,6500,6500,7060,0,0,6633,6493,6494,7054,6493,6494,6494,6494,6494,6494,6494,6494,6494,6494,6494,6494,7054,0,0,7469,7754,0,0,2147,2148,2149,2138,2139,2140,2942,2943,2944,2945,0,0,0,7472,7751,0,0,0,0,0,0,6913,6774,6775,0,6913,6775,6913,6774,6775,6641,0,0,0,0,0,6639,
2628,2629,2630,0,11277,15,0,0,7752,7471,0,0,0,847,848,0,7053,6495,7053,6495,6635,0,0,0,0,0,0,0,0,0,0,0,0,6493,7054,6633,6493,6494,7054,0,0,0,0,0,0,0,0,0,7469,7753,7753,7753,7753,2007,2008,2009,2839,2287,2288,2289,2121,2122,2123,2124,2125,3084,3085,0,0,7472,7751,0,0,0,0,6913,6774,6774,6775,0,6913,6774,6775,6913,6775,0,6919,6781,0,0,0,0,6499,7060,
2768,2769,2770,0,11277,0,0,0,0,7752,7470,7470,7470,7470,7471,0,0,7053,6495,6635,7053,6495,0,0,0,0,0,6493,6494,6494,6494,6494,6494,7054,6493,7054,6633,0,0,0,0,7469,7470,7470,7753,7753,7753,7753,7754,0,2016,2017,2018,2147,2148,2978,2979,2980,2428,2426,2261,2262,2263,2264,2265,0,0,7472,7473,7751,0,0,0,0,0,6635,0,6913,6774,6774,6775,6913,6774,6775,7317,6919,6781,0,0,0,0,0,6639,6493,
2628,2629,2630,0,11277,0,0,0,0,0,0,0,0,0,7752,7471,0,0,6635,7053,6495,7053,6495,0,0,0,6493,7054,6493,6494,6494,6494,6494,6494,7054,6493,7054,0,0,0,7469,7754,5188,0,1998,1999,2000,1998,1999,2000,2156,2157,1980,2287,2288,2289,3119,2131,0,0,0,0,0,0,7472,7473,7473,7751,0,0,0,0,7469,7470,7471,6635,6913,6775,0,6913,6774,6775,0,6919,6780,6781,0,0,0,0,0,0,6639,6633,
2768,2769,2770,2491,11277,0,0,0,0,0,0,0,0,0,0,7752,7471,0,7053,6495,7053,6495,7053,6494,6494,6494,7054,6493,7054,6493,6494,6494,6494,6494,6494,7054,0,0,0,7469,7754,0,0,0,2138,2139,2140,2138,2139,2140,2296,2297,2120,2427,2425,2269,2270,2271,0,0,0,0,7472,7473,7751,0,0,0,0,0,0,0,7614,0,7752,6635,6635,0,6913,6775,0,6919,6780,6781,0,0,0,0,0,0,0,6499,7060,6633,
2628,2629,2630,2629,2628,2629,2630,0,0,0,0,0,0,0,0,0,7611,0,0,7053,6495,7053,6494,6494,6494,6494,6494,7054,6493,7054,0,0,0,0,0,0,0,0,7469,7754,0,0,0,1962,2278,2279,2280,2103,2104,2280,2436,2437,2260,0,2262,0,0,0,0,7472,7473,7473,7751,0,0,0,0,0,0,0,0,0,7754,0,5096,6775,6635,6913,6775,0,6919,6781,0,0,0,0,0,0,0,0,6499,7060,6493,7054,
2768,2769,2770,2769,2768,2769,2770,2491,0,0,0,0,0,0,0,0,7611,0,0,0,7053,6494,6494,6494,6494,6494,6494,6494,7054,0,7469,7470,7470,7470,7470,7470,7470,7470,7754,0,0,0,0,2102,2418,2419,2420,2243,2244,2970,0,2972,2973,0,0,0,5044,7472,7473,7751,0,0,0,0,0,6913,6774,6774,6774,6774,6774,6774,5096,5096,5096,6913,6775,6635,0,6919,6781,0,0,0,0,0,6089,0,0,6499,7060,6493,7054,0,
2628,2629,2630,2629,2628,2629,2630,2629,2628,2629,2630,0,0,0,0,7472,7751,0,0,0,0,0,0,0,0,0,0,0,0,7469,7754,0,0,0,0,0,0,0,0,0,0,0,0,2242,0,5044,0,0,0,5044,0,3112,0,7472,7473,7473,7473,7751,0,0,0,0,0,0,6913,6775,6913,6774,6774,6774,6774,6774,5096,5096,5096,6775,6913,6775,6919,6781,0,0,0,5949,6227,6228,0,0,6499,7060,6493,7054,0,6493,
2768,2769,2770,2769,2768,2769,2770,2769,2768,2769,2770,0,0,0,0,7752,7471,0,0,0,7469,7753,7753,7471,0,0,0,0,7469,7754,0,0,0,0,0,0,0,0,0,0,0,0,0,0,0,0,0,0,0,0,0,7472,7750,7751,0,0,0,0,0,0,0,0,0,6913,6775,6913,6775,6913,6774,6774,6774,6914,5096,5096,5096,6774,6775,6919,6781,0,0,0,0,0,6229,0,0,6499,7060,6493,7054,6493,6494,7054,
2628,2629,2630,2629,2628,2629,2630,2629,2628,2629,2630,0,0,0,0,0,7752,7470,7470,7470,7754,0,0,7752,7753,7753,7753,7753,7754,0,0,0,4912,0,0,0,0,0,0,0,0,0,5538,5538,5538,5538,0,0,0,0,0,7611,0,0,0,0,0,0,0,6913,6774,6774,6774,6775,6913,6775,6913,6775,0,0,0,6773,5096,5096,5096,6919,6780,6781,0,0,0,0,0,0,0,0,6499,7060,6493,7054,0,6633,6493,6494,
2768,2769,2770,2769,2768,2769,2770,2769,2768,2769,2770,2491,0,0,0,0,0,0,0,0,0,0,0,0,0,0,0,0,0,0,0,0,0,0,0,0,0,4912,0,0,0,15,15,15,15,15,15,0,0,0,7472,7751,0,0,0,0,0,6913,6774,6775,0,0,6913,6774,6775,6913,6775,0,0,0,0,6919,5096,5096,5096,5096,0,0,0,0,0,0,0,0,6499,6500,7060,6493,7054,7317,6493,7054,6633,0,
2628,2629,2630,2629,2628,2629,2630,2629,2628,2629,2630,2629,2628,2629,2630,0,0,0,0,0,0,0,0,0,0,0,0,0,0,0,0,0,2628,2629,2630,2629,2628,2629,2630,0,0,15,15,2875,2876,15,15,0,0,0,7611,0,0,0,0,0,0,6635,0,0,0,6913,6775,0,6913,6775,0,0,6919,6780,6780,6781,0,5096,5096,5096,5096,5096,0,0,0,0,0,0,6639,0,0,6633,0,0,6633,6493,7054,0,
2768,2769,2770,2769,2768,2769,2770,2769,2768,2769,2770,2769,2768,2769,2770,2491,0,0,0,0,0,0,0,0,0,0,4912,4912,0,0,0,2487,2768,2769,2770,2769,2768,2769,2770,0,0,15,15,3015,3016,15,15,0,0,0,7611,0,0,0,0,0,0,6635,0,0,6913,6775,0,7893,6635,0,0,6919,0,0,0,0,5096,5096,5096,5096,5096,0,0,0,0,0,6499,6500,7060,6493,6494,7054,0,6493,7054,6633,0,0,
2628,2629,2630,2629,2628,2629,2630,2629,2628,2629,2630,2629,2628,2629,2630,2629,2628,2629,2630,2629,2628,2629,2630,2629,2628,2629,2630,2629,2628,2629,2630,2629,2628,2629,2630,2629,2628,2629,2630,0,0,15,15,15,15,47,15,0,0,0,7611,0,0,0,0,0,0,6635,0,0,6635,0,0,0,7053,6495,0,6641,0,0,0,0,9398,0,0,0,0,9402,0,0,0,6499,7060,0,0,6633,0,0,6493,7054,6493,7054,0,0,
2768,2769,2770,2769,2768,2769,2770,2769,2768,2769,2770,2769,2768,2769,2770,2769,2768,2769,2770,2769,2768,2769,2770,2769,2768,2769,2770,2769,2768,2769,2770,2769,2768,2769,2770,2769,2768,2769,2770,0,0,15,47,15,15,15,948,0,0,7472,7751,0,0,0,0,0,0,6635,0,0,6635,0,0,0,0,6635,0,6641,0,0,0,0,9398,0,0,0,0,9402,0,6499,6500,7060,0,6493,6494,7054,0,0,6633,0,6633,0,4790,0,
2628,2629,2630,2629,2628,2629,2630,2629,2628,2629,2630,2629,2628,2629,2630,2629,2628,2629,2630,2629,2628,2629,2630,2629,2628,2629,2630,2629,2628,2629,2630,2629,2628,2629,2630,2629,2628,2629,2630,0,0,0,0,0,0,0,0,0,0,7612,0,0,0,0,0,0,0,6635,0,0,7053,6495,0,0,0,6635,0,6641,0,0,0,0,9538,0,0,0,0,9542,6499,7060,6493,6494,6494,7054,0,0,0,0,6633,0,6633,0,0,0,
2768,2769,2770,2769,2768,2769,2770,2769,2768,2769,2770,2769,2768,2769,2770,2769,2768,2769,2770,2769,2768,2769,2770,2769,2768,2769,2770,2769,2768,2769,2770,2769,2768,2769,2770,2769,2768,2769,2770,0,0,0,0,0,4483,4203,4482,0,0,7612,0,0,0,0,0,0,0,6635,0,0,0,7053,6495,0,6913,6775,0,6641,0,0,0,0,0,0,0,6499,6500,6500,7060,0,6633,0,0,0,0,0,7317,6493,7054,6493,7054,0,0,0,
0,0,0,0,0,0,0,0,0,0,0,0,0,0,0,0,0,0,0,0,0,0,0,0,0,0,0,0,0,0,0,0,0,0,0,0,0,0,0,0,0,0,0,0,4202,4203,4204,0,0,7612,0,0,0,0,0,0,0,6635,0,0,0,0,7053,6495,6635,0,0,6641,0,0,0,0,0,0,6499,7060,0,6493,6494,6494,7054,6493,6494,6494,6494,6494,6494,7054,6493,7054,0,0,0,0,
0,0,0,0,0,0,0,0,0,0,0,0,0,0,0,0,0,0,0,0,0,0,0,0,0,0,0,0,0,0,0,0,0,0,0,0,0,0,0,0,0,0,0,0,4202,4203,4204,0,0,7612,0,0,0,0,0,0,0,7053,6495,0,7475,7476,0,6635,7053,6495,0,7059,6501,0,0,0,6499,6500,7060,0,0,6633,0,0,6493,7054,6493,6494,6494,6494,6494,6494,7054,0,0,7317,0,0,
0,0,0,0,0,0,0,0,0,0,0,0,0,0,0,0,0,0,0,0,0,0,0,0,0,0,0,0,0,0,0,0,0,0,0,0,0,0,0,0,0,0,0,0,4202,4203,4204,0,7472,7751,0,0,0,0,0,0,0,0,6635,0,7615,7616,0,6635,6913,6775,0,0,7059,6500,6500,6500,7060,6493,6494,6494,6494,7054,0,6493,7054,6493,7054,0,0,0,0,0,0,0,0,0,0,0,
0,0,0,0,0,0,0,0,0,0,0,0,0,0,0,0,0,0,0,0,0,0,0,0,0,0,0,0,0,0,0,0,0,0,0,0,0,0,0,0,0,0,0,0,4202,4203,4204,0,7612,0,0,0,0,0,0,0,0,0,6635,0,0,0,0,6635,6635,0,7317,0,0,0,0,0,0,6633,0,0,0,0,6493,7054,6493,7054,0,0,0,0,0,0,0,0,0,0,0,0
</data>
 </layer>
 <layer id="3" name="Layer 3" width="94" height="62">
  <data encoding="csv">
3251,3252,0,2954,2955,2956,2957,11415,11417,11423,11423,11415,11416,11417,2966,2967,2968,2969,11415,11416,11416,11417,2830,2831,2832,2833,2838,2839,2840,2841,2278,2279,2280,0,0,0,361,362,363,0,649,650,651,0,0,0,0,0,0,649,0,651,0,0,0,0,0,0,0,0,0,0,0,0,12865,12866,12867,12868,12869,12870,12871,2347,2348,2349,2350,2349,2348,2349,2350,2351,0,3428,3429,3430,3431,0,0,0,0,0,0,0,0,0,
3391,3392,0,3094,3095,3096,3097,0,0,0,0,0,0,0,3106,3107,3108,3109,0,0,0,0,2970,2971,2972,2973,2978,2979,2980,2981,2418,2419,2420,0,481,482,483,297,298,299,681,682,683,0,12818,297,9,299,9,681,9,683,12827,105,12829,12830,12831,12832,0,129,130,131,0,0,13005,13006,13007,13008,13009,13010,13011,8183,2488,2489,2490,2489,2488,2489,2490,2491,0,3568,3569,3570,3571,0,0,0,0,0,0,0,0,0,
3531,3532,0,0,0,0,0,0,0,0,0,0,0,0,0,0,0,0,0,0,0,0,3110,3111,3112,3113,3118,3119,3120,3121,0,0,0,0,513,514,515,329,330,297,298,299,715,0,12958,12959,12960,12961,12963,713,12965,715,12967,137,12969,12970,12971,12921,12922,12923,12924,12925,12926,12927,13145,13146,13147,13148,13149,13150,13151,13152,0,0,0,0,0,0,0,0,0,3708,3709,3710,3711,0,0,0,0,0,0,0,0,0,
0,0,0,0,0,0,0,0,0,0,0,0,0,0,0,0,0,0,0,0,0,0,0,0,0,0,0,0,0,0,0,0,0,0,545,546,547,361,362,329,330,331,0,0,13098,13099,13100,13101,13103,13104,13105,13106,13107,13108,13109,13110,13111,13061,13062,13063,13064,13065,13066,8182,13285,13286,13287,13288,13289,13290,13291,13292,0,0,0,0,0,0,0,0,0,3848,3849,3850,3851,0,0,0,0,0,0,0,0,0,
0,0,0,0,0,0,0,0,0,0,0,0,0,0,0,0,0,0,0,0,0,0,0,0,0,0,0,0,0,0,0,0,0,0,577,578,425,426,427,361,362,363,0,0,13238,13239,13240,13241,13243,13244,13245,13246,13247,13248,13249,13250,13251,13201,13202,13203,13204,13205,13206,13207,13425,13426,13427,13428,13429,13430,13431,13432,0,0,0,0,0,0,0,0,0,0,0,0,0,0,0,0,0,0,0,0,0,0,
0,0,0,0,0,0,0,0,0,0,0,0,0,0,0,0,0,0,0,0,0,0,0,0,0,0,0,0,0,0,0,0,0,0,0,0,457,458,459,393,394,395,10312,0,13378,13379,13380,13381,13383,13384,13385,13386,13387,13388,13389,13390,13391,13341,13342,13343,13344,13345,13346,13347,13565,13566,13567,13568,13569,13570,13571,13572,13573,0,0,0,0,0,0,0,0,0,0,0,0,0,0,0,0,0,0,0,0,0,
0,0,0,0,0,0,0,0,0,0,0,0,0,0,0,0,0,0,0,0,0,0,0,0,0,0,0,0,0,0,0,0,0,0,0,0,489,490,491,0,0,10451,10452,0,13518,13519,13520,13521,13523,13524,13525,13526,13527,13528,13529,13530,13531,13481,13482,13483,13484,13485,13486,13487,13705,13706,13707,13708,13709,13710,13711,13712,13713,0,0,0,0,0,0,0,0,0,0,0,0,0,0,0,0,0,0,0,0,0,
0,0,0,0,0,0,0,0,0,0,0,0,0,0,0,0,0,0,0,0,3288,3289,3290,3291,0,0,0,0,0,0,0,0,0,0,0,0,521,522,523,0,0,0,0,0,13658,13659,13660,13661,13663,13664,13665,13666,13667,13668,13669,13670,13671,13621,13622,13623,13624,13625,13626,13627,13845,13846,13847,13848,13849,13850,13851,13852,0,0,0,0,0,0,0,0,0,0,0,0,0,0,0,0,0,0,0,0,0,0,
0,0,0,0,0,0,0,0,0,0,0,0,0,0,0,0,0,0,0,0,3428,3429,3430,3431,0,0,0,0,0,0,0,0,0,0,0,0,0,0,0,0,0,12672,12673,12674,12675,12676,12677,13801,13803,13804,13805,13806,13807,13808,13809,13810,13811,13761,13762,13763,13764,13765,13766,13767,13985,13986,13987,13988,13989,13990,13991,13992,0,0,0,2578,2579,2580,2581,0,0,0,0,0,0,0,0,0,0,0,0,0,0,0,
0,0,0,0,0,0,0,0,0,0,0,0,0,0,0,0,0,0,0,0,3568,3569,3570,3571,0,0,0,0,0,0,0,0,0,0,0,0,0,0,0,0,0,12812,12813,12814,12815,12816,12817,12823,12824,12825,12826,12818,12819,12820,12821,12822,0,0,0,0,0,0,0,0,17965,17966,17967,17968,17969,17970,17971,14132,0,0,0,2718,2719,2720,2721,0,0,0,0,0,0,0,0,0,0,0,0,0,0,0,
0,0,0,0,0,0,0,0,0,0,0,0,0,0,0,0,0,0,0,0,3708,3709,3710,3711,0,0,0,0,0,0,0,0,0,0,0,0,0,0,0,0,0,12952,12953,12954,12955,12956,12957,12963,12964,12965,12966,12958,12959,12960,12961,12962,0,0,0,0,0,0,0,0,18105,18106,18107,18108,18109,18110,18111,0,0,0,0,2858,2859,2860,2861,0,0,0,0,0,0,0,0,0,0,0,0,0,0,0,
0,0,0,0,0,0,0,0,0,0,0,0,0,0,0,0,0,0,0,0,3848,3849,3850,3851,0,0,0,0,0,0,0,0,0,0,0,0,0,0,0,0,0,13092,13093,13094,13095,13096,13097,13103,13104,13105,13106,13098,13099,13100,13101,13102,0,0,0,0,0,0,0,0,18245,18246,18247,18248,18249,18250,18251,0,0,0,0,2998,2999,3000,3001,0,0,0,0,0,0,0,0,0,0,0,0,0,0,0,
0,0,0,0,0,0,0,0,0,0,0,0,0,0,0,0,0,0,0,0,0,0,0,0,0,0,0,0,0,0,0,0,0,3288,3289,3290,3291,0,0,0,0,13232,13233,13234,13235,13236,13237,13243,13244,13245,13246,13238,13239,13240,13241,13242,0,0,0,0,0,0,0,0,18385,18386,18387,18388,18389,18390,18391,0,0,0,0,3138,3139,3140,3141,0,0,0,0,0,0,0,0,0,0,0,0,0,0,0,
0,0,0,0,0,0,0,0,0,0,0,0,0,0,0,0,0,0,0,0,0,0,0,0,0,0,0,0,0,0,0,0,0,3428,3429,3430,3431,0,0,0,0,13372,13373,13374,13375,13376,13377,13383,13384,13385,13386,13378,13379,13380,13381,13382,0,0,0,0,0,0,0,0,18525,18526,18527,18528,18529,18530,18531,0,0,0,0,0,0,0,0,0,0,0,0,0,0,0,0,0,0,0,0,0,0,0,
0,0,0,0,0,476,477,478,0,0,0,0,0,0,0,0,0,0,0,0,0,0,0,0,0,0,0,0,0,0,0,0,0,3568,3569,3570,3571,0,0,0,0,13512,13513,13514,13515,13516,13517,13523,13524,13525,13526,13518,13519,13520,13521,13522,0,0,0,0,0,0,0,0,18665,18666,18667,18668,18669,18670,18671,0,0,0,0,0,0,0,0,0,0,0,0,0,0,0,0,0,0,0,0,0,0,0,
0,0,0,0,0,476,477,478,0,0,0,0,0,0,0,0,0,0,0,0,0,0,0,0,0,9,9,9,0,0,0,0,0,3708,3709,3710,3711,0,0,0,0,13652,13653,13654,13655,13656,13657,13663,13664,13665,13666,13658,13659,13660,13661,13662,0,0,0,0,0,0,0,0,18805,18806,18807,18808,18809,18810,18811,0,0,0,0,0,0,0,0,0,0,0,0,0,0,0,0,636,0,0,0,0,0,0,
0,0,0,0,0,476,477,478,0,0,0,0,0,0,0,0,0,0,0,0,0,0,9,9,9,9,0,0,0,0,0,0,0,3848,3849,3850,3851,0,0,0,0,13792,13793,13794,13795,13796,13797,13803,13804,13805,13806,13798,13799,13800,13801,13802,0,0,0,0,0,0,0,0,18945,18946,18947,18948,18949,18950,18951,0,0,0,0,0,0,0,0,0,0,0,0,0,0,0,0,668,0,636,636,0,0,0,
0,0,0,0,0,0,0,0,0,0,0,0,0,0,0,0,0,0,0,0,0,0,9,9,0,0,0,0,0,0,0,0,0,0,0,0,0,0,0,0,0,0,0,0,0,0,0,0,0,0,0,0,0,0,0,0,0,0,0,0,0,0,0,0,19085,19086,19087,19088,19089,19090,19091,4128,4128,0,0,0,0,0,0,0,0,0,0,0,0,0,0,700,0,700,668,0,0,0,
0,0,0,0,0,0,0,0,0,0,0,0,0,0,0,0,0,0,0,0,9,9,9,0,0,0,0,0,0,0,0,9,0,0,0,0,0,0,0,0,0,0,0,0,0,4999,4999,11411,11411,3045,0,0,0,0,0,0,0,0,0,0,0,0,11244,11244,0,0,0,8204,8203,0,0,0,8204,0,0,0,0,8492,0,8772,0,0,0,0,0,0,0,732,0,732,700,0,0,0,
0,0,0,0,0,0,0,0,0,0,0,0,0,0,0,0,0,9,9,9,9,0,0,0,0,0,0,0,0,0,0,0,0,0,0,0,0,0,0,0,0,0,0,3323,3186,0,3182,3183,3184,3185,0,0,0,0,0,0,0,0,0,0,0,0,11244,11244,0,0,8203,8344,8209,8210,8211,0,8344,8489,8490,8491,8212,8632,0,8912,0,0,0,0,0,0,0,0,0,0,732,0,0,0,
0,0,0,0,0,0,0,0,0,0,0,0,0,0,0,0,9,9,9,0,0,0,0,0,0,0,0,0,0,9,9,0,0,0,0,0,0,0,0,0,8772,0,0,0,0,3327,3328,3323,3324,3325,0,0,0,0,0,0,0,0,12818,12819,12820,12821,10679,10680,0,0,8343,0,8349,8350,8351,0,0,8629,8630,8631,8352,0,0,9052,0,0,0,0,0,0,0,0,0,0,0,0,0,0,
0,0,0,0,0,0,0,0,0,0,0,0,0,0,0,9,9,0,0,0,0,0,0,0,0,0,0,9,9,0,0,0,0,0,0,4956,4956,4956,0,0,8912,0,0,0,0,0,0,0,0,0,0,0,8462,0,0,0,8462,0,12958,12959,12960,12961,12962,0,0,0,9016,11411,11411,11411,11411,11411,0,0,0,0,0,0,0,0,0,0,0,0,0,0,0,0,0,0,0,0,0,0,
0,0,0,0,0,0,0,0,0,0,0,0,0,0,0,9,0,0,0,0,0,0,0,0,0,0,9,0,0,0,0,0,0,0,0,0,0,0,0,0,9052,0,0,0,0,0,0,0,0,0,0,0,0,0,0,0,0,0,13098,13099,13100,13101,13102,0,0,0,11411,11411,11411,11411,11411,0,0,0,0,0,0,0,0,0,0,0,0,0,0,0,0,0,0,0,0,0,0,0,
0,0,0,0,0,0,0,0,0,0,0,0,0,0,0,9,0,0,0,0,0,0,0,0,0,9,0,0,0,0,0,0,0,0,0,0,0,0,0,0,0,0,0,0,0,0,0,0,0,0,0,0,0,8742,9011,8742,0,0,13238,13239,13240,13241,13242,0,0,0,11411,9297,9298,9299,11411,0,0,0,0,0,0,0,0,0,0,0,0,0,0,0,0,0,0,0,0,0,0,0,
0,0,0,0,0,0,0,0,0,0,0,0,0,0,9,9,0,0,0,0,0,0,0,0,9,0,0,0,0,2594,2595,2596,2597,0,0,0,0,0,0,0,0,0,0,0,0,0,0,0,0,0,0,0,0,9150,9151,9152,0,0,13378,13379,13380,13381,13382,0,0,0,11411,9437,9438,9439,11411,0,0,0,0,0,0,0,0,0,0,0,0,0,0,0,0,0,0,0,0,0,0,0,
0,0,0,0,0,0,0,0,0,0,0,0,0,0,9,0,0,0,0,0,0,0,0,9,0,0,0,0,0,2734,2735,2736,2737,0,0,0,0,0,0,0,0,0,0,0,0,0,0,0,0,0,0,0,0,0,0,0,0,0,13518,13519,13520,13521,13522,0,0,0,9576,9577,9578,9579,9580,0,0,0,0,0,0,0,0,0,0,0,0,0,0,0,0,0,0,0,0,0,0,0,
0,0,0,0,0,0,0,0,0,0,0,0,0,0,9,0,0,0,0,0,0,0,9,0,0,0,0,0,0,2874,2875,2876,2877,0,0,0,0,0,0,5534,5535,5536,0,0,0,0,0,0,0,0,0,0,0,0,0,0,0,0,13658,13659,13660,13661,13662,0,0,0,0,0,0,0,0,0,0,0,0,0,0,0,0,0,0,0,0,0,0,0,0,0,0,0,0,0,0,0,
0,0,0,0,0,0,0,0,0,0,0,0,0,0,0,0,0,6089,0,0,0,9,0,0,0,0,0,0,0,3014,3015,3016,3017,0,0,0,0,0,0,5674,5675,5676,0,0,0,0,0,0,0,0,0,0,0,0,0,0,0,0,13798,13799,13800,13801,13802,0,0,0,0,0,0,0,0,0,0,0,0,0,0,0,0,0,0,0,0,0,0,0,0,0,0,0,0,0,0,0,
0,0,0,0,0,0,0,0,0,0,0,0,0,0,0,0,0,0,0,0,0,0,0,0,0,0,0,0,0,3154,3155,3156,3157,0,0,0,0,0,0,5814,5815,5816,0,0,0,0,0,0,0,0,0,0,0,0,0,0,0,0,0,0,0,0,9745,9746,0,11244,11244,0,0,0,0,0,0,0,0,0,0,0,0,0,0,0,0,0,0,0,0,0,0,0,0,0,0,0,
0,0,0,0,0,0,0,0,0,0,0,0,0,0,0,0,0,0,0,0,9,0,0,0,0,0,0,0,0,0,0,0,0,0,0,0,0,0,0,5954,5955,5956,0,0,0,0,0,0,0,0,0,0,0,0,0,0,0,0,0,0,0,0,9885,9886,0,11244,11244,0,0,0,0,0,0,0,0,0,0,0,0,0,0,0,0,0,0,0,0,0,0,0,0,0,0,0,
0,0,0,0,0,0,0,0,0,0,0,0,0,0,0,0,0,0,0,0,9,0,0,0,0,0,0,0,0,0,0,0,0,0,0,0,0,0,0,5954,5955,5956,0,0,0,0,0,0,0,0,0,0,0,0,0,0,0,0,0,0,0,0,0,0,0,10681,10682,0,0,0,0,0,0,0,0,0,0,0,0,0,0,0,0,0,0,0,0,0,0,0,0,0,0,0,
0,0,0,0,0,0,0,0,0,0,0,0,0,0,0,0,0,0,0,0,0,0,0,0,0,0,0,0,0,0,0,0,0,0,0,0,0,0,0,6094,6095,6096,0,0,0,0,0,0,0,0,0,0,0,0,0,0,0,0,0,0,0,0,0,0,0,0,0,0,0,0,0,0,0,0,0,0,0,0,0,0,0,0,0,0,0,0,0,0,0,0,0,0,0,0,
0,0,0,0,0,0,0,0,0,0,0,0,0,0,0,0,0,0,0,0,0,0,0,0,0,0,0,0,0,0,0,0,0,0,0,0,0,0,0,0,0,0,0,0,0,0,0,0,0,0,0,0,0,0,0,0,0,0,0,0,0,0,0,0,0,0,0,0,2570,2571,2572,2573,0,0,0,0,0,0,0,8772,0,0,0,0,0,0,0,0,0,0,0,0,0,0,
0,0,0,0,0,0,0,0,0,0,0,0,0,0,0,0,0,0,0,0,0,0,0,0,0,0,0,0,0,0,0,0,0,0,0,0,0,0,0,0,0,0,0,0,0,0,0,0,0,0,0,0,0,0,0,0,0,0,0,0,0,0,0,0,0,0,8772,0,3690,2711,2712,2713,0,0,0,0,0,0,0,8912,7906,8744,0,0,0,0,0,0,0,0,0,0,0,0,
0,0,0,0,0,0,0,0,0,0,0,0,0,0,0,0,0,0,6228,0,0,0,0,0,0,0,0,0,0,0,0,0,0,0,0,0,0,0,0,0,0,0,0,5949,0,0,0,0,0,0,0,0,0,0,0,0,0,0,0,0,0,0,0,0,0,0,8912,0,3690,2851,2852,2853,0,0,0,0,0,0,0,9052,7906,0,0,0,0,0,0,0,0,0,0,0,0,0,
0,0,0,0,0,0,0,0,0,0,0,0,0,0,0,0,0,0,0,6229,0,0,0,0,0,0,0,0,0,0,6229,0,0,0,0,0,0,0,0,6227,0,0,0,0,6229,0,0,0,0,0,0,0,0,0,0,0,0,0,0,0,0,0,0,0,0,0,9052,0,3832,2991,2992,2993,0,0,0,0,0,0,0,0,7906,0,0,0,0,0,0,0,0,0,0,0,0,0,
0,0,0,0,0,0,0,0,0,0,0,0,0,0,0,0,0,0,0,0,0,0,0,0,0,0,0,0,0,0,0,0,0,0,0,0,0,0,0,5949,0,0,0,0,0,0,0,0,0,0,0,0,0,0,0,0,0,0,0,0,0,0,0,0,0,0,0,0,3832,3131,3132,3133,0,0,0,0,0,0,0,0,7906,0,0,0,0,0,0,0,0,0,0,0,0,0,
0,0,0,0,0,0,0,0,0,0,0,0,0,0,0,0,0,0,0,0,0,0,0,0,0,0,0,0,0,0,0,0,0,0,0,0,0,0,0,0,0,0,0,0,0,0,0,0,0,0,0,0,0,0,0,0,0,0,0,0,0,0,0,0,0,0,0,0,0,0,0,0,0,0,0,0,0,0,0,0,0,0,0,0,0,0,0,0,0,0,0,0,0,0,
0,0,0,0,0,0,0,0,0,0,0,0,0,0,0,0,0,0,0,0,0,0,0,0,0,0,0,0,0,0,6089,6227,6228,0,0,0,0,0,0,0,0,0,0,0,0,0,0,0,0,0,0,0,0,0,0,0,0,0,0,0,0,0,0,0,0,0,0,0,0,0,0,0,0,0,0,0,0,0,0,0,0,0,0,0,0,0,0,0,0,0,0,0,0,0,
0,0,0,0,0,0,0,0,0,0,0,0,0,0,0,0,0,0,0,0,0,0,0,0,0,0,0,0,0,0,0,0,0,0,0,0,0,0,0,0,0,0,0,476,478,0,0,0,0,0,0,0,0,0,0,0,0,0,0,0,0,0,0,0,0,0,0,0,0,0,0,0,0,0,0,0,0,0,0,0,0,0,0,0,0,0,0,0,0,0,0,0,0,0,
0,0,0,0,0,0,0,0,0,0,0,0,0,0,0,0,0,0,0,0,0,0,0,0,0,0,0,0,0,0,0,0,0,0,0,0,0,0,0,0,0,0,0,476,478,0,0,0,0,0,0,0,0,0,0,2558,2559,2560,2561,0,0,0,0,0,0,0,0,0,0,0,0,0,0,0,0,0,0,0,0,0,0,0,0,0,0,0,0,0,0,0,0,0,0,0,
0,0,0,0,0,0,0,0,0,0,0,0,0,0,0,0,0,0,0,0,0,0,0,0,0,0,0,0,0,0,0,0,0,0,0,0,0,0,0,0,0,0,0,476,478,0,0,0,0,0,0,0,0,0,0,2698,2699,2700,2701,1980,1981,1982,1983,1984,1985,0,0,0,0,0,0,0,0,0,0,0,0,0,0,0,0,0,0,0,0,0,0,0,0,0,0,0,0,0,
0,0,0,0,0,0,0,0,0,0,0,0,0,0,0,0,0,0,0,0,0,0,0,0,0,0,0,0,0,0,0,0,0,0,0,0,0,0,0,0,0,0,0,0,0,0,0,0,0,0,0,0,0,0,0,2838,2839,2840,2841,2120,2554,2555,2556,2557,1998,1999,2000,0,0,0,0,0,0,0,0,0,0,0,0,0,0,0,0,0,0,0,0,0,0,0,0,0,0,0,
0,0,0,0,0,0,0,0,0,0,0,0,0,0,0,0,0,0,0,0,0,0,0,0,0,0,0,0,0,0,0,0,0,0,0,0,0,0,0,0,0,0,0,0,0,0,0,0,0,0,0,0,0,0,0,2149,1990,1991,2005,2006,2694,2695,2696,2697,2138,2139,2140,0,0,0,0,0,0,0,0,0,0,0,0,0,0,0,0,0,0,0,0,0,0,0,0,0,0,0,
0,0,0,0,0,0,0,0,0,0,0,0,0,0,0,0,0,0,0,0,0,0,0,0,0,0,0,0,0,0,0,0,0,0,0,0,0,0,0,0,0,0,0,0,0,0,0,0,0,2546,2547,2548,2158,1981,1982,2129,2130,2144,2145,2146,2834,2835,2836,2837,2278,2279,2280,0,0,0,0,0,0,0,0,0,0,0,0,0,0,0,0,0,0,0,0,0,0,0,0,0,0,0,
0,0,0,0,0,0,0,0,0,0,0,0,0,0,0,0,0,0,0,0,0,0,0,0,0,0,0,0,0,0,0,0,0,0,0,0,0,0,0,0,2606,2607,2608,2609,0,0,1962,1963,1964,2686,2687,2688,2689,2121,2122,1999,2000,2284,2285,2286,2974,2975,2976,2977,2418,2419,2420,0,0,0,0,0,0,0,0,0,0,0,0,0,0,0,0,0,0,0,0,0,0,0,0,0,0,0,
0,0,0,0,0,0,0,0,0,0,0,0,0,0,0,0,0,3653,0,0,0,0,0,0,0,0,0,0,0,0,0,0,0,0,0,0,0,0,0,0,2746,2747,2748,2749,1963,1964,2102,1971,1972,2830,2827,2828,2829,2261,2138,2139,2140,2424,2425,2426,3114,3115,3116,3117,0,0,0,0,0,0,0,0,0,0,0,0,0,0,0,0,0,0,0,0,0,0,0,0,0,0,0,0,0,0,
0,0,0,0,0,0,0,0,0,0,0,0,0,0,0,0,0,3793,3653,0,0,0,0,0,0,0,0,0,0,0,0,0,0,0,0,0,0,0,0,0,2886,2887,2888,2889,2103,2104,2242,2111,2112,2113,2967,1980,1981,1982,2278,2279,2280,0,0,0,0,0,0,0,0,0,0,0,508,509,510,0,0,0,0,0,0,0,0,0,0,0,0,0,0,0,0,0,0,0,0,0,0,0,
0,0,0,0,0,0,0,0,0,0,0,0,0,0,0,0,0,3933,3793,0,0,0,0,0,0,0,0,0,0,0,0,0,0,0,0,0,0,0,0,0,3026,3027,3028,3029,2243,2244,0,2251,2252,2253,3107,2120,2121,2122,2418,2419,2420,0,0,0,0,0,0,0,0,0,0,0,508,509,510,0,0,0,0,0,0,0,0,0,0,0,0,0,0,0,0,0,0,0,0,0,0,0,
0,0,0,0,0,0,0,0,0,0,0,0,0,0,0,0,0,0,3933,0,0,0,0,0,0,0,0,0,0,0,0,0,0,0,0,0,0,0,0,0,3166,3167,3168,3169,0,0,0,0,0,1971,1972,2260,2261,2262,0,0,0,0,0,0,0,0,0,0,0,0,0,0,508,509,510,0,0,0,0,0,0,0,0,0,0,0,0,0,0,0,0,0,0,0,0,0,0,0,
0,0,0,0,0,0,0,0,0,0,0,0,0,0,0,0,0,0,0,0,0,0,0,0,0,0,0,0,0,0,0,0,0,0,0,0,0,0,0,0,0,0,5538,5538,5538,5538,0,0,0,2111,2112,2113,0,0,0,0,0,0,0,0,0,0,0,0,0,0,0,0,0,0,0,0,0,0,0,0,0,0,0,0,0,0,0,0,0,0,0,0,0,0,0,0,0,0,
0,0,0,0,0,0,0,0,0,0,0,0,0,0,0,0,0,0,0,0,0,0,0,0,0,0,0,0,0,0,0,0,0,0,0,0,0,0,0,0,0,0,0,0,0,0,0,0,0,2251,2252,2253,0,0,0,0,0,0,0,0,0,3288,3289,3290,3291,0,0,0,0,0,0,0,0,10032,10031,0,0,0,0,0,0,0,0,0,0,3288,3289,3290,3291,0,0,0,0,0,
0,0,0,0,0,0,0,0,0,0,0,0,0,0,0,0,0,0,0,0,0,0,0,0,0,0,0,0,0,0,0,0,0,0,0,0,0,0,0,0,0,0,0,0,0,0,0,0,0,0,0,0,0,0,0,0,0,0,0,0,0,3428,3429,3430,3431,0,0,0,0,0,0,0,0,10172,10171,0,0,0,0,0,0,0,0,0,0,3428,3429,3430,3431,0,0,12818,12819,12820,
0,0,0,0,0,0,0,0,0,0,0,0,0,0,0,2071,0,0,0,0,0,0,0,0,0,0,0,0,0,0,0,2067,0,0,0,0,0,0,0,0,0,0,0,0,0,0,0,0,0,0,0,0,0,0,0,0,0,0,0,0,0,3568,3569,3570,3571,0,0,0,0,0,0,0,0,0,0,0,0,0,0,0,0,0,0,0,0,3568,3569,3570,3571,0,0,12958,12959,12960,
0,0,0,0,0,0,0,0,0,0,0,0,0,0,0,0,0,0,0,0,0,0,0,0,0,0,0,0,0,0,0,0,0,0,0,0,0,0,0,0,0,0,0,0,0,0,0,0,0,0,0,0,0,0,0,0,0,0,0,0,0,3708,3709,3710,3711,0,0,0,0,0,0,0,0,0,0,0,0,0,0,0,0,0,0,0,0,3708,3709,3710,3711,0,0,13098,13099,13100,
0,0,0,0,0,0,0,0,0,0,0,0,0,0,0,0,0,0,0,0,0,0,0,0,0,0,0,0,0,0,0,0,0,0,0,0,0,0,0,0,0,0,0,0,0,0,0,0,0,0,0,0,0,0,0,0,0,0,0,0,0,3848,3849,3850,3851,0,0,0,0,0,0,0,0,0,0,0,0,0,0,0,0,0,0,0,0,3848,3849,3850,3851,0,0,13238,13239,13240,
0,0,0,0,0,0,0,0,0,0,0,0,0,0,0,0,0,0,0,0,0,0,0,0,0,0,0,0,0,0,0,0,0,0,0,0,0,0,0,0,0,0,0,0,0,0,0,2534,2535,2536,2537,0,0,0,0,0,0,0,0,0,0,0,0,0,0,0,0,0,0,0,0,0,0,0,0,0,0,0,0,0,0,476,478,0,0,0,0,0,0,0,0,13378,13379,13380,
2068,2069,2070,2069,2068,2069,2070,2069,2068,2069,2070,2069,2068,2069,2070,2069,2068,2069,2070,2069,2068,2069,2070,2069,2068,2069,2070,2069,2068,2069,2070,2069,2068,2069,2070,2069,2068,2069,2070,2069,2068,2069,2070,2071,0,0,0,2674,2675,2676,2677,0,0,0,0,0,0,0,0,0,0,0,0,0,0,0,0,0,0,0,0,0,0,0,0,0,0,0,0,0,0,0,0,0,0,0,0,3288,3289,3290,3291,13518,13519,13520,
2628,2629,2630,2629,2628,2629,2630,2629,2628,2629,2630,2629,2628,2629,2630,2629,2628,2629,2630,2629,2628,2629,2630,2629,2628,2629,2630,2629,2628,2629,2630,2629,2628,2629,2630,2629,2628,2629,2630,2629,2628,2629,2630,2631,0,0,0,2814,2815,2816,2817,0,0,0,0,0,0,0,0,0,0,0,0,0,0,0,0,0,0,0,0,0,0,0,0,0,0,0,0,0,0,0,0,476,478,0,0,3428,3429,3430,3431,13658,13659,13660,
2768,2769,2770,2769,2768,2769,2770,2769,2768,2769,2770,2769,2768,2769,2770,2769,2768,2769,2770,2769,2768,2769,2770,2769,2768,2769,2770,2769,2768,2769,2770,2769,2768,2769,2770,2769,2768,2769,2770,2769,2768,2769,2770,2771,0,0,0,2954,2955,2956,2957,0,0,0,3657,3658,3659,0,0,0,0,0,0,0,0,0,0,0,0,0,0,0,0,0,0,0,0,0,0,0,0,0,0,476,478,0,0,3568,3569,3570,3571,13798,13799,13800,
2628,2629,2630,2629,2628,2629,2630,2629,2628,2629,2630,2629,2628,2629,2630,2629,2628,2629,2630,2629,2628,2629,2630,2629,2628,2629,2630,2629,2628,2629,2630,2629,2628,2629,2630,2629,2628,2629,2630,2629,2628,2629,2630,2631,0,0,0,3094,3095,3096,3097,0,0,0,3797,3798,3799,0,0,0,0,0,0,0,0,0,0,0,0,0,0,0,0,0,0,0,0,0,0,0,0,0,0,0,0,0,0,3708,3709,3710,3711,0,0,0,
2768,2769,2770,2769,2768,2769,2770,2769,2768,2769,2770,2769,2768,2769,2770,2769,2768,2769,2770,2769,2768,2769,2770,2769,2768,2769,2770,2769,2768,2769,2770,2769,2768,2769,2770,2769,2768,2769,2770,2769,2768,2769,2770,2771,0,0,0,0,0,0,0,0,0,0,3937,3938,3939,0,0,0,0,0,0,0,0,0,0,0,0,0,0,0,0,0,0,0,0,0,0,0,0,0,0,0,0,0,0,3848,3849,3850,3851,0,0,0
</data>
 </layer>
 <layer id="4" name="Top layer" width="94" height="62">
  <data encoding="csv">
0,0,0,0,0,0,0,0,0,0,0,0,0,0,0,0,0,0,0,0,0,0,0,0,0,0,0,0,0,0,0,0,0,0,0,0,0,0,0,0,0,0,0,0,0,0,0,0,0,0,0,0,0,0,0,0,0,0,0,0,0,0,0,0,0,0,0,0,0,0,0,0,0,0,0,0,0,0,0,0,0,0,0,0,0,0,0,0,0,0,0,0,0,0,
0,0,0,0,0,0,0,0,0,0,0,0,0,0,0,0,0,0,0,0,0,0,0,0,0,0,0,0,0,0,0,0,0,0,0,0,0,0,0,0,0,0,0,0,0,12819,12820,12821,12823,12824,12825,12826,0,12828,0,0,0,0,0,0,0,0,0,0,0,0,0,0,0,0,0,0,0,0,0,0,0,0,0,0,0,0,0,0,0,0,0,0,0,0,0,0,0,0,
0,0,0,0,0,0,0,0,9839,9840,9841,0,0,0,0,0,0,0,0,0,0,0,0,0,0,0,0,0,0,0,0,0,0,0,0,0,0,0,0,0,0,0,0,0,0,0,0,0,12963,12964,12965,12966,0,12968,0,0,0,0,0,0,0,0,0,0,0,0,0,0,0,0,0,0,0,0,0,0,0,0,0,0,0,0,0,0,0,0,0,0,0,0,0,0,0,0,
0,0,0,0,0,0,0,0,9979,9980,9981,0,0,0,0,0,0,0,0,0,0,0,0,0,0,0,0,0,0,0,0,0,0,0,0,0,0,0,0,0,0,0,0,0,0,0,0,0,0,0,0,0,0,13108,0,0,0,0,0,0,0,0,0,0,0,0,0,0,0,0,0,0,0,0,0,0,0,0,0,0,0,0,0,0,0,0,0,0,0,0,0,0,0,0,
0,0,0,0,0,0,0,0,10119,10120,10121,0,0,0,0,0,0,0,0,0,0,0,0,0,0,0,0,0,0,0,0,0,0,0,0,0,0,0,0,0,0,0,0,0,0,0,0,0,0,0,0,0,0,0,0,0,0,0,0,0,0,0,0,0,0,0,0,0,0,0,0,0,0,0,0,0,0,0,0,0,0,0,0,0,0,0,0,0,0,0,0,0,0,0,
0,0,0,0,0,0,0,0,10119,10120,10121,0,0,0,0,0,0,0,0,0,0,0,0,0,0,0,0,0,0,0,0,0,0,0,0,0,0,0,0,0,0,10311,0,0,0,0,0,0,0,0,0,0,10398,0,0,0,0,0,0,0,0,0,0,0,0,0,0,0,0,0,0,0,0,0,0,0,0,0,0,0,0,0,0,0,0,0,0,0,0,0,0,0,0,0,
0,0,0,0,0,0,0,0,10119,10120,10121,0,0,0,0,0,0,0,0,0,0,0,0,0,0,0,0,0,0,0,0,0,0,0,0,0,0,0,0,0,4765,0,0,0,0,0,0,0,0,0,0,0,10538,0,0,0,0,0,0,0,0,0,0,0,0,0,0,0,0,0,0,0,0,0,0,0,0,0,0,0,0,0,0,0,0,0,0,0,0,0,0,0,0,0,
0,0,0,0,0,0,0,0,10119,10120,10121,0,0,0,0,0,0,0,0,0,0,0,0,0,0,0,0,0,0,0,0,0,0,0,0,0,0,0,0,0,0,0,0,0,0,0,0,0,0,0,0,0,0,0,0,0,0,0,0,0,0,0,0,0,0,0,0,0,0,0,0,0,0,0,0,0,0,0,0,0,0,0,0,0,0,0,0,0,0,0,0,0,0,0,
0,0,0,0,0,0,0,0,10119,10120,10121,0,0,0,0,0,0,0,0,0,0,0,0,0,0,0,0,0,0,0,0,0,0,0,0,0,0,0,0,0,0,0,0,0,0,0,0,0,0,0,0,0,0,0,0,0,0,0,0,0,0,0,0,0,0,0,0,0,0,0,0,0,0,0,0,0,0,0,0,0,0,0,0,0,0,0,0,0,0,0,0,0,0,0,
0,0,0,0,0,0,0,0,10119,10120,10121,0,0,0,0,0,0,0,0,0,0,0,0,0,0,0,0,0,0,0,0,0,0,0,0,0,0,0,0,0,0,0,0,0,0,0,0,0,0,0,0,0,0,0,0,0,0,0,0,0,0,0,0,0,0,0,0,0,0,0,0,0,0,0,0,0,0,0,0,0,0,0,0,0,0,0,0,0,0,0,0,0,0,4765,
0,0,0,0,0,0,0,0,10119,10120,10121,0,0,0,0,0,0,0,0,0,0,0,0,0,0,0,0,0,0,0,0,0,0,0,0,0,0,0,0,0,0,0,0,0,0,0,0,0,0,0,0,0,0,0,0,0,0,0,0,0,0,0,0,0,0,0,0,0,0,0,0,0,0,0,0,0,0,0,0,0,0,0,0,0,0,0,0,0,0,0,0,0,0,0,
0,0,0,0,0,0,0,0,10119,10120,10121,0,0,0,0,0,0,0,0,0,0,0,0,0,0,0,0,0,0,0,0,0,0,0,0,0,0,0,0,0,0,0,0,0,0,0,0,0,0,0,0,0,0,0,0,0,0,0,0,0,0,0,0,0,0,0,0,0,0,0,0,0,0,0,0,0,0,0,0,0,0,0,0,0,0,0,0,0,0,0,0,0,0,0,
0,0,0,0,0,0,0,0,10119,10120,10121,0,0,0,0,0,0,0,0,0,0,0,0,0,0,0,0,0,0,0,0,0,0,0,0,0,0,0,0,0,0,0,0,0,0,0,0,0,0,0,0,0,0,0,0,0,0,0,0,0,0,0,0,0,0,0,0,0,0,0,0,0,0,0,0,0,0,0,0,0,0,0,0,0,0,0,0,0,0,0,0,0,0,0,
0,0,0,0,0,0,0,0,10119,10120,10121,0,0,0,0,0,0,0,0,0,0,0,0,0,0,0,0,0,0,0,0,0,0,0,0,0,0,0,0,0,0,0,0,0,0,0,0,0,0,0,0,0,0,0,0,10399,10400,0,0,0,0,0,0,0,0,0,0,0,0,0,0,0,0,0,0,0,0,0,0,0,0,0,0,0,0,0,0,0,0,0,0,0,0,0,
0,0,0,0,0,0,0,0,10119,10120,10121,0,0,0,0,0,0,0,0,0,0,0,0,0,0,0,0,0,0,0,0,0,0,0,0,0,0,0,0,0,0,0,0,0,0,0,0,0,0,0,0,0,0,0,0,10539,10540,0,0,0,0,0,0,0,0,0,0,0,0,0,0,0,0,0,0,0,0,0,0,0,0,0,0,0,0,0,0,0,0,0,0,0,0,0,
0,0,0,0,0,0,0,0,10119,10120,10121,0,0,0,0,0,0,0,0,0,0,0,0,0,0,0,0,0,0,0,0,0,0,0,0,0,0,0,0,0,0,0,0,0,0,0,0,0,0,0,0,0,0,0,0,0,0,0,0,0,0,0,0,0,0,0,0,0,0,0,0,0,0,0,0,0,0,0,0,0,0,0,0,0,0,0,0,0,0,0,0,0,0,0,
0,0,0,0,0,0,0,0,10119,10120,10121,0,0,0,0,0,0,0,0,0,0,0,0,0,0,0,0,0,0,0,0,0,0,0,0,0,0,0,0,0,0,0,0,2903,2904,0,0,0,0,0,0,0,0,0,0,0,0,0,0,0,0,0,0,0,0,0,0,0,0,0,0,0,0,0,0,0,0,0,0,0,0,0,0,0,0,0,0,0,0,0,0,0,0,0,
0,0,0,0,0,0,0,0,0,0,0,0,0,0,0,0,0,0,0,0,0,0,0,0,0,0,0,0,0,0,0,0,0,0,0,0,0,0,0,0,0,0,0,3043,3044,0,0,2903,2904,0,0,0,0,0,0,0,0,0,0,0,0,0,0,0,0,0,0,0,0,0,0,0,0,0,0,0,0,0,0,4765,0,0,0,0,0,0,0,0,0,0,0,0,0,0,
0,0,0,0,0,0,0,0,0,0,0,0,0,0,0,0,0,0,0,0,0,0,0,0,0,0,0,0,0,0,0,0,0,0,0,0,0,0,0,0,0,0,0,0,0,3047,3048,3043,3044,0,0,0,0,0,0,0,0,0,0,0,0,0,10399,10400,0,0,0,0,0,0,0,0,0,0,0,0,0,0,0,0,0,0,0,0,0,0,0,0,0,0,0,0,0,0,
0,0,0,0,0,0,0,0,0,0,0,0,0,0,0,0,0,0,0,0,0,0,0,0,0,0,0,0,0,0,0,0,0,0,0,0,0,0,0,0,0,0,0,0,0,0,0,0,0,0,0,0,0,0,0,0,0,0,0,0,0,0,10539,10540,0,0,0,0,0,0,0,0,0,0,0,0,0,0,10401,10402,0,0,0,0,0,0,0,0,0,0,0,0,0,0,
0,0,0,0,0,0,0,0,0,0,0,0,0,0,0,0,0,0,0,0,0,0,0,0,0,0,0,0,0,0,0,0,0,0,0,0,0,0,0,0,0,0,0,0,0,0,0,0,0,0,0,0,0,0,0,0,0,0,0,0,0,0,0,0,0,0,0,0,0,0,0,0,0,0,0,0,0,0,10541,10542,0,0,0,0,0,0,0,0,0,0,0,0,0,0,
0,0,0,0,0,0,0,0,0,0,0,0,0,0,0,0,0,0,0,0,0,0,0,0,0,0,0,0,0,0,0,0,0,0,0,0,0,0,0,0,0,0,0,0,0,0,0,0,0,0,0,0,0,0,0,0,0,0,0,0,0,0,0,0,0,0,9016,9017,9018,9019,9020,0,0,0,0,0,0,0,0,0,0,0,0,0,0,0,0,0,0,0,0,0,0,0,
0,0,0,0,0,0,0,0,0,0,0,0,0,0,0,0,0,0,0,0,0,0,0,0,0,0,0,0,0,0,0,0,0,0,0,0,0,0,0,0,0,0,0,0,0,0,0,0,0,0,0,0,0,0,0,0,0,0,0,0,0,0,0,0,0,0,9156,9157,9158,9159,9160,0,0,0,0,0,0,0,0,0,0,0,0,0,0,0,0,0,0,0,0,0,0,0,
0,0,0,0,0,0,0,0,0,0,0,0,0,0,0,0,0,0,0,0,0,0,0,0,0,0,0,0,0,0,0,0,0,0,0,0,0,0,0,0,0,0,0,0,0,0,0,0,0,0,0,0,0,9010,0,9012,0,0,0,0,0,0,0,0,0,0,9296,0,0,0,9300,0,0,0,0,0,0,0,0,0,0,0,0,0,0,0,0,0,0,0,0,0,0,0,
0,0,0,0,0,0,0,0,0,0,0,0,0,0,0,0,0,0,0,0,0,0,0,0,0,0,0,0,0,0,0,0,0,0,0,0,0,0,0,0,0,0,0,0,0,0,4765,0,0,0,0,0,0,9150,0,9152,0,0,0,0,0,0,0,0,0,0,9436,0,0,0,9440,0,0,0,0,0,0,0,0,0,0,0,0,0,0,0,0,0,0,0,0,0,0,0,
0,0,0,0,0,0,0,0,0,0,0,0,0,0,0,0,0,0,0,0,0,0,0,0,0,0,0,0,0,0,0,0,0,0,0,0,0,0,0,0,0,0,0,0,0,0,0,0,0,0,0,0,0,0,0,0,0,0,0,0,0,0,0,0,0,0,0,0,0,0,0,0,0,0,0,0,0,0,0,0,0,0,0,0,0,0,0,0,0,0,0,0,0,0,
0,0,0,0,0,0,0,0,0,0,0,0,0,0,0,0,0,0,0,0,0,0,0,0,0,0,0,0,0,0,0,0,0,0,0,0,0,0,0,0,0,0,0,0,0,0,0,0,0,0,0,0,0,0,0,0,0,0,0,0,0,0,0,0,0,0,0,0,0,0,0,0,0,0,0,0,0,0,0,0,0,0,0,0,0,0,0,0,0,0,0,0,0,0,
0,0,0,0,0,0,0,0,0,0,0,0,0,0,0,0,0,0,0,0,0,0,0,0,0,0,0,0,0,0,0,0,0,0,0,0,0,0,0,0,0,0,0,0,0,0,0,0,0,0,0,0,0,0,0,0,0,0,0,0,0,0,0,0,0,0,0,0,0,0,0,0,0,0,0,0,0,0,0,0,0,0,0,0,0,0,0,0,0,0,0,0,0,0,
0,0,0,0,0,0,0,0,0,0,0,0,0,0,0,0,0,0,0,0,0,0,0,0,0,0,0,0,0,0,0,0,0,0,0,0,0,0,0,0,0,0,0,0,0,0,0,0,0,0,0,0,0,0,0,0,0,0,0,0,0,0,0,0,0,10401,10402,0,0,0,0,0,0,0,0,0,0,0,0,0,0,0,0,0,0,0,0,0,0,0,0,0,0,0,
0,0,0,0,0,0,0,0,0,0,0,0,0,0,0,0,0,0,0,0,0,0,0,0,0,0,0,0,0,0,0,0,0,0,0,0,0,0,0,0,0,0,0,0,0,0,0,0,0,0,0,0,0,0,0,0,0,0,0,0,0,0,0,0,0,10541,10542,0,0,0,0,0,0,0,0,0,0,0,0,0,0,0,0,0,0,0,0,0,0,0,0,0,0,0,
0,0,0,0,0,0,0,0,0,0,0,0,0,0,0,0,0,0,0,0,0,0,0,0,0,0,0,0,0,0,0,0,0,0,0,0,0,0,0,0,0,0,0,0,0,0,0,0,0,0,0,0,0,0,0,0,0,0,0,0,0,0,0,0,0,0,0,0,0,0,0,0,0,0,0,0,0,0,0,0,0,0,0,0,0,0,0,0,0,0,0,0,0,0,
2068,2069,2070,2071,0,0,0,0,0,0,0,0,0,0,0,0,0,0,0,0,0,0,0,0,0,0,0,0,0,0,0,0,0,0,0,0,0,0,0,0,0,0,0,0,0,0,0,0,0,0,0,0,0,0,0,0,0,0,0,0,0,0,0,0,0,0,0,0,0,0,0,0,0,0,0,0,0,0,0,0,0,0,0,0,0,0,0,0,0,0,0,0,0,0,
0,0,0,2631,0,0,0,0,0,0,0,0,0,0,0,0,0,0,0,0,0,0,0,0,0,0,0,0,0,0,0,0,0,0,0,0,0,0,0,0,0,0,0,0,0,0,0,0,0,0,0,0,0,0,0,0,0,0,0,0,0,0,0,0,0,0,0,0,0,0,0,0,0,0,0,0,0,0,0,0,0,0,0,0,0,0,0,0,0,0,0,0,0,0,
0,0,0,2771,0,0,0,0,0,0,0,0,0,0,0,0,0,0,0,0,0,0,0,0,0,0,0,0,0,0,0,0,0,0,0,0,0,0,0,0,0,0,0,0,0,0,0,0,0,7439,7440,0,0,0,0,0,0,0,0,0,0,0,0,0,0,0,0,0,2710,0,0,0,0,0,0,0,0,0,0,0,0,0,0,0,0,0,0,0,0,0,0,0,0,0,
0,0,0,2631,0,0,0,0,0,0,0,0,0,0,0,0,0,0,0,0,0,0,0,0,0,0,0,0,0,0,0,0,0,0,0,0,0,0,0,0,0,0,0,0,0,0,0,0,0,7579,7580,0,0,0,0,0,0,0,0,0,0,0,0,0,0,0,0,0,2850,0,0,0,0,0,0,0,0,0,0,0,0,0,0,0,0,0,0,0,0,0,0,0,0,0,
0,0,0,2771,0,0,0,0,0,0,0,0,0,0,0,0,0,0,0,0,0,0,0,0,0,0,0,0,0,0,0,0,0,0,0,0,0,0,0,0,0,0,0,0,0,0,0,0,0,7719,7720,0,0,0,0,0,0,0,0,0,0,0,0,0,0,0,0,0,2990,0,0,0,0,0,0,0,0,0,0,0,0,0,0,0,0,0,0,0,0,0,0,0,0,0,
0,0,0,2631,0,0,0,0,0,0,0,0,0,0,0,0,0,0,0,0,0,0,0,0,0,0,0,0,0,0,0,0,0,0,0,0,0,0,0,0,0,0,0,0,0,0,0,0,0,7859,7860,0,0,0,0,0,0,0,0,0,0,0,0,0,0,0,0,0,3130,0,0,0,0,0,0,0,0,0,0,0,0,0,0,0,0,0,0,0,0,0,0,0,0,0,
0,0,0,2771,0,0,0,0,0,0,0,0,0,0,0,0,0,0,0,0,0,0,0,0,0,0,0,0,0,0,0,0,0,0,0,0,0,0,0,0,0,0,0,0,0,0,0,0,0,0,0,0,0,0,0,0,0,0,0,0,0,0,0,0,0,0,0,0,0,0,0,0,0,0,0,0,0,0,0,0,0,0,0,0,0,0,0,0,0,0,0,0,0,0,
0,0,0,2631,0,0,0,0,0,0,0,0,0,0,0,0,0,0,0,0,0,0,0,0,0,0,0,0,0,0,0,0,0,0,0,0,0,0,0,0,0,0,0,0,0,0,0,0,0,0,0,0,0,0,0,0,0,0,0,0,0,0,0,2522,2523,2524,2525,0,0,0,0,0,0,0,0,0,0,0,0,0,0,0,0,0,0,0,0,0,0,0,0,0,0,0,
0,0,0,2771,0,0,0,0,0,0,0,0,0,0,0,0,0,0,0,0,0,0,0,0,0,0,0,0,0,0,0,0,0,0,0,0,0,0,0,0,0,0,0,0,0,0,0,0,0,0,0,0,0,0,0,0,0,0,0,0,0,0,0,2662,2663,2664,2665,0,0,0,0,0,0,0,0,0,0,0,0,0,0,0,0,0,0,0,0,0,0,0,0,0,0,0,
0,0,0,2631,0,0,0,0,0,0,0,0,0,0,0,0,0,0,0,0,0,0,0,0,0,0,0,0,0,0,0,0,0,0,0,0,0,0,0,0,0,0,0,0,0,0,0,0,0,0,0,0,0,0,0,0,0,0,0,0,0,0,0,2802,2803,2804,2805,0,0,0,0,0,0,0,0,0,0,0,0,0,0,0,0,0,0,0,0,0,0,0,0,0,0,0,
0,0,0,2771,0,0,0,0,0,0,0,0,0,0,0,0,0,0,0,0,0,0,0,0,0,0,0,0,0,0,0,0,0,0,0,0,0,0,0,0,0,0,0,0,0,0,0,0,0,0,0,0,0,0,0,0,0,0,0,0,0,0,0,0,0,0,0,0,0,0,0,0,0,0,0,0,0,0,0,0,0,0,0,0,0,0,0,0,0,0,0,0,0,0,
0,0,0,2631,0,0,0,0,0,0,0,0,0,0,0,0,0,0,0,0,0,0,0,0,0,0,0,0,0,0,0,0,0,0,0,0,0,0,0,0,0,0,0,0,0,0,0,0,0,0,0,0,0,0,0,0,0,0,0,0,0,0,0,0,0,0,0,0,0,0,0,0,0,0,0,0,0,0,0,0,0,0,0,0,0,0,0,0,0,0,0,0,0,0,
0,0,0,2771,0,0,0,0,0,0,0,0,0,0,0,0,0,0,0,0,0,0,0,0,0,0,0,0,0,0,0,0,0,0,0,0,0,0,0,0,0,0,0,0,0,0,0,0,0,0,0,0,0,0,0,1989,0,2004,0,2260,0,0,0,0,0,0,0,0,0,0,0,0,0,0,0,0,0,0,0,0,0,0,0,0,0,0,0,0,0,0,0,0,4870,0,
0,0,0,2631,0,0,0,0,0,0,0,0,0,0,0,0,0,0,0,0,0,0,0,0,0,0,0,0,0,0,0,0,0,0,0,0,0,0,0,0,0,0,0,0,0,0,0,0,0,0,0,0,0,0,0,0,0,0,0,0,0,0,0,0,0,0,0,0,0,0,0,0,0,0,0,0,0,0,0,0,0,0,0,0,0,0,0,0,0,0,0,0,0,0,
0,0,0,2069,2068,2069,2070,2071,0,0,0,0,0,0,0,0,0,0,0,0,0,0,0,0,0,0,0,0,0,0,0,0,0,0,0,0,0,0,0,0,0,0,0,0,0,0,0,0,0,0,0,0,0,0,1998,0,0,0,0,0,0,0,0,0,0,0,0,0,0,0,0,0,0,0,0,0,0,0,0,0,0,0,0,0,0,0,0,0,0,0,0,0,0,0,
0,0,0,0,0,0,0,2631,0,0,0,0,0,0,0,0,0,0,0,0,0,0,0,0,0,0,0,0,0,0,0,0,0,0,0,0,0,0,0,0,0,0,0,0,0,0,0,0,0,1973,0,0,0,0,0,0,0,0,0,0,0,0,0,0,0,0,0,0,0,0,0,0,0,0,0,0,0,0,0,0,0,0,0,0,0,0,0,0,0,0,0,0,0,0,
0,0,0,0,0,0,0,2069,2068,2069,2070,2071,0,0,0,0,0,0,0,0,0,0,0,0,0,0,0,0,0,0,0,0,0,0,0,0,0,0,0,0,0,0,0,0,0,0,0,0,0,0,0,0,0,0,0,0,0,0,0,0,0,0,0,0,0,0,0,0,0,0,0,0,0,0,0,0,0,0,0,0,0,0,0,0,0,0,0,0,0,0,0,0,0,0,
0,0,0,0,0,0,0,0,0,0,0,2631,0,0,0,0,0,0,0,0,0,0,0,0,0,0,0,0,0,0,0,0,0,0,0,0,0,0,0,0,0,0,0,0,0,0,0,0,0,0,0,0,0,0,0,0,0,0,0,0,0,0,0,0,0,0,0,0,0,0,0,0,0,0,0,0,0,0,0,0,0,0,0,0,0,0,0,0,0,0,0,0,0,0,
0,0,0,0,0,0,0,0,0,0,0,2771,0,0,0,0,0,0,0,0,0,0,0,0,0,0,0,0,0,0,0,0,0,0,0,0,0,0,0,0,0,0,0,0,0,0,0,0,0,0,0,1973,0,0,0,0,0,0,0,0,0,0,0,0,0,0,0,0,0,0,0,0,0,0,0,0,0,0,0,0,0,0,0,0,0,0,0,0,0,0,0,0,0,0,
0,0,0,0,0,0,0,0,0,0,0,2631,0,0,0,0,0,0,0,0,0,0,0,0,0,0,0,0,0,0,0,0,0,0,0,0,0,0,0,0,0,0,2594,2595,2596,2597,0,0,0,0,0,0,0,0,0,0,0,0,0,0,0,0,0,0,0,0,0,0,0,0,0,0,0,0,0,0,0,0,0,0,0,0,0,0,0,0,0,0,0,0,0,0,0,0,
0,0,0,0,0,0,0,0,0,0,0,2069,2068,2069,2070,2071,0,0,0,0,0,0,0,0,0,0,0,0,0,0,0,2067,2068,2069,2070,2069,2068,2069,2070,2071,0,0,2734,2735,2736,2737,0,0,0,0,0,0,0,0,0,0,0,0,0,0,0,0,0,0,0,0,0,0,0,0,0,0,0,0,0,0,0,0,0,0,0,0,0,0,0,0,0,0,0,0,0,0,0,0,
0,0,0,0,0,0,0,0,0,0,0,0,0,0,0,2631,0,0,0,0,0,0,0,0,0,0,0,0,0,0,0,2627,0,0,0,0,0,0,0,2631,0,0,2874,0,0,2877,0,0,0,0,0,0,0,0,0,0,0,0,0,0,0,0,0,0,0,0,0,0,0,0,0,0,0,0,0,0,0,4765,0,0,0,0,0,0,0,0,0,0,0,0,0,0,0,0,
0,0,0,0,0,0,0,0,0,0,0,0,0,0,0,2067,2068,2069,2070,2069,2068,2069,2070,2069,2068,2069,2070,2069,2068,2069,2070,2071,0,0,0,0,0,0,0,2771,0,0,3014,0,0,3017,0,0,0,0,0,0,0,0,0,0,0,0,0,0,0,0,0,0,0,0,0,0,0,0,0,0,0,0,0,0,0,0,0,0,0,0,0,0,0,0,0,0,0,0,0,0,0,0,
0,0,0,0,0,0,0,0,0,0,0,0,0,0,0,0,0,0,0,0,0,0,0,0,0,0,0,0,0,0,0,0,0,0,0,0,0,0,0,2631,0,0,0,3155,3156,0,0,0,0,0,0,0,0,0,0,0,0,0,0,0,0,0,0,0,0,0,0,0,0,0,0,0,0,0,0,0,0,0,0,0,0,0,0,0,0,0,0,0,0,0,0,0,0,0,
0,0,0,0,0,0,0,0,0,0,0,0,0,0,0,0,0,0,0,0,0,0,0,0,0,0,0,0,0,0,0,0,0,0,0,0,0,0,0,2771,0,0,0,0,0,0,0,0,0,0,0,0,0,0,0,0,0,0,0,0,0,0,0,0,0,0,0,0,0,0,0,0,0,0,0,0,0,0,0,0,0,0,0,0,0,0,0,0,0,0,0,0,0,0,
0,0,0,0,0,0,0,0,0,0,0,0,0,0,0,0,0,0,0,0,0,0,0,0,0,0,0,0,0,0,0,0,0,0,0,0,0,0,0,2631,0,0,0,0,0,0,0,0,0,0,0,0,0,0,0,0,0,0,0,0,0,0,0,0,0,0,0,0,0,0,0,0,0,0,0,0,0,0,0,0,0,0,0,0,0,0,0,0,0,0,0,0,0,0,
0,0,0,0,0,0,0,0,0,0,0,0,0,0,0,0,0,0,0,0,0,0,0,0,0,0,0,0,0,0,0,0,0,0,0,0,0,0,0,2771,0,0,0,0,0,0,0,0,0,0,0,0,0,0,0,0,0,0,0,0,0,0,0,0,0,0,0,0,0,0,0,0,0,0,0,0,0,0,0,0,0,0,0,0,0,0,0,0,0,0,0,0,0,0,
0,0,0,0,0,0,0,0,0,0,0,0,0,0,0,0,0,0,0,0,0,0,0,0,0,0,0,0,0,0,0,0,0,0,0,0,0,0,0,0,0,0,0,0,0,0,0,0,0,0,0,0,0,0,0,0,0,0,0,0,0,0,0,0,0,0,0,0,0,0,0,0,0,0,0,0,0,0,0,0,0,0,0,0,0,0,0,0,0,0,4765,0,0,0,
0,0,0,0,0,0,0,0,0,0,0,0,0,0,0,0,0,0,0,0,0,0,0,0,0,0,0,0,0,0,0,0,0,0,0,0,0,0,0,0,0,0,0,0,0,0,0,0,0,0,0,0,0,0,0,0,0,0,0,0,0,0,0,0,0,0,0,0,0,0,0,0,0,0,0,0,0,0,0,0,0,0,0,0,0,0,0,0,0,0,0,0,0,0,
0,0,0,0,0,0,0,0,0,0,0,0,0,0,0,0,0,0,0,0,0,0,0,0,0,0,0,0,0,0,0,0,0,0,0,0,0,0,0,0,0,0,0,0,0,0,0,0,0,0,0,0,0,0,0,0,0,0,0,0,0,0,0,0,0,0,0,0,0,0,0,0,0,0,0,0,0,0,0,0,0,0,0,0,0,0,0,0,0,0,0,0,0,0,
0,0,0,0,0,0,0,0,0,0,0,0,0,0,0,0,0,0,0,0,0,0,0,0,0,0,0,0,0,0,0,0,0,0,0,0,0,0,0,0,0,0,0,0,0,0,0,0,0,0,0,0,0,0,0,0,0,0,0,0,0,0,0,0,0,0,0,0,0,0,0,0,0,0,0,0,0,0,0,0,0,0,0,0,0,0,0,0,0,0,0,0,0,0
</data>
 </layer>
</map>
