<?xml version="1.0" encoding="UTF-8"?>
<map version="1.0" orientation="orthogonal" renderorder="right-down" width="44" height="36" tilewidth="32" tileheight="32" nextobjectid="1">
 <tileset firstgid="1" name="Pro all tiles" tilewidth="32" tileheight="32" tilecount="1024" columns="32">
  <image source="Tiles/Pro all tiles.png" width="1024" height="1024"/>
  <terraintypes>
   <terrain name="Rock" tile="-1"/>
  </terraintypes>
  <tile id="16" terrain=",,,0"/>
  <tile id="17" terrain=",,0,0"/>
  <tile id="18" terrain=",,0,"/>
  <tile id="22" terrain="0,0,0,"/>
  <tile id="23" terrain="0,0,,0"/>
  <tile id="48" terrain=",0,,0"/>
  <tile id="49" terrain="0,0,0,0"/>
  <tile id="50" terrain="0,,0,"/>
  <tile id="54" terrain="0,,0,0"/>
  <tile id="55" terrain=",0,0,0"/>
  <tile id="80" terrain=",0,,"/>
  <tile id="81" terrain="0,0,,"/>
  <tile id="82" terrain="0,,,"/>
 </tileset>
 <tileset firstgid="1025" name="Lava" tilewidth="32" tileheight="32" tilecount="256" columns="8">
  <image source="Tiles/Lava.png" width="256" height="1024"/>
 </tileset>
 <tileset firstgid="1281" name="Pro all tiles ash" tilewidth="32" tileheight="32" tilecount="1024" columns="32">
  <image source="Tiles/Pro all tiles ash.png" width="1024" height="1024"/>
 </tileset>
 <tileset firstgid="2305" name="hgss2" tilewidth="32" tileheight="32" tilecount="210" columns="15">
  <image source="Tiles/hgss2.png" width="480" height="448"/>
 </tileset>
 <tileset firstgid="2515" name="new tilesert2" tilewidth="32" tileheight="32" tilecount="3744" columns="8">
  <image source="Tiles/new tilesert2.png" width="256" height="14976"/>
 </tileset>
 <layer name="Calque 1" width="44" height="36">
  <data encoding="csv">
552,552,552,609,642,642,642,50,50,50,50,146,146,146,50,50,50,50,50,50,50,50,50,50,50,50,50,50,50,50,50,50,50,50,50,50,50,50,50,50,50,50,50,50,
552,552,552,641,642,642,642,50,50,50,50,50,50,50,50,50,50,50,50,50,50,50,50,50,50,50,50,50,50,50,50,50,9,50,50,50,50,50,50,50,50,50,50,50,
552,552,552,641,642,642,50,50,50,50,50,50,50,50,50,50,50,50,50,50,50,50,50,50,50,50,50,50,50,50,50,50,50,50,250,250,250,250,250,50,50,50,50,50,
552,552,609,517,642,50,50,50,50,50,50,50,50,50,50,50,50,50,50,50,50,50,50,50,50,50,50,50,50,50,50,50,250,250,250,250,250,250,250,250,50,50,50,50,
552,552,641,642,642,50,50,50,50,50,50,50,50,50,50,50,50,50,50,50,50,50,50,50,50,50,50,50,50,50,50,250,250,250,250,250,250,250,250,250,250,50,50,50,
552,609,517,642,642,50,50,50,50,50,50,50,50,50,50,50,50,50,738,738,50,50,50,50,50,50,50,50,50,50,50,250,250,250,250,250,250,250,250,250,250,250,50,50,
552,641,642,642,50,50,50,50,50,50,50,50,50,50,50,50,50,738,738,738,50,50,50,50,50,50,50,50,50,50,50,250,250,250,250,250,250,250,250,250,250,250,250,50,
552,641,642,642,50,50,50,50,50,50,50,50,50,50,50,50,738,738,738,738,738,50,50,50,50,50,50,50,50,50,50,250,250,250,250,250,250,250,250,250,250,250,250,50,
552,641,642,642,50,50,50,50,50,50,50,50,50,50,50,50,738,738,738,738,738,50,50,50,50,50,50,50,50,50,50,250,250,250,250,250,250,250,250,250,250,250,250,50,
552,641,642,642,642,50,50,50,50,50,50,50,50,50,50,50,50,738,738,738,50,50,50,50,50,50,50,50,50,50,50,50,250,250,250,250,250,250,250,250,250,250,250,50,
552,673,485,642,642,50,50,50,50,50,50,50,50,50,50,50,50,738,738,50,50,50,50,50,50,50,50,50,50,50,50,50,50,250,250,250,250,250,250,250,250,250,250,50,
552,552,641,642,642,50,50,50,50,50,50,50,50,50,50,50,50,50,50,50,50,50,50,50,50,50,50,50,50,50,50,50,50,250,250,250,250,250,250,250,250,250,50,50,
552,552,673,485,642,50,50,50,50,250,50,50,50,50,50,50,50,50,50,50,50,50,50,50,50,50,50,50,50,50,50,50,50,50,50,50,50,50,50,50,50,50,50,50,
552,552,552,641,642,50,50,50,50,250,50,50,50,50,50,50,50,50,50,50,50,50,50,50,50,50,50,50,50,50,50,50,50,50,50,50,50,50,50,50,50,50,50,50,
552,552,609,517,642,50,50,250,250,250,50,50,50,50,50,50,50,50,50,50,50,50,50,50,50,50,50,50,50,50,50,50,50,50,50,50,50,50,50,50,50,50,50,50,
552,552,641,642,642,50,50,50,250,250,250,50,50,50,50,50,50,50,50,50,50,50,50,50,50,50,50,50,50,50,50,50,50,50,50,50,50,50,50,50,50,50,50,50,
610,610,517,642,642,642,50,50,50,250,250,50,50,50,50,50,50,50,50,50,50,50,50,50,50,50,50,50,50,50,50,50,50,50,50,50,50,50,50,50,50,50,50,50,
642,642,642,642,642,642,642,50,50,50,250,50,50,50,50,50,50,50,50,50,50,50,50,50,50,50,50,50,50,50,50,50,50,50,50,50,50,50,50,50,50,50,50,50,
674,485,642,642,642,642,642,642,50,50,50,50,50,50,50,50,50,50,50,50,50,50,50,50,50,50,50,50,50,50,50,50,50,50,50,50,50,50,50,50,50,50,50,50,
552,673,485,642,642,642,642,642,642,50,50,50,50,50,50,50,50,50,50,50,50,50,250,50,50,50,50,50,50,50,50,50,50,50,50,50,50,50,50,50,50,50,50,50,
552,552,673,485,642,642,642,642,642,50,50,50,50,50,50,50,50,50,50,50,50,50,250,250,250,50,50,50,50,50,50,50,50,50,50,50,50,50,50,50,50,50,50,50,
552,552,552,673,485,642,642,642,642,642,50,50,50,738,738,738,50,50,50,50,50,50,50,250,50,50,50,50,50,50,50,50,50,50,50,50,50,50,50,50,50,50,50,50,
552,552,552,552,673,485,642,642,642,642,50,50,50,738,738,738,738,50,50,50,50,50,50,50,50,50,50,50,50,50,50,50,50,50,50,50,50,50,50,50,50,50,50,50,
552,552,552,552,552,641,642,642,642,642,50,50,738,738,738,738,738,50,50,50,50,50,50,50,50,50,50,50,50,50,50,50,50,50,50,50,50,50,50,50,50,50,50,50,
552,552,552,552,552,641,642,642,642,50,50,50,738,738,738,738,738,50,50,50,50,50,50,50,50,50,50,50,50,50,50,50,50,50,50,50,50,50,50,50,50,50,50,50,
552,552,552,552,609,517,642,642,642,50,50,50,50,738,738,738,738,738,50,50,50,50,50,50,50,50,50,50,50,50,50,50,50,3229,3229,3229,3229,50,50,50,50,50,50,50,
552,552,552,552,641,642,642,642,642,50,50,50,50,738,738,738,738,738,50,50,50,50,50,50,50,50,50,50,50,50,50,50,50,3246,3246,3246,3246,3247,50,50,50,50,50,50,
552,552,552,552,641,642,642,642,642,50,50,50,50,50,50,738,738,738,50,50,50,50,50,50,50,50,50,50,50,50,50,50,3244,3246,3246,50,642,642,642,50,50,50,50,50,
552,552,552,552,673,485,642,642,642,642,642,50,50,50,50,50,50,50,50,50,50,50,50,50,50,50,50,50,50,50,3230,3244,50,642,642,642,642,642,642,642,642,642,642,642,
552,552,552,552,552,673,485,642,642,642,642,642,50,50,50,50,50,50,50,50,50,50,50,50,50,50,50,50,50,3244,3238,3238,50,642,642,642,642,642,642,642,642,642,642,642,
552,552,552,552,552,552,673,485,642,642,642,642,642,642,642,642,642,642,642,50,50,50,50,50,50,50,50,50,50,3238,3238,50,642,642,642,642,642,484,674,674,642,642,642,642,
552,552,552,552,552,552,552,673,485,642,642,642,642,642,642,642,642,642,642,642,642,642,642,642,642,642,642,642,642,50,50,642,642,642,642,484,674,675,552,552,673,674,674,674,
552,552,552,552,552,552,552,552,673,674,674,485,642,642,642,642,642,642,642,642,642,642,642,642,642,642,642,642,642,642,642,642,642,642,484,675,552,552,552,552,552,552,552,552,
552,552,552,552,552,552,552,552,552,552,552,673,674,674,485,642,642,642,642,484,674,674,674,674,674,485,642,642,642,642,642,484,674,674,675,552,552,552,552,552,552,552,552,552,
552,552,552,552,552,552,552,552,552,552,552,552,552,552,673,674,674,674,674,675,552,552,552,552,552,673,674,674,674,674,674,675,552,552,552,552,552,552,552,552,552,552,552,552,
552,552,552,552,552,552,552,552,552,552,552,552,552,552,552,552,552,552,552,552,552,552,552,552,552,552,552,552,552,552,552,552,552,552,552,552,552,552,552,552,552,552,552,552
</data>
 </layer>
 <layer name="Calque 2" width="44" height="36">
  <data encoding="csv">
15,15,47,0,0,0,17,56,155,9,145,9,9,9,147,155,0,17,18,56,9,9,9,49,9,0,17,1040,1026,1040,9,0,17,18,18,18,18,18,18,18,19,0,0,0,
15,48,15,0,0,17,56,9,155,0,177,178,178,178,179,155,0,49,9,495,496,0,17,56,9,17,56,56,9,1359,17,18,56,217,218,218,218,218,218,219,55,19,0,0,
47,48,15,0,17,56,186,186,187,0,0,0,0,0,0,155,17,56,9,527,528,976,49,9,9,49,50,9,1359,17,56,217,218,313,1295,1328,1295,1327,1295,314,219,55,19,0,
15,15,0,0,49,153,9,0,0,0,0,0,0,0,0,155,976,9,976,0,0,0,49,976,976,49,1033,9,0,49,217,313,0,0,1295,1327,1295,1328,1295,1295,314,219,55,19,
15,47,0,0,49,153,0,0,0,0,0,0,0,0,0,49,9,976,773,773,616,0,49,9,976,49,1033,0,17,56,249,0,1359,0,214,3091,3092,3092,3092,3093,0,314,219,55,
48,0,0,17,56,153,0,0,0,0,0,0,0,0,17,56,615,774,15,15,740,0,49,9,17,56,1033,1295,49,0,249,1359,214,3091,3092,3094,3111,3111,3111,3101,0,0,314,219,
15,0,0,49,109,185,186,186,186,186,0,0,0,186,186,615,774,15,15,15,772,616,49,9,49,9,1033,1295,49,9,249,0,3091,3094,3111,3111,3111,3111,3111,3095,3093,0,0,251,
15,0,0,49,141,142,0,0,0,0,0,0,0,0,49,742,0,0,15,15,48,740,49,9,81,24,1033,48,49,9,249,0,3099,3110,3110,3103,3108,3108,3108,3102,3101,0,1359,251,
15,0,0,49,173,141,142,107,0,0,0,0,0,2851,49,742,0,0,15,47,15,740,49,15,1295,49,1033,1328,49,9,249,1359,3107,3102,3110,3101,1295,1295,1295,3099,3101,1359,0,251,
47,0,0,81,24,173,174,139,0,0,0,0,0,17,56,647,710,15,48,15,708,648,49,1295,15,49,1033,1328,81,24,281,345,0,3099,3110,3101,1295,1327,1328,3107,3109,0,0,251,
15,0,0,0,49,169,170,171,0,0,0,0,0,49,9,9,742,47,15,708,648,0,49,15,1328,49,1041,1032,0,81,24,281,345,3107,3108,3109,1327,1295,1295,1295,0,1423,1359,251,
48,15,0,0,49,9,0,0,217,218,219,0,0,49,9,0,647,709,709,648,0,0,49,1295,1295,49,47,1033,0,0,81,24,9,9,1295,1328,0,9,9,9,1295,1423,346,283,
15,48,0,0,49,9,0,0,249,998,251,0,0,49,9,9,0,0,0,0,0,0,81,24,15,81,24,1041,1032,0,0,81,24,282,282,18,18,282,282,282,282,282,283,23,
15,48,15,0,49,9,217,218,313,9,251,0,0,81,24,9,0,0,0,0,0,9,461,49,9,0,49,1295,1041,1032,0,0,81,82,82,82,82,82,82,82,82,82,82,83,
48,15,0,0,49,9,249,9,9,9,314,219,0,0,49,9,9,0,0,0,425,492,493,49,9,9,81,24,9,1041,1032,0,0,0,0,0,0,0,0,0,0,47,47,0,
15,47,0,0,49,9,281,345,9,9,9,251,0,0,49,9,9,9,9,0,457,524,525,81,24,9,2851,81,24,2064,1041,24,214,214,214,0,0,0,0,0,1031,1042,1042,1042,
0,0,0,0,81,24,9,281,345,9,9,251,0,0,81,82,82,24,9,9,489,0,0,0,81,24,9,9,81,82,24,81,82,82,82,1042,1042,1042,1042,1042,1043,2032,9,9,
0,0,0,0,0,81,24,9,281,345,9,251,0,0,0,0,2851,81,24,9,9,0,0,0,0,81,24,9,9,9,81,82,82,82,82,24,9,9,9,23,82,82,82,82,
0,0,0,0,0,0,81,24,9,281,282,283,0,0,0,0,0,0,81,24,9,0,0,0,0,0,81,82,82,24,9,9,9,9,9,81,82,82,82,83,9,9,9,9,
15,0,0,0,0,0,0,81,24,9,9,0,0,0,0,0,0,0,0,49,9,9,0,0,0,0,0,0,0,81,82,82,82,24,9,9,9,9,9,9,9,23,82,82,
15,15,0,0,0,0,0,0,49,9,9,9,615,773,773,781,782,0,0,49,9,9,0,0,0,0,0,0,0,0,0,0,0,81,82,82,82,82,82,82,82,83,0,0,
15,47,15,0,0,0,0,0,81,24,9,9,742,0,2466,813,814,616,0,81,24,9,0,0,0,283,0,0,0,0,0,0,9,9,9,9,0,0,0,0,0,0,0,0,
710,15,48,15,0,0,0,0,0,49,9,615,774,15,15,0,0,740,0,0,49,9,281,282,283,0,0,0,0,0,9,9,9,23,24,9,9,9,9,9,0,0,0,9,
742,15,48,15,15,0,0,0,17,56,9,742,15,15,15,15,15,740,0,0,49,9,9,0,0,0,3219,0,0,0,9,23,82,83,81,82,82,82,24,9,9,9,9,9,
193,194,195,48,15,0,0,0,49,9,9,742,15,48,47,15,15,772,616,0,81,24,9,9,0,0,0,0,9,9,9,51,0,0,0,0,0,0,81,82,82,82,82,82,
225,742,227,15,0,0,0,0,49,9,0,647,710,15,15,15,48,15,740,0,0,81,24,9,9,9,0,9,9,9,23,83,0,0,0,0,0,0,0,0,0,0,0,0,
713,714,715,15,0,0,0,0,49,9,0,0,742,0,0,15,47,15,740,0,0,0,81,82,24,9,9,9,23,82,83,0,0,9,9,9,9,9,9,9,9,0,0,0,
682,683,298,2484,0,0,0,0,49,9,9,9,647,709,710,0,15,15,740,0,0,0,0,0,81,82,82,82,83,0,0,0,9,9,9,9,23,82,24,9,9,9,9,9,
714,715,330,331,108,109,110,0,81,82,24,9,9,9,647,709,709,709,648,0,0,0,0,0,0,0,0,0,0,0,0,0,9,23,82,82,83,0,81,82,508,510,82,24,
457,361,362,363,140,141,142,0,0,0,81,24,9,9,9,9,9,9,9,9,9,0,0,0,0,0,0,0,0,0,0,9,9,51,0,0,0,0,0,0,0,0,0,81,
489,490,491,298,172,173,174,107,0,0,0,81,82,82,82,82,82,82,24,9,9,9,9,9,9,9,9,9,9,9,9,9,23,83,0,0,0,0,0,0,0,0,0,0,
521,522,523,330,331,137,138,139,0,0,0,0,0,0,0,0,0,0,81,82,82,82,82,82,82,82,82,82,24,9,9,23,83,0,0,0,0,0,15,15,0,0,0,0,
140,141,361,362,363,169,170,171,77,78,3,0,0,0,0,0,0,0,0,9,9,9,0,0,0,0,0,0,81,82,82,83,0,0,0,0,15,15,15,15,15,15,15,15,
172,173,174,394,395,489,490,491,33,34,35,44,45,46,426,427,0,0,297,137,138,0,297,329,330,0,0,0,0,0,0,0,0,0,0,15,15,15,15,15,15,15,15,79,
45,2466,9,9,9,521,522,523,65,66,67,76,77,78,458,459,0,0,329,169,170,0,329,361,362,0,485,484,0,0,0,0,15,15,15,15,15,15,15,708,182,182,182,182,
77,9,2466,9,2481,193,194,195,97,98,99,490,491,489,490,491,0,0,361,362,363,0,361,362,397,0,641,643,0,0,647,182,79,182,182,182,2484,182,182,648,0,0,0,0
</data>
 </layer>
 <layer name="Calque 3" width="44" height="36">
  <data encoding="csv">
9,9,9,9,9,9,9,9,9,9,9,9,9,9,9,9,9,9,9,9,457,458,459,9,9,9,9,1025,9,9,9,1417,1418,1419,9,9,9,9,9,9,9,9,9,9,
9,9,9,9,9,9,9,9,9,9,9,508,509,510,9,9,300,301,302,9,489,490,491,297,298,299,1025,2470,2471,9,9,1449,1450,1451,9,9,9,9,9,9,9,9,9,9,
9,9,9,9,9,121,9,9,9,9,9,9,9,9,9,9,332,333,334,9,521,522,523,329,330,331,1033,2485,2486,9,9,9,9,9,9,9,9,9,9,9,9,9,9,9,
9,9,9,9,9,9,9,9,9,209,210,211,212,213,214,17,364,365,366,9,9,9,9,361,362,363,9,2500,2501,9,9,9,9,9,9,9,9,9,9,9,9,9,9,9,
9,9,9,9,9,9,9,9,9,241,242,243,244,245,246,9,396,397,398,9,9,9,637,393,394,395,9,9,9,9,9,9,9,9,9,9,9,9,9,9,9,9,9,9,
9,9,9,9,9,9,9,9,9,273,274,275,276,277,278,9,9,9,9,9,9,9,669,9,9,9,9,9,9,9,9,9,214,214,214,9,9,9,9,9,9,9,9,9,
9,9,9,108,9,110,9,9,9,305,306,307,308,309,1033,9,9,9,9,9,9,9,701,9,9,2064,9,9,9,9,9,9,9,9,9,9,9,3157,9,9,9,9,9,9,
9,9,9,140,108,109,110,9,9,337,338,339,340,341,342,9,2481,9,9,9,9,9,733,9,9,9,9,9,9,9,9,9,9,9,9,9,9,9,9,9,9,9,9,9,
9,9,9,172,140,105,106,9,9,369,370,371,372,373,374,9,9,2466,9,9,9,9,9,9,9,9,9,9,9,9,1708,1289,1289,9,9,9,9,9,9,9,9,9,9,9,
9,9,9,9,172,137,138,9,9,401,402,403,404,405,406,9,9,9,9,9,9,9,9,9,9,9,9,9,9,9,1740,1289,1289,9,9,9,9,9,9,9,9,9,9,9,
9,9,9,9,297,298,299,9,9,9,9,9,9,637,9,9,9,9,9,9,9,9,9,9,9,9,9,9,1328,9,1772,1773,1774,1289,1289,9,9,9,9,9,9,9,9,9,
9,9,9,9,329,330,331,9,9,9,9,9,9,701,9,9,9,9,9,9,9,9,9,9,9,9,9,9,1295,1295,1804,1805,1806,1289,1289,9,9,9,9,9,9,9,9,9,
9,9,9,9,361,362,363,9,9,9,9,9,9,733,9,9,9,9,9,9,9,9,429,430,9,9,9,9,9,1295,1328,9,1641,1642,976,476,478,9,9,9,9,9,1409,1410,
9,9,9,9,393,394,395,9,9,9,9,9,9,9,9,9,9,9,9,9,9,9,461,462,315,316,9,9,9,9,1295,1295,1673,1674,1675,508,510,9,9,9,9,9,1441,1442,
9,9,9,9,9,9,9,9,9,9,9,9,9,9,9,9,9,9,9,9,9,426,427,494,347,348,9,9,9,9,9,9,9,9,9,9,9,9,9,2095,2096,9,1473,1474,
9,182,9,9,9,9,9,9,9,9,9,637,9,9,9,9,9,9,9,9,9,458,459,526,9,9,9,9,9,9,9,9,9,9,9,9,9,9,9,2127,2128,9,1505,1506,
9,311,9,9,432,9,9,9,9,9,9,701,9,9,9,9,9,9,329,330,331,490,491,9,9,9,9,9,9,9,9,9,9,9,9,9,508,510,9,9,9,9,9,9,
9,9,9,9,464,9,4535,4536,9,9,9,733,9,9,9,9,9,9,361,362,363,522,523,9,9,9,9,9,9,9,9,9,9,9,9,9,9,9,9,9,315,316,9,9,
9,9,9,9,9,9,4543,4544,9,9,9,9,9,9,9,9,9,9,393,394,395,217,218,219,9,9,9,972,973,9,9,9,9,9,9,9,508,510,9,9,347,348,9,9,
9,9,9,9,9,9,4551,4552,9,9,9,9,9,9,748,749,750,9,784,9,9,249,998,314,218,219,9,1004,1005,9,9,9,9,9,9,9,9,9,9,9,9,9,9,9,
9,9,9,9,9,9,4559,4560,9,9,9,9,9,9,780,428,429,430,9,9,9,249,9,995,996,251,3220,3221,3221,3221,3222,3222,3223,9,9,9,508,510,9,9,9,9,9,9,
9,9,9,9,9,9,9,9,9,9,9,9,9,2484,812,460,461,462,9,9,9,281,345,9,346,3220,3236,3229,3229,3229,3229,3229,3231,9,9,9,9,9,9,657,658,659,660,661,
9,9,9,9,9,9,9,9,9,9,9,9,9,9,9,492,493,494,9,9,9,9,3235,3221,3221,3236,3244,3253,3253,3253,3255,3262,3263,9,9,9,9,9,9,689,690,691,692,693,
9,162,9,9,9,9,9,9,9,9,9,9,9,9,9,524,525,526,9,9,9,9,3243,3229,3229,3244,2915,3253,3253,3253,3248,9,9,9,9,9,9,9,9,721,722,723,724,725,
649,650,651,9,9,9,9,9,637,9,9,9,9,9,9,9,9,9,9,9,9,9,3251,3252,3253,3253,3253,3253,3253,3255,3256,9,3220,3222,3222,3222,3222,3223,9,753,754,755,756,757,
681,682,683,9,9,9,9,9,669,9,9,9,9,9,9,9,9,9,9,9,9,9,9,3260,3261,3252,3253,3255,3262,3263,9,9,3228,9,9,9,9,3239,3240,785,786,787,788,789,
650,651,9,9,9,9,9,9,701,9,9,9,9,2484,9,9,9,9,9,9,9,9,9,9,9,3260,3262,3263,9,9,9,3220,3236,9,9,9,9,9,3248,817,818,819,820,821,
682,297,9,299,9,9,9,9,733,9,9,9,9,9,9,9,9,9,9,9,9,9,9,9,9,508,509,510,9,3220,3222,3236,9,9,9,3255,3261,3261,3263,849,850,851,852,853,
425,329,427,9,9,9,9,9,9,9,9,9,9,9,9,9,9,9,9,9,9,9,9,9,9,9,9,9,3235,3236,9,9,3255,3262,3262,3263,9,9,9,881,882,883,884,885,
9,458,459,9,9,9,9,9,9,9,9,9,9,9,9,9,9,9,9,9,9,9,9,9,9,9,9,9,3243,9,9,9,3248,9,9,9,9,9,9,913,914,915,916,917,
9,9,297,9,299,105,106,12,13,14,9,9,9,9,9,9,495,496,9,9,9,9,9,9,9,9,9,9,3243,9,9,3255,3256,9,9,9,9,9,9,9,9,9,9,9,
108,109,329,9,9,425,426,44,45,46,9,9,9,9,9,9,527,528,9,9,9,9,9,9,9,508,509,510,3251,3261,3262,3256,9,9,9,9,9,9,9,9,9,9,9,9,
9,9,142,426,427,457,458,76,1,2,9,12,13,14,9,9,9,9,9,9,9,9,9,9,9,9,9,9,9,182,182,9,9,9,9,9,9,9,9,9,9,9,9,9,
13,14,457,458,459,129,130,131,9,9,425,426,427,425,9,9,649,650,651,298,299,139,9,298,299,331,9,9,9,9,9,9,9,9,9,9,9,9,9,9,9,9,9,9,
9,46,489,490,491,161,162,163,9,9,457,458,459,457,9,9,681,682,683,330,331,171,9,330,331,363,9,9,329,330,331,9,9,9,9,9,9,9,9,9,2466,2466,937,938,
9,78,521,522,523,9,9,9,9,9,489,490,491,9,9,9,713,714,715,9,9,9,9,9,363,395,9,9,361,362,363,9,9,9,9,9,9,9,489,490,491,9,969,970
</data>
 </layer>
 <layer name="Top layer" width="44" height="36">
  <data encoding="csv">
0,0,0,0,0,0,0,0,0,0,0,0,0,0,0,0,0,0,0,0,0,0,0,0,0,0,0,0,0,0,0,0,0,0,0,0,0,0,0,0,0,0,0,0,
0,0,0,0,0,0,0,0,0,0,0,0,0,0,0,0,0,0,0,0,0,0,0,0,0,0,0,0,0,0,0,0,0,0,0,0,0,0,0,0,0,0,0,0,
0,0,0,0,0,0,0,0,0,0,0,0,0,0,0,0,0,0,0,0,0,0,0,0,0,0,0,0,0,0,0,0,0,0,0,0,0,0,0,0,0,0,0,0,
0,0,0,0,0,0,0,0,0,0,0,0,0,0,0,0,0,0,0,0,0,0,0,0,0,0,0,0,0,0,0,0,0,0,0,0,0,0,0,0,0,0,0,0,
0,0,0,0,0,0,0,0,0,0,0,0,0,0,0,0,0,0,0,0,0,0,0,0,0,0,0,0,0,0,0,0,0,0,0,0,0,0,0,0,0,0,0,0,
0,0,0,0,0,0,0,0,0,0,0,0,0,0,0,0,0,0,0,0,0,0,0,0,0,0,0,0,0,0,0,0,0,0,0,0,0,0,0,0,0,0,0,0,
0,0,0,0,0,0,0,0,0,0,0,0,0,0,0,0,0,0,0,0,0,0,0,0,0,0,0,0,0,0,0,0,0,0,0,0,0,0,0,0,0,0,0,0,
0,0,0,0,0,0,0,0,0,0,0,0,0,0,0,0,0,0,0,0,0,0,0,0,0,0,0,0,0,0,0,0,0,0,0,0,0,0,0,0,0,0,0,0,
0,0,0,0,0,0,0,0,0,0,0,0,0,0,0,0,0,0,0,0,0,0,0,0,0,0,0,0,0,0,0,1709,1710,0,0,0,0,0,0,0,0,0,0,0,
0,0,0,0,0,0,0,0,0,0,0,0,0,0,0,0,0,0,0,0,0,0,0,0,0,0,0,0,0,0,0,1741,1742,0,0,0,0,0,0,0,0,0,0,0,
0,0,0,0,0,0,0,0,0,0,0,0,0,0,0,0,0,0,0,0,0,0,0,0,0,0,0,0,0,0,0,0,1577,1578,1579,0,0,0,0,0,0,0,0,0,
0,0,0,0,0,0,0,0,0,0,0,0,0,0,0,0,0,0,0,0,0,0,0,0,0,0,0,0,0,0,0,0,1609,1610,1611,0,0,0,0,0,0,0,0,0,
0,0,0,0,0,0,0,0,0,0,0,0,0,0,0,0,0,0,0,0,0,428,0,0,0,0,0,0,0,0,0,0,0,0,1643,0,0,0,0,0,0,0,0,0,
0,0,0,0,0,0,0,0,0,0,0,0,0,0,0,0,0,0,0,0,0,460,0,0,0,0,0,0,0,0,0,0,0,0,0,0,0,0,0,0,0,0,0,0,
0,0,0,0,0,0,0,0,0,0,0,0,0,0,0,0,0,0,0,0,0,0,0,0,0,0,0,0,0,0,0,0,0,0,0,0,0,0,0,0,0,0,0,0,
0,279,0,0,0,0,0,0,0,0,0,0,0,0,0,0,0,0,297,298,299,0,0,0,0,0,0,0,0,0,0,0,3605,3606,3607,0,0,0,0,0,0,0,0,0,
0,0,0,0,0,0,0,0,0,0,0,0,0,0,0,0,0,0,0,0,0,0,0,0,0,0,0,0,0,0,0,0,3613,3614,3615,0,0,0,0,0,0,0,0,0,
0,0,0,0,0,0,0,0,0,0,0,0,0,0,0,0,0,0,0,0,0,0,0,0,0,0,0,940,941,0,0,0,3621,3622,3623,0,0,0,0,0,0,0,0,0,
0,0,0,0,0,0,0,0,0,0,0,0,0,0,0,0,0,0,0,0,0,0,0,0,0,0,0,0,0,0,0,0,0,0,0,0,0,0,0,0,0,0,0,0,
0,0,0,0,0,0,0,0,0,0,0,0,0,0,0,0,0,0,0,0,0,0,0,0,0,0,0,0,0,0,0,0,0,0,0,0,0,0,0,0,0,0,0,0,
0,0,0,0,0,0,0,0,0,0,0,0,0,0,0,0,0,0,0,0,0,0,0,0,0,0,0,0,0,0,0,0,0,0,0,0,0,0,0,0,0,0,0,0,
0,0,0,0,0,0,0,0,0,0,0,0,0,0,0,0,0,0,0,0,0,0,0,0,0,0,0,0,0,0,0,0,0,0,0,0,0,0,0,0,0,0,0,0,
129,130,131,0,0,0,0,0,0,0,0,0,0,0,0,0,0,0,0,0,0,0,0,0,0,0,0,0,0,0,0,0,0,0,0,0,0,0,0,0,0,0,0,0,
161,0,163,0,0,0,0,0,0,0,0,0,0,0,0,0,0,0,0,0,0,0,0,0,0,0,0,0,0,0,0,0,0,0,0,0,0,0,0,0,0,0,0,0,
9,0,9,0,0,0,0,0,0,0,0,0,0,0,0,0,0,0,0,0,0,0,0,0,0,0,0,0,0,0,0,0,0,0,0,0,0,0,0,0,0,0,0,0,
9,9,9,0,0,0,0,0,0,0,0,0,0,0,0,0,0,0,0,0,0,0,0,0,0,0,0,0,0,0,0,0,0,0,0,0,0,0,0,0,0,0,0,0,
0,0,0,0,0,0,0,0,0,0,0,0,0,0,0,0,0,0,0,0,0,0,0,0,0,0,0,0,0,0,0,0,0,0,0,0,0,0,0,0,0,0,0,0,
0,0,0,0,0,0,0,0,0,0,0,0,0,0,0,0,0,0,0,0,0,0,0,0,0,0,0,0,0,0,0,0,0,0,0,0,0,0,0,0,0,0,0,0,
0,426,0,0,0,0,0,0,0,0,0,0,0,0,0,0,0,0,0,0,0,0,0,0,0,0,0,0,0,0,0,0,0,0,0,0,0,0,0,0,0,0,0,0,
0,0,0,0,0,0,0,0,0,0,0,0,0,0,0,0,0,0,0,0,0,0,0,0,0,0,0,0,0,0,0,0,0,0,0,0,0,0,0,0,0,0,0,0,
0,0,0,0,0,0,0,0,0,0,0,0,0,0,0,0,0,0,0,0,0,0,0,0,0,0,0,0,0,0,0,0,0,0,0,0,0,0,0,0,0,0,0,0,
0,0,110,0,0,0,0,427,0,0,0,0,0,0,0,0,0,0,0,0,0,0,0,0,0,0,0,0,0,0,0,0,0,0,0,0,0,0,0,0,0,0,0,0,
0,0,425,0,0,0,0,459,0,0,0,0,0,0,0,0,0,0,0,105,106,107,0,297,298,299,0,0,0,0,0,0,0,0,0,0,0,0,0,0,0,0,0,0,
0,0,0,0,0,0,0,0,0,0,0,0,0,0,0,0,0,0,0,0,0,0,0,0,0,0,0,0,297,298,299,0,0,0,0,0,0,0,425,426,427,0,0,0,
0,0,0,0,0,0,0,0,0,0,0,0,0,0,0,0,0,0,0,0,0,0,0,0,0,0,0,0,0,0,0,0,0,0,0,0,0,0,457,458,459,0,0,0,
0,0,0,0,0,0,0,0,0,0,0,0,0,0,0,0,0,0,0,0,0,0,0,0,0,0,0,0,0,0,0,0,0,0,0,0,0,0,0,0,0,0,0,0
</data>
 </layer>
</map>
